/* XPM */
static char *f409ddf63bbd4ca0964a8b65b0b81c75VsdJrYdL7FW4TxOe[] = {
/* columns rows colors chars-per-pixel */
"40 82 197 2 ",
"   c None",
".  c #040302",
"X  c #090704",
"o  c #0D0A06",
"O  c #0C0B0A",
"+  c #120D07",
"@  c #1C0E05",
"#  c #140F08",
"$  c #16110A",
"%  c #1B150C",
"&  c #1D180F",
"*  c #161007",
"=  c #0D0F10",
"-  c #141414",
";  c #1A1612",
":  c #1C1915",
">  c #1B1B1B",
",  c #2C1C0E",
"<  c #25150A",
"1  c #341F0E",
"2  c #381E0F",
"3  c #2F1E11",
"4  c #211F1C",
"5  c #301F10",
"6  c #38200F",
"7  c #22201E",
"8  c #2B221E",
"9  c #342314",
"0  c #3B2314",
"q  c #3A2D1B",
"w  c #352519",
"e  c #1F1F20",
"r  c #1F2020",
"t  c #242424",
"y  c #282726",
"u  c #272728",
"i  c #2C2C2C",
"p  c #292928",
"a  c #352821",
"s  c #322F2E",
"d  c #32312F",
"f  c #2E2F30",
"g  c #2F3030",
"h  c #333434",
"j  c #3B3C3C",
"k  c #3F3A36",
"l  c #441F0A",
"z  c #4B250E",
"x  c #45270F",
"c  c #58290E",
"v  c #442614",
"b  c #4C2B15",
"n  c #442C19",
"m  c #482915",
"M  c #5A2D12",
"N  c #552A11",
"B  c #4A341C",
"V  c #4E3015",
"C  c #563116",
"Z  c #593315",
"A  c #5A371B",
"S  c #642D0F",
"D  c #6A2F0F",
"F  c #633314",
"G  c #6D3311",
"H  c #6E3915",
"J  c #743B15",
"K  c #7A3E16",
"L  c #763A16",
"P  c #473627",
"I  c #543B26",
"U  c #463A32",
"Y  c #5F431D",
"T  c #6C411B",
"R  c #7B4117",
"E  c #75441B",
"W  c #7B451A",
"Q  c #7E491B",
"!  c #554120",
"~  c #4A413A",
"^  c #524338",
"/  c #65492C",
"(  c #66472B",
")  c #7A4E20",
"_  c #7D5324",
"`  c #72522F",
"'  c #734F30",
"]  c #785835",
"[  c #6B5225",
"{  c #7C6134",
"}  c #3D3F41",
"|  c #434343",
" . c #474748",
".. c #4C4C4D",
"X. c #594C44",
"o. c #4F4F50",
"O. c #824B1D",
"+. c #984E1E",
"@. c #89501F",
"#. c #855422",
"$. c #8A5522",
"%. c #8C5924",
"&. c #835D28",
"*. c #935C25",
"=. c #975926",
"-. c #A55A27",
";. c #8A642C",
":. c #966227",
">. c #936429",
",. c #99662A",
"<. c #966A2C",
"1. c #9C6C2C",
"2. c #9F702F",
"3. c #8E7132",
"4. c #9E7331",
"5. c #A1732F",
"6. c #BB702E",
"7. c #A27431",
"8. c #A67A33",
"9. c #A97C35",
"0. c #A97534",
"q. c #B67A37",
"w. c #B5692C",
"e. c #C27B39",
"r. c #D17733",
"t. c #AD8338",
"y. c #AB8136",
"u. c #B3843A",
"i. c #BC853B",
"p. c #B28C3C",
"a. c #B88D3E",
"s. c #B6913F",
"d. c #CE833A",
"f. c #D8853A",
"g. c #C7903F",
"h. c #E8883C",
"j. c #F08A3F",
"k. c #B79341",
"l. c #BF9342",
"z. c #BE9A45",
"x. c #CC8C40",
"c. c #D98B41",
"v. c #C29543",
"b. c #C49B47",
"n. c #CD9E4A",
"m. c #CF9648",
"M. c #DB9242",
"N. c #D5964A",
"B. c #D39C4B",
"V. c #DB9D4E",
"C. c #D79348",
"Z. c #E38D43",
"A. c #F08B40",
"S. c #EE9549",
"D. c #E39D4C",
"F. c #E99246",
"G. c #F19C49",
"H. c #EC9D50",
"J. c #E69E51",
"K. c #F29E51",
"L. c #D4A14D",
"P. c #DDA14E",
"I. c #DFAB52",
"U. c #DCBC5A",
"Y. c #D6B155",
"T. c #EEA64F",
"R. c #E4A253",
"E. c #EDA355",
"W. c #EDA953",
"Q. c #EFAC59",
"!. c #E4AE59",
"~. c #F2A256",
"^. c #F1AC5A",
"/. c #F6A558",
"(. c #E6B45B",
"). c #EDB55D",
"_. c #E0BB59",
"`. c #EDBE61",
"'. c #F1B960",
"]. c #EDC25E",
"[. c #DFC762",
"{. c #DFCE65",
"}. c #E3C261",
"|. c #ECC363",
" X c #ECCA65",
".X c #EBCE68",
"XX c #E0CD65",
"oX c #EAD46A",
"OX c #E9DB6D",
"+X c #E9DB6D",
"@X c #E1D168",
"#X c #F0C968",
"$X c #EEE474",
"%X c #F2E677",
"&X c #F4EB7A",
"*X c #F8F27F",
"=X c #FEFD87",
/* pixels */
"                                                                                ",
"                                                                                ",
"                                                                                ",
"                                                                                ",
"                                                                                ",
"                                                                                ",
"                                                                                ",
"                                                                                ",
"                                                                                ",
"                                                                                ",
"                                                                                ",
"                                                                                ",
"                                                                                ",
"                                                                                ",
"                                                  , 9 3                         ",
"                                                                                ",
"                                                                                ",
"                                                                                ",
"                                                                                ",
"                                                                                ",
"                                                                                ",
"                                                                                ",
"                                          6 3         G                         ",
"                                          N 9     G G L                         ",
"                                                O.$.O.                          ",
"                                        9 q B O.1.7.Q                           ",
"                                      b T _ ;.2.p.1.Z                           ",
"                        m       < c z E 2.t.p.p.4.$.V                           ",
"                        H C F Y [ =.-.q.m.B.B.s.R R                             ",
"                      Q O.O.R t.L.).'.'.'.'.(.p.J                               ",
"                  D K Q O.$.>.b.E.oXoX.X X X_.8.                                ",
"                  D K O.O.*.v.H.~. X).E.S.h.r.*.        1 1 ,                   ",
"                  D J *.9.i.h.j.A.H.n.M.M.8.G G       , z z ,                   ",
"                    D -.D.}.~.K.H.i.y.C.P.3.1         , 1 1                     ",
"                      =.e.T.|.F.i.k.k.V.N.>.M           w q                     ",
"                      G $.x.Q.h.q.B.R.E.F.6.O.G $.G 2 N F M                     ",
"                    Q $.4.v.K.S.d.(.^.~.K.Z.e.q.9.O.M G F m                     ",
"                    &.i.L.P.~.~.W.`.`.^.~.~./.E.b.5.Q R F v                     ",
"                  ! &.i.V.D.~.).oX`..X X^.E.R.V.9.<.O.O.K D                     ",
"              , 0 ;.%.#.5.q.Q.oX+X+X+X+X`.V.z.p.J G R $.R S                     ",
"              5 ) *.A b H =.R.oX+X+X+X+XU.b.z.8.O.Q W W C 9                     ",
"                *.R m 9 z Q u.Q.oX+X+X+X|.E.R.a.O.E b 9 1 ,                     ",
"                      M S Q l.E.oX+X+X+X|.~.K.f.%.v                             ",
"                        +.d.[..X+X&X$X XI.n.n.g.:.                              ",
"                      <.l.].+X+X+X%X#X`.Y.p.7.<.                                ",
"                    %.q.I.+X+X+X+X+X|..XU.d.w.@.                                ",
"                W $.0.c.W.+X+X+X+X+X$X%X XG.Z.,.                                ",
"              n <.v.D.~.`.+X+X+X+X+X*X=X%X|.J.4.n                               ",
"              E 2.N.F.W.oX+X+X+XoX+X*X&X`.E.C.4.I                               ",
"              ( %.7.p.m.!.XX{.[.R.}.@X(.N.t.*._ B                               ",
"      u i p s F W O.#.O.O.%.$.E K #.%.O.L J M @ % &                             ",
"    t p i p s U U ^ ^ X.X.X.^ P a a 9 , @ @ < * % & :                           ",
"> v A I h h j } j j ^ ' ] ] ( h h n C Z z l l % ; : v w                         ",
"> w B P h ~ ( ` ` ] ;.5.u.9.<.{ ` O.*.1.,.*.Q Z A b S 0                         ",
"> > t u g k I / / #.*.1.7.4.:.%.( / _ %.%._ A x b z m 8                         ",
"- - > > t u u f f n C A Z Z Z z 8 t 0 l z 2 = . % ; t t                         ",
"  - - - - - > u u > t t : & & $ # # o X o + o o % : t                           ",
"  - - - - - - t p u u t > > : & % * O X o * # + * & 7                           ",
"  - - > > - > u i p p i p u u t t > > > > : * . # & t                           ",
"  - > > > - > u i p p h h h h i u t > > > : $ . # & 7                           ",
"  - > > > - > u i i i h h h h s p u > > t : $ . o & 7                           ",
"> > > > > - > u h h i h h h h i u t > > t : $ . X * > >                         ",
"> t > > t t u p h h h j | | j h h u t e > % * o o # ; >                         ",
"> > > > p h h h j j  ...o..... .| h h p 7 : ; % # + % >                         ",
"- > > > u i h j j |  ...o..... .| j j i y 4 ; ; # o - >                         ",
"  > ; - > t t p p h h h h d i p t t 7 > ; $ + + # o -                           ",
"  - - - - ; $ % % > > > > : : % $ $ O o + + o o # % &                           ",
"  - - - - - ; > > t t > > > > > > > > > > ; $ + * & 4                           ",
"  - > > - - > t u p i p t u p p u t > > > : $ X # & 7                           ",
"  - > > - - > u u i i i i i h i p u > > t : * . # & 7                           ",
"  - > > - - > u u i g h g h h i u t > > t > $ . # & >                           ",
"  > > > - - > u u i h h i h h h p u t > > ; * O ; : : ;                         ",
"> t > > > > t p i h j j j j U | j h i u 4 : ; > > : : >                         ",
"; > > > t u p h h h j j |  . . .| j j h y 7 ; - ; & > >                         ",
"& & ; > > > > t u u u p i i i p t t 7 > ; $ o . # & 4 >                         ",
"  * * * * * * & > > > > : : & % % * O o + + X . # & >                           ",
"  # $ - - - - ; > > > > > > > > 4 > > > ; # o . # & >                           ",
"  $ - - - - > > t t t u t t u u u u u t > ; * . # & 4                           ",
"  - > > - - > t u u u p i i h i p p p u r : $ . + + >                           ",
"  - ; ; - - > t u u u p h h h i p i p u t : % X * X ;                           ",
"    % % ; ; > t t u u p p p p p t u u > - $ + o % . *                           ",
"        & & > > > t t t t t t t > > > O . . . . %                               "
};
