/* XPM */
static char *_48df09a27764ba79f9f0e0c636a302aVsxnuHwrJLXaC9IU[] = {
/* columns rows colors chars-per-pixel */
"40 82 193 2 ",
"   c None",
".  c #040302",
"X  c #090704",
"o  c #0D0A06",
"O  c #0C0B0A",
"+  c #120D07",
"@  c #1E0E06",
"#  c #140E08",
"$  c #16110B",
"%  c #1B150C",
"&  c #1D180F",
"*  c #161007",
"=  c #0D0F10",
"-  c #141414",
";  c #1A1612",
":  c #1C1915",
">  c #1B1B1B",
",  c #171815",
"<  c #2B170A",
"1  c #2D1C0E",
"2  c #311C0D",
"3  c #3B1B09",
"4  c #2E1E11",
"5  c #211F1C",
"6  c #201C17",
"7  c #22201E",
"8  c #2C221D",
"9  c #2E2012",
"0  c #362414",
"q  c #3B2314",
"w  c #3E2917",
"e  c #33241A",
"r  c #3B2B1E",
"t  c #1F1F20",
"y  c #1F2122",
"u  c #242424",
"i  c #282726",
"p  c #262729",
"a  c #272829",
"s  c #2C2C2C",
"d  c #2A2927",
"f  c #312F2D",
"g  c #392A23",
"h  c #32312F",
"j  c #2E2F30",
"k  c #2E3031",
"l  c #333333",
"z  c #3B3B3C",
"x  c #3B3A39",
"c  c #43220E",
"v  c #4B240D",
"b  c #51280F",
"n  c #422614",
"m  c #462A16",
"M  c #4D2A14",
"N  c #482B16",
"B  c #542C12",
"V  c #45331C",
"C  c #4C351E",
"Z  c #4D341A",
"A  c #5C3214",
"S  c #5C391B",
"D  c #573217",
"F  c #652D0E",
"G  c #6A2E0E",
"H  c #6C300F",
"J  c #692F10",
"K  c #622D10",
"L  c #643213",
"P  c #6C3311",
"I  c #6C3A16",
"U  c #613E1A",
"Y  c #723612",
"T  c #743B15",
"R  c #793E16",
"E  c #7A3D18",
"W  c #49382D",
"Q  c #543C23",
"!  c #593924",
"~  c #473A32",
"^  c #7A4117",
"/  c #7C441A",
"(  c #7F491C",
")  c #774C1F",
"_  c #5C4329",
"`  c #4D4136",
"'  c #4A413A",
"]  c #644327",
"[  c #63432B",
"{  c #66482D",
"}  c #6B492A",
"|  c #6C4521",
" . c #724D2A",
".. c #7C5323",
"X. c #73522E",
"o. c #7A5838",
"O. c #3C3F41",
"+. c #434343",
"@. c #474748",
"#. c #4C4C4C",
"$. c #574C40",
"%. c #5E5247",
"&. c #4F4F50",
"*. c #64584C",
"=. c #834B1C",
"-. c #844419",
";. c #87511F",
":. c #89521F",
">. c #8F4F21",
",. c #835424",
"<. c #8B5622",
"1. c #8E5A24",
"2. c #925D25",
"3. c #935224",
"4. c #88642B",
"5. c #946127",
"6. c #966629",
"7. c #996629",
"8. c #97692C",
"9. c #9B6B2C",
"0. c #9E712F",
"q. c #9A6F30",
"w. c #9B7133",
"e. c #AB662C",
"r. c #A16D2E",
"t. c #B8682B",
"y. c #A2712F",
"u. c #A27431",
"i. c #A77C34",
"p. c #AB7C35",
"a. c #B97431",
"s. c #C4672A",
"d. c #D17837",
"f. c #AB8137",
"g. c #AB8238",
"h. c #B68C3C",
"j. c #BB8038",
"k. c #B6913F",
"l. c #CB8439",
"z. c #CD8B3E",
"x. c #C58139",
"c. c #D38B3E",
"v. c #DF853C",
"b. c #E8873C",
"n. c #B79340",
"m. c #BC9442",
"M. c #BA9A43",
"N. c #C98942",
"B. c #D58D42",
"V. c #C49645",
"C. c #CC9444",
"Z. c #C39B45",
"A. c #D29343",
"S. c #D39C4A",
"D. c #D99F4D",
"F. c #DA9443",
"G. c #E28D44",
"H. c #EC8E42",
"J. c #F28E42",
"K. c #EB9245",
"L. c #E49549",
"P. c #ED9649",
"I. c #E19E4F",
"U. c #EE9B4D",
"Y. c #F19145",
"T. c #F29649",
"R. c #F39A4E",
"E. c #E59B51",
"W. c #E99E51",
"Q. c #EC9F52",
"!. c #F29E52",
"~. c #F29C51",
"^. c #DCA150",
"/. c #E3A353",
"(. c #EEA255",
"). c #EBA253",
"_. c #E8AD59",
"`. c #F2A356",
"'. c #F2A155",
"]. c #F2A456",
"[. c #F0AB5A",
"{. c #EEB85F",
"}. c #F0B25D",
"|. c #EEBD61",
" X c #F5BF65",
".X c #DFCE65",
"XX c #EDC464",
"oX c #E1CB65",
"OX c #EBCB66",
"+X c #EBD46B",
"@X c #E9DB6D",
"#X c #F1E776",
"$X c #FAF682",
/* pixels */
"                                                                                ",
"                                                                                ",
"                                                                                ",
"                                                                                ",
"                                                                                ",
"                                                                                ",
"                                                                                ",
"                                                                                ",
"                                                                                ",
"                                                                                ",
"                                                                                ",
"                                                                                ",
"                                                                                ",
"                                                                                ",
"                                                                                ",
"                                                                                ",
"                                                                                ",
"                                  1 1 v v     0                                 ",
"                                  b A T A 9   B 0                               ",
"                                  H T I N 4 c F M 0                             ",
"                                  B T A 0 0 B Y Y M q                           ",
"                                  e ..<.L S =.=.R P m                           ",
"                                  C 4.9.=.=.2.1.Y J n                           ",
"                                P <.1.;.T R 2.1./                               ",
"                                  =.R P H I ( / I                               ",
"                                  1.R G B n M L n                               ",
"                                P <.=.T P M                                     ",
"                                P 5.0.9.=.G                                     ",
"                              Y / j.S.m.5.T G                                   ",
"                            T <.5.G.W.V.u.;.Y G                                 ",
"                            <.i.y.v.C.M.i.1.=.L                                 ",
"                V     ^ T -.r.V.Z.).S.h.9.2.,.V                                 ",
"                P ^ <.i.z.b.W.(.(.`.K.A.u./                                     ",
"            P / =.<.i.S.U.J.`.`.`.`.`.S.9.G                                     ",
"            ^ 2.g.k.c.P.`.!.`.`.`.`.`.C.1.G                                     ",
"              ;.i.c.K.!.`.`.`.`.Y.!.`.W.e.F           G G G                     ",
"              T 1.a.G.R.`.`.`.(.F.Q./.N.3.F       1.=.^ Y Y G                   ",
"              B ^ 6.a.c.^.I.T.P.Z.L.C.8./ R Y / =.2.9.2.^ G                     ",
"              Z T :.2.i.V.A.H.H.S.K.z.p.0.6.<.:.9.u.g.r.                        ",
"              G P ^ 6.h.A.Y.`.[.[.].`.D.Z.m.p.u.m.n.n.y.                        ",
"                / / 6.x.H.`.[.+X+X[.`.`.(.U.H.I.m.9.2.=.                        ",
"                  / 7.p.N.[.+X+X+X}.].`.|.XX).V.i.2.T                           ",
"                  P =.a.b.Y.[.[.[.OX+X{.].[.E.i.2.T                             ",
"                  G ^ t.J.!.`.].XX@X@X|.R.d.>./                                 ",
"                    ( t.Y.[.XXXX@X@X@X|.T.s.G                                   ",
"                    9.x.R.}.@X@X@X@X@X|.L.e.G                                   ",
"              0     j.B.~.}.@X@X#X#X+X}.A.8.T                                   ",
"            4 C  .w.l.b.Y.}.@X@X$X$X X!.B.u.2.I w                               ",
"            4 Q ,.u.k.D.].}.@X@X+X+X}.T.l.u.q.,.V 4                             ",
"              C / g.m.S._.oX.XoX/.E.E.A.i.,.] _ w 2                             ",
"      i s a f A ^ 2.6.7.9.8.1.<./ E E T Y P L L K F                             ",
"    u a s a f ~ ~ ` ` $.*.%.` ~ g e 4 < @ @ < 1 2 1 6                           ",
"> Z | _ x l z #.O.x W ! [ } ] ! l p q v < + * $ , : n e                         ",
"> r Q W x ' { o.} ] / =.:.7.7.1.X.} ,.5...U D v M D P q                         ",
"> > y i j x ! { [ ! {  .:.6.7.5.=.} ,.2.) S N 3 c B N 8                         ",
"- , > > u i a j k s j g B A A A v 8 0 v 2 $ = X % ; u u                         ",
"  , - - - - > i i > u u : & & $ # # o X o + o o % : u                           ",
"  - , - - - , u a i i u > > : & % * O X o * # + * & 7                           ",
"  - , > , - > i s a a s a i i u u > > > > : * . # & u                           ",
"  - , > > , > i s a a l l l l s i u > > > : $ . # & 7                           ",
"  - , > > , > i s s s l l l l s a i > > u : $ . o & 7                           ",
"> > > > > , > i l l s l l l l s i u > > u : $ . X * > >                         ",
"> u > > u u i a l l l z +.+.z l l i u t > % * o o # ; >                         ",
"> > > > a l l l x z @.#.&.#.#.@.+.l l a 7 : ; % # + % >                         ",
"- > > > i s l z O.+.@.#.&.#.#.@.+.z x s i 5 : ; # o , >                         ",
"  > ; - > u u d a l l l l j s a u u 7 > ; $ + + # o ,                           ",
"  , , - , ; $ % % > > > > : : % $ $ O o + + o o # % &                           ",
"  - , , - , : > > i u > > > > > > > > > > : $ + * & 5                           ",
"  - , , - , > u i a s a u i a a i u > > > : % X # & 7                           ",
"  - , , - , > i i s s s s s l s a i > > u : * . # & 7                           ",
"  - , , - - > i i s j l s l l s i u > > u : $ . # & >                           ",
"  > > , - - > i i s l l s l l l a i u t > ; * O ; : : :                         ",
"> u u > > > u a s l x x x z z +.x l s p 5 : ; > > : : >                         ",
"> 5 > > u i a l l l x z +.@.@.@.+.z x l i 7 : , : & > >                         ",
"& & ; > > > > u i i i a s s s a u u 7 > ; $ o . # & 5 >                         ",
"  * * * # # * & > > > > > : & % % * O o + + X . # & >                           ",
"  # $ - - - - - > > > > > > > > 5 > > > ; # o . # & >                           ",
"  $ , , - , > > u u u i u u i i i i i u > ; * . # & 5                           ",
"  - > > , , > u i i i a s s l s a a a i y : $ . + + >                           ",
"  - ; : , - > u i i i a l l l s a s a i u : % X * X ;                           ",
"    % % ; ; > u u i i a a a a a u i i > , $ + o % . *                           ",
"        & & > > > u u u u u u u > > > O . . . . %                               "
};
