/* XPM */
static char *e6555100467e46279306c143e3462d3d0UBFduBAREMaYy1X[] = {
/* columns rows colors chars-per-pixel */
"40 82 200 2 ",
"   c None",
".  c #040302",
"X  c #090704",
"o  c #0D0A06",
"O  c #0C0B0A",
"+  c #130D07",
"@  c #140F08",
"#  c #1D0E05",
"$  c #16110A",
"%  c #1B150C",
"&  c #1D180F",
"*  c #161007",
"=  c #0D0F10",
"-  c #141414",
";  c #1A1612",
":  c #1C1915",
">  c #1B1B1B",
",  c #2B1B0D",
"<  c #241509",
"1  c #351E0F",
"2  c #211F1C",
"3  c #2B1D11",
"4  c #22201E",
"5  c #2B221E",
"6  c #322315",
"7  c #3B2514",
"8  c #35231A",
"9  c #392A19",
"0  c #3F301A",
"q  c #1F1F20",
"w  c #1F2020",
"e  c #242424",
"r  c #282725",
"t  c #272728",
"y  c #2C2C2B",
"u  c #292928",
"i  c #352921",
"p  c #322E2C",
"a  c #32312F",
"s  c #2E2F30",
"d  c #2F3030",
"f  c #333434",
"g  c #3B3C3C",
"h  c #3F3A36",
"j  c #441F0A",
"k  c #44250F",
"l  c #4A240D",
"z  c #56290E",
"x  c #4C2C15",
"c  c #442917",
"v  c #582F13",
"b  c #532A11",
"n  c #41311B",
"m  c #4A311B",
"M  c #4E381D",
"N  c #4E3015",
"B  c #563116",
"V  c #593315",
"C  c #53351A",
"Z  c #5D361A",
"A  c #5F3F1E",
"S  c #54391E",
"D  c #652C0E",
"F  c #692F0F",
"G  c #6C310F",
"H  c #6A2F10",
"J  c #642E10",
"K  c #653313",
"L  c #6F3512",
"P  c #613916",
"I  c #663D1B",
"U  c #693919",
"Y  c #713612",
"T  c #743B15",
"R  c #783F16",
"E  c #7C3F19",
"W  c #753F18",
"Q  c #43342B",
"!  c #543B26",
"~  c #463A32",
"^  c #5A421E",
"/  c #65411D",
"(  c #7B4117",
")  c #74421A",
"_  c #7B4419",
"`  c #74491E",
"'  c #7B481C",
"]  c #4A413A",
"[  c #50443B",
"{  c #554132",
"}  c #65492C",
"|  c #68482A",
" . c #7E5225",
".. c #72522F",
"X. c #734F30",
"o. c #785835",
"O. c #7C6134",
"+. c #3D3F41",
"@. c #434343",
"#. c #474748",
"$. c #4C4C4D",
"%. c #5B4F47",
"&. c #554841",
"*. c #4F4F50",
"=. c #844B1D",
"-. c #854A1E",
";. c #88501F",
":. c #894E21",
">. c #855322",
",. c #8B5422",
"<. c #8D5A24",
"1. c #8E5C28",
"2. c #925D25",
"3. c #935724",
"4. c #8D652F",
"5. c #946127",
"6. c #94642A",
"7. c #996329",
"8. c #9C6B2C",
"9. c #96682B",
"0. c #9F722F",
"q. c #B26A2C",
"w. c #A4752F",
"e. c #AD6F32",
"r. c #A37531",
"t. c #A47933",
"y. c #AC7D35",
"u. c #BC7638",
"i. c #C67A34",
"p. c #D77A34",
"a. c #AA8137",
"s. c #AE8539",
"d. c #B28439",
"f. c #B48D3E",
"g. c #BA8D3D",
"h. c #BF823D",
"j. c #B5923F",
"k. c #CC863A",
"l. c #C2873F",
"z. c #D58339",
"x. c #DD8C3D",
"c. c #D48D3D",
"v. c #C6913F",
"b. c #E28D3E",
"n. c #E9863B",
"m. c #B79440",
"M. c #BB9542",
"N. c #BC9943",
"B. c #CC8D44",
"V. c #D18B41",
"C. c #C49C46",
"Z. c #C99D4A",
"A. c #C69746",
"S. c #D59341",
"D. c #DA9445",
"F. c #D69349",
"G. c #D59C4C",
"H. c #DB9C4E",
"J. c #D69749",
"K. c #E28A40",
"L. c #F48E42",
"P. c #ED9449",
"I. c #E6984B",
"U. c #F29B4E",
"Y. c #E69E52",
"T. c #EB9D51",
"R. c #F59F53",
"E. c #C2A249",
"W. c #DDA14F",
"Q. c #DDA251",
"!. c #D9B557",
"~. c #E2A151",
"^. c #EAA354",
"/. c #EBAE59",
"(. c #F3A256",
"). c #F3A658",
"_. c #F1AB5A",
"`. c #ECB65D",
"'. c #EEB95F",
"]. c #E6BC5E",
"[. c #F1B25D",
"{. c #EDBE61",
"}. c #F1B960",
"|. c #DEC761",
" X c #EEC263",
".X c #ECCA66",
"XX c #E6CE66",
"oX c #F0C465",
"OX c #E5D469",
"+X c #EBD46B",
"@X c #E9DB6D",
"#X c #ECDF71",
"$X c #F2DC72",
"%X c #EDE273",
"&X c #F1E877",
"*X c #F5EE7C",
"=X c #F0E676",
"-X c #F6F17E",
";X c #F8F27F",
":X c #FDFB86",
/* pixels */
"                                                                                ",
"                                                                                ",
"                                                                                ",
"                                                                                ",
"                                                                                ",
"                                                                                ",
"                                                                                ",
"                                                                                ",
"                                                                                ",
"                                                                                ",
"                                                                                ",
"                                                                                ",
"                                                                                ",
"                                                                                ",
"                                                                                ",
"                                                                                ",
"                                                                                ",
"                                                                                ",
"                                                                                ",
"                                                                                ",
"                                                                                ",
"                                                                                ",
"                                            k L Y L L x                         ",
"                            ,             k T 2.2.=._ x                         ",
"                                          =.7.j.f.5.C                           ",
"                                  , P 6.i.p.z.A.x.7.c                           ",
"                          9 , ,   z >.a.J.U.U.~.P.3.B                           ",
"                          V V l D _ r.v.I.).(.P.u.-.                            ",
"                          K P R ;.q.k.b.K.H.T.i.-._                             ",
"                            1 P r.c.b.x.k.V.Y.r.                                ",
"                    L T -.2.  C t.N.N.m.c.L.I.7.                                ",
"                    _ ;.2.=.R 0.m.m.s.a.k.n.p.2.                                ",
"                          R <.5.t.8.d.N.N.y.-.) n         H                     ",
"                          | 5.5.7.r.z.S.j.6.K m n 0                             ",
"                        W 9.f.g.z.I.T.G.N.a.=.K W K F x                         ",
"                    I R <.g.x.b.U. X[.^.~.D.i.5.,.( Y v                         ",
"                  B ' 2.0.g.S.P.(.'._.(.(.R.P.B.2.R L                           ",
"                  Y ;.9.t.g.G.^.'.'._.U.I.H.F.B.,.L                             ",
"                Y _ =.=.9.A.(.'.+X@X XU.S.j.t.5.( G                             ",
"              =.) ) L F ' d.^.+X@X#X%XoXQ.M.8.T J F                             ",
"              >.C 7 v v A 8.E.OX@X;X:X&X{.J.t.>.7                               ",
"              7 ` M b H ) 8.E.XX[.+X#X@X{.H.f.<.7                               ",
"                7 7 9 / 2.8.C./..X@X@X XQ.C.j.<.K                               ",
"                    6 A e.H.|..X@X*X%X+X`.G.N.s.>.c                             ",
"                    b ` h.[.@X@X@X=X*X-X$X`.G.s.>.I                             ",
"                    P 6.Z. X@X@X@X&X:X:X-X.XY.s.,.=.                            ",
"              k N ^ 6.l.!.@X@X@X@X*X;X;X&X.X^.N.8.                              ",
"              Y 2.f.W.).{.@X@X@X@X@X@X@X+X X^.m.t.                              ",
"              ' 8.m.Q.}.+X+X+X+X+X+XOXOX].Y.F.r.1.                              ",
"          3 6 | 1.s.J.Y.Y.Y.Y.Y.Y.Y.Z.N.f.8.-.) M                               ",
"      u y r p P _ =.,.-.-.,.:.E E :.>._ T L z + $ &                             ",
"    e u y u p ~ ~ ] [ &.%.%.[ Q i i 6 , # # < * % & :                           ",
"> c Z ! f f g +.g g { X.o.o.} f f m B V l j j % : : k 8                         ",
"> 8 m Q f ] } ....o.4.w.d.y.9.O...=.2.8.7.2.' V C x F 7                         ",
"> > e t d h ! } | >.2.8.r.0.7.<.| }  .<.<. .S k x l x 5                         ",
"- - > > e t t s s c B Z V V V l 5 e 7 j l 1 = . % ; e e                         ",
"  - - - - - > t t > e e : & & $ @ @ o X o + o o % : e                           ",
"  - - - - - - e u t t e > > : & % * O X o * @ + * & 4                           ",
"  - - > > - > t y u y y u t t e e > > > > : * . @ & e                           ",
"  - > > > - > t y u y f f f f y t e > > > : $ . @ & 4                           ",
"  - > > > - > t y y y f f f f y u t > > e : $ . o & 4                           ",
"> > > > > - > t f f y f f f f y t e > > e : $ . X * > >                         ",
"> e > > e e t u f f f g @.@.g f f t e q > % * o o @ ; >                         ",
"> > > > u f f f g g #.$.*.$.$.#.@.f f u 4 : ; % @ + % >                         ",
"- > > > t y f g g @.#.$.*.$.$.#.@.g g y r 2 : ; @ o - >                         ",
"  > - - > e e u u f f f f a y u e e 4 > ; $ + + @ o -                           ",
"  - - - - - $ % % > > > > : : % $ $ O o + + o o @ % &                           ",
"  - - - - - : > > e e > > > > > > > > > > : $ + * & 2                           ",
"  - > > - - > e t u y u e t u u t e > > > : $ X @ & 4                           ",
"  - > > - - > t t y y y y y f y u t > > e : * . @ & 4                           ",
"  - > > - - > t t y d f d f f y t e > > e > $ . + & >                           ",
"  > > > - - > t t y f f y f f f u t e > > ; * O - : : :                         ",
"> e > > > > e u y f g g g g ~ @.g f y t 2 : ; > > : : >                         ",
": > > > e t u f f f g g @.#.#.#.@.g g f r 4 : - : & > >                         ",
"& & ; > > > > e t t t u y y y u e e 4 > ; $ o . @ & 2 >                         ",
"  * * * * * * & > > > > : : & % % * O o + + X . @ & >                           ",
"  @ $ - - - - - > > > > > > > > 2 > > > - @ o . @ & >                           ",
"  $ - - - - > > e e e t e e t t t t t e > ; * . @ & 2                           ",
"  - > > - - > e t t t u y y f y u u u t w : $ . + + >                           ",
"  - ; : - - > e t t t u f f f y u y u t e : % X * X -                           ",
"    % % - ; > e e t t u u u u u e t t > - $ + o % . *                           ",
"        & & > > > e e e e e e e > > > O . . . . %                               "
};
