/* XPM */
static char *e9fbcd6cccc44a9cbdd0951ac9a52e78AH29gpYR41gcCKp3[] = {
/* columns rows colors chars-per-pixel */
"40 82 193 2 ",
"   c None",
".  c #040302",
"X  c #090704",
"o  c #0D0A06",
"O  c #0C0B0A",
"+  c #120D07",
"@  c #1E0E06",
"#  c #140E08",
"$  c #161007",
"%  c #16110B",
"&  c #1B150C",
"*  c #1D180F",
"=  c #0D0F10",
"-  c #141414",
";  c #1A1612",
":  c #171815",
">  c #1C1915",
",  c #1B1B1B",
"<  c #2C170A",
"1  c #2C1C0E",
"2  c #271A0D",
"3  c #311D0E",
"4  c #3C1D0C",
"5  c #2E1E11",
"6  c #211F1C",
"7  c #201C17",
"8  c #3C210E",
"9  c #2F2010",
"0  c #22201E",
"q  c #2C221D",
"w  c #342313",
"e  c #3B2414",
"r  c #3C2916",
"t  c #32231B",
"y  c #3C2D1B",
"u  c #362816",
"i  c #3E301B",
"p  c #1F1F20",
"a  c #1F2122",
"s  c #242424",
"d  c #282726",
"f  c #262729",
"g  c #272829",
"h  c #2C2C2C",
"j  c #2A2927",
"k  c #312F2D",
"l  c #392A23",
"z  c #32312F",
"x  c #2E2F30",
"c  c #2E3031",
"v  c #333333",
"b  c #3B3B3C",
"n  c #3B3A39",
"m  c #43230E",
"M  c #4B240D",
"N  c #5B2B0F",
"B  c #572A0F",
"V  c #422614",
"C  c #452A15",
"Z  c #4B2A13",
"A  c #4B2D19",
"S  c #522C12",
"D  c #5B2C10",
"F  c #4F3117",
"G  c #47331B",
"H  c #4C341B",
"J  c #563216",
"K  c #5B3214",
"L  c #543B1C",
"P  c #5B3A1A",
"I  c #593619",
"U  c #632D0F",
"Y  c #692E0E",
"T  c #6C300F",
"R  c #632E10",
"E  c #643212",
"W  c #6D3412",
"Q  c #6F3814",
"!  c #633D1A",
"~  c #743B14",
"^  c #793F16",
"/  c #713411",
"(  c #49382D",
")  c #5D3F28",
"_  c #573823",
"`  c #473A32",
"'  c #7A4117",
"]  c #74431B",
"[  c #7B441A",
"{  c #7D4A1D",
"}  c #774C1F",
"|  c #5C462E",
" . c #4D4235",
".. c #4A413A",
"X. c #654127",
"o. c #63432B",
"O. c #66482D",
"+. c #6B492A",
"@. c #6C4521",
"#. c #734A26",
"$. c #7D5222",
"%. c #78562A",
"&. c #7A5838",
"*. c #3C3F41",
"=. c #434343",
"-. c #474748",
";. c #4C4C4C",
":. c #574C40",
">. c #5E5247",
",. c #4F4F50",
"<. c #63584D",
"1. c #844B1C",
"2. c #80471B",
"3. c #85511F",
"4. c #8A521F",
"5. c #8A4F21",
"6. c #845423",
"7. c #8B5422",
"8. c #8E5A24",
"9. c #915B25",
"0. c #9A5C25",
"q. c #87612A",
"w. c #946127",
"e. c #976629",
"r. c #99652A",
"t. c #9D6C2D",
"y. c #9D712F",
"u. c #A36E2E",
"i. c #A9662F",
"p. c #A27331",
"a. c #A57A34",
"s. c #AC7A36",
"d. c #BB7732",
"f. c #C37E38",
"g. c #AD8439",
"h. c #AC8237",
"j. c #B2843A",
"k. c #BB863C",
"l. c #BD8B3E",
"z. c #B28C3D",
"x. c #BA913F",
"c. c #C98E3E",
"v. c #C68C3F",
"b. c #DB8A3D",
"n. c #D2883D",
"m. c #EA8B3E",
"M. c #E28E3F",
"N. c #B79240",
"B. c #BA9341",
"V. c #BD9944",
"C. c #CB8D44",
"Z. c #C68B42",
"A. c #D38B41",
"S. c #C39B45",
"D. c #CF9B4A",
"F. c #D49243",
"G. c #DB9A49",
"H. c #DA9648",
"J. c #E48F40",
"K. c #ED8C40",
"L. c #EE9443",
"P. c #E29B4F",
"I. c #EF9B4D",
"U. c #E99346",
"Y. c #F29A4D",
"T. c #F19347",
"R. c #E69F52",
"E. c #EB9F52",
"W. c #F19F52",
"Q. c #C7A84E",
"!. c #CAA24B",
"~. c #EEA04E",
"^. c #E4A253",
"/. c #EBA253",
"(. c #EAA957",
"). c #F3A156",
"_. c #F2A658",
"`. c #F0AB5A",
"'. c #EDB55D",
"]. c #EEB95E",
"[. c #F0B15C",
"{. c #EEBE61",
"}. c #F0B960",
"|. c #DFC261",
" X c #EDC363",
".X c #ECCB66",
"XX c #F0CB68",
"oX c #E7D269",
"OX c #EAD56B",
"+X c #E9DA6D",
"@X c #EEE675",
"#X c #F0E877",
"$X c #F6EF7D",
/* pixels */
"                                                                                ",
"                                                                                ",
"                                                                                ",
"                                                                                ",
"                                                                                ",
"                                                                                ",
"                                                                                ",
"                                                                                ",
"                                                                                ",
"                                                                                ",
"                                                                                ",
"                                                                                ",
"                                                          1 1                   ",
"                                                        1                       ",
"                                                                                ",
"                                                      1 w e                     ",
"                                                      w Z R                     ",
"                                                                                ",
"                                                                                ",
"                                                    1                           ",
"                                                  1 1 w                         ",
"                                                1 1 1 u u 1                     ",
"                                        1 w F W e w 9 u u           *           ",
"                                      1 1 m Q 7.] G y w 1                       ",
"                                3 w w 3 3   ~ 8.[ E C w 1                       ",
"                              e B R N E { 9.7.9.[ W U C u                       ",
"                          V U D T ~ ^ 1.r.t.w.9.~ M B e                         ",
"                        V S U S S ] [ 7.t.r.2.[ J u                             ",
"                        Z     Z J { 3.7.p.t.Y U y i                             ",
"                              ~ 1.9.r.r.g.a.T                                   ",
"                              1.8.9.t.a.g.t.W                                   ",
"                            H 7.1.7.9.t.w.2.[ ~ [ H                             ",
"                          ~ 8.w.3.1.1.8.8.1.8.7.[ E                             ",
"                          ' a.x.N.N.t.a.a.7.] H e 3                             ",
"                          { x.M.E./.P.D.t.E r 5                                 ",
"                    S Y ~ 0.b.Y.{.Y.A.l.%.4     1                               ",
"                  P ] 7.y.k.I. XOXL.d.e.I 2     M 3                             ",
"                  4.t.k.F.H._. XOX~.v.8.N 8 1 8 W M 3                           ",
"                  7.a.c.m.K.R.I.].`.G.u.' E A L { ~ S Z                         ",
"                  ] 6.p.c.b.S.m.L.W.T.d.8.8.u.a.e.r.8.^                         ",
"                i i ! 1.r.j.S.(..X'.).C.z.!.^.B.h.B.N.w.                        ",
"                  y K / 9.V.!.oX+XOX'./.'.oX XJ.V.V.p.                          ",
"                  1 K i.P./.(.OX+X+XOX]._.`.`.E.S.V.8.                          ",
"                  1 ! s.G.Y..X+X+X$X@X{.).P.l.k.p.w.I                           ",
"                  M ] d.J.(.+X+X+X#XXX`.^.k.3.                                  ",
"                  2.8.f.Y.[.+X+X+X X`.Y.F.p.                                    ",
"              m 6.t.j.H.).`.+X+X+X`.).Y.n.y.                                    ",
"            3 R w.l.P.`.`.].+X+X+X'._.E.Z.w.E w                                 ",
"            3 E a.b.T.}.OXOXOXOXOX+X'.C.t.w.$.G 5                               ",
"              H { u.F.E././.R.R.R.|.Q.p.r.q.L H                                 ",
"      d h g k K [ 8.r.r.r.r.7.5.' [ ~ W W W R E Y Y                             ",
"    s g h g k ` `  . .:.<.>...` l t 5 < @ @ < 1 3 3 7                           ",
", H @.| n v b ;.*.n ( _ X.+.X._ v f e M < + $ % : > V t                         ",
", y _ ( n ..O.&.+.X.} 1.4.r.r.8.%.+.6.w.$.! J M Z I W e                         ",
", , a d x n ) O.o.) O.#.4.e.r.w.1.+.6.9.} P A 4 m S A q                         ",
"- : , , s d g x c h x l S K K K M q e M 3 % = X & ; s s                         ",
"  : - - - - , d d , s s > * * % # # o X o + o o & > s                           ",
"  - : - - - : s g d d s , , > * & $ O X o $ # + $ * 0                           ",
"  - : , : - , d h g g h g d d s s , , , , > $ . # * s                           ",
"  - : , , : , d h g g v v v v h d s , , , > % . # * 0                           ",
"  - : , , : , d h h h v v v v h g d , , s > % . o * 0                           ",
", , , , , : , d v v h v v v v h d s , , s > % . X $ , ,                         ",
", s , , s s d g v v v b =.=.b v v d s p , & $ o o # ; ,                         ",
", , , , g v v v n b -.;.,.;.;.-.=.v v g 0 > ; & # + & ,                         ",
"- , , , d h v b *.=.-.;.,.;.;.-.=.b n h d 6 > ; # o : ,                         ",
"  , ; - , s s j g v v v v x h g s s 0 , ; % + + # o :                           ",
"  : : - : ; % & & , , , , > > & % % O o + + o o # & *                           ",
"  - : : - : > , , d s , , , , , , , , , , > % + $ * 6                           ",
"  - : : - : , s d g h g s d g g d s , , , > & X # * 0                           ",
"  - : : - : , d d h h h h h v h g d , , s > $ . # * 0                           ",
"  - : : - - , d d h x v h v v h d s , , s > % . # * ,                           ",
"  , , : - - , d d h v v h v v v g d s p , ; $ O ; > > >                         ",
", s s , , , s g h v n n n b b =.n v h f 6 > ; , , > > ,                         ",
", 6 , , s d g v v v n b =.-.-.-.=.b n v d 0 > : > * , ,                         ",
"* * ; , , , , s d d d g h h h g s s 0 , ; % o . # * 6 ,                         ",
"  $ $ $ # # $ * , , , , , > * & & $ O o + + X . # * ,                           ",
"  # % - - - - - , , , , , , , , 6 , , , ; # o . # * ,                           ",
"  % : : - : , , s s s d s s d d d d d s , ; $ . # * 6                           ",
"  - , , : : , s d d d g h h v h g g g d a > % . + + ,                           ",
"  - ; > : - , s d d d g v v v h g h g d s > & X $ X ;                           ",
"    & & ; ; , s s d d g g g g g s d d , : % + o & . $                           ",
"        * * , , , s s s s s s s , , , O . . . . &                               "
};
