/* XPM */
static char *c71657fe6472462cf5116bbedb4fb0ceQGJBeRS1zX7JUyTG[] = {
/* columns rows colors chars-per-pixel */
"40 82 188 2 ",
"   c None",
".  c #040302",
"X  c #090704",
"o  c #0D0A06",
"O  c #0C0B0A",
"+  c #120D07",
"@  c #1D0E06",
"#  c #140E08",
"$  c #16110A",
"%  c #1B150C",
"&  c #1D180F",
"*  c #161007",
"=  c #0D0F10",
"-  c #141414",
";  c #1A1612",
":  c #1C1915",
">  c #1B1B1B",
",  c #2C1C0E",
"<  c #241409",
"1  c #381D0F",
"2  c #2E1E10",
"3  c #211F1C",
"4  c #3F200D",
"5  c #22201E",
"6  c #2B221E",
"7  c #332414",
"8  c #3B2215",
"9  c #35231A",
"0  c #3C2E1A",
"q  c #3B2915",
"w  c #3D301B",
"e  c #1F1F20",
"r  c #1F2020",
"t  c #242424",
"y  c #282726",
"u  c #272728",
"i  c #2C2C2B",
"p  c #292928",
"a  c #352921",
"s  c #352F2A",
"d  c #32312F",
"f  c #2E2F30",
"g  c #2F3030",
"h  c #333434",
"j  c #3B3C3C",
"k  c #3F3A36",
"l  c #441F0A",
"z  c #4A240D",
"x  c #45270F",
"c  c #53280F",
"v  c #52270E",
"b  c #442615",
"n  c #442B15",
"m  c #4C2C15",
"M  c #472A1B",
"N  c #552D13",
"B  c #4F3016",
"V  c #44331B",
"C  c #4C331C",
"Z  c #563115",
"A  c #5A3315",
"S  c #54351A",
"D  c #5D361A",
"F  c #543A1D",
"G  c #5E3B19",
"H  c #682E0E",
"J  c #6D300F",
"K  c #642F10",
"L  c #623314",
"P  c #6D3412",
"I  c #623B1A",
"U  c #6B3F19",
"Y  c #633817",
"T  c #713712",
"R  c #743B15",
"E  c #783E16",
"W  c #7C3F19",
"Q  c #713D18",
"!  c #43342B",
"~  c #493720",
"^  c #543B26",
"/  c #463A32",
"(  c #6B411C",
")  c #64461E",
"_  c #75441B",
"`  c #7D451A",
"'  c #7F481B",
"]  c #7A4117",
"[  c #4A413A",
"{  c #50443B",
"}  c #554132",
"|  c #65462D",
" . c #65492C",
".. c #694B2B",
"X. c #7C5224",
"o. c #73522F",
"O. c #734F30",
"+. c #785835",
"@. c #7C6134",
"#. c #3D3F41",
"$. c #434343",
"%. c #474748",
"&. c #4C4C4D",
"*. c #5B4F47",
"=. c #554841",
"-. c #4F4F50",
";. c #834C1D",
":. c #85491E",
">. c #86511F",
",. c #88511F",
"<. c #894E21",
"1. c #865322",
"2. c #8B5521",
"3. c #8E5A24",
"4. c #895A29",
"5. c #935D25",
"6. c #8E652D",
"7. c #956127",
"8. c #966428",
"9. c #996529",
"0. c #94682C",
"q. c #9C6C2C",
"w. c #9F712E",
"e. c #9B7533",
"r. c #A1722F",
"t. c #A37531",
"y. c #A67A33",
"u. c #A97D35",
"i. c #B67933",
"p. c #D17833",
"a. c #AB8136",
"s. c #AE8639",
"d. c #AF8A3B",
"f. c #B08539",
"g. c #B28B3C",
"h. c #B5913F",
"j. c #C1863A",
"k. c #DC8C3E",
"l. c #D3883C",
"z. c #CB913F",
"x. c #D5913F",
"c. c #E5893D",
"v. c #B38E41",
"b. c #BB9441",
"n. c #BE9A44",
"m. c #B79340",
"M. c #C09744",
"N. c #C99642",
"B. c #CC9C49",
"V. c #C99947",
"C. c #D49D4C",
"Z. c #DB9647",
"A. c #EB8D41",
"S. c #F28F44",
"D. c #ED9548",
"F. c #EC9C4E",
"G. c #E69548",
"H. c #F3974C",
"J. c #F09C4D",
"K. c #E79D52",
"L. c #EC9F52",
"P. c #F29F51",
"I. c #CAA64E",
"U. c #DAA14F",
"Y. c #CBAC51",
"T. c #E5A252",
"R. c #EBA354",
"E. c #F1A155",
"W. c #F2AB5A",
"Q. c #EEB65E",
"!. c #E9BA5F",
"~. c #F1B05C",
"^. c #EEBD61",
"/. c #F0BA61",
"(. c #DDCA63",
"). c #EDC464",
"_. c #ECCA67",
"`. c #E7CF67",
"'. c #EBD26A",
"]. c #E9DC6E",
"[. c #E9DB6D",
"{. c #E2D167",
"}. c #EBDF70",
"|. c #EEE474",
" X c #F0E776",
".X c #F5EE7B",
"XX c #F7F17E",
"oX c #FDFB85",
/* pixels */
"                                                                                ",
"                                                                                ",
"                                                                                ",
"                                                                                ",
"                                                                                ",
"                                                                                ",
"                                                                                ",
"                                                                                ",
"                                                                                ",
"                                                                                ",
"                                                                                ",
"                                                                                ",
"                                                                                ",
"                                                                                ",
"                                                                                ",
"                                                                                ",
"                                                ` ` T B                         ",
"                                              ;.2.5.2.Q m                       ",
"                                            ;.3.q.r.7.E K m                     ",
"                                          ` ;.7.y.u.8.;.T L B                   ",
"                                          ;.,.7.y.s.r.q.>.P N w                 ",
"                                          2.9.q.s.n.s.r.2.Y                     ",
"                                        E 2.t.a.m.h.u.2.T                       ",
"                                      P R >.9.u.u.9.5.]                         ",
"                                  P E ` ;.3.7.y.y.7.;.                          ",
"                                J R ` ` ;.;.;.3.t.7.;.                          ",
"                                J ` I m L ` ] ;.t.2.E                           ",
"                                  R N n U 5.q.7.2.E P                           ",
"                                        5.u.b.8.P H                             ",
"                              ,       q.t.s.a.(                                 ",
"                                m P 8.u.y.t.0.F                                 ",
"                                P ;.q.a.t.7.3.` P                               ",
"                            V V ` w.u.g.g.q.5.5.` P                             ",
"                        B P _ 1.7.g.n.g.a.r.8.w.;.] P                           ",
"                , , v K P ;.5.t.g.k.c.z.d.y.y.y.3.R J                           ",
"                c ( Z 4 v ` t.h.C.F.H.F.V.h.g.9.;.R m                           ",
"                J ;.X.) U 1.u.Z.E.E.Q.~.T.U.B.q.2.` n                           ",
"                  ] 7.r.r.u.g.k.R.Q.'._.W.R.C.s.7.' C                           ",
"                  ` _ 4.a.b.n.B.R.'.].].).K.N.g.3.` S                           ",
"                      G 9.a.M.R.W.'.[.[.).P.c.u.>.` R                           ",
"              2         ;.0.M.R._.[.].}.].).R.M.y.;.]                           ",
"              0 0 7       F f.L.W.'..XoX.X[._.T.b.7.F                           ",
"                  0 7 G 3.6.b.A.E.'.}.XX.X[.'.R.n.8.F                           ",
"                0 I X.e.j.l.n.N.B.{.[.}.|.[.[.).k.9.                            ",
"          2 0 _ I ;.y.z.G.D.x.f.g.(.]. X X'.!.Y.i.5.                            ",
"          q G 1.5.9.d.x.S.P.D.I.Y.{.[.|.|._.T.m.2.3.                            ",
"          n ` 9.y.u.b.Z.J.Q.^.[.].[.[.].'./.R.m.`                               ",
"          b ` w.a.i.Z.W.^.[.[.[.[.[.'.'.!.T.T.g.Q                               ",
"        V F _ 3.g.k.H./.'.'.'.'.'.'.Q.R.C.b.v.e...                              ",
"        7 ~ ~ _ 5.p.A.K.K.K.K.K.K.K.V.b.y.4.o. .~                               ",
"      y i i s L ` ,.2.;.:.2.<.W W <.1.` P P N # $ &                             ",
"    t p i p i / / [ { =.*.*.{ ! a a 7 , @ @ < * % & :                           ",
"> b D ^ h h j #.j j } O.+.+.| h h M Z A z l l % : : b 9                         ",
"> 9 C ! h [ | o.o.+.6.r.f.u.0.@.o.;.5.q.9.5.' A S m H 8                         ",
"> > t u g k ^  ...1.5.q.t.w.8.3... .X.3.3.X.F x m z M 6                         ",
"- - > > t u u f f M Z D A A A z 6 t 8 l z 1 = . % ; t t                         ",
"  - - - - - > u u > t t : & & $ # # o X o + o o % : t                           ",
"  - - - - - - t p u u t > > : & % * O X o * # + * & 5                           ",
"  - - > > - > u i p p i p u u t t > > > > : * . # & t                           ",
"  - > > > - > u i p i h h h h i u t > > > : $ . # & 5                           ",
"  - > > > - > u i i i h h h h i p u > > t : $ . o & 5                           ",
"> > > > > - > u h h i h h h h i u t > > t : $ . X * > >                         ",
"> t > > t t u p h h h j $.$.j h h u t e > % * o o # ; >                         ",
"> > > > p h h h j j %.&.-.&.&.%.$.h h p 5 : ; % # + % >                         ",
"- > > > u i h j j $.%.&.-.&.&.%.$.j j i y 3 : ; # o - >                         ",
"  > - - > t t p p h h h h d i p t t 5 > ; $ + + # o -                           ",
"  - - - - - $ % % > > > > : : % $ $ O o + + o o # % &                           ",
"  - - - - - : > > t t > > > > > > > > > > : $ + * & 3                           ",
"  - > > - - > t u p i p t u p p u t > > > : $ X # & 5                           ",
"  - > > - - > u u i i i i i h i p u > > t : * . # & 5                           ",
"  - > > - - > u u i g h g h h i u t > > t > $ . # & >                           ",
"  > > > - - > u u i h h i h h h p u t > > ; * O - : : :                         ",
"> t > > > > t p i h j j j j / $.j h i u 3 : ; > > : : >                         ",
": > > > t u p h h h j j $.%.%.%.$.j j h y 5 : - : & > >                         ",
"& & ; > > > > t u u u p i i i p t t 5 > ; $ o . # & 3 >                         ",
"  * * * * * * & > > > > : : & % % * O o + + X . # & >                           ",
"  # $ - - - - - > > > > > > > > 3 > > > - # o . # & >                           ",
"  $ - - - - > > t t t u t t u u u u t t > ; * . # & 3                           ",
"  - > > - - > t u u u p i i h i p p p u r : $ . + + >                           ",
"  - ; : - - > t u u u p h h h i p i p u t : % X * X -                           ",
"    % % - ; > t t u u p p p p p u u u > - $ + o % . *                           ",
"        & & > > > t t t t t t t > > > O . . . . %                               "
};
