/* XPM */
static char *_7f69c171f7942c38b7dad401ad661b1OwDWF7PGUSqSDdjK[] = {
/* columns rows colors chars-per-pixel */
"40 82 203 2 ",
"   c None",
".  c #040302",
"X  c #090704",
"o  c #0D0A06",
"O  c #0C0B0A",
"+  c #120D07",
"@  c #140E08",
"#  c #1D0E05",
"$  c #16110B",
"%  c #1B150C",
"&  c #1D180F",
"*  c #161007",
"=  c #0D0F10",
"-  c #141414",
";  c #1A1612",
":  c #1C1915",
">  c #1B1B1B",
",  c #171815",
"<  c #2A1709",
"1  c #2D1C0E",
"2  c #331C0D",
"3  c #3B1D0C",
"4  c #2E1E11",
"5  c #211F1C",
"6  c #201C17",
"7  c #301E11",
"8  c #35200F",
"9  c #22201E",
"0  c #2D2118",
"q  c #332314",
"w  c #3B2414",
"e  c #32231B",
"r  c #3A2D1B",
"t  c #3D2917",
"y  c #1F1F20",
"u  c #1F2122",
"i  c #242424",
"p  c #282726",
"a  c #262729",
"s  c #2C2C2C",
"d  c #292928",
"f  c #312E2D",
"g  c #392A23",
"h  c #32312F",
"j  c #2E2F30",
"k  c #2E3031",
"l  c #333333",
"z  c #3B3B3C",
"x  c #3B3A39",
"c  c #4B240D",
"v  c #46240D",
"b  c #5C290D",
"n  c #4A2D16",
"m  c #422E19",
"M  c #472917",
"N  c #532C12",
"B  c #5A2E13",
"V  c #4D3117",
"C  c #45321A",
"Z  c #4C341C",
"A  c #553215",
"S  c #5D3314",
"D  c #5A3A1A",
"F  c #56361A",
"G  c #612C0F",
"H  c #6A2E0E",
"J  c #6C320F",
"K  c #632F10",
"L  c #6B3311",
"P  c #613D1A",
"I  c #673112",
"U  c #713612",
"Y  c #753A13",
"T  c #7A3F16",
"R  c #49382D",
"E  c #583924",
"W  c #473A32",
"Q  c #69461E",
"!  c #7A4117",
"~  c #73431B",
"^  c #7B441A",
"/  c #774A1E",
"(  c #7F4A1C",
")  c #5C4125",
"_  c #584329",
"`  c #4E4236",
"'  c #4A413A",
"]  c #644227",
"[  c #6D4921",
"{  c #63442B",
"}  c #66482D",
"|  c #6B492A",
" . c #6C4521",
".. c #764C23",
"X. c #665226",
"o. c #745325",
"O. c #795428",
"+. c #7A5838",
"@. c #3C3F41",
"#. c #434343",
"$. c #474748",
"%. c #4C4C4C",
"&. c #574C40",
"*. c #5E5247",
"=. c #4F4F50",
"-. c #63584C",
";. c #844C1D",
":. c #8A521F",
">. c #87511F",
",. c #825626",
"<. c #8A5523",
"1. c #825A26",
"2. c #8D5A25",
"3. c #87592C",
"4. c #935E26",
"5. c #925F28",
"6. c #966127",
"7. c #966329",
"8. c #996529",
"9. c #9D6B2C",
"0. c #97682E",
"q. c #9F722F",
"w. c #856930",
"e. c #906F31",
"r. c #9F7632",
"t. c #A3632C",
"y. c #A26E2E",
"u. c #AD6129",
"i. c #A4702F",
"p. c #AB702F",
"a. c #AE6931",
"s. c #B66B30",
"d. c #A27632",
"f. c #AA7432",
"g. c #A67A33",
"h. c #AD7E36",
"j. c #BB7E35",
"k. c #B87535",
"l. c #CB7A35",
"z. c #E07E36",
"x. c #AD8439",
"c. c #B68137",
"v. c #B68439",
"b. c #BD853D",
"n. c #B0883B",
"m. c #BC8B3D",
"M. c #C48C3D",
"N. c #D9873B",
"B. c #E8853A",
"V. c #B89742",
"C. c #C58D42",
"Z. c #C98A42",
"A. c #C79743",
"S. c #CD9A46",
"D. c #CD9B49",
"F. c #C89845",
"G. c #DC9C4A",
"H. c #D99546",
"J. c #E18C41",
"K. c #EA8D41",
"L. c #EA9445",
"P. c #ED9549",
"I. c #EF994B",
"U. c #E69646",
"Y. c #F19A4B",
"T. c #F29448",
"R. c #E69E51",
"E. c #F19F52",
"W. c #CAAB4F",
"Q. c #CEB254",
"!. c #D7A64D",
"~. c #E6A74F",
"^. c #E4A252",
"/. c #EDA154",
"(. c #EDAF54",
"). c #EDAB58",
"_. c #F2A255",
"`. c #F3A658",
"'. c #F1AC5A",
"]. c #F1A857",
"[. c #EDB45C",
"{. c #EDBE5C",
"}. c #EAB256",
"|. c #EEBB60",
" X c #F2B760",
".X c #E5C15D",
"XX c #DFCE65",
"oX c #EDC363",
"OX c #E0CE66",
"+X c #EBCC66",
"@X c #E6CB66",
"#X c #EBD167",
"$X c #EAD46A",
"%X c #E9DB6D",
"&X c #ECDF70",
"*X c #EDE373",
"=X c #F1E676",
"-X c #F3EB79",
";X c #F9EE7D",
":X c #F5F07D",
">X c #F9F581",
",X c #FDFA85",
"<X c #FFFF89",
/* pixels */
"                                                                                ",
"                                                                                ",
"                                                                                ",
"                                                                                ",
"                                                                                ",
"                                                                                ",
"                                                                                ",
"                                                                                ",
"                                                                                ",
"                                                                                ",
"                                                                                ",
"                                                                                ",
"                                                                                ",
"                                                1                               ",
"                                                                                ",
"                                          4                                     ",
"                                        7 q q                                   ",
"                                        1 q r 4 q q q 4                         ",
"                                          q q 8 N B t 7 1                       ",
"                                            1 2 c N t q 1                       ",
"                                                1 q q 7                         ",
"                                                                                ",
"                                      C V                                       ",
"                                      S L U       w q                           ",
"                                    r m Q ( L     K                             ",
"                                      B D Z n     !                             ",
"                                      3 N A 4 1 L <.                            ",
"                                      n ..1.Q P ! ;.                            ",
"                                    D 1.j.M.n.8.! !                             ",
"                      [ D     ( <.f.k.C.U.L.A.d.U                               ",
"                  3 ~ 6.;.^ 9.c.D.).`.'.].T.B.f.                                ",
"                  L >.8.8.i.A.K._.#X|.oX(.B.l.2.                                ",
"                1 ~ 9.x.M.K./._.`.+X$X|.Y.s.Z C         J L                     ",
"              1 1 B ;.9.C._._.`._.).).I.H.e.4           ! ^                     ",
"                1 2 w <.L._.'.oXP.S.F.m.c.r.                                    ",
"                  q X.x.G._.`.[.S.N.A.V.h.1.r           H                       ",
"                  r w.F.^._._.P.G.P.J.M.9./ D b 4     Y Y H                     ",
"                  q o.Z.'.[._.T._.[.(.!.v.u.a.t.3.D S ! Y H                     ",
"                  8 Q b.}.oX[.[.[.$X%X%X{._.[.^.H.y.! ^ T H                     ",
"                  r O.x.D.'.%X&X%X%X%X&X%X%X@XV.d.d.2.2.^ G                     ",
"                q q [ 9.j.U.$X>X&X%X%X-X-XoXR.h.8.d.d.8.P q                     ",
"                1 N ( 4.9.j.L.$X%X%X%X%XoX'.E.N.f.6.>.                          ",
"                  m S ;.4.9.j.L.#X%X%X}.(.$XoXB.8.;.                            ",
"                      U ;.t.N.B.#X:X*X+X+XXXW.M.<.                              ",
"                      P 4.b.I.[.%X,X=X%X%X.XN.d.                                ",
"                    O.1.p.G.oX%X%X-X*X%X%X{.z.4.                                ",
"              V <.i.g.q.k.Y.+X=X%X*X=X=X*XoXJ.8.                                ",
"              L 2.n.m.v.D.'. X;X=X,X<X,X=XoXR.d._                               ",
"              ) ,.q.l.~.$X%X%X&X>X,X,X-XoX/.H.d.{ q                             ",
"              t ] 2.y.Z.[.OXXXXXOXXXOXXXQ.x.4.2.) w                             ",
"      p s d f B ~ <.5.6.9.0.2.<.^ ^ ^ ^ ~ U L L I G                             ",
"    i d s d f W W ` ` &.-.*.` W g e 4 < # # < 1 1 1 6                           ",
"> Z  ._ x l z %.@.x R E { | ] E l a t c < + * $ , : M e                         ",
"> r E R x ' } +.| ] ^ ;.:.8.8.2.O.| ,.6.O.P A c n F L w                         ",
"> > u p j x E } { E { ..>.7.8.6.;.| ,.4./ D n 3 v N n 0                         ",
"- , > > i p d j k s j g N D S A c 0 w v 2 $ = X % ; i i                         ",
"  , - - - - > p p > i i : & & $ @ @ o X o + o o % : i                           ",
"  - , - - - , i d p p i > > : & % * O X o * @ + * & 9                           ",
"  - , > , - > p s d d s d p p i i > > > > : * . @ & i                           ",
"  - , > > , > p s d d l l l l s p i > > > : $ . @ & 9                           ",
"  - , > > , > p s s s l l l l s d p > > i : $ . o & 9                           ",
"> > > > > , > p l l s l l l l s p i > > i : $ . X * > >                         ",
"> i > > i i p d l l l z #.#.z l l p i y > % * o o @ ; >                         ",
"> > > > d l l l x z $.%.=.%.%.$.#.l l d 9 : ; % @ + % >                         ",
"- > > > p s l z @.#.$.%.=.%.%.$.#.z x s p 5 : ; @ o , >                         ",
"  > ; - > i i d d l l l l h s d i i 9 > ; $ + + @ o ,                           ",
"  , , - , ; $ % % > > > > : : % $ $ O o + + o o @ % &                           ",
"  - , , - , : > > p i > > > > > > > > > > : $ + * & 5                           ",
"  - , , - , > i p d s d i p d d p i > > > : % X @ & 9                           ",
"  - , , - , > p p s s s s s l s d p > > i : * . @ & 9                           ",
"  - , , - - > p p s l l s l l s p i > > i : $ . @ & >                           ",
"  > > , - - > p p s l l s l l l d p i y > ; * O ; : : :                         ",
"> i i > > > i d s l x x x z z #.x l s a 5 : ; > > : : >                         ",
"> 5 > > i p d l l l x z #.$.$.$.#.z x l p 9 : , : & > >                         ",
"& & ; > > > > i p p p d s s s d i i 9 > ; $ o . @ & 5 >                         ",
"  * * * @ @ * & > > > > > : & % % * O o + + X . @ & >                           ",
"  @ $ - - - - - > > > > > > > > 5 > > > ; @ o . @ & >                           ",
"  $ , , - , > > i i i p i i p p p p p i > ; * . @ & 5                           ",
"  - > > , , > i p p p d s s l s d d d p u : $ . + + >                           ",
"  - ; : , - > i p p p d l l l s d s d p i : % X * X ;                           ",
"    % % ; ; > i i p p d d d d d i p p > , $ + o % . *                           ",
"        & & > > > i i i i i i i > > > O . . . . %                               "
};
