/* XPM */
static char *_ead876ff2a9477e9a9dc6b5e4ee206ahYxtPqdbcCtup46o[] = {
/* columns rows colors chars-per-pixel */
"40 82 198 2 ",
"   c None",
".  c #040302",
"X  c #090704",
"o  c #0D0A06",
"O  c #0C0B0A",
"+  c #120D07",
"@  c #1E0E06",
"#  c #140E08",
"$  c #16110B",
"%  c #1B150C",
"&  c #1D180F",
"*  c #161007",
"=  c #0D0F10",
"-  c #141414",
";  c #1A1612",
":  c #1C1915",
">  c #1B1B1B",
",  c #171815",
"<  c #2B170A",
"1  c #2C1C0E",
"2  c #311C0D",
"3  c #3B1B09",
"4  c #2E1E11",
"5  c #211F1C",
"6  c #201C17",
"7  c #301F11",
"8  c #35200F",
"9  c #2F2112",
"0  c #22201E",
"q  c #2C221D",
"w  c #322213",
"e  c #3B2514",
"r  c #32231B",
"t  c #372918",
"y  c #3B2D1A",
"u  c #1F1F20",
"i  c #1F2122",
"p  c #242424",
"a  c #282726",
"s  c #262729",
"d  c #272829",
"f  c #2C2C2C",
"g  c #2A2927",
"h  c #312E2D",
"j  c #392A23",
"k  c #32312F",
"l  c #2E2F30",
"z  c #2E3031",
"x  c #333333",
"c  c #3B3B3C",
"v  c #3B3A39",
"b  c #4B230D",
"n  c #46240D",
"m  c #5A290E",
"M  c #55290F",
"N  c #432612",
"B  c #412A16",
"V  c #4D2B15",
"C  c #4B2E19",
"Z  c #462A16",
"A  c #522D12",
"S  c #5A2E13",
"D  c #42321B",
"F  c #4D341C",
"G  c #4F3015",
"H  c #553115",
"J  c #5A3313",
"K  c #543419",
"L  c #55391C",
"P  c #5A3A1B",
"I  c #632D0F",
"U  c #6A2D0E",
"Y  c #6C310F",
"T  c #612D10",
"R  c #623414",
"E  c #6D3311",
"W  c #673816",
"Q  c #633E1B",
"!  c #703612",
"~  c #743B14",
"^  c #7A3F16",
"/  c #49382D",
"(  c #583924",
")  c #473A32",
"_  c #69431E",
"`  c #7A4017",
"'  c #75431A",
"]  c #7C451A",
"[  c #7D4B1D",
"{  c #774C1F",
"}  c #5C462E",
"|  c #4E4236",
" . c #4A413A",
".. c #654127",
"X. c #63432B",
"o. c #66482D",
"O. c #6B492A",
"+. c #6C4521",
"@. c #774C23",
"#. c #6B5125",
"$. c #775629",
"%. c #7A5838",
"&. c #3C3F41",
"*. c #434343",
"=. c #474748",
"-. c #4C4C4C",
";. c #584C40",
":. c #5E5348",
">. c #4F4F50",
",. c #64594D",
"<. c #844D1D",
"1. c #86511F",
"2. c #8B531F",
"3. c #835423",
"4. c #8B5421",
"5. c #865B26",
"6. c #8E5B24",
"7. c #8C5E28",
"8. c #925521",
"9. c #925D26",
"0. c #985E28",
"q. c #9B5120",
"w. c #84622A",
"e. c #956127",
"r. c #956329",
"t. c #996629",
"y. c #9C6C2D",
"u. c #96652A",
"i. c #9D7431",
"p. c #927032",
"a. c #A3692B",
"s. c #BC6F2E",
"d. c #A0702E",
"f. c #A57330",
"g. c #A67A33",
"h. c #AB7E35",
"j. c #B97933",
"k. c #C47734",
"l. c #C17837",
"z. c #D57934",
"x. c #AA8137",
"c. c #AD8539",
"v. c #B48E3E",
"b. c #B7833B",
"n. c #B7923F",
"m. c #C58C3D",
"M. c #CD8E3E",
"N. c #CC8539",
"B. c #D5863C",
"V. c #DD8F3E",
"C. c #D6803A",
"Z. c #C5913F",
"A. c #E5863C",
"S. c #EA853B",
"D. c #E28D3E",
"F. c #EB8B3E",
"G. c #F2883D",
"H. c #AF9140",
"J. c #BB9642",
"K. c #BD9843",
"L. c #B69240",
"P. c #C48B41",
"I. c #D68B43",
"U. c #C39442",
"Y. c #C49944",
"T. c #CA9A45",
"R. c #CD9E49",
"E. c #D19642",
"W. c #DB9C4D",
"Q. c #D39A4B",
"!. c #EC8C40",
"~. c #F18D42",
"^. c #E49D4F",
"/. c #EC9B4D",
"(. c #E69649",
"). c #F29549",
"_. c #F29A4D",
"`. c #E69C50",
"'. c #F49E52",
"]. c #E6A153",
"[. c #EEA354",
"{. c #E5AA57",
"}. c #EDAA52",
"|. c #F2A356",
" X c #F2A658",
".X c #F1AC5A",
"XX c #F0A956",
"oX c #EDB95F",
"OX c #EEB75E",
"+X c #F0B15C",
"@X c #F0B95F",
"#X c #EEBC61",
"$X c #DFC963",
"%X c #EDC363",
"&X c #EBCB67",
"*X c #EBCF68",
"=X c #EAD26A",
"-X c #E9DB6D",
/* pixels */
"                                                                                ",
"                                                                                ",
"                                                                                ",
"                                                                                ",
"                                                                                ",
"                                                                                ",
"                                                                                ",
"                                                                                ",
"                                                                                ",
"                                                          1 1                   ",
"                                                                                ",
"                                                                                ",
"                                                                                ",
"                                                                                ",
"                                                      1                         ",
"                                                                                ",
"                                                1 1                             ",
"                                              1 w                               ",
"                                            1 w t 4                             ",
"                                          4 w t t w 4                           ",
"                                      4 B K K L G y 9                           ",
"                                    4 e R ] ` ] ] L N e                         ",
"                                    N S ^ ] ~ <.<.] ~ K B                       ",
"                                  U E ~ 4.4.1.f.9.] ' E Z w                     ",
"                                  Y <.6.9.4.4.v.i.L B e e w                     ",
"                                  ` 4.9.9.9.e.h.e.R B w 4                       ",
"                                  ~ 4.y.y.9.e.t.<.K e 9                         ",
"                                  V [ y.y.3._ ] P D w                           ",
"                                  $.p.x.g.5.Q T e y                             ",
"                                4.m.E.E.Z.g.6.E 2                               ",
"                              ~ 4.C.!.F.M.h.9.`     w 7                         ",
"                            E 4.g.n.^.W.h.9.4.E     y w                         ",
"                          N E ^ f.c.W.).k.6.        4                           ",
"                    1 b ' 6.f.z.A.^.[.|.I.w.y                                   ",
"                    m [ g.L.U.F._.%X=X@XW.i.R                                   ",
"                Y 4.y.c.U.V.D./.%X#X}.).k.<.                                    ",
"                ~ 8.c.T.D.G.). X=X.X~.z.q.          ^ ]                         ",
"                ^ 4.g.Z.V.(.|. X#X X~.s.3.        ~ <.<.Q                       ",
"                M ] e.g.v.Y.^._._.|.).B.a.<.! ~ ] 4.y.6._ K                     ",
"              1 1 m ~ <.t.x.Y.F.~. X.X).B.f.8.a.h.x.J.g.4.` U                   ",
"                    y P <.d.Y.[. X*X=XOX|./.S.A.K.J.J.x.u.] U                   ",
"                    y D #.j.!. X=X-X#X X|.|._.F.K.x.y.] ! E                     ",
"                    I 5.H.T.[.*X-X-X=XoX|.|.'.A.h.u.<.                          ",
"                    U 6.U.{.*X-X-X-X-X=XoX].R.m.[ G                             ",
"                    U 1.P.+X-X-X-X-X-X&X.X/.N.6.                                ",
"                    m 1.P.+X-X-X-X-X-X&X+X'.C.E                                 ",
"                t C W 4.b.+X-X-X-X-X-X-X%X|.I.~                                 ",
"              1 D ' 4.e.l.XX*X-X-X-X=X=XoX/.z.<.                                ",
"              1 F 3.e.s.S.~. X=X-X-X@X XW.K.v.7.F                               ",
"              8 @.9.y.c.M.A.`.].$X$X{.Q.c.g.g.u.e                               ",
"      a f d h S ] 6.e.e.t.0.4.4.] ] ` ~ ~ ! ~ E I U                             ",
"    p d f d h ) ) | | ;.,.:.| ) j r 4 < @ @ < 1 2 2 6                           ",
"> F +.} v x c -.&.v / ( X.O...( x s e b < + * $ , : N r                         ",
"> y ( / v  .o.%.O...] <.2.t.t.6.$.O.3.e.@.Q H b V L E e                         ",
"> > i a l v ( o.X.( o.@.2.u.t.e.<.O.3.9.{ P C 3 n A C q                         ",
"- , > > p a d l z f l j A J J J b q e n 2 $ = X % ; p p                         ",
"  , - - - - > a a > p p : & & $ # # o X o + o o % : p                           ",
"  - , - - - , p d a a p > > : & % * O X o * # + * & 0                           ",
"  - , > , - > a f d d f d a a p p > > > > : * . # & p                           ",
"  - , > > , > a f d d x x x x f a p > > > : $ . # & 0                           ",
"  - , > > , > a f f f x x x x f d a > > p : $ . o & 0                           ",
"> > > > > , > a x x f x x x x f a p > > p : $ . X * > >                         ",
"> p > > p p a d x x x c *.*.c x x a p u > % * o o # ; >                         ",
"> > > > d x x x v c =.-.>.-.-.=.*.x x d 0 : ; % # + % >                         ",
"- > > > a f x c &.*.=.-.>.-.-.=.*.c v f a 5 : ; # o , >                         ",
"  > ; - > p p g d x x x x l f d p p 0 > ; $ + + # o ,                           ",
"  , , - , ; $ % % > > > > : : % $ $ O o + + o o # % &                           ",
"  - , , - , : > > a p > > > > > > > > > > : $ + * & 5                           ",
"  - , , - , > p a d f d p a d d a p > > > : % X # & 0                           ",
"  - , , - , > a a f f f f f x f d a > > p : * . # & 0                           ",
"  - , , - - > a a f l x f x x f a p > > p : $ . # & >                           ",
"  > > , - - > a a f x x f x x x d a p u > ; * O ; : : :                         ",
"> p p > > > p d f x v v v c c *.v x f s 5 : ; > > : : >                         ",
"> 5 > > p a d x x x v c *.=.=.=.*.c v x a 0 : , : & > >                         ",
"& & ; > > > > p a a a d f f f d p p 0 > ; $ o . # & 5 >                         ",
"  * * * # # * & > > > > > : & % % * O o + + X . # & >                           ",
"  # $ - - - - - > > > > > > > > 5 > > > ; # o . # & >                           ",
"  $ , , - , > > p p p a p p a a a a a p > ; * . # & 5                           ",
"  - > > , , > p a a a d f f x f d d d a i : $ . + + >                           ",
"  - ; : , - > p a a a d x x x f d f d a p : % X * X ;                           ",
"    % % ; ; > p p a a d d d d d p a a > , $ + o % . *                           ",
"        & & > > > p p p p p p p > > > O . . . . %                               "
};
