/* XPM */
static char *_d8ccc904f484b3bb5a63d05cbaf7dc9tWHwMnbAN3pCkVcM[] = {
/* columns rows colors chars-per-pixel */
"40 82 196 2 ",
"   c None",
".  c #040302",
"X  c #090704",
"o  c #0D0A06",
"O  c #0C0B0A",
"+  c #120D07",
"@  c #1C0E05",
"#  c #140F08",
"$  c #16110A",
"%  c #1B150C",
"&  c #1D180F",
"*  c #161007",
"=  c #0D0F10",
"-  c #141414",
";  c #1A1612",
":  c #1C1915",
">  c #1B1B1B",
",  c #2C1B0D",
"<  c #241409",
"1  c #321E0E",
"2  c #381D0F",
"3  c #2D1E11",
"4  c #211F1C",
"5  c #22201E",
"6  c #2B221E",
"7  c #332213",
"8  c #3B2414",
"9  c #3E2A17",
"0  c #35231A",
"q  c #3A2C1A",
"w  c #1F1F20",
"e  c #1F2020",
"r  c #242424",
"t  c #282726",
"y  c #2B2927",
"u  c #272728",
"i  c #272829",
"p  c #2C2C2C",
"a  c #352921",
"s  c #352F2A",
"d  c #32312F",
"f  c #2E2F30",
"g  c #2F3030",
"h  c #333434",
"j  c #3B3C3C",
"k  c #3F3A36",
"l  c #441F0A",
"z  c #45240F",
"x  c #4A240D",
"c  c #592B0F",
"v  c #422614",
"b  c #432C15",
"n  c #4D2C15",
"m  c #422A19",
"M  c #492B1B",
"N  c #542D13",
"B  c #5B2F12",
"V  c #4B341C",
"C  c #4E3016",
"Z  c #563115",
"A  c #5A3315",
"S  c #543519",
"D  c #5D3619",
"F  c #543C1F",
"G  c #642D0F",
"H  c #6A2E0E",
"J  c #6B300E",
"K  c #653111",
"L  c #6C3211",
"P  c #663717",
"I  c #713712",
"U  c #733B15",
"Y  c #783E16",
"T  c #7C3F19",
"R  c #43342B",
"E  c #493621",
"W  c #543B26",
"Q  c #463A32",
"!  c #6B421B",
"~  c #71431B",
"^  c #7C4419",
"/  c #7C491D",
"(  c #5C4426",
")  c #4A413A",
"_  c #50443B",
"`  c #554132",
"'  c #65492C",
"]  c #6B4C2C",
"[  c #65462D",
"{  c #7E5223",
"}  c #72522F",
"|  c #734F30",
" . c #785835",
".. c #7C6134",
"X. c #3D3F41",
"o. c #434343",
"O. c #474748",
"+. c #4C4C4D",
"@. c #5B4E47",
"#. c #554840",
"$. c #4F4F50",
"%. c #804619",
"&. c #824B1D",
"*. c #884E1D",
"=. c #88511F",
"-. c #834D20",
";. c #8A4F22",
":. c #835323",
">. c #8B5321",
",. c #8D5924",
"<. c #885928",
"1. c #935D25",
"2. c #8D652F",
"3. c #956327",
"4. c #956529",
"5. c #9A6529",
"6. c #956A2C",
"7. c #9C6B2C",
"8. c #9F712F",
"9. c #956630",
"0. c #A26F2F",
"q. c #B46A2D",
"w. c #A2742F",
"e. c #A8722F",
"r. c #A27531",
"t. c #A77B33",
"y. c #A97D35",
"u. c #B57C34",
"i. c #AB8136",
"p. c #AE8639",
"a. c #AF893C",
"s. c #A2883E",
"d. c #B2853A",
"f. c #B38C3D",
"g. c #B18036",
"h. c #B5913F",
"j. c #CA893C",
"k. c #D28B3D",
"l. c #DA8D3F",
"z. c #C3903F",
"x. c #E5853A",
"c. c #E38D3F",
"v. c #B28D40",
"b. c #BC9642",
"n. c #BB9A44",
"m. c #B69340",
"M. c #C48C42",
"N. c #C69A45",
"B. c #C69D48",
"V. c #CD9D4A",
"C. c #C59945",
"Z. c #D49946",
"A. c #D69A4B",
"S. c #DA9B4C",
"D. c #DB944A",
"F. c #E59144",
"G. c #E6964B",
"H. c #E89849",
"J. c #F3994D",
"K. c #E69D51",
"L. c #E99F53",
"P. c #F39C50",
"I. c #C5AA4E",
"U. c #DAA24F",
"Y. c #DAA952",
"T. c #D6BE5B",
"R. c #DEBB5C",
"E. c #E6A052",
"W. c #E2A954",
"Q. c #EBAB54",
"!. c #EBA355",
"~. c #F2A256",
"^. c #F1AA59",
"/. c #F4A458",
"(. c #EFB45E",
"). c #EDBC5E",
"_. c #E5B75D",
"`. c #EEBE61",
"'. c #F0BA60",
"]. c #D6C15D",
"[. c #DECE65",
"{. c #EEC264",
"}. c #EBCB65",
"|. c #E3C662",
" X c #E5D469",
".X c #EAD56B",
"XX c #E9DB6D",
"oX c #E9DB6D",
"OX c #E7D86B",
"+X c #F2DD72",
"@X c #F1E676",
"#X c #F4EC7A",
"$X c #F0E977",
"%X c #F8F37F",
"&X c #F9F581",
"*X c #FCF984",
/* pixels */
"                                                                                ",
"                                                                                ",
"                                                                                ",
"                                                                                ",
"                                                                                ",
"                                                                                ",
"                                                                                ",
"                                                                                ",
"                                                                                ",
"                                                                                ",
"                                                                                ",
"                                                                                ",
"                                                                                ",
"                                                                                ",
"                                                                                ",
"                                                                                ",
"                                                                                ",
"                                                                                ",
"                                                                                ",
"                                                                                ",
"                                                Y *.%.I                         ",
"                                          I Y &.7.r.7.%.L                       ",
"                                        L ^ 7.p.n.b.p.1.Y H                     ",
"                                      L U ,.g.C.n.i.r.5.^ H                     ",
"                                    %.^ >.q.x.c.b.7.^                           ",
"                                  J ,.y.M.G.P.L.b.4.                            ",
"                                  H 4.h.U./.~.~.l.5.                            ",
"                                H I 4.f.Z.J.!.A.q.>.                            ",
"                              U %.,.w.p.z.F.G.p.&.^                             ",
"                              Y ,.7.t.t.p.z.k.7.^                               ",
"                      H     1 c ^ ,.7.y.p.f.h.1.L                               ",
"                              v L >.1.y.n.n.f.1.K                               ",
"                        3 V ,.>./ &.7.y.i.i.y.6.8                               ",
"                        0 V &.1.1.r.f.f.f.h.8.U                                 ",
"                          K I 1.f.S.E.F.k.m.r.:.9                               ",
"                    D %.%.=.4.p.l.Z.V.Z.C.h.r.,.B                               ",
"                  Z / 1.7.e.j.S.Q.U.S.B.n.b.p.7.U v                             ",
"                q P &.7.u.k.Q.`..X{.'.W.B.n.n.p.,.9                             ",
"                C N K { u.H.}.oXoXoXoX{.W.B.n.p.4.n                             ",
"            8 H G 8 3 N 3.N.^.OXOXoXoXoX`.S.f.,.K H                             ",
"              G z 1 , z / d.Q..X(..XoXoXT.h.7.~ 8                               ",
"              1 c b 7 , z &.B. XOXoXoXoXT.i./ b 7                               ",
"                  7   , , S a. XoX%X@X{.U.n.a.6.{ m                             ",
"                        F s.].OXoX*X*X+X|.R.E.S.d.~                             ",
"                    A ~ 9.W.`.oXoX@X*X#XoXOX).F.t.1.                            ",
"                  Z / 7.M.~.^.OXoXoX@X#X#X$X}.x.1.! v                           ",
"            8 U 1.4.p.I.Y.P.^.OX@X@X@X*X*X@X).k.<.7 ,                           ",
"            E <.f.B.R..X}.^.(.oX*X*X*X*X@X{.!.v.] 7                             ",
"        , 7 V <.r.A.~.`.oXoX.XOX.X.X.XOX).L.D.r.( 7                             ",
"          q E ] 1.d.A._.[.|.E.L.L.L.L.V.f.0.1.{ V                               ",
"      i p y s P ^ &.>.-.-.<.;.T T -.>.^ I I c @ % &                             ",
"    r i p i p Q Q ) _ #.@.@._ R a a 7 , @ @ < * % & :                           ",
"> v D W h h j X.j j ` |  . .[ h h M Z A x l l % : : v 0                         ",
"> 0 V R h ) [ } }  .2.w.d.y.6...} &.1.7.5.1./ A S n H 8                         ",
"> > r u g k W ' ] :.1.7.r.8.3.,.] ' { ,.,.{ F z n x M 6                         ",
"- - > > r u i f f m Z D A A A x 6 r 8 l x 2 = . % ; r r                         ",
"  - - - - - > u u > r r : & & $ # # o X o + o o % : r                           ",
"  - - - - - - r i u u r > > : & % * O X o * # + * & 5                           ",
"  - - > > - > u p i i p i u u r r > > > > : * . # & r                           ",
"  - > > > - > u p i i h h h h p u r > > > : $ . # & 5                           ",
"  - > > > - > u p p p h h h h g i u > > r : $ . o & 5                           ",
"> > > > > - > u h h p h h h h p u r > > r : $ . X * > >                         ",
"> r > > r r u i h h h j o.o.j h h u r w > % * o o # ; >                         ",
"> > > > i h h h j j O.+.$.+.+.O.o.h h i 5 : ; % # + % >                         ",
"- > > > u p h j Q o.O.+.$.$.+.O.o.j j p t 4 : ; # o - >                         ",
"  > - - > r r y i h h h h d p i r r 5 > ; $ + + # o -                           ",
"  - - - - - $ % % > > > > : : % $ $ O o + + o o # % &                           ",
"  - - - - - : > > r r > > > > > > > > > > : $ + * & 4                           ",
"  - > > - - > r u i p i r u i i u r > > > : $ X # & 5                           ",
"  - > > - - > u u p p p p p h p i u > > r : * . # & 5                           ",
"  - > > - - > u u p h h g h h p u r > > r > $ . # & >                           ",
"  > > > - - > u u p h h p h h h i u r > > ; * O - : : :                         ",
"> r > > > > r i p h j j j j Q o.j h p u 4 : ; > > : : >                         ",
": > > > r u i h h h j j o.O.O.O.o.j j h t 5 : - : & > >                         ",
"& & ; > > > > r u u u i p y y i r r 5 > ; $ o . # & 4 >                         ",
"  * * * * * * & > > > > : : & % % * O o + + X . # & >                           ",
"  # $ - - - - - > > > > > > > > 4 > > > - # o . # & >                           ",
"  $ - - - - > > r r r u r r u u u u r r > ; * . # & 4                           ",
"  - > > - - > r u u u i p p h p i i i u e : $ . + + >                           ",
"  - ; : - - > r u u u i h h h p i p i u r : % X * X -                           ",
"    % % - ; > r r u u i i i i i u u u > - $ + o % . *                           ",
"        & & > > > r r r r r r r > > > O . . . . %                               "
};
