/* XPM */
static char *paving_41752045519[] = {
/* columns rows colors chars-per-pixel */
"480 480 256 2 ",
"   c #2D1507",
".  c #3C1C0B",
"X  c #371806",
"o  c #311308",
"O  c #3B220C",
"+  c #3A2515",
"@  c #2F2716",
"#  c #1D0800",
"$  c #441C09",
"%  c #461E11",
"&  c #44230C",
"*  c #4B240C",
"=  c #4C2A0D",
"-  c #462407",
";  c #532A0C",
":  c #4B2513",
">  c #4C2B13",
",  c #472916",
"<  c #532C14",
"1  c #532D1A",
"2  c #582B16",
"3  c #4B3319",
"4  c #543215",
"5  c #5B3315",
"6  c #54331B",
"7  c #5B341B",
"8  c #5C3A1C",
"9  c #573A1A",
"0  c #53310E",
"q  c #62351B",
"w  c #633B1D",
"e  c #683A1B",
"r  c #643019",
"t  c #5D3B22",
"y  c #583723",
"u  c #4F3323",
"i  c #633C23",
"p  c #6A3D24",
"a  c #653A26",
"s  c #713E24",
"d  c #5C401E",
"f  c #66421E",
"g  c #73451E",
"h  c #5B4326",
"j  c #56452E",
"k  c #644324",
"l  c #6B4425",
"z  c #6C4926",
"x  c #65442A",
"c  c #6C452A",
"v  c #654A2B",
"b  c #6C4B2B",
"n  c #654925",
"m  c #724425",
"M  c #73452B",
"N  c #734B2C",
"B  c #7A4C2D",
"V  c #744A27",
"C  c #74522D",
"Z  c #7B532D",
"A  c #7A572C",
"S  c #6D4C32",
"D  c #684832",
"F  c #744D32",
"G  c #7B4D33",
"H  c #764A36",
"J  c #6D5233",
"K  c #6B5638",
"L  c #745333",
"P  c #7B5434",
"I  c #7C5A35",
"U  c #75543A",
"Y  c #7C553A",
"T  c #755A3B",
"R  c #7C5B3B",
"E  c #755A35",
"W  c #6D512D",
"Q  c #7C623D",
"!  c #7C5C41",
"~  c #775942",
"^  c #6E5943",
"/  c #7C6444",
"(  c #7F6D50",
")  c #825435",
"_  c #835B35",
"`  c #83553A",
"'  c #835C3C",
"]  c #8A5C3D",
"[  c #895737",
"{  c #865333",
"}  c #84623D",
"|  c #8A633D",
" . c #89673C",
".. c #92653E",
"X. c #845D42",
"o. c #8B5D43",
"O. c #865945",
"+. c #925E42",
"@. c #846343",
"#. c #8B6443",
"$. c #856A44",
"%. c #8C6A45",
"&. c #85654A",
"*. c #8C654A",
"=. c #856B4B",
"-. c #8C6C4B",
";. c #926444",
":. c #926B45",
">. c #93654A",
",. c #936C4B",
"<. c #9B6D4C",
"1. c #9A6846",
"2. c #8D724C",
"3. c #8A7249",
"4. c #947246",
"5. c #94734C",
"6. c #9A744D",
"7. c #95794D",
"8. c #9C7A4E",
"9. c #997346",
"0. c #8C6C52",
"q. c #946D51",
"w. c #9A6D52",
"e. c #8D7553",
"r. c #957452",
"t. c #9B7553",
"y. c #957A53",
"u. c #9C7B54",
"i. c #9C7559",
"p. c #957B5A",
"a. c #9D7C5A",
"s. c #95755A",
"d. c #A2784E",
"f. c #A27554",
"g. c #A27D54",
"h. c #A37D5A",
"j. c #AA7D5B",
"k. c #A77857",
"l. c #A67152",
"z. c #9C7D61",
"x. c #A47E61",
"c. c #AB7D62",
"v. c #B17C63",
"b. c #9D8155",
"n. c #9D825B",
"m. c #97845A",
"M. c #978354",
"N. c #A48255",
"B. c #A98456",
"V. c #A4835C",
"C. c #AA855C",
"Z. c #A5895C",
"A. c #AC8A5D",
"S. c #AA8956",
"D. c #B18C5E",
"F. c #B2855C",
"G. c #AD915E",
"H. c #A7905C",
"J. c #B3915E",
"K. c #B8925E",
"L. c #A1834E",
"P. c #9E8361",
"I. c #9C8965",
"U. c #9E9268",
"Y. c #A58562",
"T. c #AB8662",
"R. c #A58A63",
"E. c #AD8B64",
"W. c #AB8569",
"Q. c #A58B69",
"!. c #AD8D69",
"~. c #A58669",
"^. c #B28563",
"/. c #B28D64",
"(. c #B98D65",
"). c #B38E6A",
"_. c #B98D6B",
"`. c #B58569",
"'. c #AE9164",
"]. c #AE926B",
"[. c #A9956A",
"{. c #B49265",
"}. c #B99466",
"|. c #BB9966",
" X c #B4936B",
".X c #BA956C",
"XX c #B5996D",
"oX c #BC996D",
"OX c #B69966",
"+X c #B68E71",
"@X c #AD9371",
"#X c #AC9973",
"$X c #B59571",
"%X c #BB9671",
"&X c #B59A72",
"*X c #BC9B73",
"=X c #B59C7A",
"-X c #BD9D79",
";X c #BB9679",
":X c #AD8E71",
">X c #BDA16D",
",X c #BDA175",
"<X c #BDA27A",
"1X c #B8A478",
"2X c #AEA275",
"3X c #C19C6D",
"4X c #C2966B",
"5X c #C29573",
"6X c #C29D74",
"7X c #C29E79",
"8X c #C89B78",
"9X c #C28C6F",
"0X c #C3A16D",
"qX c #C9A56E",
"wX c #C3A175",
"eX c #C9A375",
"rX c #C4A27B",
"tX c #CAA47C",
"yX c #C5A97D",
"uX c #CBA97D",
"iX c #C9AA75",
"pX c #D2AA7C",
"aX c #D2B27D",
"sX c #E0B57F",
"dX c #BCA782",
"fX c #BC9D82",
"gX c #C49E81",
"hX c #C4A581",
"jX c #CAA681",
"kX c #C5AA82",
"lX c #CCAB83",
"zX c #CCAD89",
"xX c #C7A988",
"cX c #D2AC84",
"vX c #D3AE89",
"bX c #D5A985",
"nX c #CCB185",
"mX c #CDB28A",
"MX c #C6B287",
"NX c #D3B285",
"BX c #D4B38B",
"VX c #DAB48C",
"CX c #DBBA8D",
"ZX c #D8B788",
"AX c #DCBB93",
"SX c #D8B793",
"DX c #CFB592",
"FX c #E3BA8C",
"GX c #E3BC95",
"HX c #E1AF88",
"JX c #E5BEA1",
"KX c #DCC296",
"LX c #E7C399",
"PX c #EAC293",
"IX c #ECCBA5",
"UX c #DCC5A1",
/* pixels */
".X6X;X).;X;X). X+X).V. X<X,X!.C..X X.X%X8X*XwXrXrX7X$XtXlX-X)./.7XSXy.n z q q 5 q p ` [ +.o.t.^.#.q.f.h.i.a.s.t.h.a.V.h.i.i.n.u.V.t.h.V.j.E.$XW.T.).-Xh.f t < < t.;XXX;X*X,X%X X%X%X%XrXrX5XC.A. XE.V.T.E.E./.E.{.{..X X XXXXX.XhX%Xa.h.g.c.).%X;X).).)././.).+X5X.X.X6X7X7X;X X$X7XrXtX5X5X8X*XrXtXj.6.X.' ;XfX$X).!.).`.).).).6X;X.X%X)..X6X5X6X%X5X%XtXbX7X8XT.^.8X4X_.eX7X7X7Xj.H k !.!.'.Q.E.!. XXXXX%X).E..XXXoXoX*X*X,X*X*X X*X&X XR.!.!.'.].'. X X X&XDXq.F x.W.)..X;X6XrXrXrXrX*X6XeXeXtX8X8X8X`.9Xv.l.l.w.<.+.w.j.v.9Xv.;.` s p H >.k.k.j.l.w.>.1.k.v.v.l.+.) p r 2 D *.k.Y.W.F > = = =.-X5X+X`.^.8X).`._.}.3X8X7X8X8X9X4X4XK.qX8X.X{. X.X{.A./.D.J.{.XXCXV.-.`.;X%X`.W.k.k.w.w.w.i.O.s a 7 7 p a 7 2 % r 1 % % 1 , 1 i p m s 2 7 i v X.*.' #.a.u.$.#.a.E.E.E.'.R./.'.!. X!. X].i.m m s s m M a % 2 u , , 7 y i a a M G ) t.j.,.<...] w.,.h.,.>.P p F N L L L I X.Y B M G P i 0 i F n x.&XQ.).;X).h.T.T.!.$X$XW.j.r.#.5.h.r.*.w.i.O.O.` O.>.O.q.o.i.~ u 1 3 - q a ; : 1 < ; 2 2 r 2 2 ",
"!.].E.a.V.V.R.R.].E.n.E.'. X!.A.)..X.X%X.X.X}. XXX-X1X-X>XXX{.Y.%XAXyXQ I <.v.%X5X8XbXjXbX8X5XtX6X%X).$X7X;XW.T./. X;X*X6XwX*X%X;X). X*X*X7XrXrX-XkXmXrXL I #.i E.;X X&X*X;X1X&X&X-X-X*X,X,XZ.b.R.Q.V.Y.R.Z.A.E.{..X{. X{.XXXX$X&X-X<X;XY.!.).Q.).).!.!.].!. X X$X!.].]. X$X'.Z.R.].].].'.!.'.V.XXrXjX,.i ~ +X:XQ.W.!.+X$X&X.X$X-X*XrX&XE.!.T. X7X-X-X%X%X%X).).^.u.C.A.N.>X.XXXXX].Z.b  X].'.Z.A.XX X].XX X!.C..XXXoXXXoX*X,XXX%XXX*X1X%X/.!. X'.{.XX{.XXXX X-Xr.z Y.).$XXX-X*X*X1XrX-X%XXXXX*X6XrXtXcXlXSXvXtXbXjX8XT.T.5X8XvXSX7X).v.F Y lXyXuXpXtX5X.XoXbXbX8XsXtX#.{ w.v.%X7XrXLXJXj.X.' 8 '.BXBXjX*XwXcXoX4XOX{..XXX,XeXiX|.D.K.K.3X}. X{.E.A.E.Z.G.A.G.}.OXtX,.!.rXrXjXlXnXuXlXjXtXjXbXuX5X_.T.v.`.`.9X8X9XgX5Xv.v.c.v.v..X.X%XbXv.p 2 s i.W.c.!.h.`._.c.T./.V.Z.R.T.!.).E.).T.).%X.X.X8X9X^.8X9X9Xv.O.1 , 1 r e M { ` { { [ w.,.P ;.f._ ` B O.o.w.>.o.1.w.k.c.j.`.5X;X`.v.v.`.v.v.c.c.*.x.fX@X;XfX-X=X&X=XfXdXDXxX;X$XT.T.!.$X-XDXxX+XjXvXxXbXxXvXjXVXv.o + @ S jXVX`.w.>.v.`.v.v.v.w.l.",
"E.Q.E.E.R.C.R.E.Q.E.V.Z.Z.E./. XE.XX X XXX}.'.!.'.XXXX[.OX'.u.N.*XkXmXK *.rXvX=X].*X7X,X;X&X$X&X X'. X].$X$X!. X!.].V.'.%X7X*X/.). XT.;X;X%X,X,X&X-XkX1X$.=.-.6 V.$X$X%X-X<X*XrX,X*X*X&X X[.{.Z.Z.A.R.C.C.C.E.{.].{.{.{.{. XXXXX-Xb.&XhXQ.$X].!.E.E.E.'.R.Z.E.!.].i.E.E.]. X].Q.E.E.E.Q.R.R.!.!.XX*XrXr.6 X.+XR.P.R.!.$X&X&X&X<X1X<X<X1XR.R./.*X7X;X7X-X). XT. X6XC.h.i.8.V.u.y.Z.].u.x !.'.'.n.g.OXXX X.X X/.{..X.XXXoXoXoXoXXXoXoX3X,X*XoX X]. X'.{.OX.XXX.X,X).P a.+X;X&X-X,X-X-X*X*XXXXX%XXXXX,XrXyX<X<X<XkXxX&X XY.Y.!.$X-XxXfXW.-XT u 1XXXXXXX.X XXX,X*X*X5XhXBXq.i.$X;XXX&X-XAXmXY.*.b 0 Z.<X1XrX>X[.XXOXoX X{./.}..X5X6X5X.X.XOXOXOX X{.E.G.A.A.A.G.S.OX|.{.k 2.XX&X&X*XXXXXXXOX!.].XX%X,X,XrX;X*X%XzXVXgX-X7XjX%X%X;X).!.XXXXrXGXk.' ).%X&X&X7X%X6X6X-X&X*XXX*X*X*X%X.X X*X%X6X7XrXyXnXlXjXjXbXbXLXHX2 2 H i.T.`.%X`.+X;X_.^.`.] ,.(._.^.%X5X8XeX6XeXuXtXjXtX-XrXzXSXzXjXjXlXjX&X$X-X-XQ.$X$X=X-X-X;X;X&X=X=XxXdX!.;X&X).!.!.!.fX;X+XfXdX;X:X:X:X!.gXi.  + + / <X<X.X6XwXwXlXvX8XtXtXwX",
"!.E.!.E.T.E.E.Q.R.R.E.R.V./././.{. X XXX X X{.A.E.*X].N.'.'.u.A.&X-XDXQ i.rX;X).E. X%X%X.X).!. X].Y.E.!.!. X X@X XQ.n.]. X&X7X&X)..X.X-X;XwXrX*X-X1XkX&X/ ! t 6 a.$X%X&X*X*X*XwX,XXX*X%XXX X X!.A.A.!./.E.E.E.R.!.{.XX.X.XXXoX&XhX$.R.=X$X$X$X X X X/.R.E.Z.V.!.V.t.!.!.!.]. X'.n.Z.R.n.m.T.T.T.!.$XdXq.6 O.R.Y.Y.E.$X;X$X%X-X<X,X<XrX<X!./.).;X;X$X$X-X-X;XT./.;X.X.X.X).T.g.2.y.P./ y &XR.R.N.5.R.XX XXX X). X X.XXXXXoXoXXXoXoXoXwX6X*XXX X.X X{.XX X.X.X&X,X%XT T. XoX*X*X*XwX*X%X X XXX XXX*X%X1XkXhX<X<XrXjX-XE.T.T.!.].fX=X-X:XrXc.& ].&X.X{. X XoXXX-X-X;X7XrXT.).$X$X X$X=XkXmX@X&.t < Y.*X*XXXXX{.OXXXoXXX X{.{.}.>X5X.X.XoX>XoXXX{.{.{.E.G.Z.H.A.H.>X,X!.> R &X%X&X*XoX.X}.XX X{.].].$X%X,X-X&X XhXxX;X+X&XrX7X;X).!.E.).%X%XGXT.x ).'.].].XXXX*X*X%X.X&XoXXXXX-X1X%XXX*X%X%X;XwXrXwXrX-X8XjXhXvXGXa % Y.1XwXgX8X;XgX-X%X6X8X6X7X).;X7X;X).%XXX XoXXXoXoXoX*X,X-X=XrXrX&XXX;X X$XQ.h.r.=X$X=X<XrX6X*X7X<X<XhXfX-X-X;X:X$X$X-XfXgXgXxXfX=Xc.~.W.gXvX0.  + + / [.Q.!.!.].{.XXXX$X!. X X",
"].E.E.E.E.!.E.R.E.E./.!.C. X X X X X XXX.X X XE.E.{. XV.E.].R./. X].kX$.h.7X;X.XXX XXX%X X'.'.'.].!.E.Q. X). X!. XY.%.r.E.%X6X;X.X%X;X6XrX*XrX-X7X-X<XyX5.T i 7 ~.).).XX*X*X6XrX*X*X*XXX.X.XXX{.'.!.'.'.E.E. XE.!.{.!.{..X%XXX&XrXP t.Y.p.V.Y.T.R.!.{.R.A.A.Z.!.).T.E.E.T.R. XE.E.b.} r.i.T././.E. X1X-.y o.V.V.V.Q.#X X&X X&X-X-X1X*X*XY.T.$X$X=X$XW. X;X;X X!.rX*XoX,X*X;X X/.E. XK D $XV.V.N.} 5.E.). X).!. X!. X.XOXXX.XOX.X.XoX*XoXoXoXXX.X}. X'. X X X.X&X Xq.=X%X5XoX6X6X*X6X*X/.E..X%X%X-XXX;XrXrXrX<X-XhX&XR.C.V.R.$X$X]. X!.jX-XO p.*X{.XXoXOX*X*XwX*X-X&X;X X$X X X X%X%X%XrX-X#.5 4 V.&X*XXXXX>XXX.XOXOX{.|.{.XX4X6XXXXXoX|.oXoX X{.E.{.'.G.Z.{.'.{.%X&X9 e.&X'. XOXK.K.|.|.|.}.D.{..X{.{.{.!. XmXlX<X1X-X-X7X&X).!.!.).$X%XBX&Xa !.].$X$X.XXX&X*X,X*X%X*XOX&X1X,X6X6XoX%X&X&X6X1XiXyXrXyXlXlXlXGXD & P.[.'. X X X X!.'.{. XXX X/.XX.X$X]..X X!. X.XXX&X*X&X-XXX).;XrXhX&X-X=X*X$Xr.R !.#X=X-XrXrX<X-X<XhX<X-XrX-X$X).;X;X*X-XrX1XhX;X!.x.V.E.&XjX~   + @ / [.R.'.].XX$X X!.T.T.E.).",
"!.E.E.E.E.!.E.E.'.'.'. X'. X].{.XX.X X.X.X{. X/..XE.6././.!.E./. X'.&X@.x.7X X X X X$X%X].'.'.H.E.!.!.].].!. X X].).6.g.).%X5X6X;X7X7XrXrX-XrXrX6XwX<XuX4.I F 7 W.T.V.oX*X6XrXwXwX*X%XXXXXXXXXXX{.'.'.!.E.{.{./.{.'./. X XrXoX!.;XY x.).T.!..XR.R.E.E.G.A.Z.A.).!.T.E.!.R.E.!.R.h.p f 5.A.).).R.!.XX&X@.c X.a.$.p.Y.E.E.].]. X&XXX-X&X&X!.Y.!.$X-XY.-.Y..XoXXX{.,XrXrX*X-X6X5X.X&XhXK D fXR.2.y.%.2.h.E.!. X!./.{.)..XOXoXOX%X.X.X4XoXoXoXXX.XXX{.OXu.N.{.XXXXoX).t.%X;X*X5XoX*X6X*X6X.XOXXX*X.X*X*XXX&X,X*XrX<XrX&X/.R.T.E. X].C.Z.{.lXrX. e.<XXX>X,XXXoX6X*X*X*X%XXX.X_. XXX X.X%X.XwXlX-.7 f E.'.XXXXwXXXXXOX'.G.J.}.oX0X6X3X>XoXoX0XoX.XOX X}.{.{.E.Z.'.Z.'.XX X3 / ].'.OX}.D.D.K.|.|.}.{.{./.{.{.A.A.!.KXkX<X,X,X*X&X%X X+X$X).).;XzXvXR R.R.$XXXXX.X*X%XwX*X%XoXXXoX*X,X-X*X.XoX*X6X*X,XyXyXwXyXlXlXlXAXs $ R.[.'. X].].'./.E./. XXX X%X%XXX%XXXXXXXXX X XXX*X&X$X%X].).rXhXrXrXhX7X-X&X9.L $X].#X-XrXwX<XrX<X<XrX-X-X-X-X*X%X*X*XrX<X-XhX-XR.h.g.n. XgX~   @ + 3.[.R.'. XXX XY.V.!.!.$X%X",
"E.E.E.E.E.E.!./.!.'.'.]. X X X X X.XXX XXX.X X{..X.Xj.T.).E.E.E.'.'. X=.V.&XE. X]. X$X$X].'.[.'.E.R.E.].!.E.!. X X).). X X*X-X*X*X6X6XrX-XrXrX-X*X*X,XkXn.b P 7 +X%X XXXoX*X*X,X*X*XXXoX.X XOX X{.'.{.{.'.{.E.G.R.A./.!.{.tX6X8X7X) W.*X.X*X%X X{.[.{.E.A.A.E.).!./.).).E.).E.!.^.` ;././. XE.R.E. X].U F q.n.} f.C.T.R.E. X&X].].&X&X-X].a.Y.$X-Xh.P f.).XXwX*X6XrXrXyX,X-X7X*X-XmXK T =X!.V.b.5.,.y.V.E. X$X X{.)./. X.X{..X.X.XOX.XoX&X%XXX XXX4X8.] A..XXXXX&Xt.+X%X*X*XoX6XwX3X6XoX*X5XoXoXoX X XXX*XwX<X<X<X XZ.Z.E.E.!. XC.A./.cXBX6 -.dX[.XX*XXXXX6X*X,X*XoXXX X.X.X XOXOX.XXXXXcX,.8 z '.'.XX{.oXoXXX.X{.{.{.|.3XwX3X3X|.|.oX,XXXXXoXOX{. X'.G.{.XXZ.Z.].&XO S &X&X&XXX[.D.}.OX|.}.XX.X{.{.D.D.B..XBX-X<X<X-X-X%XXX$X%X.X). X.XrXSXx.!.E. XXXoXXX*XXXXXXXXX X[.XX*X;X*X5X*X.XoX6X;XrX<XyX<XyXrXjXlXAX~ & P.[.Z.{.[.'.'./. X). X.X%X.X X X X].{.XX XT.T..X;X%X XXXXX*X<XhXrXrX<X7X,X%X8.C [.XX>X1X-X<X<X<X<X<XrXrX7X7X;X&X%XXX-X;X<X<XfX;XR.h.T.].oXVX0.  @ + M.[.R.E.!. X.XV.V. X).XXXX",
"R.E.!.].E.E.!.!.E.{.'. X].{. X.X X X X XXXXXoXXX X XXX}./././.E.E.Q.&X-.R.&XE.!. X XXX$X!.E./.!.!.A.E.E.!.R.Y.].]. X). X%X;X6X7X*X*X*X*XrXrX*XwXwX*X,XkX].E N 7 ).;X$XXXoX%X*XoXXXoX.XXXXXXX[..X{.E.Z.E.A.'.{.'.E.A.A./.!.OXXXnXuXb k.$X&X%X&X X]. X.X!.T.!.T./.^.).).). X XT.E.C.6.h.T././.E.T.C. X&Xb p i.h.h.h.Y.V.V.Z./.[.].]. XXX1X].R.p.R.$XR.t.T.{.*X6XrX<X-XwXrXrXrXwX*X*XSX~ ! *XR.E.h.y.6.9.u.n.E.!.'. X{.!.{./.R.%XXXXXXX%XoX*X*X.X.XOX5X{.g.{. XXX%X-Xa.).%X.X*X4X*X*XXXoX*X*XoX.XoXoXoXoX X*X6X%X&X-X].Z.E.R.E.'..X.X}.|.lXAX9 Q iXXXXX>XXXoX6XwX6XoXXX'./. X.X)..X.X.XoXwXSX*.7 b R.].XXXX,XoXXX.X}.}.}.oXoX*XwXoX0X>XoXoXXXoX X XOX{.{.G.}.*XZ.b.XX$X$ h ].&X XXX XE.{.{.XXoX*X.X*X*XD.B.d.Z.MX1X<X<X&X$XXX%X%X XOX.X X.XrXBX].!.$X X X$X%X%X*XXXXXoX}..XXXrX*X6X;X*X*X,XoX*X,XwXiXiXiXyXlXlXSX*.& P.].Q.]. X'.!.!./..XXXXX%XXXXX X.XXXXXOX.X/./.{. X.X%X).y.XX<XrXhXrXrXrX-X*Xu.C [.#XXX-X-X<X<X<X*XrX-X7X<XwX;X X X&X*X-X<XrX=X$Xa.h.E. X%XDXfX. @ + 3.].Q.T.R.T./.y.a. X X X.X",
"A.R./.'.!.{.'.E.!. X!.{. X XXX.X X X{.'.XXXXoXoX.XoXoXXXXX'.!.A.{.'.*X3.,.$X!.!. X X X XE.E.E.E.E.V.Y.).E.E.R.R. X$X X X X&X;X6X6X,X*X&X6X6X*X,X6X6XrX<X&XE P i c. X%X%XoXOX.XoXoXoXXX.XXX{.[. X{.'.{.Z.A.'.{.{./././.E./.{.oXaXcXC T.&X&X&X%XXX).XXXX X).).T.T././.).). X XE.Y.j.k.)./.!.A.R.T.C.{.rXT l x.V.E.u.g.T.R.A.C.C.).).E.!.&X[.^ t e.$X!.). XOX*X*X<X*X%XwX,XwXrX<XwXwXKX*.=. XR.!.h.6.6.6.r.r.Z.E.'.{./.{.{.!.Z.XXXX.XoX*XoX*XoX.XoX.X.X.X/..X.XXX&X;X X!.%X.X%X*X*X*XoXXXwXoX*X*X.X%XOX.X.XXX*X%X X'.].{.E.E.!.{. X.XXXoXyXKXt W rXXXXXXXoX3X6X3XwX6XoXA.{.{..X X X.X.XXXrXSX@.> S Q.XXXX>X>XoX.X.X{.}.|..X5X3XoX6X{.}.|.oXD.{. X}. X{.{.{.XXwXZ.8.Q.n.O 3 I.&X&X].E.!. X{. X&X,X,X1X*X.XA.j.g.$X&X&X-X&XXXXXXX%X%X/.E..X*XrXmX&XR.&X]. X&X&X&X%X$X*X,XXX.X*X6X*X<X*X*XXX%XwX*XrXwXeXrXiXtXyXyXvXW.& n.].].].].].'.). X X X%X$X.X$X%XoXXX X%X.X.XOX X!..XrX*X6.E.rX<XrXhX<XrX-X&Xh.z I.@X@X-X1X1X=XrX<XrX-X7X7X*XrXE.r. X%X-XXX&X$X].y.y.R. XXXDXdXo o , e.[.Q.].)./.C.-.V. X X!. X",
"E.!.!.!. X!.!.!.!.'.'. X.X X X.X X X X X XXX&X%X;X*X%X%X X{.{.{.{. X*Xa._ T././. X].]. X!.!.E.Z.!.T.T.E.)././.!.!.]. X{.&X%X%X6X6X;X7XrX*XrX*XoX;X6X<X<XyX@.N i `.%X.X*XoX6XoXoX&XoXoX%XXX.X}.{.'.'.'.Z.E.!.'.!./.{.)./.^.{.OXcX*XC `.$X&X%X&X$X).). X X).).)./.)././.R.!.).E.k.V.(.*X*XoXR.A.C.C.R.-X%._ E.R.'.R.Y.R./.T.T.C./.E.E.E.].R.O $ -.;XXX%X.XOXoX*X,X%XXX,X>X,X,XwXwXiXUX0.,.oX/./.C.i.6.,.:.4.8.Z.'.!.'.{.{.{..XoXoXXXXXXX*X*XoX.XoX.XOX.X.X.XOX.XoXrX X+X$X.X X.XoXXX,X*XoX4X*X*X.X.X X X$XXX&XXX/.A.!.!.'.E.'.{.XXoXoXwXaXKXz N rX*X*X*X6X5X6X3X>XoXXX{..XE. X X X.X.X*XiXAXe.& ' *X XOXoXOX|.XXoX|.OX}.|.3XXX|.3XD.D.XX6XC.N.}..X}. X/.{.XXuX{.Z.!.Y.. O p.=XE.E.b.E. X].]. X&X*X*X-XXX XE.R.E. X.X;XXX{.{..XXX;X%X.X*X*XrXlX$Xn.].XX$X&X&X&X&X%XXX*X*XoX;X6X*X6X7X*X XXXoX;X7XwXrXtXtXrXuXjXvX+X= Y.[.Q.].].]. X!. X$X X XXXXX%X$XXX&X*XXXXX;X&X%X%X*X*X-X6X.X7XrX<X<X-X-X7X&XT.b ~.=XP.Q.2X&X-X<XrXrX&X).;X%X;X%X/.XX;X&XXX).T.F * W ].$X-XvX:Xo + + e.XXXXXX X).).V.!.).T.!./.",
"!. XE.'.!.{.{.E.{. X X X XXX.X X]. X{.{.$X$X%X*XoX6X*X%X&XXX X}.{. X*X X6.T./.!. X'.[. X!.Y.E.E.E.Q.!.E.E.).!. X!.].}..XoX%X%X6X6X-X7X7X7X*X*X%X7X;X-X<XMXp.N p ). XXX%XoX6X*XXXXXXX.X X}..X.X'.'.'.E.Z.Z.R.{.!.R.E.{.{.(..X}.uXV.w /.-X&X&X&X X).). X.X.X X X%X$XE.E.T./.).C.u.g./.rXrX*X XA.B.C.V.&XT T  XR.E.R.R.Z.E./.T.Y.E.R.E.E.!.;X#.I Y.). X&XXX%X.X%X*XoXoXoX>XoXwX0XrXwXKXa.i.;X.X.X!.C.u.:.#.r.:.8.E.A.'.!.!..XXX%XoXXXoX&XoXXXOXOXoXXX.X_..X.X.X%X-XtX;X$X%X.X.XoXoXoXoX,XoX*X*X.X).).).). X X].{.R.C.R./.E.E. X XXXXXoX,XyXLXx l 6XXXXX*X*X*X*X,X,XoX|.}.{.A./.!. X}..XXXiXLX&.& ! <XXX>XXXXX|.OX.X}.}.OX.XoX}.}.|.|.}.|..X.X^.{.}..X/.(./.XXnXwXN.oXP.X O p.1X7.i.E.E.!.E.]. X X&X&X%X%XoX/.!. X$X.X%XoX.XXXXXXX*X;X6X-X*XrXlX&XV.[.XX].]. X-X&X$X%X;X%X.X5X*X*X-X6X,XoXXX%X-X6XwXrXrXtXrXrXrXlX;X* e.].].].].].].T. X$X$X%X X%X%X%XXXoX%X).$X%X-X&X&X;X*X*X,X*X*X<XdX<X-X&X=X=X!.J Q.xXU n W R.1X<XrX<X7XY.V.oX%X;XoX%X&X&X X.X_.j.,.Y.;X&X,XVX;X. + 3 m.#XXX$XXX$X X).!./.V.V. X",
"R.E.!.E.Z.E.E.{.{.{.'.XX XXX$X$X X{.]. X.X.X*X5X%XwX*X*X*X&XXX.XXX%X<X].i.T.T.!.].R.u.!.!.R.E.!.].'.E.E.E.!. X].E.{. X X%X%X6X6X;X7X7X6X7X7X7X;X6X6X*X1XkXn.c p `.XXXX&X*X>X*X*XoX X X{.XX X*XV.5.E.!.E.E.C.'.R.E.E.E.{././.%XeXf.I  X*X%X%X%XXX/. X X XXX.X X$X%X%X)./.).^.C.6.h.).rXrX6X/.B.g.C.Z.*XR S Q.E.R.E.E.R.E./.T.T.A.V.T.T. XR.j.,.i.R.].$X XoX%XoXXXA.XX>XoXoX6X>XoXrXAXx.x.5X)..X XR.Z.6.@.5.5.2.n.Z.{.{.E.{.XX%X*XoX%XoXXXoXoX.X.XoXoXOX/./..X*X*X7X;X%X*XoXXX&XXXXXXX0XoX%X%XoX X/.).'.].XX].E.R.V.A.).!.T./. XoX*X*XiXyXIXa k rXXXXX*X*X*X,X*XwX6XXX}.XX X{.{..X.XXX>X,XFX#.$ Y 1XXX>XoXoXoX.XOX{.OXXXOX|..X|.oXoX}.4X.X{.}.}.}.}./.{./.[.iX,Xb.,Xr.X + e.&X'.Y.V.R.Z.E.{.{.!.!. X*X;XXX X!.XXXX%X X.XXXoX.X&X-X;X-X-X7XrXnX<XE.]. XXX$X XXX X&XXX%X.X.X;X6X*X*X*X;X;X%X%XXX%X,X,XeXrXrX<X-XrXzXk ~ @X@X].].]. XR.{. XXX$XE.!.XXXXXX&X%X%X%X*X-X;X-X*XXXXX*X>X*X-X<XrX-X&X$X$X!.R #XgXa X . n.-X<X<XrX<X X'.*XoXXX%X%X%X$X$X%X+X_.%XXX*X-X%XNX;X. @ + m.].].&X&X X X{.!.R.h.Y. X",
"/.!.E.!.C.A.!.D.E.{.{.{..XOX X XXX X'.E. X*X*X*X*X,X*X%X*X*XXXXXoX&X<X].Y. X!.:X-X!.y.V.).E.E.E.E.E.E.Q.E.E.]. X/.). X%X.XoX*XwX*X-X-X-X*X<XrX<X,X6X6X-XmXa.9 i W.E. XXX*X,X*XXX X{.{.{.XXoXoXA.y./././.E.T.t.V.C.A.!./.T./.6XyX4.:..X%X*X-X$X X'. X X{. XXXoXXX$X%X.X%X).E./.h.T./.-XyXrX XA.j.h.V.&Xt * 5.R.R.E.!.E.E.E.!.E.C.A.R.T. XT.u.5.6.h./.XXXX].XXoXoXN.}.4X6XoXoX*X,XrXPXV.T.;X.X X%X XZ.5. .2.8.5.u.Z.R.E.E.'.}.XXoXoX%XXXoX.X.XoX.X.X.XOX.X.X.X.X*XrX&X;X*X*XXX*XoX}.}.oXoX&X%X%X XT.R.E.). X].!.C.V.E.E./.E.).OX5X*X6XwXuXAXt b wXXX*XXXoX*X-X*X,XwXXXXX%X X X{. X'.[.XX,XSX#.$ ;.rX}.XXXXoX3X}.OXOXOX.XoXoX.X}.XX|.OXoX.X}.}.{.{.{.{.A.A.J.XXoXN.yX=.o + 0.#X@X].z.e.u.R. X X].E.&X;X%X%X).T.$X%X%X%X*X%XXXoX%X X$X*X-X<X-XBX$X!. X X].XX X.X%X XoX%XOX.X5X*X*X*X*X*X%X*XoXXXoX*X*X6X6XwX&X&X*XBXT &.].!.].$X].$X X X X$X$X/./..XXX&X%X;X%X*X*X-X6X-X X*XXX>XoX*X-X<X<X-X%X$X).Y.R $X;Xt.*.t.%X&XrXrXhX<X*X*X*XXXXX*X;XoXXX).).).).).%X;X;XoXtXgX+ o 3 m.#X[.].$X X$X X!.y.| A.!.",
"!.'.{.E.E.E.E.R.A. X]. X{. X]. X{.{.Z.{.{..X.XoX*X*X*XXX*X%XoX%X%X*X<XE.V.].!.]. X].'.R.E.E.E.E.R.!.Q.'.E.!.'.)./.).)..X%X5X*X6X6X-XrX*X,XwXwXrXrX7X*X-XkXT.e M ).E. X$X*X*X%X&XXXXXXX.X[..XXX XXX X X XXX X9.a.R././.).)..XwXuX} ;.^.%X&X%XXXE. X X/.!.{..XXXoX%X5X6X.X.X).)./.). X*XrXyX-X!.T.A.C.&Xw 1 :./.E.E.R.!.{.!.!./.T.A.R.E.).).Y.g.8.C.{. XXXXX XOX{..XOX.X.XXXXXoXoX,XBXV.W.6X XXX&X.X'.b.2.2.%.,.5.5.g.T.E.!.!.XX.X*XoXoXoXoXOXoXOX.X X X X XOX.X%XrX!.-X-X*XwX*X*XXX{.{.XX%XXXXX XY.h.E./.). XE.V.N.R.'.E.E./. X.XoX8XrXyXLXL N *XXXXXXX%XoXoX,X*X%X$X%X%X!.'.{.'.A.J.XXXXBX}.& r.rXXX>X>XoXoX.XoX.XXXXXXXoX.XE.{.oXXXOXOXOX{.A.{.{./.A.A.G.J.{.>XSXJ + @ ~ =X[.$XX., *.!.$X$X X]. XXX$XXX/.R. X;X&X&XXXoXXXoX%X%X%X*X*X*XrXjX:X]. X].XX XXXOX.X XXX*XoXXXoXoX*XwXwX*XwX*X.X*X6X5X6X.X6XwX.X X,XBXW -.@X!.].$X X X X X&XXX X/..X*XoX*X%X*X%X$XXX&X*XXX XoXoX*X,X,X<XrXrXrXXX).).x.T Q.$X$XrX<X*XrXrXrXrXrXXX%X*XwX<X*X*X%X%X$X.X).).%X.XoX5XA.3XVX, O 3 m.@X@X X).]. X!.].).C.!.!.",
"E.!.!.E.).E.).V.V. X X].].E. X X X!.{././. X.X%X%X&X&XXXOXoXoX*X*X*XrX!.P.@XQ.W.R.!.E.'.!.R.V.R.A.R.E.R.V.!.!.{.T.).)..X%X%X7X6X7X7XrX*X7X6X<X*X-XrX6X-XlXW.7 B ).).T. X*XoX&XXX&X XXXXX{.XX.X XXX X X[.'..XA.R.E././._..X.X<XNXP ' ).%X X%X-XZ.!.E.!.{. XXX%X%X%X*X*X;X%X)._._./.). X-X<X1X).^.A.Q.;Xk x ^.R.E.A.E./.E.E.E.!.E.E.E.!.{.E.T.h.f.'.{.{. XOXXXXX X.XOX.X.X|.OXOX%X1XkX].E.;X.X*XoXXXXXA.8.:.:.5.,.,.5.g.T.A.E. XoXoX%XXXoX XXXoXXX.X.X/.).). XXX*X;Xa.-X-XrX-X-X-XXX%X X.XXX.X XT.:.W.E.!. X XE.a.i.E.E.E.E.{..X*X6XwX,XkXUXP N *X.XXXoXOX|..XoX6X.X).%X.X.X X{.{.A.A.{.'.<XBXx -.yX9.} {.oXoXoXoX%X.XOX9.$.Z.'.XXXX}..XOXXX}.'.'.'.Z.Z.{.D.D.{.>XSXj + , ^ =XQ.].q.,.!.!.].$X$X$X). XoX XE.!.).%X$X%X)..X.X%X*X*XoX%X*X*X-X<XE. XQ.].]. X%X$X.XOXoX%X.X%X*X*X,X,X*X*XwX*X.X*XoXoX*X6X6X7X-XXX%XSXU @.~.!.!.$X$X!./.E. X.X X.X%X%X%X%XoXoX.X%X.X*XoXoX%XXXXX*X*X-X-X-XrXrX$X/.%Xj.T ].=X&X1XrX-X-XrXrXeX7X%X.X*X7XrX*X;X%X%X.X_. X XXX.X%X6X{.7XVX, + , e.].XX-X/. X X!. X{./.!. X",
"R.E.E.E./.R.T.R.E.]. X'.V.Z.!.].{./.!.{..X{.oXoX.X.XoXXX}.XXoXoX*XwXyXE.V. X).!.!.!.E.E.R.R.R.R.R.E.'.E.Z.!.{.]. X.X). X%X%X6X6X6X6X7X*XrX,X*X*X-X6X%X&XkXQ.5 I ).T.!. XoXXXoX%X.X{.!. X{.'.'.{.E.{.XX X!. X/./.!././.).)..X,XZX%.B .X.XXXXXoX X{. X'.{.{.XXoXoX%X7X7XrX5X%XOX.X X/.!.XX<X-X X).R.'.-Xl ,.%XZ.!.!.E.E.R.E.!.E./.E.E.!./.!././.R.{.].{.OX{.{..X.XXXOXOX.X.X}..X X'.rXn.E.*X-X*X1X,X*XE.f.<.,.6.5.:.,.u.h.C.A.)..X*X*XoX*XoXoXoXoX.X.X.X).)..XXX-X-Xa.&X7XrXrXrXrX*X*X X].%XXXXXT.c T.`.). XXX!.a.2.A.!.E./.}.5X6X6XrXrXrXGXL W -X{.OXXX|.OX}.wX5X X/.%X.X'.{. X[.}.[.[.{.XXkXE 5.rXg.} {.XXoXoXXX|..X|.C * l '.XXXX}.}.{.{.{.{.'.H.'.Z.A.D.{.{.>XnX3 + , K =XQ.R.a.W.!.). X]. X X).!.). X!.). XXXXX.X.X;X6XoX%XoX*XXX;X;XhX$Xa.].].]. X].XXXX%X.X%X.XXX.X5XoXoX*X*XwXoXwX*XwX6X*X*X*X6X;X-X%X$XBXa.@.~.!.).]. X X X XOX%X.X.X.X%X*X%X*XoX.X.X%X%X.X%XoXXXoX*X,X1X<X,X-X<X-X;X&XT.R R.1X=X<XrX*X1XrXrXrXrX8X%X*X;X*X6X*X%X.X_. X/. X.X.X%X5X5XjXJXa o u e.&X#X].V.). X{. XR.R.{. X",
"E.E.E.E.!.E.E.!./.{. X*Xg.5.E./.!.!.E.{.{. XXXXXOX}.{. X}..XoXoXXX*XMXZ.a.:X$X!.R.E.R.'.R.A.R.V.T.E.E.R.C.Z.E.].[.{.!..XXXXX*X5XwX6X6XwX*X,XXX*XwX*XoX*XkX=X9 F E.T.R.].XXXX{.XX.XE.E..X X'. X'.'. X X!.A.'. X).'. X/.).). X,XZX7.N _.E..X*X.X.X.X X X{. XXX%X.X;XrXrX7X*X*X*XoX.XOX/.{.XXXX[. X!.].&Xb 5.).Y.E.E.T.E./.!.E.E.E.E.E.E.{. XE.!.E.{.{. XXX.X{.{.}.XXXX X}.}..X.X-XI %.5.R.u.u.&X-X-X<X XY.t.6.6.4.9.5.5.y.j.N./.)..XoXoXoX*XXX*X6XoX.XOX X/. X.X&X&XY.&X-X-X<XrX-X6X;X X!.).XX/.).C.5X).).). XY.y.u.C.C.T.(..X6XwXwXtXtXrXSXE E *X X.X.XXX}.}.4X.X/.(..XOX'.}.'.{.{.].].].]. X_ g.oX6X4XOX.XoXoXoX|.|.eX*X[ P /.OX.XOX}.}.}.'.{.E.Z.H.A.A.E.{.{.>XyX+ , , K [.R.Q.Y.R.R. X$X X$X&X$X!.!.!. X!. X X.X%X%X%X.XOX;X.X*XXX&X&XjX$Xr.R.!.]. X X[.{..X[. XoXXXoX5X*X*XoXoX*X,XwX*X*X*X*XoX*XoXXX&XXX$XjX).$.!.!.!.). XXXXXXXoX*X.XOX*X.X%X.X*X.X*X.X.X.X%X.X&XXX.XXXoXrXwXrX*X*X*X&X&X).} Z.1X-X<XrXrXhXrXhXrXhX;X*X%X*X*X*X%X%XXX.X). X X%X*X7XoXoXyXIXh @ 3 e.!.].!.E. X].). X/./. X.X",
"/.T.E.!.E.)./.E.E.{. XoX{.A./.!.E.A.T.E.E. XoXoXXX.Xg.E.*XoX6XoX,XXXlXR.i.).!.Q.T.R.Z.Z.R.R.Y.R.Y.T.E.C.V.R.Q.Z.[.'.{. X X X%X6X*X5X6X*XwX*X*X-X*X*XXX*XkX&X> G i.V.V.R. X X X.X.XoXXXXX.X X]. X]..X X).E./.!.{.).{. X/.).%X*XNXh.Z _. X&X%X%X.X.X).{.]. XXX%X6XwXrXhXrX7XrX6X*X%X.X{.!. X X X XOXE.].N q.T.R.E.T.E.!.E.).E./.E.R.E./. X X{.{. XE.{.'. XXX X X[.{.{.{.XX].[. X-Xu.i.r.).t.| ;XrX-X<X&X].a.t.7.r.y.6.8.8.u.A.E.A. XoXXX,X*XwXwX*X5XoX.X.X X_.].{. XR.&X-X,X*XrXrXrX7X&X X!.). X). X X X).XXXXT b 6./.C.E. XOX8XrXtXuX6XwXAXR R -X/.{. XXX.X.XoX%X(.{..X/.'.'.!.'.).'.XX].]. X=.V.oX4X.X3X6XoXoXoXoXoXoXiX.XC.).OX X X{.OX{.{.E.Z.Z.Z.A.A./.J.OXqX,XO u , J [.E.Y.a.u.A.!.!.R.].$X%X X!./.).!. X X$X%X&XoX*X%X5X.X%X%X*X*XjXY.,.i.Q.$XV.-.E.{.{.XX X!.XX*XoXoXoXoX*X*XwX,X,X-X*XoXoXoXoXoXoXXX$XrX7X$.W.Q.!. X{. XXX$X.X5X%XoX5X.XOX.X.X.X.X.XXX.X.XXXXX X'..X*XrXwXwXwXrX*X-X%X X@.n.&X&X-X,XrX7XhXrXrXhXrX.X)..X*X;X%X%X%X).E.).!.$X-X*XwX*XyXJXS   u m.1X1X;X$X).).). XXX X X!.",
"E.E.Q./.!./.E.T.E./. X/. X X X{.).E.R.C./.XX X*X*X*XC./.%X;X3XoXiX[.XX3.$.%XE.E.R.R.R.E.V.n.Y.P.n.V.h.Y.E.].u.} 9.A.'.'./.).%X6X7X7X*X%X6X*X6X*X$X.X.X&X<X=X7 Y i.7.V.Z.]..XQ.]. X*X*XXX{.'. X X.XXX X).!.{.E./. X). X X/..X%XyX6.P .X*X6X%X.XXX/././.!.).).%X6XrXtXlXtXrX*X*X*X%XoXXX{. X X X!.'.!.!.W r.!.Y.Y.Q.T.E.E.E.E.T./.A.A.E.!.'./. X/.].'.'.[.XX}. X{.}.{.E.{.'.E.]. X-XkXY.&X7X.X6X6X&X-X&X].R.u.i.u.h.8.9.4.8.C.A.C.{.$X%X*X6X,X*X*XoXoXoX{.). X].Q.P.=.Q.-X,XrX7X-X<X<XrX&X/.). X X). X X).XX X] Z u.C.V.E..X*XwXrXlXrX*X*XCX$.%. X/..X/.).%X.X.X4X XOX.XA.E.E.!.E.'. X&X].].E.@.T.oXoX6XoXoX0X0X0XoXoXoXoX(.B.A.{.{.{.{.{.'.{.A.Z.Z.N.S.'.}.{.J.0XA.= 1 , J 1X].].%._ V.R.R.R.E. X X!.E.{.'.{. X X&X&X%X%X*X6X*X*X*X,X*X;XzX#.i.).).%XE.#.N.}.'.oXZ. .{.*XXXoXoXoX3X6X*X*X<XwXV.Z.XXoX&X.X.XoX&XhXrXr.T.E.'. X'.{.OX X X;XoX*XoXXXXX.X.X{..X X X.XXX X{.E.{. X*XoX6X7XrXrXrXrX*X X-.h.&X-X$X%X-XrXrX7XrXrXhX7X.X).$X&X%X X)./.E.!. X$X*X*X5X0XrXJX~ o 3 3.1XKXxX X).XX X$X$X X XE.",
"E.T.E.!.{.'.E.T.E.!. X X X].!.!.E.E./././. XXX*X X/._..X%X4X*XwXlXXX7.I 6.!.R.R.R.Y.R.Y.Y.V.V.V.V.V.u.V.!.*XY.) ;./.].!.). XOX;X6X<X*X*XoX%X,XXX X%XOX[.hXhXi *.i.6.5.u.Z.E.'.'.'.XX*XXX{.!.E.{. X XXX). X}.E.E.{. X X X)..XXXtX%.P ).7X8X%X%X X/./.!.). X%X6X7X7XrXrXlXyXrXwXXX.X*X X{. X!.!. X/.!.E._ h.T.V.A.T.R.T.R.E.E.A.E.A.A.E.'.'. X X'./.'.].'. X}.[.'.{.'.8.g.E.R.E.'.].<X].!.-X*XwX*X*X&X$X].!.n.u.u.g.y.6.6.u.A.C.A./.XX%X*XwX*X*X*X*XoX X!.{.].E.Q.s.~ ~.=X-XgX7X<XhX<XhX-X).T. X X X X%X%X X).A.h.A.j.A./.%X*XwXrXlX,X*X1XzX@.5. X!. X.X.X6X*X*X*XoX5X}.C./.A.C.T.].$X].].].Y.n E.*XoXoXoX3XoX0X>XoX0X3X3X{.A.D.{.(.{.G.Z.H.Z.A.A.N.S.A.Z.'.'.'.wX!.t 1 , K &X].$XT.u.h.V.T.!.).%X)./.R.!.).].]. XXX%X$X%X%XoXXXXX-X*X6X7XjXY p.$X X X).R.!. X{.oX!.7.}.XXXX,XXX%X*X6X6X*X*XrXE.E.%X%XXX X.X%X7X<XrXW.Y.E.!.{..X X.X%X$X&X*X*X*XoX{..X_. X X.X X X X).Z.E. X XXXoX6XrXwXrXrX,X*X;Xr.e.&X-X-X&X-X-X7X-X-X-X-XrXrX X X%X%X).).T.^.). X.X%X*X*XoX6XGXO.o u Q [.SX<XV.E.). X!. X X X!.",
"!.E.E./.{.{.!./.E.E./. X X X'.E.E.E.T./.). X X*X!.N..X%X6X3X*X,XNXlX8.} ,./.V.R.Y.n.a.Y.Y.a.V.g.V.Z.8.V.E.XX;Xh.C. X'./.{./.XX;X*X*X-X*X*X X X X X).!.].<XlXi -.V.6.#.:.u.N.R.E. X{.XXXX X'.E.A.E..X{. X{. X X'. X{. X X/.{.XX,X:.C %X-X-X=X;X.X).)./.)..X;X7X7XrXrX7XhXjXrXrX*XoX*XoX X/.!.).!./.E.N.I u.R.R.R.R.Z.V.Z.E.E.E.E.Z.C.'.H.'.].'. X!.{. X{. X X{.E.'. XZ.u.A.V.Y.Q.].=XQ.].1X,X*X*X;X;X&XXX XR.n.h.h.u.6.u.R.E./.^./.OX*X6X*XwX*X5X5XwX Xu.!.].{.R.O.0.+X-X7X-X-X<X<X1X<X-X&XT.!. X$X].XX%X%XT./.!.A.N.A.{.%X*XwXrX7XoX&X&XlX' t. X/.'. XXX*XXX,X&X%XXXoX}.'.E.C.A.V.].].].&Xa.t /.XXoXoX3X0X3X0XoX|.>X3X3XOXD.D.J./.D.A.N.C.N.N.N.N.L.Z.S.N.A.G.wXg.k 7 , ! =X$X!.!.'.C.V.Y.E.)._./.T. X!.!.). X.X.XXXXXXXXXXXXXoX%X&XrXhXhX6 P.].E.!.!.!.{.XX/. X.XE.'.OXXXoX6X*X*X6X*X*X*X*XoX X*X%XoXXX.X*X,X-XhXY.Y.!.E.E.{.{..X.X%X%XXXoX,XoXoX.X X X.X.X'.{. X{.Z.E.{.}.XX>XrXrXrXrXrX,X*X7Xx.R ;X=X=X;X7XrXrX*X-X-X-X1XlXrX X%X).).E.T.T.).$X.X%X.X%X.X6XGXq.o ; L R.lX$Xa.T. X$X). X X!.).",
"E.E.E.E.!.'.E./././.).XX XXX'.'.Z.V.E.). X.X XV.%XXX.X*X3X6XoX-XMXyXb.:.| !.Y.Y.R.Y.Y.z.V.Y.a.Z.V.n.Z.V.R.!. X$X/. X/.!.!.E..X;X1X*X%X*X*XoX X!. XY.V. X=XmXE -.E.a.6.:.2.7.u.Z.R..XXX%XXX'.'.C.b./. X!.!.]. X.X{. X{.{..XXXXXlX-.N 8X&X<X&X$X&X].).).).*X-X7X6X-XrXrXrXyXrXyXwX,X;X&X X)./. X X].E.b.W 7.C.Y.E.T.Y.V.V.R.R.Y.C.V.V.Z.E.'.].E.'.E. X].'.[.{.E.R.'.E.'.E.V.b.Y.Y.@X=X@X].&X-X&X1X,X&X&X-X&X XR.V.V.h.6.u.j.:.C.).)..XXXoX*XoXXXoXXX*X.XZ.{.'.E.R.*.Q.;X-X=X-X-X-X-X-X<X-X-X!.E.!.].].XX&X%X).).E.V.C.E..X*XwXrX*XXXXX&X&XnXI 5.!.E.!.OXXXXX*X%X*X%XXXXX XE.T.R.V.b.E.!.].mXV.9 ].oXwX3X6X3X3X3X0X0X0X3X>X.X{.J.{.D././.N.g.N.N.N.N.A.A.S.S.S.A.*XV.v i : =.-X].Q.!.Q.E.E.E.R.)..X).).%X).R.{./.{. X X X.XXX}..X}.%X X&XjX$X= ~.].Q.].!.E.!. X/. X}.!.!.XX;XXX%X*X.X5X*X*X*X%XXX&X,X*X&X*XXX*X;X1XhX!.h.E.R.]. X{.XXXX&X X*X*X*X6X*X X/. X XXX!.!.!.u.C.{.{.'.XXwX6X6XrXtXrXrX*X&XY.i @XdX-X7X-X*X-X1X*X*X%X%X&X<X).$X).!.E.E.).).+X_..X.X X.X.XGXx.o 3 r.1X-X X!. X X X X].!.E.!.",
"R.R.E.Q.{.).!./.E.T.!. XXX].'.Z.Z.V.!.{. X.X.X).XX*X*XXXXX.XXX1XyXnXb.5.#.T.V.Y.Y.Y.Y.P.P.n.p.a.u.b.Z.C.E./.). X).+X XE.R.Z.'.XX-X*X*XXXXX].E.{.$X X X].&XlXQ 5.E.n.p.b.4.4.4.4.u.!.%X&X$X X{.!.A. X X/.!. XXXXX_././..X}. X&XmXT 9 -X%X-X&X].E.!.!.E.). X XXX$X X%X$X;X*X*X,X;X%X$X XR.R.R.E.Q.I.R.2.Q n.V.E.E.R.T.R.R.Z.R.V.Y.T.V.E.R.Z.E.Q.'.R.Q.[.'.{.].'.Z.Z.E.R.R.V.p.b.n.].].Q.@X&X-X&X*X*X&X X$X*X-X].R.V.V.g.N.B.:.A.). X.XXXXX*XoX.X.XXX.X X X X!.!.].L ].hXgX-X*X-X-X*X<X6XrX7X$XR.Y. X$X X].).).!./.R.E..XoX*XrX,X*X X X$X$X-XE M.'.Z.'.'.{.XX&XXX*X%XXXXX'.E.R.V.V.Z.R.Q.[.yXY.f R.XX3X6X3X3X3X3X3XoX3XwX3XoX}.{.'.J.A.J.A.C.S.N.Z.H.H.A.A.S.S.A.wXV.i y * e.&XR.Y.Q.@X!.Q.!.E.R.!.). X$X X).).). X.XXX X'./.)./..X%XXX%XhXp.> Y.@X'.Q.'.'.'.'. X%XT.q.u. X$X$XXX'.].*X,XoX&XoX XXX.XXX%X*X*X&X*X1XMX!.p.E.R.E.!.!. X]..XXXXXXX*X%X-XXX{. X X X XE.'.N.A./.}.XX>X<XrXwXrXrXrXwX*XrX!.* 0.dX=X=X-X<X-X*X-X*X%X X&X%XY.!.!.R.V.Y. X X X X).!. XXXXXAXi.o 3 I.1X&X;X X X X$X XXXV.R.oX",
"R.C.E.R.E.R.].].E.R.Y.'.XX].E.Z.R.E.XX].{..XXX%X*X%XXX'..Xu.b. X1XBXZ.5.-.R.Y.R.Y.n.a.a.V.b.i.y.p.u.a.V.C.).%X). X X{.!.C.V.E. X*X&XXX].'.Z.R. XXX&X-X&X-XhXQ p.R.m.b.n.M.7.3.} 2.V. X&XXXXX X].]..X X{./.XX.X X)..X)..X/. X&XmX! u $X_.;X;X$XR.T.).+X XE.E.!.). X.X.X*X*X;X-X&X&X%X XR.Y.Y.T.~.P.P.=.I V.P.R.Q.R.V.n.R.V.V.V.R. XE.E.E.V.Z.E.!.R. XXX].[.].Q.Z.p.V.R.R.V.y.e.2.y.a.p.$X&X&XXXXX1X%X%X&X&X&X$X X!.E.R.Z.{.{.{.). X X XXXoXoXXX X X X X]. X.X X~.v -X1X-X1X-X&XoX-X*X-X<X-X&X!.Y.].$X]. X).!.!./.!./.XXyX<X,X&XXX'.!.].].].E Z.R.H.'.E.'.oX*X&X*X&X&X X].R.R.u.b.b.Z.Z.].#XE.v E.XXXX.XOXoXoX,X0X3XwX3X3XoXoX{.{.G.G.Z.Z.Z.Z.L.m.N.N.N.S.N.7.Z.>X5.n < - m. XI.Y.!.#X].!.E.T.R.'. X XXX X XE. X$X$X%X X).E.). X.XXX&XXXrX! > s.R.E.'.].].'. X).%X;Xh.V.%X X).XXE.!.&X-XXX$X X.X XE. XXX*XoXXX X*XSX$.i.!.Y.E.E.E.E. X&X.X.X.X$X,X*X&X X!.).).'.E.E.E.E..X*X*X*XrX,XwXwXrXrXrXrXOXW.< y @X=X&X&X*X&X-X%X$X X).XX Xh././.a.g.T.!.!.Q.T.E.E.).{.XXAX*.o 9 U.<X1X,X%X$X X&X&X%X&X%X%X",
"V.V.R.Y.Z.R.].[.'.'.m.H.OX'.Y.R.].R.!./.{.].XXXXoX&XXX). XV.u.R. XnXoX} *.Y.Y.Y.R.n.y.n.n.p.y.y.i.p.n.Y.R.E.]. X X$X].].Z.Z.V.E. XXX&X[.'.E.E. X&X].&X&X&X<XQ a.R.n.n.Y.p.b.8. .%.i.E.XX%X&X X&X].].{.{.XXXXXX X{.{./.{.{.{.XXlXb 8 ;XXX-XhX&X'. X X XrX&X).!.!.$X$X&X&X-X1X-X-X=X7X$X!.E.E.!.~.!.Y.$.b y.z.Y.R.R.Y.n.n.V.i.p.R.rX<X!.R.n.Z.].!.u.=.n.Q.[.!.R.P.n.n.Z.E.n.2.3.2.$.%.$.&X-X&X[.*X-X-X-X%X&X&X&X$X). X].A.E././. X.X'.{.{.b.R. X X X X).!. X X X:XJ $XdXdX<X@XR.XXXX&X-X=XxXdXn.p.].&X&X X!.R.A.R.E.{. X&XyX,X{.'.E.R.C.Q.'.Q Z.R.R.R.R.Z.!.XXXX&X&X&X].].!.Z.b.Z.b.b.n.R.Q.m.h  X3X.X|..XoXoX0XwXeX0XwX3XoX|.'.H.Z.S.N.H.N.b.M.L.b.b.L.A.A.Z.H.XX=.t.x X p.&XR.Y.Q. X[.!.Q.E.R.E.]. X). X X!.]. X X%X&X!.E.!. XXXXXXX$X<Xt 3 y.R.R.'.'.'.'.]. X X;XE.R.XX].[..XR.r.'.].!. X XXXXX XXX X%X{.XX XmXR.& a.Q.R.R.Y.E.E.E.'.XX X XV.&X&X&X X). X].E.!.!.E.E.].XX*X,X*XwX<XwX6X<XwXwXyX8X1 + / =X&XXXXX*X*X$X X).).E./.).!.V.y.j.R.E.W.W.Y.V.T.E.{.XXBX! o u M.U.2XwXXX X].&XXX%XXX$X$X",
"R.{.'.].'.Z.'.XX'.Z.R.'.[.#XI.R.].].XX&X#X@XXX&X&X>X#X'.'. XrXXXn.-XXX| @.T.a.Y.Y.P.n.n.n.n.n.i.u.i.V.Y.E.!.!.&X@X@X&XXX{.Z.R.E.XX,X&XQ.].].].].].XX#X].1XdXE z.Y.Y.Y.!.R.5.$.J R ). XXX%XXXXX XoXXXR.'.XXXX X[.'.!. X X'.{.XXkXn 9 $X X<X<X<X&X XXX&XhX7XXX$X X&X X X&X%X-XdXfX=X<X&XR.Y.Y.R.Y.P.n.@.G *.y.P.n.n.R.Y.n.a.V.5.y.h.$X!.p.$.5.h.-.P B I P *./ p.a.m.R.I.Q.I.n.y.5.2.T T ].&X*X&X-X,X,X1X1X<X&X&X-X].].XX*XXXXXXX-X[.Z.{.[.N.T.). X{.XXE.E.!.].$X$Xk =.z.I.[.].V.Q.I.@X'.[.dXkXu.$.].'.].2X&X[.].#XXXXXE.V.n.[.E.Z.R.Z.R.R.R.E p.Y.m.V.V.R.R.].].&XXX X].'.].V.b.Z.V.Z.n.n.Z.7.d ].3X}.4X6XoX3XwXeXwXwXwX6X>XoXG.{.A.N.N.N.b.b.7.8.M.L.N.Z.Z.Z.'.].8 r.[ ; s.$X[.R.]. X$X].].!.V.i.P.].@X X].].$X X).&XXX].E. X).].].[.,X&X, t I.Z.E.'.Q.R.E.].]. XXX!.'.].].XXXX/.-.5.R.!.'. X.X&XoXXX).T./. X&X<XD = z.Q.Z.R.V.R.E.'.E.]. X X X&X&X$X$X!. X].E.!.R.V.V.].oX-X-X*X*X<X-X6X*X%X,XmXDX7 % t [.#XXX&X%X&X X X!.].R.E.!.!.V.t.h.A.T.Y.V.p.V.R.T.!.XXrXG X 9 m.R.Q. X X.XXXoXXX XXXXXoX",
"_ ' I J L J Q Q Q C W Q E T E L Q Q Q / $.$.$.5.5.7.b.7.y.3.V.Q.n.Y.i.' ' Y.Y.P.P.Q.Q.Y.Y.Y.n.n.n.n.m.R.n.Y.R.R.Q.I.R.I.I.u.y.p.i.n.a.p.P.p.M.n.n.n.r.t.R.!.n e.P.n.p.n.!.-.v 4 k ].R.E.'.'.R.Z.Q.'.R.n. X].].R.R.R.V.Z.'.Z.'.R.= > U *.r.a.p.a.,.i.a.a.h.h.R.i.R.R.!. XE.P.p.W.Q.Y.P.$XR.h.h.R.Q.E.Y.!.E.Y.Y.R.].'. X'.XXwX.X.X%X).$X).@.#.j.x.] *.h.,.5.] ' #.' $.$.*./ T E J L x t @.e.m.y.n.Q.R.Z.E.R.V.Q. XR.V.R.n.].Q.@XP.v Y  XE.V.T.E.C.R.V.V.h.V.R.&XY.< l i a M H ) Y U ` F ! &.T R T Q E / / =.=.=.2.e.y.R.V.5.5.7.y.2.r.r.t.a.Y a.x.V.p.6.u.n.n.R.E.R.E.Q.Y.n.n.M.n.y.e.0.3.e.Q 9 Y.XX}.oX*XoX,XwX,XwXyXrX>XXX{.E.Z.Z.b.M.8.8.8.4.7.b.N.b.N.Z.Z.!.P.& I o.c / P.p.m.m.m.I.Y.R.Q.h.-.r.Y. X@X XR.!.$X].[.#X2XQ.R. X].[.].kX2.O t m.[.R.Q.[.'.n.n.Q.'.R.'.[.Q.[.].*X.X].p.V.I.[.#X>X1X<X%X XC.$X+Xr.#.4 < e.R.V.n.a.V.Q.R.R.E. X X!.'. X&X).!.].[.E.R.A.V.E.'.XX,X,XXXXX&X,XwX,X&X>XnX5X: 1 u =.[.].XX X!.Y.R.E.n.Y.E.].E.u.n.V.Y.V.R.Y.u.b.p.n.[.#X&XH X 9 n.n.Q.]. X X X.XXX%XXX.X$X",
"O.w.O.G H _ N V _ B V f s p i V B B N q r p M M 2 $ 5 Z ) 2 a H @.*...B B G 0.=./ ~ T ! T U L S b h f k w w m p l f 8 5 i l l m m G | B 6.V * O > P ` ` >.k.o.#.T u.4.@.-.X.x 5 q C P z T I h E b C Q W b b L L L P _ _ | ,.g.i._ #.#.>.k.v.T./.F.`.5X.X*XoX.X.X X*X.XXX].R.P t.x.L ,.jXrX&X!. XXX$X!.~.-XY.*.Y.!.!.!..XoX*XwXrXrX7XrXrXjXtXrXvX! 4 <.<.;.` o.<.` o.#.>.;.>.] ` M q i p b c L ! $.$.,.a.h.u.h.T.x.).XXs.1 , T r.u.u.,.u.V.).T.R. Xt.h.T.V.Q. X{.k.`.9X%X_._.5X_.l.c.k.k.t.' ` ) Z b c 2 1 i a 7 i c D Y #.6.8.;.] i.f.f.j./.7XhX!.r.i.g.6.:.-._ T b U z l l 7 < < 4 , & X   . $.[.[.OX[.[.[.OXXX>XrXlX,X'.Z.N.y.u.9.2.4.:.| %.-.%.=.5.$.@.@.r.o.< G G e i n 8 t b / X.-.5.p.V.!.i.h.'.;X7XT.Y.N T Q E T Q Q / =.( 3.p.u , 3 ^ m.U.U.R.m.Q $.2.p.m.e.M.3.3.P.m.e.=.( / E Q e.3.p.n.4.} R.j.h._ v.] * E R.I.Y.5.n.R.Z.n.Q.&XrXZ.p.&X&X!.Q.R.R.n.b.b.y.M.m.M.m.n.m.I.m.m.n.M.7.e.R.-.1 3 3 K m.p.m.m.m.y.2.p.y.y.p.n.M.e.7.e.r.m.n.5.e.3.$.$.e.e.e.D . j m.n.Q.E. X X.X X X%X.XXX X",
"%XrX X!.rXNXrX}././._.4X4X5X(.3XeXtXoXj.(._.5X8X8X.X/.;.^._.`.).^.j.1.<.c.j.!.q.X.i F o.*.' Y ` #.*.o.,.w.f.j.^.v.j.k.j.j.c.k.l.(.)._.Z f.}.:.P X.t.j.f.k.k.j.F.1.d.S.B.h.).>.c P _ ] B ] ] 5 7 f l c q G #.t.f.g.j.j.j.C.^..X8XrX*XE.E.%XwX X!.%X%X%X5X%XoX.X.X XoX%XXX].A.L ,.w.M T.8X%X*X&X$X].@X!.V. Xi.P Y.).E.!.!.XXXX*X*X,X,XrX*XXX*XXXnX X1 >.x.T.`._.5X_.4X%X^..X7X6X8X7X9X_.5X5X).%X6X).%X6X6XrXrXtX6XeXjXBXAX1 : ;X7X6X5X*X6X*X%X-X1XrX6X%X%X*X&X&X&X*XrX*XrX%X;X<XNXrX-XhX7X-Xr.t.6.#.P <._./.).5X8X8X8XeXcXwXpXcXuXeXcXuXyXwXlXnXZX&Xn.,XuXtXtX_.j.j.C..X}.(.`.^.v.^.f.f.j.q.` Y %.%. .4.b.b.M.Z.Z.n.Z.!.V.y.7.V.t.Z.C.C.k.f.C.C.k.a.V.!.T.Y.!.`.+Xv.5Xj.w.T.).W.k.W.).C./.{.'.!. XE./. XXXrXlXGXF ; 7 < * > > * * $ . X + + , 3 3 d 3 6 9 y a 6 9 3 , 3 u h = + +   + , c ` Y q 7 < m ;.8XF.5XT.<.k.M c s.*.*.Y ' R } ' U 5.*.P P } } P C U b L J z k f 5 n W f n w 5 5 4 8 q 9 i c k 9 > t x t n k v n n h d k n n h v h h h n v h k f k y 8 9 3 , + j m.R.I.'.].]. XXXXXXX]. X.X",
"].]. XR.'..XXX'.N.N.A.{.A.A.A.J./.{.{./.A.h.(.}.XXiX,X_ k.8XrX<X*X6X6XeXtXvXrXT.).7XbXhX%X_.^.T.;X6X.X;X6X6X7X;X&X$XT.R.V.V.h.^.8X/./.| C.XXXX'.R.g.V.(./. X8X}.S.D.{.wX.X/.*XoXwX0X|.J.(.tX4XB <.u.#.>.T.^.R.R.A.E././.)..X%X.XXX.XA.N.A.XXZ.V.;X_.%X5X;X.XOX XXX%X*X X].R.i <.` H %X%X%X*X%XXX@X].].E.).T.t.V.E.!.E.!.{..XXXoX*X%XoXE.E.BXBX<X&Xt D Y.&X$X&X$X$X&X;X-X!.E.&X$X]. XY.R.E.Y.T.XX.X.X&XXX&X-X*X*XwXwXyXPXN 7 5X&X X XXX*X&X%X&X%X*X-XXX*XrX*X%XXX X-X*X*X6X7X-X1X&X=X=X<X<Xa.R q.j.6._.;XXX{..X8XrX6X6X6XoX*XrXwXrX6X*XrX*X[.].'.b.Z.OXH.}.XX/.R.R.XXwX>XwXwXwXtXtX X;X6XrX(..X/./.}.{.}.{.|.XX*XwX*XtXrX5.@.).).7XOX6XlXjXuXyXrXtXrXrX-X$X).!.$X=XhX7X-X;X X).!.E./.T.A.E. X{.'./. X$X).XX*XLX>.H ;.] +.' ` +.o.+.>.H a 1 2 : 2 * * < ; r p : $ $ % % q k a & O , + / -XjX7X5X8X%X9X%X*XjXlX%Xh.`.+X5XgXq.i.x.x.h.a.#.5.Y.h.k.] ' ;.] m 8 z G L N l p e Z #.A V g g g [ { ) ] +.` 2 2 a a : : 2 < ; < < & - l b 8 > = 4 8 7 9 i k w q l M m x 3 + + j I.I.m.R.].XXXX$X$X$X XE.{.",
"V.R.'.{.E.Z.{.'.Z.u.C.D.C./.{.{.A.A.D./.E.Z.D.G.{.>X[.w i.%X XXX X X.XoX,XoX*X*X$X%X&XXX).T.h.u.Y. X X X XXX X X X].n.V.y.5.6.A..X).y.4.u.N.M.8.8.2.6.V.C.S./.J.D.J.{.OXA.b.N.N.'.J.G.A.B.}.FXu.' u.,.E.T.R.V.Y.V.R.E.E.).%X%X*X.XXXJ.g.V.R. X*X*X%X%X%XoXoXOX XXX%XXX X].rXI >.M G ;X%X&X*X-X&XXX XR.'.XXY.N.u.V.T.V.E.E.{.'.'./..X.X/./.vXAXmX X< ; x.@X'. X].).!. X$Xa.,. X].!.!.V.n.n.a.n.'.].XX&X*X7X-X7X-X6XwXyXKXF a 5X%X XXX$X-X*X*XXXoX&XXX*X%X-X*X-X%X X&XrX-X-X<X1X=X=XhXfX-XxX@X@.R Q. X XE.R.Z. XXX*X*XoX.X XXX6XwXwX6XwXwXrXoX{.u.| S.G.4.} B.A.A.A.{.'.G.J.'.K.{.XX}.{.'.'.E.A.'.A.A.{./.D.{.{.{.XXXXiXBXy.L i.!.).V. XrXrXwX-X-X&X$X X].Q.E.!.].$X$X%X&X].E.Y.Y.R.A.E.Z.E.[. X X X)..X.XoXrXGX,.v.;XwXeXtXrXvX7X{.6X8X;X9X9Xv.v.+X_.v.l.`.v.v.w.w.` ) ` ] <.] F H , / [.[.XX*X,X5X*XXXXX<XXX].&X$X$X-X<X-X7X$X%X*X6X.X6XuXZXLX9.;.<.k.o.B ' V _ V.>.B { ..[ ) { { [ { 1...] 1.1.+.G ) ` ` ) o.[ G B { G G { 1.` a q a p l i w M c G ) ` { ) c : , . t @X$./ [.'.XXOXXX&X].].R.U.",
"V.u.y.V.E.'.E.E.C.g.C.A.A./.Z.A.A.A.A./.A.A.D./.OX<XZ.w T..X].'.'.]. X*X-X*X).XXXXXX].Q.].T.R.C.R.'.'. X X{.XXXX[.Q.Y.V.9.%.:.g.A..X| ;.8.8.8.M.b.7.4.8.S.S.S.A.S.S.G.G.N.L.N.b.u.N.A.J.G.S.iX(.) w.,.!.E.R.R.V.V.E.C.V./..X*X;X%X*XoXA.C.Z.Z.*X6XwX8XOXoX.X.XoX.X.X.X'.Z.<Xr.,.x @.%X&X XXX%X=X&X$Xa.E.].E.Y.N.a.Y.V.A.A.E.A.V.V..X%X5X7XtXlXnXzXS a !.].!.!.!.).T.).). X_.%X X).E.E.N.y.y.u.!. X&X%X-X*X*X*XrXwX<XkXKXx 7 ;X$X].&X%X%X*X;XoX*XXX*XoX-X&X&X*X%X6X;X*X*XrX-XrX7XrX-X=X=XhXhX*.n  X].'.E.Z.Z. XXXoXoXOX{.!..X6XwXrXwX,X1XrXrXNXwX7.A.oX{.A./.{.{.{.{.{.{.OX{.}.OX{.}.}.'.{./.{.G.G.J.Z.A./.)..X/.E.'.XX*Xr.O.).7XE.C. X*XrX7X*X*X&X$X X].).).). XXX-X1X%X].!.!.E.A.A.Z.C.Z.'.].{. X.X X.X.X7XvXh./.R.R.Q.E.E.&X).!.a.r.!.+XfXrXjXVXbXT.$X7XjXbX%X).%X7X5X5X*X%XW.x.D $.&XQ.@X XXX X X XR.].]. X X X].XX X$X)./.).A.R.!. XoXyXGX| c k L -.:.;.' P k.k.l.k.j.j.C.F.(.F.K.F.4X9X_.(.(._.`.^.^._._..X(.D.^.F._.}.4X7XN X.W.`.T.C.j.j.v.j.v._.v.v.w.` Y ~ 0.w.o.,.h.$.#.-.%.R W E v u ",
"g.8.8.u.E.{./.'.C.C.E.R.A./.E.A./.A.A.Z.'.E.D./.OXyXV.i h.(.!.A.E. X{..X<X7X,X X.X.XE. XR.C.V.V.R.E.{.OX X{.XX{.].'.E.y.9.:.%.8.R.eXf.1.9.8.7.u.7.M.9.9.d.S.N.N.S.S.N.H.N.N.A.{.j.u.B.D./.A.wX^.>.<.w.W.E.R.Y.Y.C.C.C./.{.{.6X*X<XrX*XG.N.N.Z.{.*X,X7X6X6X6X4XXX.X XXXA.Z.yXy.@.i t.$X). X.X;X;X-X!.R.E././.V.u.V.].R.E.A.E.D././..X*X*X%X6XrXlXvXU c %X X].].!.!. X XXX&X$X&XXXXXE.E.V.6.u.V.).$X&X-X*X<X*X7X,X*XrXkXKXD 1 ;X$X X&XXX-XXX-X%X*XXX*X*X*X%X&X%X.X6X*X*X,X,XrXrX<X<X*X&XrX-XlXz.x $X].!.E.R.E..XoXoXXX{.}.OX.X*X*X<XrX*X%X<X<XnXCXN.A..X*X*XoX.XoXOX X'.{.{.{.OXXX.X.XXXOX'.'.{.'.{.D.'.!.!. X X}.{.G.;X-X0.^ UXAX).).*X*XrX<X*X*X.X X X).!.{. X X.X1X*X%X X!.!.!././.A.Z.C.'.{. X X X}.}.oX*XVX).!.E.T.R.I.V.R.Y.].V.a.).). X$XhXkXzX7X7X7XfXrX).!.).$X].$X@X@X:X~.! 2.&X[.{. X.X%XOX(.7.V.'.).$X.X.X.X X[.XX{.E.{.E./.OX>XyXLX_ > 3 $.].E.).).T.C.T.E./.)..XoXrX6XoXwXXXoX,X<XwX0X5X*XoX*XrXoXXX*X3X.XOXXXXXoXBXF a.dX<X<XrXtX-X7XgX7X6XjXBXbX9X^.%X7X%X6XjX9Xf.<.>.1.] g w 1 1 ",
"N.y.8.8.C.{./.E.Z.A./././.}.{.{.{.G.'.'.G.G././.OXyX5.i `./.E.E.R.'./. XrXwXrX.XE. X'.'.R.V.V.T.E./.]. X.XXX X'.E.E.].R.6.4.4.d.{.rX#...9.7.9.L.b.N.8.8.7.N.L.B.N.N.g.N.N.N.8./.D.A.C.B.G.A.eX X<.t.,.Y.Y.V.R.C.R.C.C./..X.XwXXX*XrXrXXXA.N.Z.V.{.*X6XwXwXwX6XoXXX.XoXA.N.kXp._ 7 x.;X).!.$X*X*X%X{.R.V.Y.E.Z.b.n.E.E.E.!.!./.A./. X6X*XXX%XrXrXxX~ D .X!.!.!.].]. X].$X).XX%X$X&X XR.u.y.y.y.E. X%X*X,X<X*XrX7X*XwXrXBXM 1 ;X%X&X%X&X%X$X*X*X%XoXXXXXoXoXXX%XoX*X,X*X,X*X,X*XrXrX-X;X*X-XxXQ.D @X].'.R.T.OX.XoX%XoXXX}.}..XXX*XwXrX6X>X,XwXkXlXj.A.<XrXrX%X%XXX{.{.G.'.'.{.{.[.}.{.{.{.'.{.{.E.A./.A.E.!.{.[.'.'.!.wXQ.D ~ fXdX$X6X*X*X*X*XwXoX X{.!.!.{.E.!. X%X-X,X&X X]./.{./.E.E./.Z.E.E.!./.{.{..XoX6XVXT.T.E.Y.R.Y.Z.n.n.V.Y. X&X).).%XlXkXkXhXjXzXzXjX-X$X).!.!.].@X:X!.z.X.y.$X].]. XXX.XOX{.(.{.{. X X).}./.}.{.{.{.A.A.C./.J.>X,XPXU   , m.XXE.Y.V.T.V.V.Z.V.R.E.{.XX}.{.}.'.'.{.{.XXXXOXXXoX/.XX;XoX*XXXXXoX.XXX$X6XU Y.@X]. X X]. X$XR.].%X=X-X=X%X).E.!.].$X<XjX%XT.t.6.;.B m 7 6 ",
"N.u.7.u.Z.!.E.A.Z.!.E.'..X X}.{.}.{.{.J.'.J.J.J.oXnX} 1 %X).E.Q.!./.{..X*X6X%X*X X{. X X/.C.V.R.T./.'.].%XXXXX X'.Z.I.b.8.:.:.d.OXlX' j.8.u.b.b.b.S.C.N.C.8.N.N.S.N.N.N.g.C.B.A.A.{.A.A.A.{.iX!.@.t.-.V.V.Y.R.E.V.C.C.)..X*X;XwX,X*XwX*X'.E.A.C.A.{.4XwX6X6X6X6X.X.X.XN.Z.<X-.I l W..X_. X.XoXXXXXZ.H.b.V.R.Q.n.n.I.R.Q.].Q.V.E.T. X.XT.g.$XrX,XkXJ T ).!.!.].!.!.!.).%XC.i..XXX$X XE.g.5.6.u.R. X$X;XwXrX7X7X7X%X6XrXBXS 7 gX$XXX%X%XXX;XoXoX&X,XoX*X&X%XXX&XXX*X,X6XwXwX;X-X,XrXrX-X&X-XlXY.t $X{.E.V.R.*XoXXX*XoXoX(./..X.X4X6X7XrXeX3X*XlXlX,.V. X XXX X.XoX X'.'.{.{.{.{.}.XXXXXX{.OX{.OX{./. XV.'.{. X X!.'.E.-XW.y O.z.&X$X-X*X;X%X*X-X;XXX'.{.{.'.!.). X&X>X>X X X X'.A.A.A.T.E.!.E.A./.{.{.{.{..X8XBXi.x.R.E.p.t R u.i.N.n.T.%X X$X X*XrXrXkXjXlXmXDXzX7X).E.).!.{.!.!.x.T y.!.'.XXoX*XoX.X{.{. X[. X).)..X.X)./.{..X/.C.A.D.J.OX>XAX! o 3 e.2XR.V.V.Z.V.n.Z.Z.E.G.[.}.OX[.{.A.E.{.{. XoXoX.X{. X/.OXXX*X*X,X%X.XoX$X%XN R.&X&XE. X].'.E.R.XX&X-X-X&X X).). X]. X&X-XrX7X$XA.f.1.` a 7 ",
"C.Z.8.7.N.Z.R.9.g.'.{.{.{.{.[.OXOX{.{.A./.{.{.}.oXnX,.y `.`.E.!.'.!.C..X*X1XoX*X X X X X/.!.A.Z.R.].].].$XXXoX X'.'.Z.b.8.6.8.A.wXyX_ ,.g.V.b.N.N.N.A.G.{.B.N.S.Z.S.N.8.N.C.C.A.S.H.S.J.J.}.wX X-.r.5.a.V.n.A.R.V.V.^.)..X%X*X6X6X*X,X*X].{./.(.D./.{.}.wXwX5X6XoXXX}.g.E.lXV.k _ %X).). XXXoXXX[.b.M.7.2.y.y.3.3.7.2.y.Q.E.u.C.T.).).).i./..X,X1Xu s. XA.'. X!.T.!.).%X%XT.%X%X&X].E.g.6.6.8.N.!.oX&X<X-XrXrXtX7XrXyXSXU y $X&XXX*X-X*X,X%X%X,X,X,X*X%X.X*X%X%X*X*X*X*XoX6X<XrXrX7X-X XXXvX$Xa !.R.E.V.'.%XoX*X*XXXXX|..XOX4X*X*X7XeXvXrX%XrXCX%.V. X X X{.{.{.{.'.E.{.{.[.}.}..XXX{.{.{.[.{. X/./. X{. X'.'.{.'.'.=X@XO.*.P.&XXX;X,XrX*X<XrX*XXX X X/.{. X X.XXX&X&X&X X X X!.E.)././.{./.{.{.{.{.E.{.OX6XSX6.V.E.E.c.w P y.5.5.i.Y.). X$XXX<XhXtXrXhXxXxXxXBXzX7X.XE.!.!.E.-X%XX.p.].]. X&XXXoX.X{./.E.}. X X X.XOX.X X/.(./.C.B.Z.{.|.wXFXR   3 7.p.R 4.C.V.V.V.V.V.b.u.{.{.{.E.G.E.E.E..X{.XX*X.XXX.X.X.XwX0X*X6X0X*X;X.X7XI R. X&XXX&X X X/.!.%X7X<X-X&X X)..X.X X XXX]. XrXtXrX.XF.l.1.w.",
"Z.H.N.8.b.Z.{.6.4.E././.{.OXOX{.7.Z.'.A.E.{.}.}.>XrXZ.N h.!.E.!.'.E.u./.%X%X,X*X.XXX X+X XE.E.R.Z.E.E.).).%X.X X'.'.Z.N.8.9.N.E.eXuXI _ u.C.A.S.A.A.A.G.{.G.A.Z.Z.Z.N.b.N.N.A.A.Z.A.S.J.{.OXiX1X2.X.x.a.a.a.V.V.C.C.E./..X.X5X6XwX6X*X*X.X).)..X{.}.{.}.OX*XoXoXXXXX}.C.A.MXE.* :.;X). X.X/.}.{.M.3.} E W v n h h k d n E 3.b.E.).^.). X X/.{.*X$X3 Y.!.Z.!. X X X X X X.X). X.X;X X).V.i.6.:.g.A..X;X6XrX<X6X7XrXrXrXSXU t $X.XXXXX*X,X,X*X*X*XoX*X*X*X%X*XXXXXXXoX*X%X%X*X-X7XrX7X&XE.%XkXzXD Y.Y.Y.V.).XX*X,X*X4X.X5X.X}.4X5X.X6X8XlXvXrXrXBX5.Z.XXOXOX).{./.E.A.'.XXJ.G.A..X!.C.E.{.{.{.{. XE.A.E.'.{.XXXX8. .m.oXrXq.F E.&X&X;XwXrXrXrX*X*X X X X).). X.XOX X].]. X]. X!.!. X/.{./.!. X!.{.{././.{.OXoXLXh.h.R.Y.T.h.u.y.6.4.y.V.E..X%X%XrXrXhXjXrXrXxXlXmXlXlXjX7X X!.!.!.].R e.].XX$X&X*X*X*X(. X/..X.X).T.)..X/././._. XA.j.B.{.oXuXGXB X 9 b.R.6.f.A.V.V.N.C.A.N.N.{.[.{./.A./.{.'. X X*XXX4XoX.X.X3X0X3X6X3X0XwXwXoX6X:.Q. X$X%X%XXX).{. X*X6X<X*X*XoX XXXXX]. X)./.^.C.A.oX*X7XjXVXGX",
"N.m.N.M.8.N.A.A.A.A./.D./.{..XoX7.N././.G.{.{.{.XX>X!.U Y.].E.E.].}././.*X,XwX*X-X%X X+X!.].E. Xr.P h.). X%XXX X X!.V.b.u.6.d.A.eXZXS.| j.A.S.A.Z.G.E.J.A.'.A.N.S.N.b.N.N.B.A.Z.G.Z.N.A.J.|.,X<Xn i ).Y.u.V.A.V.N.N./..X5X.X6X6X6X6X6X;XOX.X{.OX.X}..XOX.X.XOX.XXX*X XV.C.yXR.- a.&X X'./..X}.g. .Q W f n n h h h d 8 k f n E b.rX-X). X X)./.XX].y z.!.R.E.!. X X X X.X.X.XC. X*X$X!.Y.u.8...8.V.{.XX*X*XrXwXrXtXrXlXSXU 6 :X&X.X%X%XoX*XXX*X*X%XXXXXXX.X.X%XXX XXX*X%XoXXX*X*XrXyXhX*X*XkXDXx W.!.T.V.)..XXX%X*X.X.X.X5X.XOX6X.X.X6XtXjXyXrXBX$.u.{.OXOX/.A.E.A.C.'.{.'.G.E.{. Xg.Z.{.E.'.E.A.V.f.A.A.A.OX0X:.z 4.oX6Xg.N !.@X&X*X&XwXwX7X*X,XXX X X X.X)./.OXE.Z.XX X].]. X!.!.'.!.!.E.{.!. X{.{..X.XOX*XLXY.t.Q.R.n.a.h.u.y.7.u.V.R.XX;X6XkXhX7XtXjXhXkXkXxXxXlXlXjX7X$X!.T.E.@.y.$X X%X*X*X%X.X.X/.)..X/.)..X%X%X.X/. X.X{.A.d.B.{.XXeXFXF . d 7.].T.N.h.h.V.Z.S.A.E.A.J.{.{.A././.{.{.}.}.XXoX.X|.|.3XoXoXwXwXwXrXwX*X.X6Xr.[.@X$X;X$X X).'..X*X,X;XrX;XXX)..X$X X].)././.N.N.'.OX*XiXcXrX",
"N.b.L.u.L.g.A.b.C.E.{.E.{.{. XXX{.(.{.(.{.'.{.'.XX1XZ.@.Y.].].E.'.!.T..X6X6X*X*X%X-X X X!./..XXXh.F T..X%X%X X'. X XR.V.u.u.N./.rXuX}.| B.D.A.A.{.{.J.D.{.A.A.N.b.b.b.b.N.B.A.G.J.A.S.A.D.|.iXnXk ; W.Y.R.Y.V.Z.N.N.E..X.X.X.XwX6X6XwX*X.X.X{./..XOX_..X.X}.oXoX6X%X)./.{.kX].= E.%X!.{.oX*XoXj.} A W 9 t y y y 8 8 8 f f z C } lXzXrXXX). X!.[.R.9 W.$X].!.E.]. X X XXX5X4X/.%X%XXX).E.V.5.%.8.C. X*XXXoXwXwXwXwXrXyXBX-.a Q.%XXX&X%XXX*X*X%X&XoX%X.XXXXX X$X).).$XXXXX XOXoX*X*XrXrXhXlXhXBX~ !.Q.T.C.).&XoX%XoXOX(.oX.X.X.X.X*X.X4XrXuXuXlXAX3.a.XX}. XE.'.{.{.{.{. X}.Z.Z.}.OX/.!./.{.J.A.S.A.A.A.G.G.{..X/.:.C.XX6X$.P !.&X&X*X6X*X6X6X6X6XXX X X XoX X)..X/./..X{.Q.].].!.!.G./././.)./.).{..X.X.X.X5XGX).h.W.Q.P.n.V.p.u.7.8.V.E. X%X*XrXrXjXtXrXrXyXyXlXkXlXlXxXgX;X.XT.Y.} n.].].&XoX%X*X.X.X(.).)./.A..X6X%X).!.'. XoXd.{ d.(.oXuXZXz O 3 M.n.Z.V.N.N.C.Z.A.A.A.A.{.{.J.'.G.{.{.{.}.}.|.3X|.}.|.3XoX>X>XXX,XoX*XoX6X5Xt.!.@X XXX X). X X$X*X*XwXwXoX.XXX X X X X!.E.T.A.B.A.}.wXrXeX6X",
"b.g.b.N.g.u.C.C.Z.E.'.{.'.{.].{. X{.{.{.{.A.G.'.Z.Z.@.$.V.Q.]. X/. X/..X6X*X;X,X&X&X X{.{. X.X X XT./.).$XXX'..X{.!.V.C.g.f.C./.rXiXg. .B.D.G.'.{.{.{.{.{.{.A.b.u.L.8.N.A.A.A.H.Z.S.N.A.J.|.iXNXk a ).V.P.V.Z.b.Z.C././..XoX.X*X6X6XoXoX.X X{.!./.{. X X.X.X.X5X*XXX)./.{.yXXX= '.%XE./.oXwXwXE.:.L b t 9 9 6 6 6 t t k f f z A ;XlXrX&X;X X!.{.V.4 ~.!.E.E.!.!. X]..X.XoX*X.X5X%X X).Y.V.:.:.g.C..X,XoX*X,X*X5X*XrX,XNX$.i ). X.XoX*X*X*X%XoXoX%X%X.XXX X X).).E.). X X{. X.XXXXX*XrXlXDXhXmX=.Y.W.Y.R. X.X%X*X%X%X.X5X.X.X.X.XoXoXoX8X7XjXlXKX} u.XXA./.{.{.'.'.{.{.{.G.Z.A.'.G.A./.{./.J.J.G.D.D.A.{.E.J.{. X{.E.}.rX#.S !.&X&X,XrX*X*XwXrXXXXXXX.X.X%X.X)._.%X*X.X X].E.!. X{.E././. X)./. X}..X.X.XoX3XAX!.a.Q.T.Y.Y.a.h.i.8.d.V.!. X%X*XrX7X7XrXrXyXyXyXrXhXhXrXjXlX8X;X).!.*.Y.XXXX$X&XoX4X.X.X/.).)./.E. X%XXX).'.{.'.{.(.B.B./.XXiXAXz O d 3.'.n.C.b.N.C.Z.H.Z.Z.A./.D.E.{./.A.{.{.}.}..X.X}..X}..XoXoXoXwX6X'.|.6X*X;X,.V. X X X X/.R. XXX*XwXwX*X3XoXXX%X X X X). XC.C.N.A.{.nXuX6XeX",
"N.b.u.N.N.j.u.A.A.A.A./././.{.{.{.{.{.{.J.J.{.XXZ.@.C <.^.!.!.).)._..X.X6X;X6XXXXX X XY.R. X.X X{.!.).XX.XOX{.{..XR.V.V.f.N.C.{.-XzXt.' /./.E.{.{.}.{.{.{.[.N.7.u.N.b.N.Z.S.A.A.A.S.N.A.J.K.iXnXk N ).Y.V.n.n.N.V.Z.E.{..X%X.X*X>XoX*XXX}.'.{.R././. X). X.X*X*X*X&X}.E.}.rX*X= R. X`.E.).6XrX%XT.,.P x a a y q i 7 8 l f z l B E.rX;XrXtX&X-X%Xi.4 h.Q.E.E.!./.{. X XXX X&X5X.X%X;X XV.C.<.6.C./.%X*X*X*XoX*X*X*X*XrXVXi.N W..X XXX].XXXXXX$X.X.X.X%X.X X X/./.T.T.).). X X X X'.oX*X<XxXLXKXR Y.E.!.V. XXXoX.X5X/. XXX.X.X.XOX.XOX/..X6XlXBXBXb 6.{.A.'.Z.Z.'.{.{. X'.C.N.N.Z.H.A.A./.{.{.'.A.A.A.A.A.A.'.E.Z.A.Z.A.XX%.C +X$X&X6X*X*X*XoXwXE.oXoXXXXX.X X.X XoX*X X X X!.{..X/./.E./.). X/./. X{..X.X.X4XSXE.h.Q.Y.a.V.V.N.u.u.h.C.E. X*X*X*XwXtXrXwXwXyXtXrXhXrXrXrXhXrXrX;X&X*.!. XXX*X*X%X*XoX.X)./. X/.E.%XoX X/./.E.!.E.A.E.A.D.OXwXGXX.. 9  .Z.C.N.H.S.S.Z.Z.Z.Z.Z.{.'././.A.A.'.{.{.OX|.oX}.|.|.4XoX3X3X6XwXwX6X6X6X6XC.k.).XXXX'. .4.H.XX*X*X*X;X5XOX.XXX$XXX X).!.E.^.A.C.V.1X6XrXcX",
"N.b.V.b.b.g.N.N.S.A.A.{.{.{.D.(.{.{.'.}.J.{.E.OXwXa.N w.`.!.!.). X{..X.XoXoX.X X.X).*Xu.f.%X{.XXXX!. X X XXX'.]. X!.V.V.N.C.A.{.&XmXr._ %X)./.{.OX{.G.{.{.Z.N.| u.b.b.b.N.Z.S.Z.S.S.S.G.D.J.yXyXf V /.V.R.C.b.C.Z.A.'./.)..X.XoXoX6XoXoX{.E./.A.T.(.{..X6X*X*X.XXX.X{.{.OXrXhX, a. X).T./.XX*X$XE.W.t.@.R G H Y B F P N B V V I T.%X;XhXlX<XrXlX!.- a.E.E.E.E./.). X X'..X%X*X;X*XXX!.V.g.t.6.h./.5X*X*X*X,X*XwX6XwXrXcXh.B Y.$X].].$X X XR.%X%X%XoX*XoX.X.X_././.T./.)./.E././.!.{.*X*X-XBXLXs.Y.E.!.E.[..X.X X.XA.{..XXX X.X_. X.XD..X*XrXMXBX8 :.A.E.E.G.A.A./.'.[.E.7.8.N.C.N.L.N.{.XX'.E.N.N.A.A.Z.A.J.{.A.E.Z.{.wX5.L Q.$X%XrX,XXX*X*XwX*X6X;XoX.X/././.).&X7X%XXX!.R.E.E./.).). X/.)..X{./..X}.}.oX6XFXV.i.Q.P.P.h.n.a.i.d.V.E./.{.%X*XwXwXrXrXwXrXrXtXtXrX8X7X7XrX<X-X=X$X@.].&X>XXX%X*X,X6XXX X). X/././.). X/./././.R.E.D././..XeXLX` O 9 $.E.b.N.A.Z.H.N.Z.'.'.R.'.[./.E.A.'.J.J.G.OX}.}.oX4XoXoX3X3XwX6XrXwXwX,X6X4XT.A. X XXX}._ g 8.XX%XXX.X%X.X.X X.X%X$X X X).!./././.R.].kXKXGX",
"Z.b.N.V.N.f.C.N.N.A.D.A.A.{.D.{.{.{.{.G.G.A.A.'.<X].8 #.+X+X!.).{. X}..XoX4X/.T.%X.X;XA.g.).).XXXX.X.X{. X X X X XE.V.V.j.A./..X$XzXu.#._.^./.}.|.{.}.XXG.N.N.8.u.y.8.b.b.N.N.N.C.S.S.D.D.{.iXrX8 B /.Z.V.C.V.N.C.A.A././. X.XoXoX4XoX%XOX X/./.(..X.X.XoXoXXX X.X{.N.Z.'.,XlXt Y.)././.E. XXX XT.Y.x.i.q.,.*.*.' ' 8._ } ' ) :.).%X&XBXBX$X-XhX&X9 t.E.V.R.V.{././.!./.). X%X%X%XXX XV.V.6.6.h..X%X*X*X*X6X*X6XwX,X<XzXi.z R.$X].E. X)..X.X5X*X.X%XoX%X.X.X%X)._.{./.). Xf.g.E.C./.oX%X-X1XmXY.W.).!. X}.OX.X{..X.X.X{. XXXXX.X.X.X3X.X6XrXmXBX9 6.C.N.S.A.Z.{./.'.XXuXE.u.b.N.S.g.N.E.XX{.E.R././.{.{.{.{.{.E.A.E.{.,X:.Y !.$X%X*X*X*XoX5X*X6X%X.X%X.XOX/./. X;X,X*X-X XR.A.!. X{.). X X/.{././.{..XOXoX3XCXn.r.R.Y.Y.V.a.n.u.g.h.E./. XXX*X,XrXrXrXyXrXrXeXrX7X6X*X6X-X-X-X&XjXq. X].].XXXX*X*X;XoX XXX&XXX). X.XA.C./.!.!.R.T.^.^.D.|.uXLX` . 3 $.'.Z.L.N.b.b.N.S.Z.Z.Z.3.m.R.Z.A.}.}.{.{.{.}.}.3X.X.X3X3X3XoX6XwXwX,X>XoX.XR.E.{.{.XX.Xj.:.^.wX-X%X;X*X*X X.X%Xi.7. X].]. X_.).(./.R.XXkXGX",
"Z.V.N.Z.C.C.N.A.A.A.B.A././.{.{.{.{.{.G.G.N.B.H.XXI.k ! ;X!.$X$X%X). XoXoX5X*X X;X+X.X_.).)..XXX&X.X.X.X). X X X XY.Y.V.B.E./._. XlXt.,.A.A./.}.}.}.{.oXZ.y.u.u.u.b.8.u.Z.b.L.N.B.A.D.D.{.Z.iXoX& b {.Z.R.V.V.V.N.E.!.'.}.}..X.XoX.X.XOX.X/./..X}..X*X.X%X X.X X{./.N.C.{.XXlXb Y.).T.E.{.XX.X).T.Y.h.a.i.z.z.i.i.i.i.t.5.6.;.k._.%XrXDXAXhX-X1X Xc y.E.R.V.A.!.E.E./. X{.XX X$X%X$X).Y.Z.g.5.g. XOX%X*X6X*X6X6X*X*X-XnX$.0 ).&X]. X].E.$XXX%X.XXX XXX.XXX$X.XXX.X X X.XXX/.A.N.8.E. XXXoX<XkX$XY.T. XXX{. XoXoXOXOX X.X XXX%X%X.X.X3XoXXXwXBXBX8 :.{.S.A.A.{.}..XXX&X<XXXV.C.A.D.A.A.A.!.A.A.S.A.E.{.{.{.'. XV.V. X{.7X:.P ). XXXXX%X%X X*X;X7X%X%X+X.X_.(.C.E.*X6X*X;X)./.E.!.{.E.{.{.{././..X.X(./.}.oX0XFXV.i.Q.R.Y.V.V.C.g.u.N.V.E.{.&X;X<XwXrXrXyXrXrX7X8X7X6X6X6XrX&X&X&XhXq.XX&XXX%XoX*X*X<XoX XXX%X.X.X.X%X^.E./.!.!.E.E.E./.D..XeXGX] & 3 Q '.B.g.8.u.b.N.n.C.R.*.O ! E.Z.'. X{.{.{.{.}.XX|.4X.X}.}.3X3X6XoX0X3X6X6X}.V.E. X X X{..XXX*XoX*X6XoX6X*XoX6X).Z k V.$X X X)..X/./.{.{.E.bX",
"N.S.N.b.N.S.N.Z.E.A.4.C.A.{.{.{.'.E.{.G.J.N.S.'.>Xm.v F ;X$X&X&X%X%XXX*X6X6X6X*X.X.X%X%X%X XoX.X.X.X.X.X X X.X{.).R.C.A.E././.E.!.1Xh.6.A.A.D.|.|.{.{.{.b.u.y.b.8.8.u.b.N.N.V.N.N.A.C.A.D.J.uX{.L R E.R.R.V.V.C.C.E.!.E.{.{. X.X%X.X.X X.X/.V.C.{.{..XoX%X%X*XoXOX^./.{.'..XrXR T./.E.E.!.{. XXX%X X/.E.!.E.Q.R.R.T.Y.V.C.%.| V.%X;X6XBXmXlX<XdX!.8 a.R.Y.R.E.C.V.V././.V.!.XX$XXX X!.E.C.V.g.g.A..XXX$X%X%X*X*X*X%X&XmX#.; !.%X X%X.X$X%X%X*XXX.X{.{. XoX%X X). X X$XXX X*XN.:.N.E. X X X*X-XY. X).$X.XXX.X.XXXOX X XOX{.{..X.XOX.X.XoX XwXNXlXw I {.N.A.A.'.}.oX XXX X X XOX{.D.D./.{.A.u.Z.A.G.G.'.'.'.'.{.{.'.{.D.tXu.| ;XXXXX*XXX-X%X%X*X*X%X%X*X%X.X5X/.).oX%X X X XA././.{.'.E. X X X{.{./.{..X}.XX0XGXt.u./.Y.E.Y.h.V.u.N.V.C.V./.%X*X*X<X-XrX7X6X7X7X7X6X6X6X;X;X-X-X$XxX=.$X&X&XXX*X*X*X-X&X!. XXX$X%X*XoX*XoX X].!.E.{.Z.A./.OXeXPX*.X 3 3.'.B.S.L.f.b.L.S.A.A.h.#.6.Z.Z.'.{.{.{.{.}.}.|.|.XXOX.X|.oX0X3X6X0X3X3X*XoXA.V.!.]. XXX.X*X;X6X7XrX6XwX-X%X;X7X^.t.!.%X&XXXXX X.X}. XXX}.cX",
"N.b.H.N.N.N.S.Z.Z.A.N.8.A.{.{.E.{.'.Z.A.A.J.A.H.[.R.d S $X!.$X XXX%X%X*X;X6X*X6X%X%X.XXX%XXXXXXXXX{.{.{..X.X].!.!.E.C.T./.E.R.R.'.R.u.V.A.A.{.oXXXoX{.S.7.7.5.8.5.9.u.g.N.C.Z.Z.A./.N.A.D.4XpXA.,.4.Q.n.Z.V.V.C.C.E.E.Z.E.E.{. X%X%X X.X.X_.C.B./.(.{..X*X5X7X;X.X/././.E. XxXR h./././.E./.{.{.;X&X$XXX X].'.'.E.V.V.u.T.,.;.A..X X-XlXlXhXhXkXZ.w <.n.R.E.T.T.C.V.A.E.y.V. X X X X!.E.V.g.V.g.A. X XXXoXoX%X.X.X&XXXlX:.< ).;X$X%X XXX.X%XXXwX.XN.D.{.OX.X X$X!. X!.).). X/.N./././.'. X&XrXY.$X$X X XOX.X.X.X.X.X.X).)..X}..X.X.X5X;X6XrXBXlXf f  XZ.Z.A.A. X X{.'. X!.'.'.'.J.{.E. X/.A.B.A.A.A.A.E.'.{.{.'.{.E.'.rXr.U $X%XoXXX*X%X&XXXXX%XXX XoXXX.X.XOX.X.X.X/.E./.A.E.{. X].'.{.}.{.{.]. X{.}.{.|.oXAXt.i.R.T.Y.Y.Y.V.h.a.V.R.!. XOXoX*X6XrX7X7X7X7X7X*X*X6X7X6X6X-X&X=X+XU #X$XXX%X X&X=XhX0.&.$X$X*X-X*X,XoXXX X).).).E.Z.A.^.XXwXLXw.. 3 / '.Z.S.N.g.f.8.N.Z.Z.A.N.L.N.Z.{.{.E.(.{.{.[.{.}.|.}.{.OX5XXX{.}.oX3X6X5XeX/.C.{. X%X*X%XXXoXXX%XwXrX7X*XXX*X.X.XT. X%X%X%X%X X{..X&X.X.XcX",
"Z.L.N.N.C.N.Z.Z.A.Z.A.S.S.J.J.A.A.E.G.A.S.G.A.Z.'.R.4 c ;X). X X$X X&X*X*X*XwX6X*X*X.X%X%XXX.X{.{.).!.OX X/./.'.!.E.A.E. X!.C.Z.R.a.6.C.A.D.J.oX0X>X{.b.5.9.6.u.u.g.N.N.C.N.Z.A.E.{.D./.D.3XiXj.' P R.E.R.V.V.V.C.!. XC.%.u.E. X.X.X).XX.XOX.X/./._.|.oX*X*X6X6X*X X{. Xh.T.lXR r.).^.R.E.E.'.]. X$XXX*XXX].E.E.Y.n.V.a.y.y.8.A..X%XrXlXyX<X<XkXn.N :.z.V.R.R.T.Z.V.A.E.C.V.). X X!.!.E.C.T.C.V.V. X X XXX X.X.X X{.&XnX*.< ).&X&X&XoX%X*X%X*XoXoX8./..X.X%X.X.X X). XE.E.).{./.A.E.E./.!.+X;XW.XX$X XXX.XXXoX.X.X.X X}..X/.{.OX X.X%X6X6X*XBXtXz V XXV.A.'.'.{.'.{.{.{.{.{.'.{.{.{.{.{.{./.B.A.G.{.J.{.{.E.{.{.A.A.E.rXY.&.$X;X$XXX%X%X.XT.V..X%XXX.X XXXOXR.OX X.X.X_.A.N.C.'.!.{.'.'.{.{. X{./.).{..X|.3XGX4.q.Q.R.E.Y.Y.V.V.u.Z.A.E.!.{. X5X7X6X7X7XwX8X7X*X6XrX-XrXrX-X;X-X+XU =X$X X.X).$X$X7XH O.=X.X&X*X*XXXXXOX X!.).E.u.V.T..XoXeXLX,.X 3 Q OXA.N.N.N.g.L.L.N.Z.Z.N.M.b.A.G.'.A.D.{.{.{..X}.}.}.{.}.OX}.{.}.3X3X*XoXwX{.R. X).XX.XXXoXXXXXXXwX8X6X6XXX/.%X).T. X;X%X$X6X^.C..XXX%XoXVX",
"S.m.N.N.N.N.N.C.Z.A.G.S.G.A.G.J.G.Z.A.H.A.S.Z.N.Z.n.5 y W.].].]. X&X&X*X,X*X,X*X.X*X.X.X.XoX.X]. X!.T.).!. X X'.E././.E.!.'.'.E.V.r.4.A.D.A.'.>XwX,X'.u.2.5.4.8.C.u.N.N.N.A.'.A.E.{.(.A.{.0XiX|.D.| h.Y.V.V.Y.C.V.Y.{.)._ :.). XXX X X).)..X.XOX X(..XoX;X5X6X6X.X).)..X/.!.mXy.r.).T.A.R.E.!.E.)..XXXXXXX X'.R.C.b.V.h.4.4.g.A./.OXtXlXyXyXMXmXR.N t.!.R.Q.R.E.A.A.E.E.R.T./.!. X).!.).T.T.T.A.R.). X X XXX X'.{.{. XrX-.0 Y.&XXX%X$XXX*X%XwX*X5X.X.X%X%X.X.X.X.X/..X/.).!.!./.E././.^./.).!.Y. XXX X.XoXXX.X.XXX X{. X{././..X.X XoX5X,XwXNX6Xz z ].A.Z.A.Z.'.'.{.'.'.E.A.'.{.Z.Z.A.{.{.{.N.C.E.{.'.{.E./.{.{.'.E.E.-XR.X. XXXXX-X%X/.)././. X X XXX&XXX XV.XX%X.X*X.X/.C.C.E.E.{..X X!. X X X.X)..XOX|.|.KX2.e.Q.~.R.Y.Y.V.n.b.C.Z.Z./._.).%X6X7XtX6X).;X*XwX*X-XrX*XrX-X;XfXgX&.+X@X.X;X). X X+X_.5X%X%X*X*X*X*XoXXX X!.).C.r.V.). X%XeXIXq.X 3 Q [.N.N.h.L.g.L.L.N.H.S.H.N.Z.Z.A.G.{.A.J.{././.{.{.}..X}.}.|.3X.XoXoXOXXXoXE.).XX%X&XXX{.Z.[.XX.X6X7X7X%X)..X*X.X/..X%XoX X%X.X{.*X X.X*XBX",
"N.b.b.8.g.N.B.A.A.Z.A.S.Z.J.A.G.G.A.Z.H.S.S.N.m.H.b.d = r.Q.m.u.V.XXXX%X*X*X,X*X%X.X.X X X X X{.&X&X.X X/.).!.{.!.E.!. X X].].R.n.5.$.A.A.A.A.oXyX,X'.8.4.4.4.u.g.g.N.N.S.A.'.{.D.{.{.J.J.3X4X/._.#.V.V.V.R.R.C.E.A.!..XA.N./.{. X X X{.]. X.X.X.X.X{.oX*X*X;X;XXX).]. X X$XzXp.3.{.Y.E.R.V.R.E.R./.{.XXXX XE.Z.V.b.V.u.4.5.j.A..X.XrXyX<XwXXX].i.Z t.E.Y.Q.R.Z.R.C.T.E.T.V.!./.). X!.!.E.R.T.E./.{. X X]..X.X X X].Q.-X-.$ 6.%X$X$X+X X*X*X*X*XoXoX*X*XXX*XoX.XOX X{. X{.E.{.E.E.A.A.Y.R.E.A.u. XXXOX.X%X%XoX X.X&X X{.{.{. X{. XOX.X%X.X*XZXtX,.p V.Z.Z.V.Z.Z.Z.A.G.E.'.'.A.{.A.7.b./.{.(.E.{.'.'.{.E.'. X{.'.{.'.'.XX*X] ].$XXX&X$X!./.{./.{. X{.{.[.].n.E.XX*X.X.X{.'.A.R.E.E.{. X X'. X/..X)././.{.{.XXBXa.q.Y.~.R.Y.Y.V.h.Z.V.T.Y.!..X7X;X;X6X6X*X)..X*X*X6X*X-X*X-X*X&X&XgXq.@X$X X&X%XXX%X.X;X%X.X%X;X*X-X*XXX).E.T./.T.g.E.)./.XXeXLXw.% 3 / Y.N.b.g.g.9.L.8.L.L.N.N.N.Z.S.S.A.D.E.J.D.A.{.{.D.OX|.{.{.|.}..X|.oX|.OX.XV. X%X.X*X.X:.| A.oX*X*X6XwX/.E.oX6XoXE.{..XXX]. X.X.X.X%X*X6XbX",
"u.8.u.8.b.b.N.Z.N.N.Z.A.Z./.G.S.Z.Z.A.N.L.N.b.b.b.H.b 4 n T n l B h.;X*X*X,X*X%XXX X X). X'.{..X X].$X XXX].E.E.E.R.!. X X].'.n.u.L I C.B.A.{.oXNXrXZ.4.4.4.M.L.8.8.L.N.A.A.'.{.G.D.K.J.J.wX.X,._.u.V.Y.V.V.R./.R.T.T.V.'.!.A././.{.'.E.E. X X X.X/..X.X&X$XXXXX X).).).).XXlX7.$.].Y.R.n.C.V.V.Z.V.E.{.].!.Y.y.V.Y.V.V.5.u.g.T.}.5X6X,XXX*XXX].V.' >.E.R.R.Z.Z.V.V.R.E.E.!.!. XE.).).!.!.E.R.!.!.{.[. X{./. X X].'.E.%Xq.& X.$X$X$X$X;X.X{.oXXX*X,X.X*X%X*XXX.X.X.X X XE.!.E.E.Z.A.Z.A.V.!.N.2.T.!..X.X%X&X&XXX$X X].{.E././././. X XXXXXoXCXrX<.e a.!.C.Z.!.C.Z.Z.A.'.'.{.G.'.{.{.A.G.{.{./.{.{.A.{.{.{.{.{.{.'.{./..XcX| V. X#X X XXX.X/.}.}.A.6._ V l P V.$X%XXX.XXXA.b.Z.E.A.!.'. X{..X.X X/./.A.E.].&XnX%Xi.Y.~.R.Y.Y.V.h.V.V.Y.T.A.).&X$X-X-X%X*X*X.X*X*X*XrXrX,X%X X.X$X=Xs.@X].$X X&X%X;X%X%XXX%X%X*X*X7X-X;X%X^.E./././././. X}.wXLXk.. 1 T Z.N.g.u.8.7.9.8.8.g.L.8.N.N.Z.A.B.A.J./.J.A.J.J.J.J.J.{.OX}.}.}.}.}.}.}..Xc. X%X).}./.g.g.(.4XoX,X6XwXoX6X6X6XoX/.[.XXXX X{..XOXXX*X*XoXVX",
"2.9.7.7.M.L.N.A.A.N.A.A.Z.Z.Z.A.N.b.N.8.L.N.u.8.M.7.n t * 1 2 ` +X X.XXX*X1X-XXX X!.!.'. X!.!. X). X X X.X{.!.E.A.R..XXX&X].R.m.r.b I Z.B.C.A.{.BXmX].u.3.3.N.M.8.L.8.N.A.H.G.{.{.A.D.D.D.eX{.A.D.g.V.Y.C.V.V.Z.8.8.C.g.A.E./.!.!.{.!.E.E.'. X X X'.].].'. X].].!.E.E./. XXXrXV. .].n.N.8.6.p.x.V.b.V.R.R.T.V.h.Y.R.Z.u.i.h.C.A./.OX*X*X!.!.*XrX!.@.*.~.Y.R.V.Y.V.n.R.T.R.E.].!.E.!.!.'.).E.E.!.Q.].XX X X X].]. X). X=Xt.; P +X$X$X*X*XoXoXXXoX*X*X6X*X;X%X X.X.X+X X]. X'.Z.Z.Z.V.V.T.R. X X} y.V. X$X%X.X.XXXXX!.'.{.A.R.E.A. X.X.XXX.X.XuXrXV.V 5.R.p.y.'.R.V.R.Z.'.E.'.'.A.H.{.'.{.'.{.{.A.'.{.{.{.{. X{.{.{././.).vXT.P.]. X$XXX X/./.{.5X3Xj.....;.f.E.XXXX%XXX{.C.8.C.R.E.C.R.'. X X{./.A.T.V.V.R.$XlXhXV.a.Y.Y.Y.Y.h.V.a.Y.Y.T.E.)./.;X<X*X*X*X;X*X6XrX7X*X-X*X X).).$X$Xp.Q.$X].].&X&X&X&X&XXXoXoX%X*XrX&X%X.X.X{./.!./././.{.XX0XPXY.$ > } Z.b.8.8.9...L.9.d.L.g.8.g.N.L.S.H.A.J.F.A.Z.J.D.D.J.G.G.{.}.{.}.{.{.(./..Xa.).%X X)..XoX X*X*X*X7X5XoX6XwX6X6X*X.X}.OXXX{.{.XX.X%XXX0X5XvX",
":.1.8.8.8.b.N.L.N.N.b.N.Z.Z.Z.Z.N.7.8.b.7.8.b.b.7.7.v 6 3 1 s j.%XXX.XXX;X*X%XXX X!.R.!. X/.E.!.!. X).!.!.E.E.'.E.T. XXX&X[.R.y./ I } N.N.A.A.{.nXKX&XZ.4.8.4.4.4.7.g.L.S.A.A.{.D.S.D.D.S.eX/.8.g.6.V.Y.R.C.R.Z.8.6.N.A.h.^.T.E. X X XE.T.).!.'.].].E.R.R.!.R.R.Q.n.n.'. X&XxX[.h n.'.E.Z.8.V./.T.V.p.y.p.n.a.m.n.n.n.y.y.V.E.E.A./.%XXX'.&X1XkXa.$.@.].Y.Y.n.V.V.V.C.V.E./.!.E./.E.R.E.!.E.E.E.R.E.!.{.!.). X XR./.].&Xr.4 F T.XXXXXXXXXX%X X$X,X*X*X%X XXX XXXXX X X X.X{.E.A.A.V.h.C.A.!.&XI %.r.Y. X%X.X.XXX X{.{.E.A.Z.A./.{./.[. X'.XXyX'.i.w $.Z.y.5.Z.'.'.!.Z.Z.Z.A.H.Z.N.Z.A.E.Z.'.'.'.{.{.{.XX{.[.{.'././././.6X&XZ.Q.!. X X'./.!. X*XZXcX XF.V.y.V.XX X%XC.h.V.u.C.E.A.R.R.R.!.!././.C.N.b.Z.Y. XlXV.p.P.P.Y.Y.a.a.h.V.n.h.E.R.C.R.&X-X-X*X*XwX7X7X*X-X*X%X&X$X].@X$X=Xr.!.$X!.E.&X%XXX&XXX%XXX X X<XrX-X&X X/.E././.A.!.{..XoXeXFX$X$ 1 / A.L.8.g.8.9.9.7.8.8.8.L.g.b.S.H.Z.S.A.A.A.A.A.A.A.{.G.{.'.{.{.(.{.{.{.{.C.5. X%X*XoX.X/. X5X6XrX*X*X*X*X7X6X6X;X.X.X.X.X XOXXXoX%XXXoX%XVX",
"4.5.L.M.M.b.m.m.Z.Z.8.y.Z.A.Z.n.E.Z.7.b.8.7.b.b.N.XXQ 9 6 3 x T.R.'.XX&XXX&X&X-X XY.R.R.!.'.E. X].]. X!.E.R. X'.].E.].].&X[.I./ b ) #.g.b.N.A.E. XyX&XV.7.b. .3.7.7.8.N.N.Z./.{./.A.{.D.A.uXG.8.:.%.b.V.R.A.'.'.R.u.a.E.T.T.V.!.$X].].R.V.Q.E.'.].E.Z.R.Y.Z.E.].Z.y.n.R.V.Z.].p.4 2.Q.R.'.Q.H.Z.].V.y.u.u.Z.n.M.p.p.n.y.V.p.)..X'.E.!._.XX[.yXrX_ q W ;XQ.Y.V.V.V.V.h.Y.Z.n.Y.!.E.!.Q.'.].E.Y.R.C.Y.A.E.E.].].E.!.'.].1Xp.7 Z h.&X&X X&X*X%X%X;X*X*X X$XXX%X X$X%X$XXXXXXX'.'.!.R.A.C.V.Z.A.&Xn E %.n. X.X.XoX X.XZ.Z.'./.E.A.A.Z.!.'.'.'.'.yXe.5.n Q '.y.b.Q.'.'.'.R.Z.Z.M.=.$.b.Z.R.Z.'.'.H.'.'.'.{.XX'.H.'.'.'.{.{.E.XX$Xp.R.R.!.{.E.'. X*X<XlXhX-XR.u.L.Z.'.XXoX!.C.g.h.C.E.V.R.R.'.R.E.{.'.C.b.u.b.V. XhX8 / Q.I.P.Y.n.u.n.p.u.V.!.E.Y.T.&X&X1X-X;X-XrX-X&X-X&X&X X].$X&X@X@Xa.]. X!.R. X&X*X%X XXX).Y.E.%X<X*XXX XE.].'./.A.C.{.*X3X4XZX_.< y R V.8.L.L.8.L...4.L.M.8.L.L.L.N.S.A.A.B.B.B.9.8.M.S.N.H.'.'.D.{.{./.A.G.J.C.,. X&X;X%XXXE. X*X,XwX-X,X7XwX7X7X6X*X.X.X.X X.X XXXXX XoXoX3XBX",
"=.=.Q ( ( Q Q $.Q $.5.t.u.b.$.@.=.@.%.,.} %.3.5.M.Z.T > , O < *.5.p.n.R.I.'.R.[.R.n.R.R.n.m.m.m.Q.m.m.n.n.R.m.I.m.n.p.m.m.m.2.k N N ' R.b.n.b.E. X&X!.n.%.p.n.n.4.4.7.4.L.S.E.{.{.A.{.{.OXuXH.%.P _ C.Z.Z.V.H.'.Z.Z.V.E.!.E.n.n.[.U.I.M.e.3.$.r.i.V.g.1.,.%.| ,.6.,.' _ %.j.V._ i c @.&.T } I g $.} C V I T Q v E @.L C R I B _ } I %.;.$.5.Z.(.9.r 8 :X@XR.Q.Q.R.Q.R.R.R.V.Z.].Z.R.I.R.I.n.n.n.M.V.I.R.Q.n.Z.Q.I.I.U.#XT > b i.].$X X&XXX&X%XXXXXXX XE. X!.]. X X X{.!.'.].).!.E.R.T.V.Z.n.%Xz 8 P  .N. X$XXX,X X'.[.OXE.Z.'..XXX'.{.H.n.[.&XS L h =.].Q.e./ e.'.H.OX].i.F R X.b.n.R.Z.R.'.'.'.Z.'.E.H.[.Z.N.H.Z.S.'.'.XXV.-.u.b.Z.Z.Y.R.!. X1XyXkX<X XN.u.n.'. XXX.XE.a.V.E.E.n.m.E.Q.E.'..XH.N.7.9.7.u./.Q.= ( U.I.R.R.Y.m.m.p.n.R.Z.n.R.@X].>X1X1X1X&X-X%XoX&XXX].[.[.&X#XR.U.e.[.].E.C.!.%X%X$X%X%X).T.!.&X&XXX].E.R.V.V.E.E. X%X*XwX6XHX5Xa < T u.4.9.9.8.S.4.7.4.8.L.g.8.8.7.N.A.{.A.N.d.9.%. .$.Z.H.E.H.'.E.A.A.A.A.C.u.$.].$X&X*XXX XXX*X*X<X*XoX*XoX,X6X6X.X).!. X).].]..X{. XXXXXXXvX",
"3 O + @ @ + = 8 9 4 x G ;.t.#.%.,.L h.XXy.} #.%.4.,.;.F < > 1 a ) g d L N w f m Y l 8 w h d 3 h h h j j v h h W n Z V B } } _ P P l C E.Z.b.r.p.p.h.Q.h.Q  .7.b. . .4.Q M.b.n.R.Z.b.A.N.Z.>X{.Z N Y R.n.'.[.m.m.M.y.3.=.3.( ( K J v v h 9 > p o.:.C.g.<.w.P ) <.f.,.P ) 5X5XT.,.I ) X.f.f.<.1.{ ) [ V { M l w 8 M :.5 s V r e s r 5 g s s s g 1.F.{ < &.z.s.e.e.3.0.=.&./ } Q Q R L J v W E b b v C J W n l 8 b n d @.x y > k r.Q.#X1X<X1X1X1X1X1X].Q.Z.n.n.n.Q.].2XXX2X2X#X#X2X[.XX]. X[.[.&XL 9 k I 2.'.#X[.[.[.'.H.m.M.e.3.e.M./  .Q E ^ j u , O Q m.I.( T / m.m.U.'.1X&X Xp.M.R.n.].OXZ.'.n.n.H.Z.OXA. .} }  . .5.7.n.Q Q 5.7.2.b.n.h.Z.Q.[.#X2X1X2Xn.R.I.'.[.#XU.R.Q.m.].I.M.M.m.U.I.U.#X#X[.b.3.3.e.M.Q O K U.m.M.m.m.y.e.y.y.M.m.2.p.R.P.m.2X1XMX1X].&X<X&X&XR.#X@X@X#X#XP.K Q.Q. X X X$X%X%X&XXX_.). X;XXX X X!.!.Y.V.E.XX*X&X*XwXeXbX8X[ 2 Y f.7.4.4.M.u.7.8.:.4.4.M.L.7.L.N.H..X{.C.N.g...A C b.n.b.N.A.Z.A.T.C.8.u.6.%. XXX&X%X&X X$X,X%X*X*XoXXXoX,X*X.X/.E.E.'././.R.{.{. X.X{.XXlX",
"3 + 3 + O = 9 W } q.F <.k.1.:.h.^.P 5.KXIXV.) ,.d.6.<.;.` ` +.1.1.1.;.<.M m <.;.l.+.[ G h = X X O @ + . O , 8 _ g ..1._ | _ #.} i.X.5 7 l L R X.c Y vXx.P z _ _ C f C z f C I b P I C C V #.:.q 7 l Y K J J K v h v d 9 3 = > 4 > : u 1 : < p { ;.6.(...f.) [ f.k.<.1.) /.T.h.!.t.#.*.#.P ;.K.l.[ ..l.1.] { m X.#.M [ <.v.1.l.f.] ..+.[ 1.v...{ 1.1.e ; a T c B c k q < $ $ M p ; * p i 7 8 < 7 = < i < i o.>.>.B P h.F k 6 h / ( e.P.e.e.e.e.y.y.e.3.=.=.=.$./ $.e.3.3.3.( e.e.=.( ( =.( e.=.h 9 3 v J W j W h h d u 3 3 6 v > 0 n 3 O , + o + @ + 3 9 d & x x n b v n n W J n v J E T $.C W I $.Q 3.Z.b.I }  .} I _ C C Q R 2.e.y.y.n.n.M.R.R.[.m.=.Q Q e.( / / =.3.M.3.Q Q K v K K K v v K K K K v K v v j @ @ j u j j u j j j j h h v J K v v K E / Q Q $./ / / / / S =.$.e.T t P.E.]././. X-XXX%X X X). XE.V.]. XE.R.).!.XX*X%XoX&X6XwXcXbXv.M F t.7.4.4.4.4.9.4.4.4.7. .M.N.N.N.{..XXX{.g.8.| Z I u.N.7.b.V.A.T.T.C.j.6.%.| XX$X%X!.A.E. X.XXXXXoX/..XoX*X*X X^.V.C.E.!.R.E.{.!..X X.X XtX",
"a y 1 , , 2 c j.*.F a [ ] o.<.' ' p p t.!.2.p *.#.<.6.h.f.;.<.j.l.;...1.s s 1.+.;...1.l.;.#.` i 1 y y 7 a s s B [ [ 1._ :.f.;.) ,.6.] s ` o.;.+.` q.GX-X;.;.k.l...Z { V s s m s e f e s { { ] V e e 1 6 > X . . . & ; : * r 2 2 q y % 2 >.w.<.k.l.<.4Xj.f.[ ` ;.<.<.k.{ l <.h.t.i.' U b F T.B.g.1...d.F.<.;.M F F B ).tXtXpXcXpX4X8X4X4X4X9X_.^.F.(.^.^.^.(.^.(.(.`.j.j.A.k.`.j.l.f.k.d.*.;.o.) s s { M m j.7Xf.B ` ,.l i * > > $ $ : $ 1 7 : * * * > * 2 $ * : $ $ 7 > * $ , : $ % : $ 1 * X $ : 1 $ $ 2 $ $ $ & , % : 2 2 s r p /.Y a t y , 1 y 6 a B { M { m { { B m M B e B a 7 q a [ G ] #.[ q w < _ ;.<.;.d.l.<.f.<.k._ _ U T U L S h n i 7 1 , 1 u 3 % + O y t h 6 3 3 3 + 3 + + + + + . @ X O @ . @ @ @   o @ @ + @       @ X + t x y * 6 < 6 8 w 7 Y l n d k k q f.) { M 4 p.R.n.].XX[.#X&X,XXX#X].*XY.n.].[.R.].&X#XXXXX*XXX.XXX,XlXlX%Xl.] #. .%.%.%.2.2.3.4.7.8...L.N.L.N.'.,XyX1X{.'.u.} 6.b.b.b.b.V.Z.R.R. XE.y.$. .].XX Xn.R.].E. XXX}.E.E.XXXX&X<X X).E.R.R.R.E.E.'. X>X&XOXXXlX",
"o.H H U D 7 a o.*.&.o.#.>.f.h.a.h.t.*.#.,.r.q.h.i.h.V.i.h.A.^.C.5X4X5X.X^.j.v.v.4X5X^.F.;.] ` f.w.l.<.w.>.l.j.] <...[ P ] ] <.<.>.t.j.w.`.v._.k.>.c.hXT.#.' <.,.f.1.;.` { M { { g { [ [ l.1.+.[ B M M B H p H F H ` ` +.+.l.l.l.k.k.Y a gXgXwXrXwX}.|.4X).(.C./.(._.5Xf.#.#.t.-.6.t.:.@.-.^.^.F.F.d.B.D.(.E.j.a - -. X;X1XiXyXyX8XoX*X6XwX*X X).jX7X7XtXuXrXoX6X6XrXtXlXaXuX8XrX7X8XwXrX-XH X.F.F.v.`.k.o.;.f.6.6.<.k.<.<.o.` >.1.>.<.l.f.<.<.k.f.f.q.) +.>.v._.k.k.[ G ` G G o.+.+.[ +.l.<.` ;.;.>.+.;.1.<.w.w.] ) M +.w.1.l.l.j.k.[ :.>.w.R U h.;X_..X3X(.^.C.k.l.l.d.j.k.1.>.l.` ) <.f.;.;.<.<.o.o.s ) k.k.;.j.l.1.v.<.l.1.' p 7 i p t 5 a H p a 6 1 y a y y y y a y 1 , , , , , 3 , u 1 > y 6 D x u y u 1 y y u y u , 6 y u u y , 9 t i a a a q s G P Y ,.<.' _ P _ 9X8X1.] B q $.=.Q 2.e.y.7.y.y.i.M.e.n.3.2.y.y.5.7.y.y.2.5.y.n.7.b.R.&X&XC.pX^.<.:._ I #.2.} %. .%.3.M. .7.N.b.b.H.<XE.y.r.} L =.y.7.7.i.y.3.b.u.V.V.4.} Q Z.R.I.n.[.n.u.Q.'.Q.p.M.Q.'.].].Q.'.[.Z.7.n.Z.n.y.R.Q.m.M.Z.'.",
"W.W.E.h.f.w.L F k.OX.X{.'.XXE.Z.Z.R.A.A.'.{..XXX).E. XV.g.{.oX*XwX6XrXrXeX3XK.|.>XCXIXKX^.^.j.*XgX5X<XrX5X5X7XrXrX-XT.a.i.w.W.-Xc.W.).Q.$X).!.).%X X].$X$X.X X X6X8X-X-X_ e <.l.j.(.4X_.9X9X9X(._.T.^.).5X7XrX$X/.oX.X{.).).`.W.R.!.&XF c.&X%XXX3XoX.XXXoXXXoX.X.X6X7X7XlX%XZ.n.Z.R. X$XoX X X.XXXXX3X4X*X!. XX.> 2.V. XXXXX,X,XoXXX.X!. X X XXX6X;X*X*XXX{.Z..XoX*X%X*X*X,XoXXX X X X#XdX+ ~ -X5X5X8X4XtXtXuXtX5X*XwXtXrXcX8X8XtXiXtXiX8XOX5XtX6XwXoXoX6X.X XwXtXIXpXi.bXtX).%XrXrXrX7X.X7X6X,XtXrXyXlX8XzXlXrX).f.w.).$X$X-XjXzX%XI f.f.g.U y ~.&XXX&X X%X1X,XXX}.XXwXwX7X+X%X$X-XgX$X!.!.T.E.T.).-XgX%X;Xp.6.g./.).tX%Xh.k.f.k.w.w.>.,.*.*.w.t.x.q.*.` *.h.!.;X5X8X8X+X`.c.k.x.f.z.*.j.W.T.j.`.).T.).+XW.c.T.^.v.v.v.V.^./.T.T.`.`.`._._._.(.+X9X5X+.' t.8.j.6.] ' ] <.;.<.>.+.H M m a 5 q p 9 $ X 1 h 8 6 i b l 4 < l e 8 5 r q 2 e z P 6.k.*.rX%X`._.4X_.B.d.1.1.1.[ B W f M F Z Z I ;.| ) P C B [ C V V B f V } } C P k c z E b W W C N z z W l 4 z I N z b b b n z 8 d z l 9 k n z n z m ",
"R.E.].$X=X@XE f h.C.Z.Z.H.m.Z.M.4.V.R.A.Z.G.H.{.!./.A.N.N.A.G.'.XXoXwX6X3X|.{.D.H.>XKXMX8.6.!.].].$X@X].@X;X$X$XXX&XE.$.} a.Q.$XQ.Q.R.a.R.Q.~.Q.]. X XXXXXXX.X]. X&X&XMXQ l 8X8X7XeX6XrX8XpX7X.X X).!.!. X].XX].R.Z./.!.E.Q.R.a.y.p.1XT x.&XXX*XoX3XoX*XOXOX{.(. XXXXX%X'.Q.u.u.Z.Z.Z.!.{.[.'.{.}..X.X&X].R.E.r.4 r.C.!..X'.}.oXoX.XXX{.{.{.C.oX*X%XOX{.'.{.{.}..XXXXXXX*X,X*X;X&XXX'.U.:X+ ( <XXX*X*X3XwX6XoXoX.X{.XXoXXXOX*XXX*XXXXX*XoXXXXXXXXX X X'.!.C.T.OXoXVX8X_ *X-XQ.a.R.Q.E.!.R.!.].].[.&X=X[.].$X@X@X$X!.~.h.n.~.!.$XrXzX;.F 6.%.7 & Q.].].&XXX X X XXXXX,X1X&X$X X).].$X#X@X=X].$X].R.Q.#X$X$X%X!.V.T.!.;XlX+X:.%X%X+X%X`.T.(.k.f.7XjXjX+XW.x.q.W.7XhXhX7XhXrX$X).hXgXrXxXr.r.$X$X'.XX$X).$X$X$X$X-X&X-XgXfX%X-X$X X%X%X6X*X,X*XwX,X8XVXvXh.X.P I T.Y.c o.c.c.f.6.j.v.f.] o.>.+.o.) G o.` F m N ` G B M m M [ s m ] ] [ [ l.<.j.C.^.k.Y.a.T.c..X.X*XD.j.^.j.f...[ [ +.` ) ] f.(.l.m { ] ] ] { B { m e [ B V m q 2 p p e e q 5 m e s { m s { ) Z s e e r e e m e e s q ; 5 p l B ] <.",
"!.!.@X].I.e.j b g.N.b.b.7.3.} C B 5.E.A.Z.G.G.G.A.{.A.D.A.{.A.G.Z.{.5XwXwX*X}.E.N.A.rXyX5.t.T.!. X].].Q.).$XXX$X$X].E.u.r.T.!.].].'.V.V.Y.E.Y.E.E.!.$X XXXXX X X)..X@XrX@.L %X.X-X1XrX<XdXrX-X&X X!.].!. X]. X].E.!. X!.!.!.!.C.t.a.-XP t.;X*X.XoX,XXX|..X}.(..X.XOXXXoX XZ.b.N.V.C.Z.{.A.'.{.{.{.}. X].'.!. XP.9 T.]..X}.{._..X|.}.oXoX|.XX/..X*XoXoXXX|.oXXXoXXX.X.XoX*X-X*XrX<X-X].m.0.o =.&XXXoX*X*X>XoX*X*X*X*X%X%XoX.XoX.XXX.XoX%X.X%X.XOX{.'. X/./.j.h./.%XvXzXh.].&X!.P.Y.R.!.].!.E.!. X*XXX&X&X=X&X=X;X@XW.P.Y.x.!.!.$X=XxX8XO.c.j.t O @X#X&X&X&X&X%X X.X*X,X*X&X;X X X/.].$X@X@X@X&X$X].].:X[.@Xa.r.E.T.!.$XxXY.*.).$X;X-X;X$XXX!.Y.&XxXDXrX$X`.h.).&XhX=XfX-X;XE. X&X$X=XhXi.-.Y.Q.Q.!.:X]. X!.'.{.'. X].{.].[. X*X XE.E.A.D././.(.{. X$X*Xx.a.O.y -.r.*.~.-X=X;X<XhXhX=X!.bXgX;XlX7X7XGXGXeX8XbXjXjXuX7X8X7XtX5X`.5X8X8X8X5X_.#.#. X7X;X X$XR.Q.+X;X&X%X%X%X8X8X9XD.8Xj.v.d.F.`.w.) ` +.>.1.<.f.v.f.1.w.M M H a f.v.g.f.k.w.k.v.j.F.(.v.F.F.k.^.v.k.l.1.1.' _ +.+.] #.o.P [ 9.1.k.).",
"E.].!.I.M.=.9 b V.b.8.4. .4.<.I | 6.A.C.A.A.G.G.'.A.A.{.D.D.{.A.A.D.}.8X*X,XwX{.A.D.oXrXk L +X!. X].].E. X X X%X%X XE.T.C.E. X!.'.].'.E.E.T.T.E. X X X X.XXX.XXX.X). X1XU ' tX%X6XrXrX,XrXrX7X&X X!.'.{.{.!. XXX[.R.{.{. X).E.T.V.R.,XX.g.6X.XOXoXXXoX}..XOX/.OX4X.XXX}.{.E.A.H.H.Z.A.Z.'.{.A.E.'.E.{.{.{.!.'.n.9 V.'. XOX{..XOX.X.XoXoXoXoX*XoX*X%X,XXXoX3XXX,XXXXX.X X X X*X*X$XXX{.5.T . s.*XoX%X;X6XwX*XwX>X-XoXoX.X.X.X.X$X.X%X*XoX5X.X%X.XOX X). X).(.A./.5XvXzXa.Q.!.!.Q.Y.~.!.R.E.R.!. X%X*X$XXX&X]. X].:XW.:XW.W.).).!.%XlXbX*.h.8Xc > !.#X&X&X%X%X X XoX&X1XrX7X&XXX X). X X!.].].@X[.].$X@X@X!.u.8..X!.!.+X-XT.a.].]. X@X].!.!.].R.'.<XlXdX;XT.T.W.;XhXhX<X-X*X*X&XhXrX=X-X0.r.I.I.E.R.E.E.E.E.A.A.A.'.E.{.'.A.{.{. X{.D.C.D.D.(.D./.{./. XT.i.r.F G ! s.@X@X:X].].&X&X+X@X&X$X$XXX%X,XkXrX*X6XrX7X7XrXrXwXrXBXBXjXtXjXeX8XtXLXt.L  X&X%X&X X!.R.!.P.Q.!.-X<XrXCXZX X-X7XrX8X6X5X%XlXbXbX8XjX8X8XtXtX8XbX8XjXv.@.hXhX7XrXjXjXtXbXtX;X8XtXtX8XjXlXlXlXVXtX`.6.C.%X7X(. X{.C.E..X;X-X$X",
"C.E.R.M.3.K & l Y.y.7.7.8.g.V.V.R./.A.A.{.J.'.A.J.{.{.{.{./.K.{.D.D.J.OX6XoXwX>X}.}.3XNX| k ).).].]././.R.).]. XXX XA.C.T.). X X{.].'.G./.E.A.!.'. X X X X X X.X)./.!.-Xb ,.rX;XwX,X<X%XXX*X*X&X X). X X).!. X X.X{. X X X)./.T.R.'.%Xt.g.%X.XOX|.XX.X.X.X.X}.}.OX{.{.{.'.{.Z.A.S.A.Z.G.Z.A./.J.G.E.A.!.{.E.{.u.9 b.Y.{.{. X.X X.X.XoXoXoXoXXX%XXXOX.XXX.XoX XXXXXXX.X{.{.{.}.XXoXoX}.b.@.X r.*XXX*X*X*X>XXX,XoXXXXX{.{.)..X X XXXOX.XoXoX.X X X X X X). X).OX.X6XBXhXr.Q.R.!.Q.R.!.Q.R.E.E.].XX%X&X%X&X&X$X$X$X$X+X+X!.!. X$X.X%XjXBX_ /.6X7 6 @X&X&X=X%X.X.X.X%X1X<X1X-X%X X/.E.Q. X X X X X X'.!.@X@X!. X).XX X&X-X-XR.W.$X$X X X X).!.{. X X-XrXrX-X^.T.R..X*XrX<XrX7XrXhXyX<X=XfXO.t 7 9 k y.!.!.!././.T.E.{.'..X}.}. XOX.X4X.X/./.E./././.{./..XT.#.q.w.O.X.T.!.@X].].].'.].@X X X$X X$X*X*X*X-X.X).%X X%X-X7X-X*X6XrXrX7X-X;XrX<XGXq.S $X#X&X X$X!.+XW.*.o.P.@X&X=X<XrX-X<X&X&X-X$X&X&X-X-X<X-XhX-X-XrX-X7X7XrXrXXX*.$X=X&X@X$X&X;X*X-X<X7X-X-X7XhXhXxXdXxX$Xx.!.jXxX;X).Q.n.M.'.].&X].].",
"C.R.n.M./ b X I T.8.b.8.6.i.V.V.N.E.A.A./.{.{.D.{.{.{.{.{.}.(.{.D.J.J.K.oX|.oXwX6X.XwXlXN.0 t.)./.).'. XE.{. X X{..X/.T.E. XXX'.!.!.E.E.{.{.Z.!. X X X.X{.{.{.{./.).'.].L j.*XoX*X*X*XXXXX*X*XXX X!. X X.X+X%X%X X X.X$X].). X).].'.].i.i.OX|.|.oX|.oXoXOX/.{.}.{.{.{.'.E.'.'.A.S.H.G.A.A.D.D.E.A.A.S.Z.E.E.{.i.5 N.!.E.].{.{.{..X.X}.oXoX{.{.OX}.XX.X5XoX.X&XXXXXoX{./.}..XoXXX*XXXXXZ.-., a.*XXXXX&X,XoXoXoXXX%XoX.X{.E./. X X.X}..XoXoX.X{. X X X.X.X{.(..XoX*XBXxXy.a.m.P.P.R.R.Y.R.E.!.].XX%X%X&X%X$X X&X].$X].].!.].).XX$X X7XGX1.:.t.> y $X-X X%X%X%X%X%X6XwX,X*XXX%XXX Xn.V.$XXX&X&X%X%X X!.]. X$X). X X$X&X-XhXY.~.$X X X).).).).{.'. XoX*XrXhX.XT.A.A./.{.-X<X<XrX<X1X-X$XQ.#.j.G p M i. X].{././.)..XXXoX%X*X6X6X7X-X;X;X5X%X.X.X_.{..X%X7XjXl *.x.t.t.!.!.].].]. X]. X). X X%XXX;X*X*X6X;X&X.X%X%X.X;X7X*X-X7X6XwXrX-X&XrX-XSX5.c &X X$X&X].!.).;X7X$X$X$X]. X&X-X1X&X X].$X$X&X X-X-X-X<X-X&X-XdXrX-X-X;X=X).q.#X$X;X$X&X*X-X-X-X-X&X&X-X7X<XdXhXgX;X$X=XxXIXAX&X$XZ.p.n.Q.&X].$X].",
"C.V.m.m./ h O I Y.u.u.8.7.u.g.V.C.Z.A.A.{.{.{.{.{.(.{.}.}..X}.(.J.D.K.K.}.4X|.|.eXoX0XuXA.5 1.T.!././.{.{. X{.XX{. X{.E.'..X%X X!.Z.R./.'.{.'. X X)..X.X_.}. X/.{. X!.E.I `.$X$X%X*X*X%XoX,XXXoX{.). X$X$X%XOX.X.XXXoX X{. X.X X X!. Xu.$.wX{..XoXXXXXXXoX{.{.}.{.'.OX{.'.G.{.G.A./.A.G.A.A.Z.{.G.G.G.Z.'.{.{.a.8 x.).E.'.{.E.{.{..XoX}..X/./..X X XOXoX*X$X X{.!.]. X{.XXoX*X.XOXoXXXE.5.4 n.&X].XX,X&X,X*XXX*XoXoX{././././. X X.XOX.X%X{.E..X X X.X.X{./.}.oX6XBXrX=.r.2.3.y.n.n.Y.V.h.R. XXX&XXXXX X X].]. X].].{.]./. X{.{.A.6XGX}.| ' & y $X$X$X$X*X%X*X*X8X<X-X%X*X*XXX.X!.!. X XXX&X*XoX.XXXXX X X$X$X$X$X%X&XrX:X:X;X X$X).).).). X/.XX*X7XrXrX6X^.E./.E.V. X-XrXrXrX<X&X$Xa.K =X-X).T.E.).{.!.{.).). X&X*X;X-X7X6X7X7X-X*XrX6X6X*X.X*X%X6XeXvX) P F Y Q.].].].].'.]. X X X X.XXXoX;X*X;X5X5X$X.XXXOX*X*XwXrX*X6XwXwXrX<X<X-X-XBXq.t -X X$X$X).).$X]. X X&X XR.R. X X%XXX XE.R.V.R.[.XX;X*X-X-X-X7XrXrXrX-X&X-X$X-. X$X$X&X*X,X,X*X*X*X&X*X<X<X<XrX-X7X X!.$XxXAXDX=X=XY.4.h.E.!.$X].&X",
"C.p.M.M.( d X T T.b.N.b.8.g.u.b.N.C.N.A./.{.{.{. X{./.}.}.{.{.(.D.D.K.{.K.}.|.|.0X>X>XaX X;.:.E.T.).!.).].{. X.X.X.X{.'.{.XX.XXX).T. X{..X X).{.)..X.X%X X{.OX X XXX!.E._  X$X%X*XXXoXoXoXXXoXXX X X X X XXXXXoX.X.XoX X.X_..X X X{.%XT.} *X'. X}.OX|.}.OXoXXXOXOX{.OXOXJ.J.E.E.E.J.{.A.D.A.'.{.{.{.{.{.A.'.OXa.8 t.).T.E.'.A.{.OX.XOXoX.X.XOX{.{.{..XXXXXXX X).R.R.&X&X0XwXoX{.4XoXXX Xn.v Y. X XXXXX*X*X*XoX%X.X.X{.E.E././. X.XOX.X.X&X{.E..X X/./..X/.(.}.|.wXCXrX$.5.e.=.2.b.i.r.t.u.V.R..X.X.X.X). X X X].].XXE.!.).}.}.{.A.*XZXeX] i . y $X;X;X X&X*X*X;X<X%X%X-X-X%X$X X X]. X X%X*X*X%XXXXX.X%X X$X.XXXXXoX%XzXQ.h.;X$X$X). X!. X).)..X*X6XrX<X.X/.(.).{.E./.%X-X*X,XwX-X!.y.L Q.&X].Y.E.).{. X!.). XXXXX%X6X-X-X-X-X-X-X&X*X*X6XrX*X*X*X;X7XvXk._ c $.!.@X].@X X X!.).!. XXX XXXXX*XwX*X*X%XOXXX.XoXoXoX*X,X*XoX6XrX6XwX6X-XrXvXi.t &X XXX X%X$X;X&X XXX.X$X X XoX.X).d.A.{.#.5 N R.-X-XwXrXrX<X7X<X<X<X-X-X<X&X-.].$XXX$X*X&X-X;X-XXX*X-X<XiXrX<X7X6X.X).=XMXDXzXfX!.V.h.u.V.R.'. X&X",
"V.n.p.e.=.h   N Y.u.b.L.N.N.a.b.V.V.C.A./.(.{.}.OX.X.X}.}.OX}.}.J.D.(.}.{.(.}.}.oX>X>XyX6.j.,.).!.!. X X]. X.X.X.XXX{. X X.XoXXX X).{.!. X X X).).}. X.X.X X.XXX X X{.R.@._. X%XoXoXOX.X.XoX5XOX}./. X/. X%X.XXXXX.XXX X.X.X X X X X-X!.E E.Z.{.{. XXX{.}.OX[.{.{.J.{.{.}.'.G.E.A.A.A.J.A.G.H.A.Z.A.{.Z.A.Z.G. Xn i.T.C.Z.{.8.7./.{.J.{.|.OX{.G.A./.{.A.D.E.E.R.T.u.E. X}.XXXX}..XoXoX{.R.z t.].].XXoX*X*X*XXX%XXX X'.E.C.T./. X XOXXX%XoXoXXXOX(. X X.X_./.}.XX*XSX,Xr.V.T.T.T.T.T.V.E..X XXX%X6X;X%X.X{. X X].].].!.{.{.{.{.{.{.rXAXeXY 6 O y @X&X$X%X$X%X*X6X6X*XrXrX-X*X$X$X X X X XoXXX$X%X%X.XXX$X XXX.XXXXXXXXXBXa.0.$XXXXX X).E. X%X.X%X*X-X<XrX6X*X.XXX X).).).$X%X;X;X&X!.2.J p.].].R. X).'.{.{.]. XXXoX;XrXhXrX7XrX-X-X-X*X7XrX-X7X6X6X7X7XvXk.;.< #.!.$X]. X].XX).). X X.X X!..X*XwXwX*X.X.X{. X%XoXOX;XoX6X6X6X*X6XwX*XrX-XmXx.6 $X$X&X$X X!.oX%X&X%X*X;X&X-X*XtX/._ 8.{.g.e e R.,X,XrXrXrX7XrXrXrXrX-X<X-X X%.!. X.X%X*X%XXX1X%X%X*XwX7X7X<X<XrX*X.X$X-XkXrX&X'.C.p.Y. X&X-X X$X-X",
"Z.y.7.2.( h X i i.N.b.b.b.b.V.V.C.C.C./.(./.{.}..X.X.X|.OX'.OX{.{.'.E./.D.D.{.{.|.oX>X<XP j.x.h.!. X X!. X X X X XXX{./. XR..X%X.X X.X)././. X/._.{.{..XXX%X+X X X XXXE.@.E.)..XXXOX.X X X.X%X*X*X,.6._./. X.X XOXXX%X.X.X%XOXXX XXX*X&Xz 8.5.N.}.OX}.{.}.}.D.'.OX{.{.'.{.A.A.H.A.D.A.A.A.A.A.G.Z.A.A.G.Z.G.'.R.k g.C.N.S.A.g...B.A.A.{.}.}.{.'.D.A.D.D.D./.R.T.Y.u.T./.{.OXoX6XwX4X4X*X<XC T !.{..X.X*X*XoX*X*X%XE.Y.Y.T./. X_. XoXXXoXoXXX%X.X{.{.}..X.X.XOXOXoXlXlXu.R.E.R.].Q.E.E.'. X%X%X,XwX6X*X.X X X].!.].].{.{.{.{.'.{..X6XcXtXL 3 O y #X&X X%XoXoX*X*X6X-X7X-X;X$X%XXX X{. X.X X].XX). X$X%X X XoX.XoX.XoX.XlXh.q.E.!.].).). X X.X.X%X7XrX<XrXrXwX;X%X_..X.X.X%XXXXX&X&X].2.F p.Q.Q.!.].!.!.E. X.XXX$X*X*X-X7XrXrXrXrX7X6X*X;X,XwX*X%X6X;XrXvX>.+.q ,. X!. X].). X)._.).).{. X/..X*XXX*XoXoX.X}..XOX.XoX*XoX5X6X6X.X.X6XrX-X1XzXs., Q.#X$X&XXX{.XX%X*X*X*X*X*X*X,XrXwXB.:.D.4XF.(.oX-XrX<X<XrXrXrXrXrXrXrX7X*X).=.XX).+X%X%X6X*X*X*X*X;X7XrXrXrXrX;X*X%XXX-XrX%XA.6.1.V.V.&X&X-XrXrXrX",
"V.n.7.3.=.h X U V.b.b.n.b.b.b.b.Z.C.C.D./.{.}.}..X.X}.}.{.V.{.{.'.Z.N.A.{.D.J.J.|.OX>XyXI C.W.Y.!./. X). X X X.X.X X XOX.X.X%XXX$X X.X!. X X!. X X'. X X X$X.X X/.E. X X#.). XXX$XXXXX X XXXXX%X5Xg.h..X.X.X%X%X.X.X.X.X X.X.X.XoXXX6X&Xf y.6.u.{.XXOX}.OX{.A.Z.'.{.{.'.{.A.A.A.S.G.A.A.A.Z.A.{.D.C.B.A.E.Z.E.6.9 Y.T.C.C.C./.D.A.A.{.{.OX}.{.OX/.{.E.{.E.{.!.E.A.N.R.}.OXoX>X0XwX0X*XXXrX$.r.). X'.{.XXXX{.{. X{.T.C.y.g.!.{. X X.XoXXX%X%X$X.X.X{.{..X}..X.XXXoXwXBX).h.T.T./.E.R.Q.E. X*X-X*X*X7X7X%X XE.E.E.!.!.]. X X/.{.'.{.6X6XhXh , , y @X$X).;X%X*XoX*X6XwXrX,XoX*XoX X X!.{.{.]. X X X X$XXX X.XXXXXOX*XoXoXlXT.r.T.E.).E.).).(..X%X.X*XrXrX<XwXwX*XoXXX.X.X X%X X$X%X&XR.2.J a.Q.E.!.!.!.{. X X XXX X*X*XrX-XrX7X6XwXrXrX*X-XrX6X*X6X6XrX<XBXi.#.c n.].).$X X).).).).)././._.XXoX*XoX4XoX3XXX.X.X.X}.|..X.XoXXXwX6X6X7X7XwX-XhX&.: Y.$X X X X X*XXXoX%X5X6XwX6X6X;X%Xd.1.^..XOX8X.X7XrXyXrXrXrXtXrXrXrXhX7XrX].#.%X X.X-X;X-X7X7XwX6X,X*XrXrX<XrX6X*X X XXX X%X.Xj.g..Xr.E.<X-XrXrXrX",
"n.M.y.7.3.v . Y V.y.u.p.b.8.y.M.n.N.A./.D.{.{.{..XOX}.oXXX!.{.OX{.E. .6.J.{.J.J.OX X,XkXI w.>.T.).!.!.!.!.'. X.XXX X!..X5X*X*XXX.X'. X X X X X X{. X'. X X%X X.X!.Y.!.XXt.+X$XXXXX X.X X X X.X.X.X).(./.).%X.X.X.X.X.XOXXX.X.X*XXX*XrX&Xz 9.#.u.XX X.XOX{.{.'.S.A.J.J.{.K.A.S.S.S.G.A.Z.Z.A.A.E.D.D.A.A.E.Z.'.R.k h.T.C.C.V.A.A.A.A.'.{.{.}.{.{.J.E.E.'.A.G.{.}. X!.'..XoXXXXX3X*XwXwX%X<Xa.T. X]..X{.Z.XXZ.Z.5.%.E.V.%.5.'.E.{. XXX%X%XXXXXXX.X X{. X{.{._.XX{.OX6XcX).i.C.T.!.Z.R.R.!. X&X*X*X*X<X-X%X!.T.c.Y.R.)./.).{.{.D.A.}.wXlXrX& + 3 9 !.$X X X X5XoX6X*X6X*X6X*X.X X X{.!.E.!.!.'. X X$XXX.X.X}.XXXX.XoXXX*XSXY.r.).^.T./.).).)..X%X*X*X6X*XrX,X7X6X*XXX X X.X XXX$XXX$XQ.r.v r.Q.R.Q.!.E.!.!.!.).!. XXX$X&X%X*X;X;X5X<X7X7X-X6X;X6X*X-X<X1XxX,.X.l !. X]. X!. X). X X).). X%X*X*XoX6X6X4XoXoX.X.X4X|.oXoX3X3X,X*X6X6X;X6X;XoXhX&.. Y.<X{.y.V.XX.X.X%X*XoX*XoX;X6X%X).j.A..X%XrXjX*X6X*XwXrX,XrXyXyXrXrXrX-X*X!.R %X.X XoX*X,X<X6XwXrXwXrXrX<X<XrX6XXX.X.X*X%X&X7X.X*XrX X X*X<XrX<XrX",
"n.b.p.2.=.v X ! E.b.b.u.b.u.u.u.N.Z.V.A./.{.}.XX.XoXoX6XXX.XXXXX}.{.V.A./.{.{.D.{..X*XyX_ h.*.Y.!.).].'.].E.!.{.}.{.!.XX*XoX%X X'.!.{. X'.{..X{.XX}.{. X X.XoXXX X].]. Xh.%X X.XoX&X XOX'.)..X X/./.)..X.X).OX%XOX.X.X).).)..X.X%X%X1X1XI C.:.j.{..XXX{.OX}.{.A.A.S.A.J.J.A.S.Z.A.A.Z.C.A.Z.A.A.G.D.A.A.C.A.'.rXW i.V.b.Z.A.A.A.'.A.{.{.[.{.OX{.'.'.E.E.E.A.{./.!. X{.{.OX}.XXoX*XoX*X>X<X-.Y.$XXXXX X{.}.E..XC.#.E.n.r.r.V.E.R. XoXoX*X.X.X.X{.{.}..X.X{..X.X}..X6XBXg.,.T.!.R.V.!.!.). X%X*X*X-X-X-X%X XE.E.n.C./.).).{.{.S.C..XrXzX<X> 3 , 6 !.*X$X`./.oX*X3X6X*X,XoX.XXXXX.X X'.{.!.{.!.{. X X%X.X.X.X.X.XXXXXXX*XSXm.*.%X).h.).).).%X.X.XoX*X6XrXwXrX,XrX X!. X!.{. XXX%X$X XQ.s.L y.R.R.R.E.T./.E.T.).)..X).XX*X7X-X6X7X5X,XrX6X-X7X7X*X*X=X-X<XzXi.F v ].!.!. X].!.!./. X.X X)..X%X*X,X*XwX*X5X4X*X6X.X3X3X3XoX*XwXwXrXrX8XwX6X;XbX&.X r.1X].%.T..X X.X%X%X*X*X*X6X6X%X/.C./..X&X6XrX6X5X*XrXrXyXrXyXrXrXrX7X6X;XT.P ].&X XXXXX%X*X1X*XrXrX*X6X6X<X<X,X.X.X%XoX%X%X.X.X.X*X7X&X-X<XrXrXrX",
"V.V.b.7.$.F . L P.b.b.u.n.b.V.b.V.V.E.E.{. X{.XXoXoXoXoXA.C.{.XX.X XOX{.Z.A.A.A.E./. X<XR *.` W.).!.].'.R.Z.C.C./.E.E..XOX*XXX XE.E.{.!.{.'.{. X{.XX X X.X.X{.!.E.E.R.n.i. X X X.X X.X'.{./. X X X X/. X.X%XoX5X%X%X*X.X X)..X.XXX&XrX&Xb /.C.D.}.}.XX{.{.{.{.'.A.L.A.{.A.C.A.C.C.E.N.} N.Z.A.E.E.A.E.E.A.A./.*XR r.a.N.N.Z.A.E.A.'.'..X{.'.'.{.A.E.E.'.E.A.R.Z.E.{. X X.XoXoXoXXX*XXX&XrX@.Y.$X X). X.X{. X.X XE.@X=X/ #.Y.E./.XX%X&X%X.X%X X X X X/. X.X X{..XXX*XcXu.,.T.E.E.E.!././..X%X*X*XrXrX<XkXR.t S ,.Y.E.{. X).{.(.(.{.,XBX<Xy 3 6 h Q.].XXXX%X;XoX*X0X*X*X*X;X$XXX X X X X{.{.'./..X).OX.X.X.X.X.X.X*XwX-XBXV.2.%X).).).%X%X.X%XXX*X*X6X*X-X*X7X7XXXV./..X XA.oX*X$X@XP.s.U r.Q.Q.E.Q.T./.E./.%X X X%X.X*X*X6XrX6X*X*X-X-XwX7XeX6X8X7X7XhXvXc.i X.$X!. X X]. X/.'. X X XXX$X%X*X%X6X6X*XoX.X*X*XoX4XwXoX6XwXwXrXwXrXwXrXrX*XgXx.< T &X$X).$X_._.%X X%XoX5X6X6X6X%X/././. X-X7X-X;XwX6XZ.Q.<XrXtXtXyXrX*X*X7XT.P ]. X X.X.XoXoX*X%X*XrXrX.X/.XX,X*X*X%X&X&X$X%XXXXXXX;X*X*X-X7XrXrX<X",
"C.Z.u.2.=.E > I Y.M.b.b.u.n.b.u.b.g.Z.E.'.}.{.}.oXoXoXOX_./././.{..X X'.A.Z.'.E.A.E.{.<X! O.F f.!.'.E.!.E.A.V.C.{.A.A.XXXXoX%X XA.C.'.E.{.!.{.XX X XXX.X.XoX X!.E.E.R.n.V.!./. X X X{.{.'.!.{.{./.)./..X/..X%X*X%X%X XXX*XXX*X*XXXXX,X].n /. X X}.|.OXOX}.'.G.G.Z.N.B.D.Z.B.C.C.C.T.:.f j.A./.E.A.E.E.E.A.A.'.*Xu.5.n.b.Z.N.Z.E.E.E.E./.(.Z.A.A.A.'.Z.Z.E.A.Z.J.G.E.{.XX{.XXXXoXXXXXXXoX&X=.$X$X X%X$XoXXX{./.!.].!.:Xr.a.!.E. XXX%X&X%X.X.X.X{. XXX).OX.X_.{._.OX!.rX8.a.T.E.R.E.).). X3X5X*X*X,X*X&X-XW.* X c R.R.)./.).).}.}.oXwXCX&Xu 3 3 d R.R. X%X*X*X*X,X,X%X,X-X%X$X X X!. X{.E.{.E.'. X_..XoXoX.X|..XoXoX*XXXBXz.i.%X).). X.X.X.X%X%X*X-X-X-X7X7X7X-X%X/./.).OX.X6XoX X$XP.a.x *.Q.T.Q.E.E.!.'./. X!.{.oX.XOX5X;X6X6XoX%X%XXX.X.XwX6X6X<X<X<XmXQ.* ,.&X].].].'.!.{.'.{.{.{. X XXX%X;X5X6X5X*XoX&X*XoXoXoXoXwXwXwXwX*XrXrXrX,X*X7Xx.2 T <X&XXX$X.X.X+X.X.X%X5XwX3X3XoX).^..X.X7XrX6X6XpXj.: 7 +X<XyXrXrX-X%X-X7X).N !..X XXX.X.X5XoX.X<XrXrX/.d.!.,X-X-X&X&X%XXX X XXXXX*XwX-XrX*XrXrX-X",
"Z.u.b.e.$.E 4 L V.i.M.u.y.u.p.u.u.N.C.A.'.E.{. X.X.XoXoX*X*XoXoXXXXXXX'.Z.A.G.A.A.E. X*XT O.i.k.!.R.R.A.E.C.V.C.(.{.{.XX.XoXXXoXE.Z.E.{./././. X X X X.X%X.X.X XE.E.R.u.a.).E.!.E.'./.{.!.E.{.'.!./.{..X.X.X.X*X%X*X.X.X.X*X*X*X Xb.Z.2.n %X.XOX.X.X.X.XXXOX{.'.G.S.N.A.A.B.N.C.C.T.E.j./.A.A.A.A.A.A.{.'.A.E.rXi.6.n.V.b.N.Z.A.A.Z.A.{.{.{.G.Z.Z.A.}.E.A.Z.A.Z.A.{.{.{.{.{..XXX X}.|.XX&X5.:X$X$X$XXXoX.X.X.X).!.!.R.T.W.).)..X.X*X*X.X%X.X_. X/.)..X X.X X X.X.X.XlX2.y.E.Y.R.E. X.X.X;X7X;XwX*X%X&X$X5X<.q ) T.!.E.(.).}.(./.oXyXBXE.6 y 6 w R.R. X.XXX*XoX*X*XoX*X*X%X X X X X).{././.{.{./..XXXoXoX.X.X4X|.oXXX*XSX@.s.%X X X XXX%X%X.X*X%X&X7X7X-X-XrXrXXXE.). X%X*X;X%X&X].P.z.n -.Q.~.R.E.!././. X'. X X.X.XoX;X6X6X8XOX{.XX*X*X%X,XwX6XrXrX<XlX).7 a. X]. X{.].{./.'.E.{.}..XXX.X.X.X%X*X*X6X;X%XoX*X>X>X*XoX,X,X6XwXrXrXrX,X&X;Xh.6 L =X&X&XoX%X.X.X.X.X*XXX6X*X*X.X}.}..X;X7X7XrXrXjX_.a r %XrXrXrXrX7XrX7X7X Xb ].;X&XXX%X%X*X*X,XwX*X*X.XE.$XrX%X*X%X%X$X%X.X X.XoX*X,X6XrX*X*XrX*X",
"Y.V.b.M.3.T 8 L n.u.p.u.y.u.u.y.u.N.V.A.Z.'.{.).OX.X%X5XwX*XXXXX XXX X'.H.A.A.Z.A.A.D.1XP P o.t.E.A.C.C.T.A.j.C.g./._.oXoXoXXXXX'.E.'.E./..X/./.)..X.X.X%X*X%X.X!.E.R.C.t. X.X/.g.E./.E.E.E.E.!././.{./..X.X%X*XoXOX.X.XoX*X6XwXa.} R C l .X.X.XoXoXoX.X{.{.}.'.'.A.N.N.N.N.N.C.V.C.T.F.D.A.A.E.'.H.A.{.{.G.OXE.0 $.h.u.8.M.N.S.A.N.A.{.{.J./.A.C.C./.A.C.A.A.A.Z.{.'.E.{.'.]. X.XXXOX[.'.-.$X!.Y. X%X%X{. X X X!.).Y.r.!. X X.XXX%X*XoXOX}./.{.)..X.X/. XXXXX%X%XrXnX5.u.V.Y.R.Q. X X&X$X&X7X<XwX%X X X%X5X`.^.T.).)._./.{.(.{.oXuXnXp.y y 6 8 g.h.)..XoX*XoX*XXX*XXXoXXX X X!.)./././.(./././.). XXX*X4XoXoXoX0X|.XXSXU -.-XXX$X].XXXX%X&XoX*X6X7XrXrXrX<X<X-X X!..XXX$X&X-XXX).x.:XU &.!.R.R.E.T.!.).'.{.!.}.!.{..X%X;X6XwXu.5. X*XoX*X<X*XrX7X-X1XkX=Xi h.].]. X X{.{. X/./.). X.X X.XOX%X*X*XoX*X5X*X*X*XoXoXwXwXwXwXwXwXwX*X*X-X-X$Xx.6 S &X&X&X-X*XoX.X.XOXoX*X%XoX.X.X{.OX%X*X7XrXrXtXuXpX}.F.7XrX<X7X8X7X7XtXjX$Xc E.%X$X)..X%X X%XXXwX*XoX.X5XrX*X X.X%X%X X X;X.X).;XrX;X6X6X.XrXyXrX",
"R.Y.n.M.2.Q 9 A V.u.y.u.u.p.b.u.u.g.V.A.A.'. X{..X.X.X.XoXXXoX.X{.{.'.'.{.G.A.S.C.C.Z.XXE F ,.5.E.R.R.V.E./.A.A.g./. X.XoX*X>XXX'.'.A.E.{././..X.X.X%X.X%XoX.X.X/.!.!.V.,.u.). XC.!.E.D.A.A.E.R././. X X.X.X.X.X.X.X{.}..XoXoXtX X6.:.P l 4X(.|.oXoXoXoX XOX{.{.J.A.N.N.N.N.N.N.B.C.A.A.A.D.D.C.A.A.G.Z.A.D.XX X4 %.y.y.7.8.7.8.N.N.C.Z.D.G.A.A.B.B.B.B.N.N.C.Z.A.}. X'.'.{.'.{.[.{.}.'.Z.=.$X!.h. X%X.XOX[. X X!.E.Y.V.E.). X%XoXXXXXoX%X{.{.)./.).).E. X X.XXX-X<XkX$.p.Y.Y.R.).XX$X%X$X&XrXrX<X{.Y. X X).).E./.)._._..X(.{.XXwXnXrX@.x x y k V.R./..X.XoXoXXX%XoXoXXX X{. X X/./.)././.{././.). XoXoX*XoX3X*XXXXX,XnXL =.&X]. X X X.X.X.X.X;X7X7XrX7XrX-X*XoX X X X&XXX$X-X&X!.a.+XX.' Q.R.R.R.R.R./.).!.!..X)..X*X%X*XwXrXg.8.OX.X.X6X<X*XrXrX-X-XrX%Xi h.Q.]. X X!.E. X).).)./.). X XXX*X.X%X-X%X%X*X6XoXoX,X6X,XwXrX*XwX7X,XwX*X;X+Xx.> t #X=X&X-X*X5X.X.X}.XXoX6X*X*X5X.X.X.X;X6X7X7XwXrX8X5X.X*X<X<X6X7XtXtX7XrX$Xk R.&X%X%X$X).)..XwX*X6XoX%X6X6XwX*XoX%XE.E.OX;X X!.tXrX7XwX;XXX*X7X=X",
"T.R.n.u.y.2.4 V V.y.y.7.7.b.b.n.u.u.A.A.Z.{.{. X X}.{.}. X X{.{.{./.(.{.{.'.A.A.N.N.N.H.L F :.<.A.E.Q.'.E.!./.A.D.D.{..XoX%XXXXXH.Z.E.'.!././.{.}..X.X.XOX.X)..X X!.E.V.i.C.!. XE.E.R.A.E.E.E.T.R.E.{.{..XOX X.X.X.X.X.XXXXXXX3XwX-XlXr.f }.}..X3XoX{.{.}.}.{.'.{.A.A.C.V.V.N.V.C.A.A.A.J.D./.G.A.A.A.A.A.A.XXeXN #.C.V.N.f.j.g.N.N.Z.G.{.J.S.A.S.N.B.N.g.N.A.N.A.A.E.{.'.H.{.G.G.A.'.Q.u.} Q.$X$X%X).).XX XOX$X XR.C.R.R.). X X/.oXoXoX.X X X).XX X X.X.X.XXX}.XXyX&X$.Y.z.V.!..X.XOX_.;X*X<XwXwXXX{.XX). X X!. X/. X X/.{. XoXrXnXZ.n F X.i w ).]. XXXoXXX6XoX%X*X%X.X). X X{.E.).!.{.].E.(. X.X.X5X6XwXXXoX*X.XOXXXrXL =. X].]. X X). X%X.X6X6X6X-X7XwX*X;X*X%X;X%X%X&X&X%X-X).h.jXO.b V.Y.R.Y.E.R.E.E.!.E.!./. X.XXXoXoX6X.XC./..XOX*X*XwXrX-X*X<XrX+X2 i.!.!.!. X!.E.!.'.{. X{. X X.X$XXXoX%XXX.X*X;X6XoX*X6XwXrX*XrXrXrXwXwX*X,XXX+XW.1 > I.&XXX%X%XoXoXoX|.oX6X.X.XoX5X.X.X.X4XwX6XwX6XrX5X*X%X,XrXrX7X8XrXrXrXrX;Xl E.&X%X&X X!.$X-X*X*X*X*X*X,XwXeX6X;XoX!.T.).%X%X6XjXtXwX6X;X;XwX*X&X",
"E.V.n.n.e.2.d C C.u.b.7.7.7.u.y.7.8.N.A.A.'. X{. XE.E.'.'.{.}.[.G.A.E.J.{.J.E.Z.b.b.b.m.v #.x.6.Z.E.E.E.R.'.!./.^.A..X.X*XoX*X*XE.E.Z.E.A././.{.}..X.X.X.X.X.X XXX).E.Y.t. X/.R.V.R.E.!.E.E.R.E.E.A.!.{.{.[..XXX.X.X{.OX}..XXXXX&XXXkX,.w  XoX4X>X*X{.8.{.}.}.{.'.A.A.N.V.g.N.h.A.D.A.A.Z.E.G.A.Z.A.C.A./.{..XeX1.P h.h.C.N.N.N.N.g.A.{.{.A.A.A.A.B.N.N.N.N.B.B.N.A.E.{.{.{.{.G.'.Z.A.Z.y.T x.$XXX%X).)..XXX.X X!./.V.b.A./. X.X XoX;X6X.X.X X X). X X/.OX*XoX|.XXkX@X@.~.a.a. XXXoX{.E./.&X-X6X*X*X%X X).!.!.).).!.{. X/. X/..XkXkXr.*.T.i.P k a.E. X&XXX,XoX*X&XXXOX.X{.!.!.{./.T.C.!.!.E.E._..X.X.XoXoXoXoX.X{.XX*XrXI Q ].]. X].]. X.X_..X%X&X7X-X7X;X&X%X*X*X%X).%X;X%X X$X!.R.SX*.k T.Y.T.T.R.Z.E.E.!.V.i.). X.X&X&X$X.X)././..XoX*X*X*X*X*X,X*X*X+Xy z.Q.Q.E.].!.!.]. X X X X X/. X X%X%X%X X X6X*XoXoX6X,XwXrX<XrXrXrX6X6X;X%XoX+Xc.y 7 p.&X&X&XoX%XOXoX6X3XoX*X.X5XoXOX3X.X*X6X6XwXwXrXwXwXwXwX,XrXrXeXtXrXrXhX;Xk Q.&XXXXX$X X*X;X*X*X*XoX*XwX7X7X6X*XXX/././.XXoX6X7XrX6X;X7X5X*X6X;X",
"A.R.Z.n.y.3.9 f V.b.u.M.7.7.7.7.y.8.g.A.G.{. X{.'.'.'./.'.OXoX{.u.j.D.D./.A.J.Z.N.b.n.n.k L t.u.V.Q.A.A.A.E.E.{././.{.OXoX$X*X*XE.A.!.{.E.E.{.{.}..XOX.X)..X.X X{.!.].Y.t. XR.T.R.T.E.!.T.Y.T.E.T.C.Z.{.{.!. X X{.{.XXXXOXXXXXoXXX[.uXr.N .X XoXoXoX3X(.{.OX.X(.A.A.A.N.N.g.g.N.C.A.D.'.A.'.H.D.A.A.B.C.j.C.}.OXOX_ h.n.b.N.b.u.g.8.N.D.}.D.D.A.C.N.N.N.N.8.N.N.A.A.E.E.E.{.G.G.'.A.Z.n.2.R Q. X$X.X%X%X*XoXXX X X!.E.g.V./..X.X;X6X7X5X.X X{. X X X]. X X.X.XoX'.-XQ.! Y.Y.T..X*X*XXXD.V.E. X<XwX*X%X$X$X X!.!.!.E.'. X!.E.R. XxX&X/ x.,.w.,.P y.R.].XXXX&XXX.X.X.X%X XE.{.E.{./.A.N.Z.E./.E.)..X*X.X4XXXXX.X.X.X.X&X%Xb $.].]. X X{. X.X_..X.X X;X7X-X*XwX;X%X7X).T.%X;X%X&X&XE.Y.zX0.t E.V.R.E.Y.Z.Z.Q.E.R.T.].XX*X*X&XXX%X X)._.*X6X*X;X&X;X%X%X$X X!.i a.!.Q.!.!.].]. X]. XXX X^.)..X.X%X%X%XoXoX*X*X*X,X,X,XrXwXrXwX*XrXrX6X.XoX&X$Xx.1 > r.@X&X%X*X,X6X5X6X3XoX*X*X*X*XoX.XoX6X6X*X6X8XrX*X<XrXwXwXrX7X7XrXrXrXrX*Xn R. X XXXXXXXOXoX5X6X*X*X*X;X7X7X;X%X.X).E./..X%X*XwX5X*X6X5X*X%X*X*X",
"'.E.Q.Z.b.$.d f V.n.b.u.u.7.2.9.6.6.N.Z.G.{.[.{.{.{.'.'.{.'.{..XA.C./.{.{.A.Z.Z.Z.m.Z.n.k 7 o.h.E.V.Z.Z.V.R.E.E.R./.{. XoXXX%X*XR.Z.E.A.Z.E.A. X$X X.X.X.X.X.X_.).E.).T.t.).E.E.R.A.R.Y.E.R.T.C.V.C.!.{.!.E./.{.!.'..XXX X X/./.E.'.yX5.N /. XXXoX|.oXoX}.OX/.}./.G.A.S.S.g.g.g.N.A.{.D.{.A.A./.N.A.C.A.N.A..X6X).P h.a.V.b.N.u.8.u.N.A.{.{.A.S.A.B.N.N.g.L.u.C.C.C.C.A.G.J.G.{.'.Z.C.u.} %.&X X%XXX.X*X*X.XXX XXX X!.V.i.^. X%X*X*X*X;X X.X%XXX'..X]..X.X%XOX{. XjXi.T E.Y.E.7XrX,XXX{.B.N.V.XX,X*X-X-X X/.{.E.!.!.).XX.X!.'.%XvXW.O.r.G ,.h.#.5.n.'.XX X.X%XXX.XOXOX)./.E.Z.Z.R.A.V.N.A./././..X.X.X%XoXXX X.X X'. X%Xl *. X].].].'.{. X{..X*X%X=X7X7X;XwX;X7X6X.X.X%X*X%XXX XE.V.hXa.8 ~.R.Y.E.E.V.C.E.{.!.'.'..X&X*X.X%X.X.X.X.X5XoX*X6X%X*X$X%X%X$X~.t y.!.E.!.].].].].].].!. X X)..X%X%X*X%XXXoX*X6X6X6X*X*X,X<XwXwXrXrXwX8XoX;X=X+Xx.6 3 s.$X%XXXoXoX6XXXoX;X*X*XoX*XoXoX4X*XoX6X6X6X6XtX7X6X6X6X6XrXrXrXrX6XrXrX;Xk R.XX X%X.X.X.X.XoX*XwX6X.X4X6X*X*XoX.X/.T.(..XoX*X*X*X6XoX*X.X;X7X*X",
"'.].'.Q.Q.7.9 l T.V.n.b.u.9.7.9.8.6.g.C.E.E.{.A.A.G.'.G.A.G.'.{..X{.}.}.'.'.'.C.b.n.b.R.L c <.h.Y.Z.V.V.V.V.Z.E./.E.!. X.X.XXX.XA.C.A.E.C.h.E. X].!. X$X%X).XX XE.).).].5.].!.V.R.b.y.V.R.R.V.V.V.h.E.E.T.Z.E./.C.{.$X*X*XZ.R.T.E. X*X:.m h.oXXXXX|.}.XX.X}.{.E.{.'.A.N.N.8.L.B.A.D.{.D.{.N.N.'.R.C.N.Z.S.C. XlXlX_ a.V.Z.b.b.u.L.8.7.N.G.H.Z.C.N.N.8.g.g.C.N.N.V.C.N.A.E.Z.G.G.Z.Z.Z.u.L $..X XXX X{.XXXXXXXX X$X X).E.h.h. X%XXX;X&X X X%X%X%X X XE. XoXXX%XXXrXSX%.L  XT.XXrXkXrX%X XV.6.8.C.*XrXrX;X%X!.E.Y.E.E./. X$XE.Q. XjX`.w.o.H ` w.[ 8.{. X XoX%X*X*X*X%X X/.A.R.A.A.R.Z.C.A.C.A././.).%X.X.X_.XX{.!.{.A.E.E.z r.$XY.!.).{.E./. X X$X%X%X-X1X%X%X7X;X$X;X6X%X&X$X/. X/./.cXXXi R.~.~.Y.E.E.R. X X X]./. XXX%X$X*X.XXXXXXX*X*X*X*X*X-X&X;X$X].Y.7 =.a.n.].].!.]. X@X X].].$X X$X%XXX XoX%XXX*X*X*X7X6X<X-X<XrXrXrX<XrX*X,X-X&X$Xi.a t 0.$X X X&XoX%X*X&X6X*X6X*X*X&XoX%X%X*X*X6X7X*X7XwX*X*XwXwX6XwX*X*X6X8XjX).f !.]. XXXXXXX.X.XOX.X*X.XoX*XoXXX*XoX X/.A.^..X.X.X%X&XoX%X*X*X*X.X%X",
" X].].'.'.n.4 k T.a.u.u.b.7.u.7.6.6.u.C.R.!.Z.Z.Z.Z.'.H.A.G.E.{.oXXXXX}..X'.Z.Z.V.m.n.n.L L t.h.Z.n.Y.V.a.b.N.V.A.E.E./.].!.XX%XA.C.R.Q.V.V.E.'.E.E. X X$X X X XR.V.Q. XE e.!.C.V.r.} Z.V.V.Y.h.N.i.A.E.Z.Z.E./.V.). X&XwX X/.).R.$X<X] r f.oXOXXXXX.X{.{.{./.{.A.Z.Z.Z.N.u.g.L.S.A.D.A.D.Z.N.C.V.Z.b.N.Z.Z.E.wXBX$.r.V.Z.N.N.N.u.8.7.L.Z.Z.Z.Z.Z.N.g.u.N.A.N.V.N.N./.}.{.A.Z.{.E.E.V.5.N $.%X X X X{.{..XoXoX$X XXX X).C.h.!. X'.*XXX X X)..X%X%XXX.X XXXXX.X&XlXjXI b ).E.;XrXrXhX&X XC.g.8.f. X1X<X-X$X XE.Y.T.E.E.Q.+X!.R. XvXT.h.k.` H [ N T.]. XXXXX*XXXXX.X$X X!.R.A.R.R.E.Z.Z.V.C.C.A.E._..X.X.X.X.X{.{.XXA.C.Y.k *.+X!.!.)././.{.{.$XXX$X&X&X*X*X&X=X-X;X-X;X$X%X$X XXX%X X%Xp.T T.Y.W.T.R.Y.T.T.E.'.!.]./. XXXXXoXXX.X%X%X*X*X*X*X*X-X$XXX XE.x.6 &.E.Y.!.].].].!.$X X X].].]. XXX%X$X$X.X*XwX-X-X*XrX6XrXrX-X<XrX*X-X-X-X&X-X;Xi.U t $.@X X$X&X.XoX-X%XoXXX*XoX*XoX%X%X%X*X6X6X6X-X-XwX*XwX*XwXrX*X,X,X6X6XjXQ.d @X]. X.X.XoX.X.X.X.XoX.X.X.XoXoXXX.X}.{.A./. X.X%XoX%XXX.X$X.XXXoXXX",
"]. X X].].&Xn 8 x.a.y.b.p.u.7.8.8.u.8.V.V.Z.Z.Z.C.S.Z.'.H.'.{.{.XX X.X&XXX X'.R.Q.Z.m.M.J z ,.x.V.R.V.V.u.b.b.N.Z.R.V.T.E.T./. XY.Y.Y.V.a.V.E.3.4.!.!.!.E.!.!. XE.P.E.$X! 5 V.V.V.n.M.Z.Z.b.V.V.V.u.A.!.Z.Z.Z.Z.T. X%X].].1X X).!.@X$X;.e C.tX XXXOXOX}.{.Z.{.{.Z.Z.Z.C.u.L.L.N.B.A.D.A.A.Z.N.Z.N.b.u.b.Z.Z. X{.*X{.2.E.V.b.V.h.b.u.8.b.Z.Z.u.Z.Z.Z.g.V.V.A.C.C.b.N.A.'.'.R.H.Z.Z.R.C.u.C $.=X].!. XXXXXXXXX X X!. XXX.X/.h.T.$X X%X X!. X.X).%X.XoX$X X).XXXX,XlXrXh.N ).).hX1X=X1X&X!.T.f.7.y.R.XX&X,X&X].Y.V.x.Y.R.W.!.E.R.].BX Xu.,._ ;.#.i Q.$XXX$XXX%X%XXX X$X X!./.T.A.V.N.Z.C.V.V.E.E.E. X.X.X X.XOX XXXXXE.E.V.n -. X!.!.).!.E.R.!.XX!.].&X&X&X%X&X&X-X7X;X%X). X X$X%X;X.XrXt.i R.R.T.T.Y.T.W.T.!.!.!.].].]. X$X%X%XXX*X*XXX*X1X*X-X&X%X$X X!.x.7 / R.Y.n.Z.E.!.!.].].@X].].].!.].$X X XXX*X*X*X-X-X-X7X7XrX7X7X-X*X*X*X-X-X&X;Xw.x 6 / =X].&X$X%X.X&X&XoX XXX*X*XXXXXXX.X%X<X&X;X;X;X*X-X*X,X*X-XwX6X*X*X*XrX).8 $X].].XX{..X*X.XXXoX6XOXOX.XoXoX.X{.{.^.T./.).). X X&X.XXX/. XXXXXXX",
"].].].].].1XQ < V.n.b.M.7.7.7.2.5.u.u.n.R.R.m.V.E.R.'.R.'.Z.R.'.].].[.].#X].Q.R.Z.n.I.e.h 6 i.R.I.V.Z.n.n.b.u.n.V.Z.Z.Y.T.E.R.!.a.P.Z.E.n.n.R.2.$.R.R.Y.V.R.E.!.Q.R.Q.$Xr.= :.y.2.b.m.{.E.n.I.V.m.n.y.y.y.7.} L %.a.h.-.~ -.&.q.,.X.$.j.Z L r.} b.E.'.[.Z.N.Z.C.N.%.$.b.V.b.C.N.7.N.H.'.H.Z.b.b.7.8.7.u.u.N.'.R.7.y.W 5.u.V.p.h.7.b.y.y.Z.n.b.n.Z.n.Z.Z.Z.Z.R.'.Z.Z.'. XXXOX X'.'.'.[.Z.L / -X!.Q.].XXXXXX*X&X%X]. X X&X$XR.V.*XrX].&X&X&X$X&X%X*X-X&X&X&X*X1XrX&XV.5.i R.].dX&X'.1X&X].E.n.2.u.].R.XX<X&XE.V.a.a.V.x.R.Q.!.R.'.xX!.,.#.,.] ,.l h.&X&X%X&X-X-X%X!.E.).!.!.T.Y.V.C.V.N.h.C.C.A.E.E.{. X X.XXX{.{./.R.R.i.f ,.].!.Q.T.Y.Y.A.E.).!.R.n.&X].-X-XrX-X&X-X=X).Y. X$X&X%XXXUXhX> Y.R.~.Q.R.T.R.R.R.!.!.!.]. X$X$X X X$X&X*X%X%X*X&X%X&XXX X].T.p.i T ].R.R.V.R.R.R.E.].].].].E.!.!.!.!.XXXXXXXX*X-X<X-X-X7X7X7X7X-X;X6X-X&X-X&X$X`.H 6 K #X[.].XX%X%X].].%XXX*X*XXX*X*X%X X XXX.X*XwXXX X.XXXXX%X%X5X;X*X5X*X7XE.h ].].].{..X.X*X.X.XoX6XXX XoX*X%XoXoXOXT.T.T.E.!.E. X X]. XE.E..X.X&X",
"!.@X].[.@XQ.E = L Q $.$.T T I z I L b L I W J v v H D x T >.t.,.] g.,.X.*.*.>.#.-.g.:.X.H H q.r.t.i.i.y.s.r.q.q.r.t.h.i.r.n.n.p.r.r.r.a.r.r.t.u.y.y.y.5.-.2.y.u.a.u.p.V.a.#.Y H c i c b c S F N x w i l P I t : q.$X).j.i.Y.T.!.r.@.,.C.u.<.f.>.#.>.;.#.;.#.,.o.| ] ] ,.w.#.:.t.%.W n W W v h W L Y $.*.T U *.t.h.C.,.;.:.<.C.k.:.,.6.w.#.*.q.X.Y X.Y ! @.' P L N L T U L c b c W v v k : S a.T I y.'.R.E.R.R.n.n.R.n.n.n.b.y.i.Z.p.y.r.r.t.-.r.t.$.T / -.,.-.t.N G M i R q.e.a.p.Q.P.m.~.*.T @.y.i.Q.).R.x.s.-.#.t.a.r.a.a.p.Y.+Xq.T H >.) ;.M ' z.R.].#XkXyX<X$XXX X].].E.R.Z.Z.Z.Z.m.n.Z.R.'.].].].$X].>X#X[.'.!./.t.8 -.R.R.].Q.P.V.V.n.n.[.n.y.R.].=X1XkX-X].=X=X&X&X#X X].&X].BXbXk n.R.Y.Y.P.P.Q.Y.Q.Q.Q.R.E.].].!.Q. X XXX-X=X&X&X&X&X&X].@X!.Q.i.h T <X@X].E.Q.V.V.V.Y.R.Q.Q.n.R.#X=X#X).$X%X%X-X-X&X<X-X=X-X-X&X$X=X-X&X1X$X$X:X:XT 6 v Q.].$X$X&X#X@X&X X&XXXXX&X%XXX*X XR.E.&XrX].Y.!.!.E. X&XoX%X&X*XXX6XlX].n R.Q.'.{..XXXXX%XXX,XrX%XXXoX%X.X$X&X6X).C.C.C.h.C.Z.E.'.'.'.XXXX.XXX",
"L v T / *.U b P B N N l l k N p l F N m P B N F c ~ o.w.i.i.k.v.o.<.w.`.xXgXbX5X)./..X*X5X8X-XY.Y.Y.c.k.w.q.w.*.-.o.@.#.R L U X.@.P X.X.F F Y #.' z L } Y Y #.#.#.$.@.o.>.,.] #.' H ` ` o.;.<.<.k.f.j.`._..XE.I q.8X;XXX{.oX,X1X X).).). X5X8XpXjX8X_.%X7X-X7X6X%X X%XXX%X%X6X7XBXn.= < & 9 3 &.x.T.$X).' Y z.!.jX.X.X.X5X8XjX8X8X7XlXjXrXvXvXrX+X%X%X8X8XjXw.e 2 r F M p r a a s 1 : % < < i e 8 l I V c b k L P w v P c i l H Y v * : 7 G G ,.,.P M M H ` o.w.+.>.+.` G G Y T T ! 0.z.c.W.c.T.+X X*.*.q.D a U *.t.i.:.w.t.$.*.c.x.O.O.>.O.<.` ` ` _ >.b L @.-.=.6.-.4.q.,.5.@.%.@.$.} ' $.} 2.r.y.a.a.n.n.[.R.p.h.g.I 4 h S S K ~ J U T K K E J L Q T K T T @.=.=./ 0./ Q / =.T ! :.1.C Y.Q.I.Q.R.Q.:X!.!.R.Q.P.R.].#XQ.Q.2XQ.#X&X1XkXdXkX1X&X=X#X=X:Xs.h K dX#X].[.R.m.Y.P.p.m.m.I.m.I.[.dX2XQ.#XdX-X$X=X-X&X X&X=X1X=X$X=X=X=X&X@X=XW.&.7 c W T / =.-.=.=.y.p.b.n.R.n.R.Q.Q.XX#X2.Q.[.1X].$X&X@X].#XXX%X1XXX'.].XXmXY.t V.Y.E.'.{. X{.XX%X*XrX7XXX$X X X X$X;X.XA.V.N.f.u.Z.Z.Z.E.'.!. X X X",
"X.s.~.Y.R.$X X%X Xh.6.k.k.w.t.f.f.u.<.5.i.h.).T.a.T.).).W.Y.W.).c.] P T.W.!.<X<X XR.E. X%X&X-X-X1X<XgXhXhX7XjXhXjXjX-X-XkX@XY.;XfX].gXxXjXa.) ' k.<.B #.w.t.>.k.k.V.T.T./.)..XtXrX%X*X*X5X7X7X8XrX*X*X-X%XXXQ.$.H $X%X!.]. X].].R.!.!.Y.Y.T.).*X%X*X/.T.XX XXXXX'.Z.A.A.A.{.OX4XNXyXk b D x 6 r.W.T.).T.Y q H q. X!.T.T.$X7X-X&X%X XXXXXoX*X,X*X*XwX6X6XeXFXbX}.1.<.gXjX7X%X5X_.5X).j.,.>.q.O.] ] [ 1.) [ +.;.' ;.N #.<.G p s U U ` +.>.w.v.+X%X.X+X7X7X7X7X8XgX$X5X5X5X;X;X$Xx.w.i.:X+XfXjXgXjXjXSX7X~.h.! W.xXxX7XrX8XwXkXxX&XhXgX`.).%XgX6X_.5XeX%X.X;.<.<.` M O.O.` o.X.Y F B F -.#.X.;.` f.k.*.*.w.r.Y b L M ] [ <.N r % % & < 1 1 > 6 9 , 1 y 5 4 5 b 2 a i 1 7 6 & , u t 7 i ..[ ; F K J $.-./ X.0.s.*.&.e.r.-.e./ K v t c T ' r.T T S v J U T F a $ O D D H c 4 x x l n v v v D v j ^ p.I.P.!.r.#.t.Y.t.p.R.Q.E.!.!.!.!.!.Q.:XfXi.Y X.P I L ` c q a l i 7 8 w l W C L Y Q L n L S S E R $.*.=.$.T @.@.$. .$./ r.K 8 $.y.Z.'.].'.'.'.XX&X&XrX*X*X,XXX].@X&XhXXX8.C.b.8.b.b.R.R.'.[.1X1X'.",
"a.:X$X!.!.$X X X!. XT.T.T.T.h.Y.V.C.g.h.g.V.Y.a.r.r.Y.E.Q.!.$XjXY._ @.W.a.h.@X].R.E.!.]. X X X$X$X$X$X$X$X;X&X&X*X*X,X;X&X!.n.E. X]. X-XBXjX;XP v.$X X).&X$X$X%X%X]. X&X$X%X6XtX;XXX.X'..X X.XXX.X X'.'.].!.R.$.N V.).).]. X!.E.!.R.T.T.T./..X6XrX*X*X!./. X X*X X!.'.E.E./. X.XyXnXL F F t 7 a.!.E.T.T.T.T.T.Y.V.!.T.E. X X X$X$X!. X*X.X/. XXX&X-X%X%X&XyX3X8XC.c.5X7X-X;X-X7XhXrX=X+X!.$XW.T.^.F.(.(.F.A./.^.^.^.^.j.h.g.q.0.N ' $X^.`.).$X+X%X;X7X-X7X7X-X-X;X;X$X$X$X$X$XE.i.i.z.T.].+X+X$X;X-XvX7Xa O.$X$X].$XXXXXXXXX].].'.!.!.R.).;X).Q.!.;X%X7XyXCXAX8XbXvXbXvXvXvXVXvXt.%XjXhXgXzXbXvX5X;X5X;X).+XC.F.v.(._._.j.k.k.w.{ M s M r 7 i 6 1 M M p [ G r a 7 p a 7 a a 1 q ) { 1.[ m ; N h.g.#.G M i #.5.:.' L 8 6 , O k -.g.j.v.T.;.>.w.<.<.u.k.,.o.O.O.*.o.k.w.` ` N N w 7 7 > , + , , Q.dX<X,X6XbX.XV.,.*.*.0.-.q.r.s.i.a.i.z.I.0.q.^.h.f.k.j.v.^.^.^.f.<.l.k.<.<.] ` ) T c k b N F F l l l l G F P l i q 7 w w 5 5 k P b C Q Q $.3.2.M.e.m.p.y.y.y.M.Y.R.&XR.$.2.7.3.2.7.e.e.2.7.2.3.=.",
").!.!.].]. X X$X$X$X!.!.E.E.R.T.E.R.Y.Y.T.W.R.a.i.u.V.E.!.]. XzXR.F @.`.!.!.!.!.E.E.!. X].).XX!. X$X]. X&X X&XXX.XXX XXXE.V.V.R.R.!.]. X&XQ.!.#.Y.:X!.@X XQ.!.].'.E.R.E. X.X.X.XOX.X X XXXXXE.%X*X.X X{.).!.!.5.} ^. X X!.!.E.E.E.A.V.T.E././.5XrX6XrX*X!.{..X XXX).).E.E./.}..XtXnX$.h 8 9 k Y.].T.R.C.h.).E.n.r.T.C.E.'.E.{. X X X).XX.XC.R..XXXXX%X*X*XrXV.h.V.E.;X&X&X&X&X&X1X&X@X!.E.$X/.R. X<XwXoX%X*X.X;XoX6X;X.XXX X!.Y.Y l r.h.!. X$X-X&X*X-X-X*XrX<X<X-X&X%X-X&X&X X].W.T.W.E.).!. X$XXX;XjX%Xi *.).Q. X].[.}.{.[.{.E.'.'.Z.R.!.].).E./.;X%X XoX,XwXwXwXwXwX*X,X,XyXlX#.!. X@X&X&X1X-X+X;X$X;X$X$X$X-X-X;XtX7XlXSXGXLXbX;Xc.c.T.w.o.a a a G ' l.+.[ >.O.>.o.H O.w.>.] <.l.^.l.l.[ | f.l.<.>.#.m <.1.#.#.N 8 X x Q.Y.wXwXwXwXwXpXVXVXZXVXlXiXtXtXtXuXjXtXjXjX;X.X(.C.f.,.#.G c p u , n.,X,XyXlXLXnXlXrX6X%X+X).$X$X X].&X-XXXC.C.E.E. X{.$X.X&X&X-XrXrX;X6XZX*X.X.X;Xu.Y L } %.5./.A./.j.g.6.j.F.k.;.+.{ [ >.] B 5 4 >.#.4 r l z l c k 9 h h u 6 9 i n v v h x h t k t h d 9 9 b w k z ",
"$X$X@X].$X!.!.$X$X+X X!.).!.Q.).!.!.!.E.Q.!./.C.u.u.h.T.!.'.].kXR.c q.).:X!.).$X). X X X X X).).). X X X X&X%X%X X$X&X].E.Y.T.Y.R.A.'.%X].V.i.T m.!.R.!.!.E.{.!.R.E.R.E./.)..X X X_..X X.X6X)..X6X*XoX X X!.!.%.#. X%X X9.g.R.R.R.V.V.T.E./..X*XwX*XrXrX.XE././.). X)././.(./.}.6XBXy.0 8 4 c Y.E.R.E.!.Y.T.!.E.,.f.T.T.E.E.Z.E.!.).!. X'.A.E. X X.X.XOX*XvXh.V h. X X X*X;X&X-X;X%X XW.W.)..X!. X&XrX-X*X6X6X6X8X7X-X7X-X&X$XE.*.q U *.:X@X;X=X6X;X%X*X;XrXrX*X7X6X&X%X%XXXXX X).).).!.).XX.X$X).%X7X).P #.E.). XXX.X X X!.E.Z.!.E.R.E.). X*X X{..XoXoX5X*XoXoX*XoX,XoXXX*X&XP.-.$X!.].&X&X*X%X-X=X$X&X$X$X$X$X$X;X=X<XhXMXxXxXSXVX-X`.$XrXhXX.F y z.jXgXjXgXbXrX7X6X!.+X-XrXjX8X8X8X;X8X;X.X_.).5X7X5X/./.W.!.+XQ.*.  / xXn.N.'.}..XOXOXoXoX*X*XoX>X|.XXoXOX.XXX,XrXyX<XrXXX{.^.j.t.#.B 9 0 n.XXXX,XwX,XiX,X,XXX>XoX.X X X X{.'. XXXC./.E.A.R.A.E. X{.XX%X*XlXwXXX*XyX<X<XBXvXw.Y Y > n.<XXX>XrXtXwXwX8XtX^.(.7X.X4X9XK.v.| <.k...{ [ { { { p r i 6 3 7 h y t p t 6 i 7 6 i k k w i e x l P P ",
").$X$X&X$X).W.%X;X$X+X+X X].E.).!.E.!. X).).!./.C.j.E.E.E.].&XkX].x *.!.).).). X].). X).E.!.). X X X X XXX X X X X$X X X]. X X XE.E.).&X!.i.,.b p.!.Y.T.!.!.E.Z.V.A.R.D./.{. X{.). X X.X*X8X.X X5X*X*X.XXX'.E.-.#.$X$X*Xu.u.!.A.V.C.V.V.T./.%X6XrX6X6XrX8X.XD./.{.{. XE.E.(.{.|.6XNXOXd 8 3 v h.E.!.E.E.E.E.E.).h.V.E.). X XE. X/.!.'.{.E.R.). X.XoX%X*X;XlXT.l i..X].&X;X*X-X*X*XoX.XW.!. X X/..X*XrX<X;X6X6X7XrX7X7XrXrX7X;X%XV.Y i i !.&X).&X-X,X,XoX*XrX7X6X%X%X;X*X%X&XXXXX X).).)..X.XXXXX.X%XrX).I h.!.E.]. X X X'.A.A.A.{.T.V.T.!. XXX.X X.X.X/.oXwX,XoX*XoX*XXXXX%X*Xn.q.).!.]. XXX%X%X&X&X&X&X&XXX XXX%X;X7X7XjXlXzXxXxXzXzX$X+X=X;XX.D y -.$X;X7X7X-X-X$X-XY.T.$X-X7XjXjXhXdXhX-X7X7X6X-XkXrXrX&X$X$X$X#X$.  ~ =XR.G.{.OX{.OX.XoXoX3X>X0XoXoX.X.X.X/.!..X*XrXrXwX,XoX X/.h.,.E i t '.XX>X,X6XwXwXwX>XoXwXoXXXXX{.{.'.E.}.oX{.{. X'.{.R.A.'.'.}.XXoXwXrXeXXX*X,X,XwXlXW.' F , y.[.OXXXoXoXoXwXrXrX*XrXtX.XwX5X8X3X8XaX8XaXpXpX8X8XpXbX_.r 1 > , < < 7 7 a 2 2 < < 7 l c l M B N G [ ] ",
"$X].!.].$X.X).).$X!. X$X$X X). X X X X X).!.!.)./.T.E.E.'.'.].kX].D q.`.W.!. X!.]. X X).E.). X/. X$X X!.$X$X XXX X'.]. X$X X!.!.T.E. X%XA.a.*.n 5.!.T.E.E.'.'.'.E.E.A.A.!.{. XR.E.{. X XoX*X%X.X.X.X*X%X.X XR.t.#.XX XXX.XR.C.V.V.C.V.C.E.{..X*XwX*X8XrXwXrX.X/./.)./.R.A.A.(.{.}.uXXXh 6 1 L i.Y.Y.E.E.E.E.'.].E.!.E. X{.!.!. X X)./.E.N.^..X.X.XXXXX&XoXlXT.i *.%X&XXX*X6X6X*XoX*X%XE. X&X X/.{.XX*X*X-X*XrX7X7XhXrXrXrXrXrX&X!.$.5 4 x.-X$X$X;X*X*X*X*XrX;X;X%X%X%X*X*X%XoX;X%X.X). X)..X%X%X.X;X6X;XP h.E.E.'.]./. X'.Z.A.'./.T.Y.Y./. X X/..X.XOX{.6XoX6X3X6XoXoXoX*X X%X Xp.E.!.).]. XXX$X%X$X%X-X;X%X%X%X5X7X7X7XrXlXbXzXjXjXlX;XE.fXR.O.Y U *.$X=X=X<X1X-X$X$Xp.j.&X-X-XdXhX7X-X=X-X-XdXdX-XhXkXxXhX=X$X!.W./ X =.].].'.'.'.{.[..X}.|.XXXXoXoXoXoX|..X X}.oX*X6XrXrXrXrX6X%XE.5.I 8 9 Z.XX&XoX0X0XwXeX3XoX3X0X|.oXXX{.!.'.{.{.E.{. XoX}.E.C.A.{.}.}.XX,X3XyXrXoXXX,X*X,XjX>.w 9 p.[.{.XXoXoXoX>X6X6X*XoX X/.OX{.4XJ.}.rX3X|.qX3X3X8XqXFXpXr Y *.@.>.:.>.*.>.q.*.*.>.>.6.:.X.;.<.<.>.<.,.",
" X$X%X X$X;X).C. X).).+X).).%X X/. X)..X).).)./.^./.T.T.E.E. XhX#Xx q.+XR.!.]. X X]. XE.R. X/.E. X X!.E.).XX X%X X X X!.).%X)././.).;X/.h.g.@.i t.).E.E.E.{././.E.R.A.A.E.{.E.Z.u.Z.E.!. X%X*X.X X%X*X.XXX)./.u.,.XX$X X{.E.V.V.V.j.C.E./.{..X*XwX6X6XwX,XyXrX XE.!.E.R.A.A./.}.(.rXrXv 3 , c #.h.R.T.V.E.). X_.).E.).).).!./. X). XE.Y.N.T. XoX%X XC.T.{.SX].t / fX&X%X*X*XwX*X*XXX{.'..X%X XOXZ.V. X*X*X.X6XeXrXeXtXrXlXlXrX-X XV.z 0 t.-X&X&X*X*XwX*X*X-X*X6X%X;XXX;X*X*X-XXXoXoX.X%X%X*X*X&X%X.X7XjX' W.E.!.[.'.{.{.E.N.A.{././.T.Y.T.^././.)..X*X6X6X*X6X*X*X5XoXXX0X.X XE.h.T.!.).). X).XX$XXX&X;X*X5X%X;X*X;XwX7X7XpXbXBXvXjXhXjX7XhXx.~ X.H t.&X&X&XrX-XXX X).;X.X&X7XrX&X$X;X6X7X;X).&X<X*XhXlXxXxX<X;X!.x.$.& 3. X].'.'.{.[.{.'.G.XXOXOXoXoXoX|..X|.3XoXOX.X6XrXrXlXhXrX*X!.u._ z 9 u.XXXXXXoXoX3XoX3X3X3XoXoXoX}.XX}.}.{.A./.{.{.XXXX!.Z.A.}.}.}.XX3X3XrXNXiX X%XXX*X5XT.F i Q.].XXoXoXXX|.3X5X*X6XoX.X{.{.{.{.{.|.XXOXOXoX>X3X3X3XsXeXl %X-XoX%X%X%X%X_.).]. X!. X;XrX&X).7XvX%X+X_.",
"!.).). X)..X X{.).$X).).). X.X). X X X).XX!.!./.!.!.).!.V.V.R.#Xa.a i.!.E.).!.). X).$XT.C.E.!.R.). X X X XT.T.).+X).). X). X)./.).%X6X,.r.i.*.i ] ).E.!.'.!.).)./.E.E.E.A.E.N.8.8.u.V.V.E.&X*XXX XXX*X.X$XXX/.i.5.!.].].'.'.C.Z.j.t.C././. XXX*X8XwX6XwX*X*X*XrX).A.C.B.g.N.A.}.oXiXMXT , , Y V.R.T.!.T.).$X$X.X.X.X/.).!.E.). X$X$X X XN.Z.E.'.%X/.6.u.E.NXQ.& v &XXX&X,X,XoX,XoX%X.X XOXXX X[.y.,./..X*XoX6XrXtXrXtXrXkXlXrX*X Xn.@.< ' ;X$X].%X*X6X*X%X*X*X%XoX.X.X.X%X*X;X*X*X%X%X%X*X*X*X*X7X6X7XjX@.).!.).{..X X/.{.A./.{././././.%X).C.T..X%X*X*X6X6X6X6XoXoXoXoX*X*X%XQ.h.Q.E.).+X).). X X X XoX%X.X%X%XXX5X6X6X7XrXlXcXcXzXjXxXxXxXi.H Y 1 T.*X*X;X7X6X.X). X.X,X*X;XoX/./..X7X7X6X*X6X<X-XrXmXrXjXhX-X+XY.:.> 2.].'.{.{.G.A.J.}.Z.}.}.XX>X|.OXoXoXoX|.XX{.*X,XrXyXlXlXkXrX%X/.i.I 5 2.].XX|.oXoX>XoXoXoXXXoX|.|.oX}.}.OX.XE.A.'.{.XXXX'.{.{.{.}.OX|.|.oX,XuXuXoXoXoXXX$X+XU & ].&XoXoXoX}.|.3X0XoXoXoX.X.X{./.{.{.{.{.(.{..X0X4X3X0XsXeXz /.).!./.T.T.T.V.V.V.a.V.P.R.].].Q.].hX=X$X).",
"!.!.!. X.X).). X)._.+X X%X X X%X$XXX X).].)./.!.).).).!.T.t.r.s.~ 7 i.!.E.).!.). X X). X/.R.C.!.!.).$X). X).).)._.%X X).).)._..X.X8XlX6.#.i.X.7 I %X!. X!.R.!.)./././.D.E.A.u.9.5.3.Q $.m. X;X%X%XoX*XoX%X%X Xh.$.Q. X'.Z.A.C.h.g.g./..X.X X&X*X8XwXwX3X6XoX*XrX*XT.C.T.5.,.C.E.OXwXnX/ O . 0. X!.E.!.). X$X$XXXXX$X!.!.E.E. X!.!.).$X$Xt.#.R. XoXR.B.g.C.nX#X3 6 E.oX,X*XoXoX,X%X%XXX).{.XXXXE.N.u.A.).wXeX8X8XtXtXuXlXrXrXrX<X%X'.r.= c $X+X!. X;X6X5XoXoXXXXXXX X.X.X%X%X.X*X;X6X*X*X*X*X*X7X6X-X7XjX@.;X).).)..X.X/..X{./. X(././..X8XC.k. X.X*X5XoX*XwXrX,XoX*XoX*X*X%X%XT.h.T./.).). X)._.)..X X.XXX.X&X-X*X,X5X6X6XwXyXlXlXlXzXjXjXSXi.~ X.7 !.%X*X*X*X*X X X{.XX&X*X*XoX.X5X6X7X6X6XrXwX%X*X,XrXhXhXjXhX-X).6.8 -.R.Z.(..X8. .A.}..XXX4XoX3X|.|.oXoX.X5XwX*X1X<X<XyXkXkXxXhX1X XV.' 4 $. XOXOX>X|.oX>X*XoX|.XX|..X3X|.XX*X}.C.Z.'.{.{.{.A.}./.{.{.|.oX|.oXoX>XiXwXXXXXXXXXXXY , #X#X X|.|..XoX3X0X>XoX3X3X|.D./.{.{.{.}..X{.|.|.|.0X0XsXeXV ). X/./.E.E.T.T.Y.Y.C.C.V.Y.Y.Y.Y.Q.:X:X:X:X",
"!.$X!.).+X). X X).).%X+X X). X%X X$X%X X_.XX X!. X$X$X).E.Y.I.z.O.7 x.+XE. X!.!. X!. X).!.A.N.V.E.).).E.!.$X%X$X$X X).).).).).). X7XlX X} 5.@.4 C T.E.E.E.R.E./././././. XY.8.8.b.3.: X U  X%X%X&XoX*X*X&X X XV.#.E.!.'.!.C.N.A.C.A.}.XX X.X.X*X6X5X6X6X>XoXoX%X&XQ.E.T.M | T.C.{.>XnX-.. : >..XE.).!. X X$X%X$X X). X).T.E. X!.W.).+X XV.g..XwX&XC.N.g.g.hX=Xv t h.oXoX;X*X*XoXoXoX.X.X XOXXXA.C.N.N.A.rXwXwXwXtXjXlXcXuXtXrXwX*XR.V.f i $X!.].&X&X;X*X%XoX.X X X X/./._.OX8X%XoX6X6X6X*X,X*X*X7X-XrXhX#.)././..X).).{.{. X/./. X/.)..X.XV.C._..X.X*X6X6X3XwXoXoX6XXXoX*X%X%X!.R.E.E.T./.)././.). X X.XXXXX%XwXwX*X*XwX8X4XrXyXlXlXbXxXjXVXw.O.` c ).$XoX*XoXoX.X X/..XoX.X.X6X;X6X7X6X6X6X6XrX-X7X7X;XtXrXlXhX7X XC.e 9.Q.Z.A.{.g.4./.}.XX*XXX|.|.>XoX<XwX,X<X,X*XoX*X*XrXrXrXhXrX-X XV.;.9 2.[.Q.{.|.>X3XXXoXoX3XoX|.oXoXoX|.oXA...N.{.[.{.H.E.{.(.{.{.|.}.XXoXoXwXrX*XOX.XoX XrXX.> [.[.OX}.|.oXoX3X|.|.3X3X|..X|.}.(.}..X X}..XK.K.K.|.|.PX3Xb &X/.).).E.E.!.E.E.R.R.R.R.R.V.R.E.!.:X:X:X!.",
"!.).).+X+X).+X X X).+X].!. X{. X.X%X.X.X.X.X$X X$X$X%X!. X!.].:X0.7 i.;X X!.!. X X X X!./.T.A.g.!. XE.V.Y.E. X X X).).)./.)._./. X.XrXcX!.-.R 5 _ Y.V.Y.R.T.Y.E././.{..X%XV.u.u.b.p.F X a T.%X%X%X%X%X*X%X X'.T.P R.Y.R.E.C.6.A..XOX.X|.}.}.oXoXOX6XwX3X*XXXXX.X%X].!.).f.f.T.^.{.oXyXr.& 2 f._./.!./.!. X X X;X%X X+X.X6.u./..X).!.!.!.E..X-X7X&X'.A.j.8.rX].K t q.%X*X;X*X6XoXoX.X.XOX.X.X XV.C.C./.OX6XrXeXeXeXtXjXtXjX7XjXrX%X'.R.L $ a.].XX&X*X*X%X%X.X.XXX X X/./.}..X7X.XoX*X6XwXoX*X6X*X*X6X-XrX5.%X/./.). X/. X{././././.{..X{..X.X_..X.X.X5X*XoX6XoX,XXXoXXXXX*XXX%X).T.E.E.E.E.E./.E.'.{. X.X X*X*XrX6XrX6X*X5XOXwXyXjXlXlXjXzXBX#.U ! U &X].XX%X*X.X{.!.{.XX%X X.X%X5X5X6X6X7X6XwX*X*X7X*X;X7XjXlXrXrX<X).M t.R.V.A.D./.E./. X.X%XXXoXOXOXoXrXrX*XXX X{. X{.OXXX,X,XrXrX,XoXD.<.f 7.OXH.'..X{.|.XXXXoXoXoX>XoXoX|.|.5Xg.} A.OX{.Z.A.G./. XOX{.OXOXOX4XwXwXwXwX|.{..X{.yX;.> Y.&X[.OXA.{.|.|.|.oXoX|.|.|.}.{.{.XXoX.X(.}.}.{.K.3X0XsX0Xz .X X)./.E.!.).!.E.R.!.R.V.R.R.E.E.E.E.!.!.!.",
"!.!.).!. X X]. X X$X X X X X X X.X%X*X*X%X%X.X). X). X X X).].Q.e.1 w.$XE.!.R.).$X X!. X).)..XT.a.V.a.V.R.Y.E./.XXXX/.E.). X)..X.X_./.nXSXR.F 7 #.T.c.T.T.C.T.E./././.%X!.V.u.n.2.} t.B p C..X%X.X%X%X&XXX].].].Q V.!.E.R.V.6.C.%X.XoXOX}.XXoX6X.X4X3X6X4X.XOX.X$X$X).^.T.(..XOX}.>XNXy.; 2 6.).).).!.E.).). X)._.%X%X;Xt.;.).XX'.Q.A.Z./.).-XrX-X!.E.N.g.$X:Xv v *.&X&X*XwX*XoXXXoXXXXX.X/./././.^./..X6X8XwXeXtXuXuXtXtXuX7XrX*XXXE.&.< r.R.].&X*X;X.X%XXX.X.X X{. X/. X.X.X8X5XoX4X*XoX*X;X6X6XrX*XzXa.%X). X/..X X X)././.).{. X X_.)././..X.X X*X*X*X*X6X5X.X{.XX*X*XoX*X$XR.!.E.E.E././.). X X X XOX4X;X*XrXrX6X6X5X4X;XrXxXlXzXxXlXGXw.m c / &X X%XoX.X.X/././.{. XXX%X.X.X.X*X6X6XwX6X6X*X*X6X6X7XhXrXjXrX&XE._ 6.Z.C.C.A.E.A./.{.{.}.}.}.}.oXXXOX}..X{.}.{.{.}.{.}.oXoXwXwXwX*X.Xg.f 3.'.n.'.{.'.XXXX|.oXoXoXoX|.oXoXOX}./.S.J.}.{.C.L.Z.'..X.X'.}..X{.XXoX,X0X3X3X{.}.}.uXf.7 J Q.XXXXN.G.|.>X|.oXoX}.|.OXOX.X{.XX X{.}.{.OX|.|.K.|.sX3XV XXOX X)./.).E.).E.R.E.A.V.E.E.R.E.E.R.R.T.E.",
"!.E.!.!.]. X].!.!. X!. X X!.). X X%X*X;X-X%XXX).).).).). X$XQ.R.q.* O.+Xi.).E.). X.X`.E.!. XrX+Xj.,.' k.<.h.h.T.).{.].E.). X/.{..X.XOXrXnX2.b i G ).c.T.R.V.T.C.E.E./.oXE.n.Y.Y.5.P ;.:.;.T. XXX%X$XXXXX&X&X].E.-.V. X!.R.V.t.T..XOXoX.XOX.X5X6X*X*XXXoX.X.X/._..X.X.X).(..XOX%XXX>XuXb.; 2 f./.!.).E.T.!.!././.).).).%Xf.| V. XXX Xa.5.T. XhXhX&XE.E.A.h.:X~.D x *.;X;X.X X%XoX.X.X XoX X/.{././././.{..X6X6XwXeXjXeXrXtXtXeX7X-X&XE.r.k V.2.E.XX&X*X*X%X.X X X X X).T./.%X%X6X6X6XoX5X6X6X6X6X5X7X-XlXa.$X X{.{. X!.E.!. X).{.)..XXX.X/.!. X.X/. XoX*X*XoX5X%X*X{./..X*X%XrX&XT.!.E.E.T.).`.).XX X X.X.X.X.X*X*XrXrX*X*XoX%X;XrXlXzXlXlXGX/.l 4 5. X XXXXX.X.X{.A.A.{. X.X.X.XoX*X*XoX*XwX6X6X.X.X*X.X%XrXlXmXlX-XT.} 8.H.b.C.N.A.A.A.A.{.{.{.{.{.{.}./.A.{.}.}.{.'.G.{.}.oXoXoX3XrXwX6X).z E '.E.A.{.}.}.OX}.|.XXoXoXXXoXoXoX.X}.}.{.{.{.A.N.N.E. X{.Z.{.{.{.OXoXoXwX,XXX{.{.XXpX6.G - 3.XXXXoXOX|.{.3X4XoX}.|.|..X}.}.}..X{.{.}.4XXXK.3XK.sX4Xz oXXX%X_.).)./.!./.!.E.E.R.E.R.V.E.E.R.E.E.R.",
"E.E.E.!.E.).!.E.!.). X!.'. X XXX.X.X5X*X*XoX.X.X).%X). X{. X].R.r.7 ,.;XT././.!. X$X X]. X).%X.X).%X).T.T.C.C.E./.{.}. X). X/.(.^. X.X<XlX5.C w i ).Y.Y.E.R.V.C.C./..X*XE.V.V.u.a.5.#.#.%.V./..X X$XE. X X$X].W.@.u.).Q.R.V.6.(..X.X.X}..X.XoX*XoX6XoXXX X.X{.(._.oX*X.X).}..X X X&XyXZ.= < V.].!.).).E.T.E.E./.V.,.^..Xh.,.C./.oX;XC.,.T.).rXrX&XR.I.Z.Y.:X~.x i i.=X$XV.5..XoX.XOX/./. X{./././.E.D.{.oX4X8XrXeXtXrXrXjXrXrXrX,XXX Xa.c E.Q. X-X*X%X*X.X.X).).)./.E.T.T. X%X5X;X8X.X.X.XwX*X6X;X6X7XhXr.$X X!.{.{.{.{.'.{.). X X_. XXX X!.{. X/./..X&X%XoX*X.X/./. X.X*X-X-XE.E.R.R.E.T./.E.!.). X%X%X_..X.X%X*X6X*XwXwX*XoX*X7XrXjXlXlXAX*XB 8 r.]. X.XXXOX.XD.A.C.R.E.'. X.XoX4XoXoX4X6XoXoX.X.X.X.X.X7XmXAXIXjXj._ 4.b.M.N.u.g.C.A.A.{.{.{.{.{.(.}././.}.|. X{.{.G.{.|.oX}.XXwX8XwXrX%XN I '.Z.D.{.{.}.}.}.{.|.oX|.oXoXoX|.}..XOX.X.X/.g.u.N.A.{.E.A.G.'.{.'.oX*XoX6X5XOX{.XXZX<.I = 3.1XOXOXoXOXJ.|.oXoXOXXXXX{.}.}.{.{./.{.{.|.oX4X|.K.sXB.g *XXX%X.X).). X!.).!.C.R.E./.{.V.C.R.A.R.A.E.",
"W.E.W.E.).!.!.E.E.!.!. X X X X X.X%X%XoX*X$X X%X.X).).%X_. XQ.I.-.7 w.).E.Y. X X]. XXX.X$XXX XR.E.).XX X X).)././. X X X{. X.X/.{.OX XXXzXu.} i 1 +XW.R.E.E.V.V.C./.oX*XE.V.p.a.y.5.%.#.:.h. XT.7.).E. X$X XE.R.@.r.$XE.R.u.u./.{. X X}.}..X.XoXoXoX.X{..X(././.).OXXX}..X.X/..X/.$XnXE.0 7 c.XX]././.E.T.R.R.R.Y.h.). X.X{. X/. X%X.XT.^.$XrXhX@XY.Y.n.x.!.=XD < h.&XXX XT..XoX.X.X_.).).)./.E.A.A.A.A..X5X8XwXjXrXtXyXtXrXeX7XrX%X Xn.k T.&X%X%X-XoX*X.X.X.X/.).E.).T.T./.).%X*X*X Xh.*XoXoX6X6X8X-XrXx.&X$X X!.{. X{.{.'.'. X X_.).{. X'.{. X/./. X.X.X.X.X%X/./.OXoX*X,XzX!.Y.T.Y.V.T.E.T.).).).%X%X X_.%X.X*X6XoX8X7X%X.X4X5XwXrXlXuXKX.Xm < r.$X!.XX%X%X_.)././.E.V.A.{. X X.X.X6X*X3XoX5X.X}..X.X5X6XkXAXIXSX%X6.%.7.8.u.g.N.A.A.A.{./.{. X{.{.{.{.}.}..X}.{.G.A.'.OXXXXX.X5XwX*XwXoXL I {.'.A.}.}.{.{.{.}.4X.X|.oXoX|.XX{..X.X{.OX{.N.N.V.B.A.'.{.A.A.Z.A..X*XXX*X>X|.{.oXFX_ w - 3.2XOXXXXX{.{.oX4X.XOX}.{.}./.}..X}.}.}.}.|..X}.K.K.sXB.l wX&X%X.X X).).)./.E.R.T.!.).XXT.A.R.A.!.'.E.",
"!.!.W.x.]. X].T.E.!.!.).]. X).).%X%X-X*X%X%X XXX).%X X).).].Q.R.=.< q.+XY.Y.!. X X X). X.X%XE.g.C.(.!.$XXX;X.X X/.).]..X X{./.A./..X.X).lXn.T i 1 W.).T.E.!.T.V.A./.*XoXY.V.h.V.h.r.,.%.<.V.T.V.,.E. X.X X X!.R.*.r.$X!./.V.V..X.X X{. X'..X%XoXOX X/.)..X X/./.}.3XoXXX.X.X/././.}.NXn.- < W. X!. X{.R.V.V.N.A.A.E.!. X).E.!.!. X$X).T.T.$X&X<X!.R.h.h.h.=XDXO.7 h.XX*X.X.X.X%XOX X{./._..X).^.E./.}.C.OX4XwX8X7XeXtXrXeXrX7X7X6X&X!.a.b Y.;X;X%X-X*X*X%X%X_.N.T.^.)./.C.^._..X,X*X%X X6X*X5X3X6XrXrXlXY.].!.]./.!.{. X X{. X/././.(..XOX].'.'..X/..XOX.X X.X.X X)._..XXXwXlXR.Y.V.C.C.V.T.E.).).$X;X).).%X;X.X*X;X6X%X)..X.X5XXXoXrXiXyXSX8Xc * t.$X/. X.X.X X).^.C.T.u.u.C. X.X.X.X4X3X3XoXoX.XOX|..XoXoX*XrXUXxXlXV.:.8.8.b.N.Z.N.C.A.E.{.{. X{.{.}..X}.|..X}.G.A.A.A.G.OX}.OXOXoXwXoXeXR C '.Z.'.'.{.{.{.}..X}.}.|.3XoXoX.X{.{..X/..X{./.(.A.C.S.A.D.G.A.A.A.Z.,X&X&XwX{.}.eXZXB 7 - 3.XXOX,X{.Z.{..X.X.X.XOX}.OX{./.{.{./.{.}.}..X}.|.qXFXF.z 1X%X;X%X.X).).). XE.^.T./.]. X)./.E.{.E.E.!.",
").!.).!.!. X!.E./.).!.)._.). XOX.X*X*XwX,X%X%X$X$X X X). X!.Y.n.#.; ,.%X).). X).%XXX.XXX.X6X8Xu.k.T././.).%X&X%X). X!. X X}./.{. X/._.*XUXQ.b i 1 x.$XT.Q.E.).R.A.{.5X).T.x.V.h.u.y.y.5.g.T.V.t.i././.;X X!.].~.@.=.&X].E.u.h._.{.{. X/.{.'.{.{.).{..X)./.(.{.{..X*X*X>XXX{.{.E./.}.nXp.: < /. X[.].XX'.%.5.C.C.T.^.).E.E.). X!.].Q.!./ =.!.$X&XR.R.V.V.T.=XhX&.q.T.XXXX XN. XXX.XoXOX/./.)..X)./. X.X^..X5X8XwXwXeXwXeXeXrXwX,X*XXX!.p.L p.%X%X*X;XOX.X*X%X_.^./.E.E./.D.A. X*X*XrXrX7X6X6X*X5XwXrXrXDX/ y. XE.!.E./. X X.X/.)./.{.{.{. X XE.{././..X(..X.X.XOXOX)..X.XXXrXlXb.Y.V.V.V.V.Y.R.E./.)..X.X/.%X%X%X%X%X;X.X_.%XOX.X.XXX*XyXuXAXBXM > s.Q.Y.!. X%X XE.).T.).j.V.E.OXOX.XoXoXoX*X.X*X.X_.OX.X}..XoXXX;XkXBXrXt.6.u.N.N.N.N.N.A.E.A.'.'.{.{.{.{..X}./.{.Z.A.C.A.G.OXG.{.|.oX,X,XeXI b E.Z.'.{.{.{.{.{.(.{.|..XXX0X{.D.D.(.D.A.C.A.A.S.A.S.Z.A.Z.A.S.N.N.A.oX*X*XwX|.|.iXaXA f 4 b.OX{.OXE.{.{.{.{.OXOXOXOX.X}..X}.}..X}..X}.}.|.|.4XPXk.g ,X,X=X%X+X.X X X{.!.E.E.E.E.].].].E.E.A.!./.",
"/.E.!.!.!.!.!.A.E././.). X).).%X.X-X*X*X<X*X%X.X%X).).R.E.Y.n.p.} = #.%X)..X X%X;X*XoX%X*X*XrXoX/.T.^.).). X%X$X$X$X X X X[././. X/.E..XLXU.h x $ q.;XE.E.E.E./.!.{.{./.T.C.T.V.u.y.N.n.C.V.h.u.V. XE._.].].!.Y.@.$. X XE.8.V..X.X.X XOX{.;.;./.(. X). X X X{.}..X*X*X%XXXA.E./.{.XXBXa.: 6 {.[.{.{. X X6.6.h.j.h.T.`.!.). X'. X@XQ.0.u a i.@X<XE.n.Y.E.).&X=X-.`.).XX%X%X!..X.X.X%X.X.X/./.)./.{..X.X/.OX*X8X6XeXeXwXtXwXrX*X*XXX.X Xi.L a.1X6X;X;X X.X%X)..X).E.T.E.E.A.A./.6X*X-XrX7X6X%X.X.XoX6XrXDXN P $XE. X X X X_.OX/.!. X{. X(..X.X(./..X.X.X.X.XOX.X*XE.g.{..XoXyXlX2.E.Y.a.x.Y.Y.T.E./.).).)..X.X%X%X%X6X%XXX)..X.X.XoX.XoXwXrXCXvXM < y.Y.V.E.E. X X).).T./.N.A.)..X.X.X*X4XoX.X.X X).).).)./..XoXoX0X<XmXcXi.5.8.N.N.N.N.N.A.{.D.E.'.'./.D./.{.}./.{.A.B.B.N.A.OXJ.K.|.oX0XoXuXY c E.H.G.J.A.'.J.{.J.D./.{.|.eXd.D.D.A.F.D.:.6.N.g.N.Z.N.Z.A.A.N.B.N.A.{.oX,X6X6X3XiXpX_ d 9 Q.&X{.A.A.{.{.D.}.|.}.OX5X}.{.|..X}.{.}.OX}.}.|.|.8XPXd.w ,X,X;X%X%X.X X).{.!.).!.].E.E.].!.E.R.E.E.A.",
").).!.R.Y.E.).E.C.!.E.E./.!./..XXX%X;X*X7X*XoXXX X X/.R.R.R.m.e.T ; o.+XE. XXXXXoX*XoX%X&X%X;X%X.X)./.).)..X$XXX$X]. X X X!.E.V./.^.'.XXMX0.x x % o.%XW.T.Y.T.R.A./.).T.E./.Z.S.b.u.V.n.E.T.C.V.T.)./.XX X{.!.V.} %. XR.!.V.E.{..X.XXX.X.X(.C.T. X/.).).%X X.X.X.X*X>XoX.X'.A.{.{.XXnXr.o a $X X).$X X X!.T.T.j.V.C.V.). X%X X X].!.0.F X.r.E.E.5.r.E.E.T. X-Xr.W.)..XoX.XoX|.}.OXoX.X.XE./.).)./.3X.X/.(.4X6X6X7XwXrXrXwX8XwX*XoX{.!.u.I V.*X-X-X6X%X*X.X X.X).)./.T.T.T.A._.5XwX6X6X6X6X%X*X%XoX*XrXzX#.t.V.R.E.'. X].XX$X X]. X X X/..XOX}.{..X5XoX3X.X.X.XoX}./.}.|.oXaXrXR !.h.n.V.V.V.Y.T./.).].[.{..X.X.X%X%X X).%X%X.X.XoXOX.X6XeXCX<Xc i i.~.Y.E.T.)./.)./.T.V.Z.!.}..X.X%X.XoX.X4X.X X/./././.(.}.oXoXXX6XlXeXu.6.j.N.N.N.N.N.A.A.A.A.A.{.{.{.D.J.}.{./.C.N.g.g.S.J.{.|.oX|.oX3XaXL c Q.Z.H.{.{.J.A.J.D.{.}.}.}.oXA.{.{.F.D.D.A.B.N.8.N.N.N.S.Z.S.N.N.N.C.A.{.XXoX0XoXcX8X) l 4 [.XXC.A 8.}. X}.oXoX|.|.oX}.}.{..X(.|.{.}.}.}.4XK.qXFXd.e rX1X*X*X.X.X X).!./.T.E.!.!.].'.'.!.T.E.!.T.",
").!.!.!.n.Y.T.E.R.A.Z.A.E./.). X%X.X%X*X&X*X6XXX'./.!.Z.C.n.b.y.' $ ! +X!.%XXXoXoX*X*X;X*X*X5X*X;X X/.E.).).).]. X&X X).{..X^.[ 1.T.{.>X<X=.D x 7 ) -X).Y.E.T.E.T.E./.E.).T.Z.C.C.N.V.V.t.T.A.T..X X X X X].Q.n.R _ ).'.{.A./. XXXoX%XoXoX}.C.T. X!.T.T.%X6X X X.XoX.X.X{.A.{.{.XXXXkX-.. p +X).].]. X!.!.E.T.T.T.E.E./..X X X X X!.W.W.T.Y.].V.b I T.).E.T.$XR.Q.).%XoX3XXX5XoX.X5X%XOX X/././.}.}.oX/.D.}.oX6XrXrXwX7XrX6XrX*XXXXXE.h.} p.XX]. X6X;X.X%X).).).).^.T.E.C.C./.oX*X6X6X*XoX;X*XOX*X%X-X<X,.).t.b. X X{.!. X XXX X/.{.!. X.X.X X{.).*XoXXX.X.XOX.X.X5X5X.X6XBXtXI V.h.h.h.h.n.Y.T.E. X X{./._.%X6X7X.X).).)..X)..X.X.X.XoX6XZXtXl i =X<XE.)./.{.)./. X/.V.Z.{..XOX%X5X6X4X.XoX.X{./.E.E././.{..XoX4XoXtXNX/.g.B.8.N.N.N.g.A.A.A./.A.D.D./././.{.}.A.g.f.8.N.D.G.{.|.oX|.oX0XyXL T  XZ.Z.D.J.A.D.D.D.D./.}.{.{.D.{..X}.F.B.OXN.f 4.L.8.M.b.N.Z.S.b.b.Z.A./.}.oX>XoXpX^.G b 4 ].XXZ.u.Z.{.}.oXoX3X.X|.}.}.}.{.}.}.{.D.D.}.K.K.4XqXFXg.r ,X1XrX;X%XXX X X X)./.!.E.!.]. X XE.E.E.E.T.",
").). XV.t.E.E.!./.E.A.V.E.)._..X*X6X*X$X%X*X%XXX.X X'.Z.V.u.y.y.Y * X.+X).$X$XXX*X&X%XoX%X%X%XXX%X X!.E.).!.). X$X X).).!.).).l.F.(.}.wXMXE t x 1 c gX&X).W./.E.Z.!.!.!.!.!.E.C.R.C.V.A.u.C.E.E.{. X X X].'.Q.m.R } .X!.E.D./. XoX X].&X%X XC.C.R.!. X$X%X%XoX.X.X X'././././. X XXXlXT X U ).!. XQ.E. X/.!.!.T.T.T.T.E.{. X X X!. X].E.!.Q.].'.} %.E.%X).R.u.h. X%X*X*XoX5X4XoX5X5X6X.X/./.{./.{. X).{./.{.oX6X,X6XrXrX6X6X*X%XXXXXE.u._ y.E.Z.'.&X*X*X%X X).)./.^.^.A.A.A.)..X*X5X*XoX.X%X%X X.XXX&X=Xp.!.*.i.E.&XXXXX&X$X X X{.{./..X.X;X X/. XOX%X*XOX.X.X.XoX*X5X3XwXCXjXJ V.N.V.u.u.u.V.C.E..X.X X X).6X7X%X).). X.X;X.X). X.X.XoX6XuXVX>.4 Y.=X'. X X.X.X{. X/.V.A./.OXoX*X6X6X6X4X.X.X/.{.E.C.A.{.E..X.X*XoX3XNX6XL.S.8.g.8.L.u.C.A.B.A./.A.D.D.D.{.J.{.A.g.4.8.A.D.(.{.|.XXoX|.XXuX*.q *.b.Z.{.E.A.D.D.D.D.{.}.{.(.{.{.{.}./.F.(.A._ 8.N.g.L.8.M.N.N.L.N.N.B.{.{.}.3XoXuX.X[ N n *XXXZ.XX XE.}..X3X.X.X.XoX}.OXOX.X.X^.D.{.4X3X3XqXqXFX8Xe %X<X<X*X%X$X X$X X].!.!.!.].]. X X!.E.Q.!.).",
"$X!. X!.T.).).)./.E.E.C./.). X.X%X*XoXXX{..X*X;X&X X].R.b.y.r.y.Y - F +X!.].$X&X&X&X&XoXXX X$XXX XR.{.!.E.).!.{.!. X).!.)./.)..X(..XoXyXmXv 9 x $ 7 !.$X$XT.). XY.E./.).).).).!.!.V.C.Z.!.)./.]. XXXXXXX].].R.p.R T T.R. X)..X XoXXX{.V.E.XX).h.V.C.'. X].%X-X%X X/./.R.E.T./.OX{.XXyXW $ X.).E. XE.h.T././.E.).)./.T.^.!.{.!.).!. X X!.E.R.'.Q.!.V.R. X;X!.h.y.!.%X*X*X6X6X6X6XoX%X;X%X{.{.}.{./.).!.E.{./.{..XXX*X*XwX*X.X*X.XXXXXE.u.I i.T.y.Q.&X,X*X%X$X$X).E.E.T./.T.T.C.XX*X*X*X*XXX.X X X!.!.].].e.Q.P.V.Y.].&X1X-X-X%X X/.E.R.). X$X.X X X*X%X X X.X.X.X.X%XwX6XwXKX;Xy E.n.u.p.u.n.u.V.E.). X).).%X%X%X).).).%X X.X X.X.X X.X*X*XtXVXT.8 5.].]. X.X X.X.X_.).C.V.E.%X5X5X5X7X6X;X.X.X/.A.A.C.C.A./.).%X*XoXoXNXiXS.N.d.N.8.j.g.N.N.B.A.A./.A.A.G.A.XXOX8.4.g.C.A.(.{.|.}.}.OX|.}.wXT.7 0 2.Z.{.(.{.A.D.D./.{.}.}.}.4X|.{.J.D.D.A./.J.A.N.8.N.d.7.8.b.L.N.N.A.D.{.A.}.oXNXA._ c n XX[. X'.{.{..XoX|..X4X.X|.}..XOX.X.X.X}.{.|.4X|.|.qXsXFX..!.<X<X-X$X$X]. X@X].!.E.Q.!.].].$X).T.T.E.Q.",
").!.).$X X/.!.).).).T.E.).).). X&X&X X X)._.-X-XdX-X$XR.u.y.y.Y.@.O n !. XR.!.$X&X X%XXXXX X X X XE.E.E.E. X).E.!. X).E././.^././..X6XyXMXv 9 S t i h.$X&X!.!.].!.E.!.).).). X X!./.R.A.E.{.E.E. X XE.].Q.E.Y.t.R L h.V.&X%X%XXX.XXXoX.XE.).E.h.g.f.'.XXE.]. X X!.C.C./.W.).XX.XXXXXdXt . F ).!.Q.!.).E.T.E.!.E.!.!.!.W.E.). X).{. X X X!.E.Y.n.b.a.].).$X/.$Xi. X-X7X;X6XwXrX*X%X%X%X)./.{.}.{.).)./.R.!.{.{. XoX%X*X*X.X*X*X%XXX].W.a.] h.Y.r.R.&X-X&X$X$X$X$X).!.E.'.R.T.T..XoX*X%XXX X!.'.!.T.!.@Xp.-.Q.P.n.Z.{. X X X<XlX%XE.E.E././.{. X{. X*X*XoX X X.X.X5X*X,X6XwXFX=Xx Q.b.V.u.u.i.y.g.f.E.).)..X;X%X X:X!. X$X!. XXX X.X)..X6X,XrXZXk.m ,.!.R.]. X X.X X_.).!.Y.T. X%X6X6XrX6X.X&X XT.^.T.k.j.C./. XXX,X*XwXNXeXB.B.g.g.u.N.g.g.N.C.A.'.A.A.G.A.A.E. .%.8.B.A.F./.{.{.}.}.}.}.XXoX/.q l R./././.{./.A.A.A.E.}.}.{.{.}.J.J./.D.H.N.N.S.A.A.S.g.8.8.9.7.8.N.N.A.(.{.}.>XZXh.P 9 T #X X{.{.{.OXOX}.}.OXOX|.}.}.}.}.}.{.OX|.(.{.}.|.3XqXaXpX;.Y.dX-X&X$X X X].]. XQ.E.R.E.].@X&Xr.V.E.T.E.",
"+X). X X].!.$X).!.T./.E.!.E.).). X'.]./.).).7XgXhXdXdX$Xn.9.V.E.T , O D :X@X]. X$X$X$X X X!.E. X&X$X!.).!.E.T.R.!./._.T.T.R.T.T. X{.%XlXMXh = h v 4 q.). X$X!.].].'.!./.$X).$XXXE.R.T.E.E.!.].E.E.R.n.n.h.Y.n.p.R I T.Y.$X%X&X&X*X;X,X&X!.).!.h.h.6.} @.t.).).T.V.C.T.C.^..X.X.X{.&XQ.9 > c T.Q.Q.R.Y.E.R.Y.T.R.!.!. X!.!./.E.R.!.'.]. X X].R.a.r.u.Y.).$XXXnX} n.XXXX&X;X6X;X%X%X%X XE.E./.).OX/.T.T.E.R.!.!. X$X.X*X%X%X X.X X X].!.Y.T p.!.a.E.&X-X%X%X X!.!.!.E.E.E.T.T.T.$X6X*X$X X X X!.].!.Q.@Xs.&.Q.n.V.Y.!.'. Xi.E.AXUX XZ.Y.A.E.{.XX{..XXX%X X X X{.XXoXXX*XwXrXKX7XL E.a.u.p.Z.u.u.n.h.T./. X%X*X$X).!.).$X X{. X X.X X_. X*X6XrXVX:.e P V.E.XX].XXXXXX X X).T.T.)..X6XwX*X7X6X.XC.E.^.T.5.g.V.C.E.XXoX>XwXNXwXA.A.B.N.8.8.N.8.N.N.C./.D.{.A.S.D.N.Z 1.S.B.A.A.D.{.{.{.}.{..X|.oXA.e i.E.E.A.A.D.A.B./.Z.A.|.}.}.}.}.{.G.G.A.A.N.L.N.A.{.g.8.8.f.5.7.M.L.B.A.D.{.OXXXCX| c 0 e.$X[.OXXX{.XX}.{.{.OX{.}.}.}.}.}.}..X{.}.}./.}.3X|.0XpXHX] Y.dX&X&X&X$X$X X].].].!.R.E.].$X$XY.n.T.Q.T.",
"$X$X].].].].].$X!.!.XX[.[.'.E.&X-Xn.].XXXX&X-XhXMXDXSXdXP.y.&X&X/ + @   T ~.@XE.R.&X&X&X X!.!.].].&X$X X!.Q.Y.R.!.]. XE.E.].E.!.{.XXXXMXdXh u t v = Y f.!.$X&X$X].!.!.!.$X%X&X*X&X].!.!.V.R.&X].#X XV.n.R.m.P.z.&.U p. X[.].XXY.n.n.Q. XQ.1XhX XR.$Xq.@.y.E.!.R.R././. X$XXX X].].1XI.9 6 x r.s.s.P.P.R.Y.V.T.V.R. X). X$X!.E.Y.Q.Q.Q.!.#XMX!.p.5.i.R.].]. XmXQ J R.&X-X*X1X-XrX1X&XXX X XT. XXXR.V.Y.a.Y.R.]. XXX$XXX&X%X XXX$X].R.Y.e.c @.$XQ.].&X-X<X-X%X$X!.!. X!.E.E.E.E. X%X&X&X X!.!.!.Q.Q.Q.!.T &.z.a.Z.V.E.E. XT.].nXLX&XY.C.h.C.).&X!. X&XXX X'.).].{.{.XX*XwXlXLXlXL Y.a.i.u.V.i.u.u.V.R.R.].-X$X X+X$X X X X X X].XX.X.X.X*X7X*XFX:.p t.).!.].XX.X{.{..X X XT.T./.%X7XrXrXwX6Xu.:.A.C.E.N.V.C.V.Z. X XXXwXKXoXN.A.C.B.N.g.g.8.N.N.A.D./.A.A.N.A.J.N.B.B.F.C.A.E.{.{.}.}.{./.{.XXC.C V.Y.'.Z.D.B.C.N.N.A.A.{.{.J.}./.{.{.'.A.Z.B.g.N.Z.E.N.f.y.u.5.7.8.N.N.B.D.J.|.0XFX) e = r.XX'.{.{.}.{.{.}.{.}..XOX}..X}.|.A.V.{.}..X}.}.|.0XqXaXPX..q.;X#X#X$X X$X@X].!.].!.].!.!.].$X!.E.Q.E.R.",
"-.y.y.y.m.5.p.M.y.e.3.3.2.3.$.=.y.Q / ~ $.*.&.0.( e.s.0.E b W v 3 . & , 6 t 5 i M b F P ! R I *.#.#.Q T I T J S E } =.*.R } #.#.$.,.5.M.P.O O , y 7 Y >.g.XX@X!.&XR.@X<X&X].Q.Q.Y.a.p.5./ -.p.n.y.s.$.$.r.! @.@.L l N _ R R ' Y k 8 i P Y *.$.&.*.s.t.r.2.%.5.i.i.8.6.y.i.n.b.u.b.Z.$.& 7 5 F ~ D F H U L ] X.Y #.#.q.*.! T / @.S D 0.s.=.e.s.z.5.y.r.r.r.p.$XU 8 b L T T E R -.,.5.3.R %.%.,.*.$.} o.I u.5.0.r.a.r.r.Y.y.p.h.p.a.5.-.P 1 y z.a.V.R.Y.V.R.n.y.,.2.y.u.u.V.a.Y.h.h.r.p.r.2.p.s.r.s.i.s.U @.q.e.n.E.R.E.E.XX XZ.Q.!.].rX5.i. X].].E.]. X'.V.u.C.{. X$X%X6XtXFXcX_ p.h.i.7.a.V.u.8.V.T.V.E.!.R.E.!.).!.E.!.{. X X X.X*XoX*X6X6XSXh.e ).7X$XE.E.{./. X/. X/./.A.(. X*XrXwXXX*XoX/.(.A.C.C.C.g.u.C.!.oXXXwXCXXXN./.A.B.N.L.L.g.g.g.B.A.{.D.A.B.N.N.g.N.C.A.C.A./.D.{.{.}.{.OX}.}.E.%.u.Z.Z.G.E.A.A.g.N.N.A.{.D.{.{./.D.{.{.{.A.B.g.L.N.A.J.Z.N.8.7.9.8.d.A.N.S.A.}.iXaXA m 9 y.R.Z.!.'.[.{.{. X{.}..XOX.X}..XoXA.g.D.{.D.E.}.K.4X3XaXFXF.<.R p.].[.#X$X$X X].).].!.!.!.:X$X).E.E.Y.Y.",
"l k F ; 5 c B l 8 w 9 6 > > < * , , . . $ X $ r H +.O.o.+.>.#.#.*.*.>.t.,.,.t.k.v.j.).;XC.T.T.T.).t.' i i e $ : w.c.k.^.c.k.<.[ M B Y F ~ a a , % 2 a p f.).!.r.e.J h v n c i U S a , o a H x i i B l ) ' M ..] >.;.<.P B ` ] ` G { H ) +.o.O.s s H ] ' X.X.k ; B ` P ' P N C P ' | P Y ,.h.x.!.T.T.Y.Y.T. X/.).$X+X;X-X:X~.a.s.y a :X@Xx.s.Q.z.*.!.W.Q.Y.Y.$X;X).T.C.).!.k.;.>.f.h.T.#.c Y Y G P ` ) ] .XP X c >.Y #.T.w.,.w.*.<.k.v.`.v.G G O.:.t.*.,.5.u.,.*.,.h.R.). X%X6X;XSXk.w ) ] ,.t.} ,.h.i.#.#.P P #.%.:.4.7.h.h.i.2.n.Q.hXY.n.R.$X=X].I.=X=XQ.N.'.,X&XXX-X*XrXBX%X! &.a.p.r.V.V.a.8.b.Z.Z.].Z.V.Y.E.Q.E.E.!.].]. X!.$X XXXXX*XrXBXV.5 !.&X&X*X{.'.!./.E././././.E..X6X*X*X;XXXoX X{./.C.A.C.L.d.C.E./.}.oXmXG.M.'.G.G.A.S.N.N.N.L.N.A.(.{.A.C.N.N.g.C.Z.C.A.A.Z.A.{.A.{.XX{.{.}.*Xt.,.9.u.N.Z.Z.A.N.L.B.A.{.{.J.A.'.J.'.{.A.C.N.g.u.N.N.Z.Z.Z.u.7.4.8.L.C.N.C.A.{.iX7Xl Z 8 5.Z.C.R.E.Z.'.'.'.'.[.{.[.}.}.}..X}..X_.F...| A.}.oXoXaXFX4Xk.) E !.R.].]. X$X+X!.!.!.).!.!.$X!.Q.R.R.E.",
"G c +.w.o.M e e e p c 7 < > 7 2 : & , O.`.k.9XgXjX8X5XjX7X7X;X%X$XE.E.!.P.V.E.).XX}.,XtX/.E.%X&XkX%Xt.*.,.` r G 8X+X).$X7XtXrX7X8X8XjX7XgXxXDXx.>.w.>.` ' #.#.q.q.*.b Y q.;.k._.jXSX~.t w.`.`.^.)..X.X%X5XC.C.^./.`.)._.)./.!.+X5X+X).).;X;X8X5X)._.5X5X7X7X;Xq.c.+X%X^.#.P N N ) o.P 6.V.,.,.h.V.T.T.E.C././.{.*X.XoX-X X].Q.Q.#.i.+X!.~.!.$X:XJ z.$X$X+X).;X5X6X7X6XrXrXhX7X7X8XwXrXkX7X$X+X;X5XT.w.f.^.<.; O.,.X.i.T.).).).%X X$X&XjXVXjX$X;X$X+X%X X;X;X+X).E.(..XOX{.4XwXtXGXvX5 <.f.' F @.h.T.T. X*XoX XE.g.8.| 1.6.:.#.W b L E I b L n n K S E @.@.P L 2.p.y.5.V.!.j.).h.b #.-.*.*.-.,.6.4.b.p.R.n.i.E.!.!.R.Y.Q.&X$X&X&X-X$X X&X%X&XhXY.6  X<X&X*X&XXX X X.X XR./.A.'..XXXoXoX%X.X X!.{./.R.C.g.8.M.Z.A.{.XX2XKXH.7.H.G.Z.N.S.b.N.L.g.N.g.D./.A.A.C.N.j.N.Z.N.Z.S.S.A.A.'.'.{.{. XXXlX XR Q 4.%.u.'.'.S.M.N.H.Z.'.'.Z.'.'.A.Z.A.A.g.g.b.b.n.Z.n.Z.b.5.5.8.u.b.N.N.C.}.aX1.m ;.5 3.'.Z.Z.'.R.E.'.R.'.[.{.XXOXXX{. X{.OXOX}.|.F.D.}.|.oXiXFX8Xj.,.s.a.p.[.].@X$X$X$X=X=X!.!.Q.=X!.Q.Y.Q.'.",
"7X;X.X%XjX8X6X5X6X7X;X).).^.)..Xq.a 7 j.8X8XjXbXwXXX X,XXX X'./.E.T.R.R.Y.a.Y.T. X X.X*X%X!. X$X-XY._ t.,.i.H ,.!.).).E.%X_.%XXXoX,XoX*X;X*X;X$X.X).h.6.5.t.u.t.i.T.$X%XrX5X5X.X-XDXR.} )./..X%X;X;X*XrX<XoX X).). X$X).).).E.).+X X X X X X X%X.X X X XXXXXhXT.t.Y.XXT.t.<.1.1.w.T.h.rXXX$.6.h.V.T.E./.D.F.g.9.}..X%X&Xa.a.P.s.&.Q.Q.R.n.Y.].=X=X~.+X$X).!.!.$X%X$X X&X&X$X). X!. X X X!.n.Y.$XxXhXW.T.,.:.O.!.T.W.!.T. X!.!.!. X$X-XhXxX-X&X$X$X-X;X!.$X$X!.R.E.^.{.}.{.{.OX5XtXGXP ,.k.' w #.{.Z.A.H. XXXoX}. X.X_.).).).R.V.y.V.a.h.V.h.X.: 2 7 -.f.j.f.,.@.7 p t.a..X.X%X6X).). Xg.r.k.T.h.t.:.:.q.w.q.5.2.2.-.-.q.a.i.!.T.).T.T.$XXX XrXi.* %XrX1X,X,X,X-X*X,X,X.X/.{.%XoX>XoXoX,X<X<X&X&X2X>X>XM.3.M.n.R.[.[.[.dXE y.[.N.N.A.A.C.Z.N.g.g.N.A.A.A.V.C.N.g.A.N.N.Z.Z.H.A.H.'.{.{.].{.].nXrXC E y.5.y.R.R.Z.b.b.R.Z.Z.Z.Z.Z.E.Z.'.A.Z.i.u.7.b.n.V.V.b.u.y.5.u.Z.Z.A.E.E.rXZX[ F.1.4 Q Q.#X&X&X2.I n.'.'.{.XX X].XX'.XXXX[.}.{.{.}.}.{.}.XX0XNXbXv.H ~.fX@X[.#X].&X=XfXfXfX=X@X#XdX=X:X@XR.Q.",
"<X,XXX).7XlXtX6XoX6X4X6X6X7XrXlXrXq.M j.;X%X;X5XrX*X1X&XXX X X!.!.E.!.!.V.a.V.E.). X XXX%X X!.E.E.T.!.5Xq.x.&.i.W.). X).%X%X%X.X.XoX X X X X$X+X).E.C.V.x.h.h.u.' } 5.g.C.).).).@XMXe.} ).!.!.).).).*X-X*X%X$X X).).$X$X$X$X).).).+X).]. X X). X X X_..X%X%XrX Xa.Y.R.T.V.C..X). XE.T.).T.u.C.A.Z.T.)..X{.D.j.6.F././.$XR.n.n.r.@.W.!.R.R.!. X$X$X!.$X). X).!.).$X). X%X&X$X X XT.R.@X X).). XQ.~.#X:X$Xh.L P W.~.~.W.E.R.T.V.V.T.'.-XhXgXhX-X X$XdX-X!. X$X!.Y.!./. XOX{.{.}..X7XGXg.#._.C.N 4.E.Z.E.{.}.OX.X}..X/.).]. XE.C.A.A.Z.C.C.!.oXrX.Xj.^..X*XoX3XeXPX| R lX%X;X6X X&XoXtXtX7XrXrXrXrXhX$X).$X).E.T.V.Y.E.g.h.T.W.a.i.a.i.t.V.h.a.T.` a Y.n.R.n.R.Z.V.V.Y.n.n.p.u.y.4.5.V.a.-.$.=.( ~ T T T j h h h h h j h 3   ( n.u.i.V.h.g.g.i.8.8.N.g.j.C.g.8.d.g.g.g.B.N.7.4.7.u.b.2.M.M.7.M.V.-.@.I #.4.%.r.5.7.3.$.7.6.5.,.r.5.$.6.i.y.t.6.%.%.%.6.6.6.5.%.@.} / } $.2.2.6.8.3Xd.F...m l b E @.T k = C y.b.m.Z.2.2.R.Z.Z.'.XX>XoX|.XXoXXX|.>XwXvXtXq.H 0.q.$.@.@.} Q Q / =.=.( $.s.s.,.-.-./ / ",
" X'.E.!.;X7X,X6X8XwXwX*X*X*X1X&X1Xp.N i.%X%X*X-X*X,XrX&X.X}. X XE.R.E.!.Y.V.V.E..X_.)..X%X$X XT.R.!.].!.a.$Xs.h.T.!.]. X$X%X%X&X%X%X X)./.!.!.!.].!.E.E.R.R.R.h._ | 1.6.g.T.).).].dX/ T T./.). X).%X7X*X*X*XXX{./.!.). XXX7X7X)..X%XXX].].]. XXXXX X.X%XoX%X-X$XV.V.V.T.r.,.C.T.E.A.V.V.T././.E.!./.).%X.X.X(.F.S././..X X].!.p.H R.).E.].!. X X$X]. X X$X X!. X)./.)..X X X XXX$X X X!.).!.XXR.0.T K =.*.> *.!.W.$X7X$XC.u.t.i.k.V.%X7XhXrX&X$X-XrX<XXX&XXX%XN.E.'.XXXX X!./. X;XBX].$.!.a.T V.Z.S.D.}.OX.X|..X}.{.!.'.{.{.A.A.C.E.N.8.b.Z.'.{.'.Z.b.Z.[.OXXXCXJ / <X&X&X&X,X>X6X*X.XoX.XXX%X X).%X.X.X).h.h.Z.V.E.!./.).$X$X;X%X7X6X7XuXtXtXtXvXjX+ 6 I ] ' ' _ ) ) Y I B b L b I X.H F p a a y y y y 1 7 > , % % +   @ u v $. X;XT.u.A..X.X.XoX.XuXwXC.C..XyX/. XrXcXf.T._ 5 b 6 $ & > f C.k.C.^.C.E.u.#.#.#.:.,.6.i.t.<.i.,.w.t.u.g.A.F.C.C.(.5X_.j.f.] ` Y N G ) ' Z ' P h.j.6.k.<.] ] ' u.f.<.>.[ Y I I Y B b L H P X.@.! @.=.V.r.8.Z. XE..Xk.c O.T.c.t.>.k.k.` I X.X.U Y P t.` M Y G c F ",
"R.{.E.!..X*X7X7X7X7XwX*X*X6X&X&X].n.Z h.oX.X*X;X*X%X%XoX%X.X/./. X).E.R.R.T.T.E.).6X;X.X.X%XXX X!.E.V.Y.;X=X!.Y.n.V.).)././.XXoX.X%X).).).T.E.Z.Z.E.!.E.R.T.E.E.A.g.N.g.h.C.E.E.].1XL 5.)./.).!.).%X6X6X*X*XXX.X/.E./..X X%X).)..X%X%X.XXX{.'..X%X.XOX.XoX.X%X XR.V.h.!.C.V.A.T.A.C.V.T.W././.^./..X%X).%X%X%XOX/.(. X X$X].!.P.n t.W.x.R.!.!.@X$X].!. X X@X X XE.E./..X.X.X].]. X!./. X/.!.!.$XhX+XX.c S & ! ).Y. X&X)./.g.u.k.f.<.E.-XhX7X6X*X7X-X<X$X$X X X5.V.!.XX%XXX'.R..X*XlXrX#.@.O.' E.Z.A.{..XOX.XoX.XoXXX}.OXA.E.(.A.A.A.C.8.L.b.Z.H.'.Z.S.S.H.OX>XNX9 =.<XXX&XXX*X-X<X*X.XXXXXoX%X X X%X.X).).C.k.T.V.C.E.R.E.!./. XXX.X%XoX.X.XoXyXSXIXx &.6XE.T./.%X.X.X.X8X*X.XrXlXyXcXVXVX8X;XjX8X5X7X8X%X%X5X%XfXgXfX&.X 3 -.oXiXuXpXrXwXrXwX>X*XwXrXZ.N.'.wXiX{.OXuXLXuXPX.X5 6.k.` ` ) y..X/.}.8X%XrX/./. X.X%X6X).).T.u.t.,.T.).{.{./././.eXpX6X8X.X^.k.i.$X$X*X8XjX8X6X%X-XrX7XrXtXlXcX8XwX8X6X8X7X;X*X8X7X7XrX5X;X8XgXx.1 p q.x.*.@.,.6.C.(.7X).`._.^.j.j.v.w.f.,.h.q.*.#.:.i.;.` *.*.O.T ",
"C.E.T.C.XX*X*X8X7XrXrX6XwXoX&X$X!.p.L k.%X.XoX6X*X*X*X*X*X4X X{.{. X/.E.T.E.E.). X*X.X). X;X.X%X!.R.h.r.+X7X$XY.t.r.)._.).)._. X%X%X$X).E.C.A.V.u.b.u.Z.A.C.R.R.Z.V.V.V.C.T.T.T.R.].v r.E.{.oXE.!.&X*X6X*XXXoX{.E.D.(..X%X.X.X.X%X%X.XoX.X X/. X.XOX.X.X.XXX%XE.Y.V.n.V.T.C.C.T.E.A.E.!./.)././.{..X.X.X%X%X*X.X5XoX%X.X$X X].Y.k ,.x.h.T.E.E.!.!.).$X%X XXXXX X).). X.X.XT.!. X{.R.!.).!.R.].$X-XhXvX&Xc $ ! !.V.T.Y./.).%X_._.^.T./.;X-X7XrX1X-XrXkX&X$X XV.P h..X%XwX*X{.C.A.XXrXhXt.>.o.-.].3.4.{.OX.XXXoX.XoX}..X{./.D.E.A.T.E.A.N.N.N.Z.A.Z.A.A.A.S.J.oX,X, &.1XXX*XXX*X*X7X6X*XXXOX4XoX.X X%X%X.X.X/.E.T.R.C.C.R./.!./.{. X.XoX%XoX%X*XyXZXIX3.-.&X%X%XoX.X*X%X*X$X X$X&X*X-XrXlXlXrX*X%X.X).XX.X_.OX.X%X;X7XSXhX& 4 $.XX>XwXwX>X|.|.OXOXoX>X|.S.G.G.{.XX'.'.wXyX0XZX0Xz ] t.-.y.E.XX{.oX6X4XXX%XOXXXoX*XoX.X/.Y.n.y.:.5.V.E.A.E.C.N.OXeXoXA. XyX5Xu.,.r.Y.$XrX<XrX*X%X;X;X%X-X&X-X*X*X%X-XXXXX%X&X*X,X%X*X-X-X-X-XjXvX).-XgXgX7XrXBXBX*XyXBXlXrXSXrX-XjXjX5X;XT.;X;X+X).+XW.a.W.`.W.W.O.",
"f.A.C.C./.oXwX*X8XrXrX7X6XXX&X].Q.u.B t.5X.XXX*X*X*XoX5X*X*X/.}.}..X X/.!.E.E. X.XoX4X X.X.X;XXX XE.T.r.R.=X&Xa.T.C.`.).).%X%X+X%X%X$X). X!./.!.V.V.i.g.C.V.C.V.R.T.T.T.T.T.T.T.Q.P.u s.Z.V.n.u.]. XXX*XXXXXXX X/.A.A..X*X*X.XoX.X%X*XoX%X`.u.).XX.X.X.X$X).XXY.R.a.a.E.T.T.C.E./.E.C././.)./.{. X/. X.X.X5X*X5X6X5XoX%X$X X!.V.Y h.Y.t.R.).).).!.!.).$X]. X X X X.X%X%X%X).{.).).!.!. X!.E.{.$X;X%XXXkXhX7 R ).R.V.T.E. XXX%X X.X.X.X%X&X-XrX*XoXrXrX&X*XXX X/. XXX-XwX.Xh.N.7.%.].rXi.%X] t.XX}  .D.|..XoX.X3X5XOX{./././.E.A./.A.A.A.B.C.A.Z.A.Z.A.J.G.J.>X{.. $.<X X>X*XoX*X6X*X{..XoX.X5X.X.X.X5X.X_.)..X/.A.C.C.E.{.{./.E.}./..XoXoX6X*XeXCXIXT e.<X&X&X%X*X<X-XrX-X%XXX XXX-X<XhXlXhX7X;X*X.X XXXOX.XoX&X-X-X=X$X= 9 Q XX>X,XwX>XoXoXoX|.|.J.J.{.{.{.G.A.{.}.oX>X6XaXcXg.Y *.8 } [.Z.'..X{.{.{.{.{.}.XX*X*XoX!.E.V.N.y.g.Z.Z.Z.Z.E.{.oX*XoX{.{.rXt.g.!.Y.Y.).*X<X*X*X5X;X%X%X%XXX%X-X1X&X&X&X&X&X*X*X*X%X-X%X&X&X&X&XrX7X7XgXhXrXrXBXSXrXhXlX<X&XhXhXlXDXxXfX-X$X=XfX-X$X:X!.).:X+X$X+Xx.",
"i.u.A.T.E..X4X6X7XrXwX7X6XoX.X X'.7.z u.6X.X%X*X*X,X*X6X*X.X.X XOX%X.X).).!.Y./.)..X.X%X.X.X%X%X X].).n.V.$XQ.i. X/.T.%X.X7X6X7X;X*X.X.X!.!.A.Y.T.h.h.g.h.g.u.a.h.V.T.E.W.R.T.R.V.p., e./.h.1 * u.%X)..XXXXX.X{.{.A.C..X%X*X%X%X.X*X5XoX%X X#.).%XOX.X.X X!.T.h.h.,.6.T.T.T.T.).).E.A.T./. X)..X.X/..XOXoX;X6X6X3XoXoX6X%X%XXXY.T E.R.h.E. X%X$X$X$X%X X{.).E.E.E.)..X.X%X%X.X X/.]. X X).E.T.XX%XXX X%XDXx L $X/./.E.Z.{.{.XXXX.X.X.X.X.X%XwXwXoXoX6X;X4X.X_..X.XXX*XrXrXj.| d.i.,.%Xu.f.) C.].E.(.(.}.}.3X.XOX|.}.}.{.A.{.A.A.A.A.D.A.B.C.N.B.B.C.A.A.A.J.0XV.- @.-X{. XXXoX;X6X6XA. XoX.X.X.X5X.XOX8X.X_..X(.E.E.C.A.R.!.A.N././.{.oX*XXX,XwXnXIXh q.<X-X1XXX%X*X-X-X*XXXh.V.{.*XwXrXhXhXrX<X7X&X X.XoX%X1X*X&X-X$X!.6 > } XX6XoXeX0X>X0X>X|.{.J.{.{.{..X/.N.D.}.OX8XwXuXiXf.` p > =.'.Z.N.B.A./.{.{././.}.XXoX.X{.R.b.u.C.B.N.V.Z.N.A.|.oXwXoXoXoX,XP h.!.). X.X&X;X;X6X*X*X%X.X*XXX%X-X*X-X&X&X*X*XoXoX*XXX*X;X*X*X*X X%X!.$XhXrXdXyXkXrXjXjXjX6X-X<XhXlXlX;X-X=X-X-XhX-X!.V.Y.!.].].@X:X+X",
"8.N.T.E.^..X.X6X8XwXrX6X6X*X%X XQ.y.k 6.;X X XXX*X*X6X*X;X.X.X.X.X.X).). XE.T.E.)..X.X.X.X.X.XXXXX X/.T.a.!.a.a. X;X%X%X;X6X-X5X;X*XXX.X.X).T.R.c.h.V.h.V.g.u.h.i.i.V.Y.T.R.T.Y.P.p., i.).7X`.t._.%X.XXXXX X'.E.E.A.C. X.X.X.X.X.X*X*X*X X.X%X%X.X.X.X.X X!. XY.y._ ;.T.T.V.T.T./.R.T./.)..X X). X.X). XOX.X*XoX.XXXoXoX&X%X&X].E Q.Q.!.!. X$X%X.X%XXXXXoXXX X X).T.)./.)..X X X X). XXX).T.Y.%X*X%X&X].hXK U ].C.E.E.A././.E.oX.X%X*X.X X.X*X6XoXoX,X.X.X.X.X.X X.X*X6XyXuX|.{.tXR.E.k.6._ /.'.Z.A./.}.OX.X}.}.{.}.}.J.D.A.A.A.S.A./.A.C.A.C.C.g.N.A.C.D.S.>X:.4 } &X X.X{.oX6X3X6X6X3X4X.X}.oX%X%X.X.X%X.X)..X/.D./.R.C.A.Z.u.E./..X.X*X,X*X,XuXAXk #.*XoX;X*X X X*X*X%X!.i.C..XoX,XwXrXrXrX6X;X7X$X%X&X%X*X*X;X$X XW.6 > $.XX3XoXoXwX0XoX>X|.K.J.{.{. X XA.Z.{.'.{.6XwXNXcXC.o.c 6 2.n.N.N.A./.(.}.D.D././..XXX!. XZ.5.8.N.A.N.N.A.A.{.XXoX>XoXOXoX*XT h.E.{.XX%XoX6XoX*X5X6X5X*X%X.XoX%X*XXX*X&X*XXXoXoXXX*X6X*X*X%X;X).7XT.W.hX<XhXkXkXhXlXlXjXrXrXlXrXrX*XrXBX7X=X=X-X;XY.a.h.R.Q.!.].$X!.",
"u.u.C.T.A./..X;X6X7X6X6XrX*X.X X].y.l >.$X XXXXXoX*X*XoX%XXXXX%X%X X). X).).).).)..X%X.X.X.X&X.X X X XE.h.T.x.T..X*X;X;X,X-X;X&XoXXX&X%X;X%X).).E.V.h.g.N.u.u.n.i.g.V.T.E.R.W.a.a.0.$ V.).$X6X6X5X).V.h. X).!.T.T.:.g.)..X X X XoX%X*X*X.X'.XX.X%XXX.X.X X XXX&Xa.I r.C.h.T.T.!. X XE.(.)..X). X_. X X X%X.XoXoX4XoX5X6X*X%X-X-Xv P.!.Y.).$X$X$X$X$X X$XXX).XX).). X X/.{._..X).T.E.).).).T.).$X&X&XXXY.fXT !  XS.Z.A.E.}..X{..X.X%X.X.X/.(.C._.*XoX*X X.X.X%X5X.X5XoX6XwXwX6XeXjX).+Xh.#.}  X'.{.{.}.4X.X.XOX}.{.{.}.{.D.A.A.A.A.A.A.{.C.C.N.N.N.g.C.A.J.S.|.6.8 I *X X XXXoX*X*XoX3X3X3X3XoXoX.X5X.X.X.XOX X.X.X)./.^./.A.A.C.C./._.OX6XwXoXoXNXtX%.6.&XXX*X*XXXXX;X*X.X XE.{.OX5XwX7XrXtX6X*X*XwX6X*X*XoXwX-XwX*XoX).6 ; C 4.3X3X3X>XoXoXoX|.OXJ.{./.{.{.'.!.!././.oX6XnXyX1.<.c l y.Z.b.Z.G.G.{.{./.A.A./.{. X_. XC.9.u.V.Z.N.C.A.A./.|.oX}.OXXX3XyXL a.!. XXX*X*XoXXX3X5X5X%X.X).E..X6X*X%X*X*XXXoXoXXXXX5X*X*XoX.X*XXXlXV.a.hX-XxXlXkXrXrXlXlXhXlXkX,X<X-XrX<X-X&X-X7X8X`.^.h.Y.T.:X@X@X!.",
"n.u.g.j././.{.%X;X7X7XrX*X,X%X].E.r.l ]  X].}..XXXoX*X.X%X.XXX%X$XXX{.).).).^./._._.%X.X XXX.X X X X X].!.Y.T.`.%X;X*X*X*X6X;X&X%X*X;X-XhX;X).).).T.h.V.C.N.u.u.N.g.V.V.T.Q.V.T @.$.i 7X XXX;X*X.X).t.t.).)./.T.A.] 6./.)./..X.X%XoX6XwX%X X X XXXoX.X%X$X X X Xm.' i.C.h.C.E.!.'.)./.T./..X).%X.X X{..X%XoX*XoXoX5X3X5XoX.X$XxXb $.@XW.E. X X).).).). X X)..X/./..X.X.X.X.X.X).W.). X$X X).T.%X X].'.E.=X&.E $XE.Z.Z.E..X.X7X.X.X*X.X.XOX.XC.(.*X5X.X*XXX.X.X.X.X.X.X6X6XoX-X-XrX;X%X(.' #.&X/.H.{..X|.}..X}.D.{.}.{./.A.A.A.A.A.A.A.A.A.A.A.N.7.4.N.A.{.K.pX4.0 P  X'. X&XoX.XoXoXoX5X6XoXoX}..X4X5XoX%X.X X%X$X)./.E.T.R.A.V.N./. X.XoXoX*XwXNX/.I i.&X%X*X*X%XoXoX*X*X%XoX.XoX5X7X6XwXwX X X%X*X%X6X6X*X,XrXwX-X$X$Xw 0 Q Z.oXwXoX>X,X>XoXoX{.{.{./.E.{.E.'.XXA.A.{.-XnXcX6.w.c k y.u.M.G.{.J.{.{.D.A./.{./..X X/.V.i.V.Z.Z.N.N.B.B.(.|.oXoX.X}.wXuXb y.]. XXXXXXXoXoXoX*X6X%X5X)./.*XoXXXoXXXoX*XoXoXoX3X6XoX*XoX%X%XoXkXn.e.dX<XrXhXrXkXhXlXlXjXrXrXyX*X*X<X%X<X1X<XdXgX$X%X/.Y.).Y.W.@X$X",
"V.V.f.h./.(..X.XoX6XrX6X*X-X%X].R.r.w I %X). X!. X.X.XoX4X.X.X.XoX%X X'./.).)././.C.{..X.X*X.XXX X].{.XX&X,.h.T..X%X7X7X;X.X;X6X*X-X-XgXxX;X X X!.E.T.T.T.C.j.h.u.V.V.V.V.Y.Y.a.s.@.N 6X-X*X,X%X X%X X). X).{./.)./.C.C.C./. X.X%XoXXX;X6XXXXX X%XXX.XXX$X X].R.Z.2.a.Y.j.T.T.E.!.{.XX/.{..X.X{._.OX.X). X&X.XXX.X4X.X.X.X X XrX} L ).E.Q. X X).)./.T.)._.).{.)././.)..X.X%X%X_.)._.). X XT.T.%X X]. X XrXa.L !.Y.h.C.^.*XoX6XoX*XoXOX X.X.X.X%X6X6X6XwX*X%XOX|.oX4X*X6X6X6X*X%X1X-X7X.X) N h.C.E.{.{.}..XoX}.D.}.}.{.{.D.A.N.A.A.A.A.A.H.A.Z.N.8.8.N.A.G.{.aX,.l F +X X X$X*X/.|.6X.XoX6X*X6XoXOX.X.XoXoXoXXXXXXX X.X!.E.R.B.N.V.C. X%X*XoX5XrXvXt.I t.%X;X%X%X;X.XOX;X*X*X.X.X.X5X8XwXwX6X*X&X*X*X*X*X*XrXwXrX7X*X7X;Xi < } OXXXoXoXoX6XwXoXOX{.'.A.Z.{.{.Z. XwXN.5.u.-XKXeXf.<.) k y.e.b.'.{.{.{.{.D.{.D.{.{./.{.A.A.A.Z.N.S.B.D.B.A.D.}.4X|..X.XoX7Xb r.$X XXXXX.X{.{.oXoXoX.X*XOX.X^.).%XoXoX*X6X5XoXoXoX*XoXXXoXXXoX*XrX$X$.=X<XhXhXrXrXyXhXtXtXrXtX7X*XwX*X7X6Xh.R.rX-X-X;X).T./.Y.R.$X=X",
"A.C.C.C.(.C.)..XoX5X6X6XrX-X&X XQ.y.8 B _.).].{./. X.XoX5X*XoXoXoXXX{./.). X/.)..XV.^..XOX.X XXX.X'.E.XX*X} C.C._.;X-X7X5X.X.X6X6X-X5X7XrX;X X).).!.!.).T.T.T.C.u.u.u.a.V.Y.Y.Y.Y.X.N ;XoX*X*XoX%X%X X%XXX/.!.{./.A.T.A.E. X.X.XoX%XoX*X6X*X/./.%X%X.X X X].!.2.-.y.n.V.V.A.T./.E./..X.X{.}.}..X.X.X.X/..XXX XoX.X.X5X5X*XXXXX-X} ' /.T.!.). X$X).E.`.).).).). X/./.).).T.).;X X).).).$X!.W.T.). X X XXXwXE.I E.V.T.).).*X*X.XoX.XOXOX.X.X.X%XOX*X6X6X6XwX6X.X.X}..X6X3XwXwX5XoX*X&XhX;X] ,.,.y.N.{.OX}.oX.X.XoXXXOXOX}.A.B.N.C.A.D.A.'.Z.A.Z.N.B.S.N.S.J.OXyX5.c x $X X X XoX.XXX6XoXoXoX5X.X5X.X_..X*X.X.X.X.X&X X X%X).!.N.g.N.A./.$X%XoXoXrXbX;.>.r.&X&X*XXX*X%XOX%X.X.X X X.X%XoXwX*X6X;X6X*XwX5X6XrXrXrXrXrXrX X).a * } XXOXXX|.oXoX.XOX.XN.Z.{.Z.[.'.Z.XXoX8.%.9.yXLXeX:.w.` T 5.r.Z.Z.{.J.{.J.{.'.A.E.{.{.{.{.Z.V.N.u.N.S.A.A.A.A.}.XX|..X|.*XhX@.!.). X.XoX.X/.J.XXoXoXoX.X/..X/.%X8X6X8X6X6X6X*X3X3XoX4XoX6X*X6XXXrX X@.<X=X-XrXrXrXrXrXrX7XrX8X7X;X*X6XrX5Xq B $X7X&X;X%X_.).E.T.!.7X",
"V.u.C./. XT.T.{..XoX*X6X6X*X;X!.Z.u.i c ). X!.!.]. X X.XoXoXoXoXXX{./.E.)..X)._..X^.}..X.X/. X.X X{.{. X6XV.i.R.%X%X&X&X-X.XT..X6X%X5X6XjX7X+X).).^.).).).T.T.R.A.V.u.V.Y.V.z.P.z.X.Y *X*XwX%X6X6X%X.X.X.X/././.E.C.T.E./././.oXoX*X,X7X*X*X{./.%X%X_..X!.!.!.R b T a.h.C.T.T./.E.{..XXX{.{.{..X X.X(..XXXXXXX.X.X.X%X.X%XXXXX*Xi.6.T.T.).).).).)./.E.)..X).).XX'.!.].XXE.).%X%X XQ.Y. X).T.E..X). X X.X;X!.@.!.T.). X$X%X%X.X.X.X.X.X.X/..X.XoXXX3XwX6X8X*XoX.XOX.X3X6XwXwXoXoXXX,XrX)._ $XC.g.j.{..XoX}.|.oX|.|.OXOXJ.D.A.B.S.A.D./.G.A.N.N.N.N.N.b.A.{.>XnX-.i x 7X$X X X.XoX5XwX6X6X*XoX.X.X.X}..X5XOX.X*X.X.X.X X%X{.!.N.b.N.N.E.)..XoX*X<X7X' ) =.$X&X-X&XoX%X.X.X.X X.X). X XoXoXoXXX&X*X*X,XwX*XrXrX<XyX<XrX XQ.l = $.{.}.|.|.OXoXoXOX}.A.E.{.'..XE.Z..XXXA.d.N.XXrXj.B w.o.Y 3.M.Z.G./.{.}.{.J.G.G.Z.'.!.'.Z.N.u.b.7.Z.A.A.A.D.{.{.XX3XoXOXXX XY +X;X*XoX&XXXXX.XXXoXoXoX*X.X/.(..XoX4XoX*X8X6X3XoX3X4X*X5XoX*X*XXXrX7X@.1X1XdX-XrXrXrXrXwX6XrXhX7X7X6XrXrXcXF.t.-X-X&X*X*X.X.XQ.!.!.%X",
"Z.C.N.!..XXXE.Z. X5X%X5X*X*X;X'.b.p.5 c _.).C.'. X/./.).oX*XoXoXOX.X X{..X%X X X.X.X X.X.X/./.{.XX{.].XX-XE.u.i.7X_.%X%X;X.X X5X5X*X5X*XvX7X X).).E.E.).).).).).R.C.h.a.V.Y.n.Y.a.! ' ;X%X*X*X*X;X*X*X%X).).T./.E.A.T./././. X.X%X*X*XwXoXoX.X{. X X.X%X&X!.2.b %.@.h.h.c.E.!.E.{.[.{.{. X X X/.}.OX_..X.X.X X}..X.X.X.X.XoX*X;Xg.,.T.T.h.).).).).^./..X X.X.X{.{.E. X%X%X XXX&XXXN.%.E.E.V.T.XX$XXX X X$XY._ T.E. X XoXXXXX.X.X.X.X{. X_.OXoXoX4X6X6X6XrX*X.XoXoX5X*X8XwXwX4XoX&X-XjX/.I *XoXB.N.{.|.|.oX}.|.oXXX|.|.{.D.A.N.A.Z./.{.'.'.A.N.N.g.N.Z.B.{.oXmX' 7 N =X&X X/.{..XoX6X6X6XoXoX.XOXoX.X.X.X.XoX*X*X*X%X$X XXX!.h.8.j.A./.T./. X&XtX7Xo.M R $X$X*XXX]..X.X.X/.T.).)./..X$X'. X.XXXXXyXwX1XrXyXrX<XrX<X,X-XjX' = 9.[.}.|.|.|.3XoX}.{.{.{.[.{.'.A.A./.A.D.A.wXj.] T.#.h.X.} 5.b.'.E.(.{.D./.A.S.A./.'.{.E.E.b.7.5.y.Z.A.A.D.D./.J.{.oX3XoXoX%X$.$X6X7X*X-X.X.X.X X.XoX5X.X.X(.).}..X.XoX*X*X6X6X*X6X6X6XoXwX*X*X*XrXrXL &X=X<X-XwX*XrXrXrXtXrXrX*XE.oX1XkXrX_._ Y.<X-X;X*X6X%X/.E.W.$X",
"A.C.j.E.XXXX X{./.*X*X*X*X%X$X'.Z.u.7 X.+X).V.T./././..X.X%X.X%X%X.X_..X%X%X.X%X%XXXXXXXXX'.'..X.X X X.X-XV.k X.+X%X%X%X%X*X6X*X;X7X7X-X8X7X$X). X).).).).E.).!.T.!.R.V.V.V.n.a.a.X.X.%X&X*X*X*XoX*X5X.X{.).A.E.T.E.E.E.E.{. X X.X%X6X6XoX4X.X X)..XXX*XrXE.I n Y.h.h.C.V.C./.E./. X{. X). X).). XOX.X.X.X.XOX}./..X.X.X_.%X;X%Xt.:.T.T.C./././.T././.T.E. X/.E.}.{./.$X%X%X XXX.X/.6.A.E.u.E.XX%XXX X$X;X!.T V.!.OX.X%XXXXX.X3X{.{./.}. XOX.X.X4X5X6XwXwX*X.X%X%X%X*X7XtXwX.X*X&X1XlX6XB V.].A.R.XX|.oX.X}..XoX|.XXOXOX'.A.A.Z.A.{.{.Z.!.Z.V.u.g.V.C.A.B.G.nXU l L %X*Xn.i.}.XX5X*X6X*X.X.X}. X XOX.X/..X.X5X6X5X*X*X.X;XT.} 6.h.C.A.E././.$XlX!.X.X.*.=X&X&X.XV.XX.X.X{..X'././..XXXN.A.wX{.5.$.-.%X-X<XrXrXwXrX<X-XtXI = 9.XXXXoX|.{.D.OX.X'.'.{.G.A.A.D.A.A.S.(.}.uX6X|.pX5.R x ' 5.N.A./.{.{.(.{.'.D.A./.V.2.u.n.y.5.2.b.Z.A.D.D.J.{.{.{.|..XOXOX*Xp.$X-X-X1X-X%X$XXX.X%X.X.X*X%XoX.X}.}..X6X6X*X7X6XoX*X5X6X*X6X&X*X%X*XjXR $X1X<XrX6XrXwXrXeXtXrXtXE.:.A.<XrX;XC.t.&X-X*X-X&X-X.X).!.!.-X",
"E./.V.C.).%XoX.X}.{.oX*X-XXX X!.E.y.7 #.5X/./.E.W.^.)._._. X.X*XoX.X X.X%X%X$X$X%X%XXX X X X{./. X)..X.XwX*X> e j.5X%X%X%X*X*X;X6X6X8X7XhX-X). X X). X X%X$X X X!.Q.!.!.R.n.Y.V.h.#.' 6X&XwX*XoX*XoX6X.XOX.X/.R.!./.D.A.E.E./. X.X6X6X3XoX.X}.}.OXOXOX,X<XR.L k h.C.N.V.A.^.E././._..X).)._.)././..X). X.X.X.X.X.X/..X.X%X.X X%X5.6.W.R.!.T.!.!.!./..XT.V.{.XX/.{. X_..X.X.X/.).OXN.f./.A.C.'.oX*XXX].].$XE.#.!..X%X.X*X*XXXOX{.{.A.E././..X.X.X}._.oX6X8XoXOX.X.X.X.X5X6XoX%X*XXX%XlX.X' t.A.E.{.XXOX.X.X.X}..X.X|.}.}.{.Z.Z.A.Z.'.Z.C.Z./.C.V.N.V.Z.A.A.oXVXL T F $X;Xu.V..X.X;X6X6X%X.XOX}..X X.X5X.X.X*X*X6X6XoX*X*XrXoXi.k.j.C.A.C.T.E.).hX*.a.*.*.@X;X;X%X.X X X.X{.{. X X X%X*XZ.J.wXu.g ; a 7X7X-XwXrXwXwX6XoXkX-.* 6.XX{.XXoX}./.}.}.{.J.{.{.A.N.D./.A.D.{.>XiXrXuXNX%.o.b } y.N.E./.{.{.{.{.{.K./..X*.o 6 -.4.9.9.A.A.J.A.{.J.G.G.K.{././..X%Xr.$X=X1X-X X). X X X.X.X*X.XoXoX5X.X.X.X.X5X6XoX*X,XoX6X6X;X7X7X*X*X*XbX#.!.&X&X%X1XrX*X6X7X7X6X3X4X/.XXrXtXT.h.%X%X%X<X;X%X$X). X X XrX",
"/. X/.T..X%XoXoXoX.X XXX.X X'.E.R.p.4 ' (.^.{.)./.E.).).).)..X.X.X.X.X%X%X%X$X.X%XXX$XXX X'.). X)./._..X,X,X9 4 1._.%X X5X;X5XwX6X5X7X7X-XrX X].!.E.).).$X X X). X!.!.].T.Y.Y.Y.h.*.,.;X%X*X,XoXXXwX*X.X.X X8.h./.A.J.G.A.Z.D.}.*X5X6XoX.X.X XOX.X.XoX*XXXZ.I z h.Y.V.T.T.T./.)./.T.)..X.X)./.T./..X.X.X.XoX.X.X{..X.XOXoX%X;X*X,.i.h.V.E.A.E.E.E.!.)./.A.!./. X)..X.X.X.X.X.X.X.X6.:.(.^.)..X*X%XXX&X&X!.T.$.Q.%XoX*X*X.XOXOX X{././.D.(./..X.XoX.X5XwX%X X.X.X.X.X}..X{..X.X%X1XwXBXV.#.h.!.Z.E.{.OX.X%XOX/.}.}.}.}.}.{.G.A.'.N.8.S.E./.{.A.N.u.V.A.S.A.wXcXb H S :X;XXX<X<X&X&X&X*X%X.X.X.X.X/.g..X*X*X6X5X*X6X*X6XoX*X<X.XE.T./.A.T./.T.$X!.k T.@.@.$X+X$X%X%X.XXX.X{.{. X X X).%XXX.X6X6Xj.' >.;X6X,XwXwX6XwX*X%XkX6.; 4.'..X}..X}.{.}.}.}.{.{.{.E.A.{.D.S.J.|.0XeX,XiXZX} w.L $.n.Z.E.{././.}.{.{.{.{..X9XF a ] $.7.b.Z.H.Z.D.{.J.J.K.K.{./.}. X.X$.$X&X&X&XR.T.XX X)./. X XXXoX%X.X.X}.OX.XoX6XXX.XXXoX6X*XoX5X%X;X*X,XVX,.Y.].&X*X,X-X*X*X6X8X6X6XeXrXwX7XtX.X^.%X;X*X*X*XXX XXX&XXX XrX",
"). X X/..X*X6XoXoX.X.X'. X{.'.E.V.y.4 #./.).!.!.).).). X).+X XoX.XOX.X%X%X.X.X.X.X*X%X$X). X X'./.)..XOX>X<Xn - P k. X.X*X6X;X*X6X*X6X7X-XlX-X/.!.T.T.!. X). X).!.!. X].T.T.R.T.Y.#.q. X.X*X*XXXoXoX.X.XwXV.z P C./.E.Z.Z.S./..XoX6X5XoX5XOX.X.X.X5X5XXX&XZ.A z n.Y.V.Y.T.T.T././.(.).XX}.{. XE.T./..X.X.X.X.X/.)..X X XXXoX%X*Xr.h.V.T.E.Z.Z.'.A.D.T./.E.Y.E.{./. X.X.X.X.XOX X.X)./././.).%X5XoX%X X.X).!.#.V.XX.X*X*X%X.XOX{.{.{./.A.E./.(.OXXX*XrX*X{./.{.4X6X6X4XOX.X.X.X.X%XrXlX$.#./.A.N.A./. X X.XOX/.{.}.{.{.{.'.{.Z.}.'.4.C.Z.{.E.Z.y.u.N.C.S.D.wXcXb 7 7 R.&X!.n.n.Y.XX-X&X%X*X.X5XeX(. .(..X.X6X*XoX3X6X6X*X*X%X.X/.E././././.E. Xi.< q.Y T $X$X+X%X.X%X%X.X X X/./.). X).%X%X*X6XA.C./. X.X0X,XXX6XrX6X%XlX8.; 7.XX{.OX.X}.}.oX}.|.}.{././.A.D.A.J.K.oXeX>XXXwXCX#.q.X.r.].A.{.{.{.A./.}.{.{.}.}.8X^.,.} _ 7.b.Z.E.'.{.{.G.J.K.J.J.(.{.oXXX@.].-X%X%X6.t.).)./.E./.). XoX5X.X.X_..X.XoXwXA.E..X.X*X%XoX%XOX XXX*XVX*.Y.&X XXXXX*XoXoX;XoX6X5X5X*X;X7X7X7X*X X5X*XoXoXXX XXX%X$X%XlX",
".X.X X). X.X*XoXXXXXXX X X X'.Z.R.p.0 } /.E.E.E.!./.{./.).)..X.X.X.X%X%X*XoX.X.X.X%X)./.). X!./.E./.(.}.iXMXv O c h. X). X;X5XoX*X,X*X%X*XrXkX].E.T.T.!. X$X X).).'..Xn.h.!.T.T.x.0.i.)..X%X*XoX*X*XoX4X*X/.I ] T.^.R.E.V.Z.E.%X*X5X;X*XOX).)..X.X*X.X*X<X[.} f b.R.n.V.C.C.T././. X/./. X{.{.A.T././..X.X.X{.).). X.X X XXX*XrXh.T.T.T.R.E./.R.A.E./.(.E.E.!././. X.XOX.X}.}.'. X.X.X.X/./.5X%X.X%X.X).%XY.' V.%X&X*X;X;X%X%X)./.{./.A.A./. X}.XX.XrXrX XE.OX*X6X6X5X.X.X.X}..XoXkXkX#.#.E.C.N.(.{. XXX X X{.{.{.{.}.{.A.A.A.E.!.A.N.Z.'.E.E.u.u.b.g.S.D.6XlXl i h !.$Xu.$.} } p. XXX&XwX6X5X3XOXA.}.*XoX*X*X4X6X*X*XwX*X*XoX'.{.{.).).). X;XT.8 -.*.R $X%X X.X}.XX}.OX{.{.!././.).)..X X/.;XT.h.h.{..XXXoX,X6X7X7X;XyX6.= 8.}. X.X{.}.}.|.OXOX}.K.{.A.C.C.S.}.|.0X0XoXoXiXBXV.w.Y r.]./..X{. X(.{.{.}.}..X4X.X{.u.5.}  .Z.H.Z.{.{.{.{.}.K.J.OXJ.D.XX}.5.]. X&XoX).)..X X/.T.8.).$X%X6X4X%X X.XoX.X8XoX*X.X6X*X%X%X.X X!. X1XSXt.a.!.]. X XXXoXXXoX.XoX*X;X.X-X7X7X7X%X/.6X*X*XoXoXoX*XXXXX%XhX",
"/..X.XOX.XoX;XoXoX.XoXXXXX{.). XE.n.4 #.C.A.!.E.!.E.E.!./././.)..X.X%X%X*X.X.X.XXX%X).E.A.!.A.T.E.T./..X,XdXK   , ) V.E. X$X*XXXXXoXoXXX*X*X<X XE.E.!. X/.{..X$X X]. X/.).).!.T.T.t.g.%X.X.X*X8XwXoX%X.X X$X/.!.T.E.C.E.E.T.E.)..X.X.X.X).)._..X%XXXOX.XkX].Q z u.n.u.Z.h.T.T.C./.)./. X X{. X XD.i.C. XoX XE./.). X XXX X X%X6Xg.:.T.Q.E.E.E.Y.T./.).).).).)./.)./.).XX*X X X.X X.X.X_. X.X*X*X%X*X.X.X%X).@.h..X&X*X&XoXXX X.X.X.X X!.T./..X.X.XOX,XrX{.{..XoXwX3XoXoX}..X.XOXXX1XlXX.>.R.A.C./.OXoXOXXX}.}.}.OX X{.{././.E.A.C.C.E.E.E.E./.E.V.A.A.C.A.wXcX_ k a &.F L E Z C I -.].<X,XwXrX*XoXoX6X6X6X5X*X6X6XwXoX*XoX*XXX{.R.XXoXXX XXX*Xn.b >.' P  X$XXXXXOX5X.X X X{.{.{./. X.X.X.X)..X.X/.V.y.!.OX>X6XwX6XwX6XjX%.= :.'..XOX{.}.{.{.{..X}.{.D.B.A.J.D.}.|.|.oXoXoX0XBXt.H D a.$XE.{.{..X{.{.{.OX}..XOX X!.C.u.:.| u.Z.'.{.{.(.D.J.J.{.{.}..X6X.X%.Q. X$XXXoX*X.X.X}..Xg.).*X*X;X.X X/. X.X.X6X*X*X,X%XoXOX.X X!.!.XXrXCX*.t.Q.E././. X.XoX.X.X.X.X.XoX*X7XrXrX;X6X*X6X6XoXoXoXoXA.A.oXlX",
"{.6X6X.XoX%X*XoXXX XOX.X X{. X XQ.Y.8 | i.Z.E.R.R.E.E.E.A.A.A.A.)..X%X%X*X.XXXXX X X/.E.n.V.C.C.C.T././.,XMXj X , b P %.!. X&X&X%X/.XX XXX&X1X XR.Y.!. X/.!..X.X$X). X$X$X X].!.E.V.r.%X;X XOX*X6XXX%X.X).E.).E.V.C.A.E.T.C.T.E.).).).E.T.). X X X X X XkX&X} n u.n.n.V.n.V.V.V.R./.'.E.[..X X XXXC.V. X.XoXZ.V. X.XXX).E.).XX;X;Xu.V.R.Y.R.T.E.T.E.!./.)./.!.E.!.E.!.E..X X{. X.XXX X/./..X*XoXoX.X X%X%X7X#.-. X.X%X XXX.X.X.X X)./.T.T././._..X*XrX,X X/.oXwXoXoXoX%X%XOX.X.X X-XvXq.:.T.Y.Z.{.>X,X>XXX}.}.XXXX{.{.A.A././.A.A./././.{.{./././././.E.A.6XcX;.G ,.bX&.h 8 k z z I E.-X,XrXrX8XoX%X5X*X*X*X3X5X4X*X,XoXoXXXoX.XE.}.&XoX%X$X1X@.B ^.w.o.].).$XXX.X.X.X.X}.D./.{./._.)._..X X).)._./.C.C./..X3X,X*X*X*XtX} = } A.{.{.|.{.{.{.A.}.}.{.D.B.C.A.D.|.|.}.|.oXoX0XCXB.M y P.$X X{.oXOX}.|.XX}.|..XOX}./.T.C.5.%.6.N.A.A.{././.G.A.D.{.OXoXoX{.2.!. X X.X*X%XoX.X.XA.A. X.X*X5X5X/././.{.4X6X*X%XoX.X].].'.V.V.Q.XXrXVX` i.E.E.T.A./.{.{..X(..X X{.XX*X*X6XwXwXwX6X6X6X4XoXoX5X.X{.oXrX",
"/.oX;X7X*X*X}.Z..X.X.X.X.X.X/.E.].E.l %.5.5.V.A.A.E.E.E.E.^.A.E.).)..X.X%X.X X'.!.E.E.V.V.V.g.g.V.C.T.^.>XdXK + , 7 V P 6.!.$X$X!. X;X XQ.E.!.!.R.!.{.!.].]. X X!. X!.$X&X&X].!.!.&X#.Y.-X%X5X6X*XXX.X.X X`.T.T./.C.C.C.Z.V.T.V.T..X).T.T.E.Q.E.'.E.E.!.rX&X2.k 5.b.u.n.b.n.n.Y.A.E.!.!.].'.].!. XE.R.{.XX$Xa.V.R. X).E.C./..X6X%XV.h.Y.Y.Y.Y.!.E.E.!.!.!.!.!.E.E./.{. X{. X X]..X$X X.X X.X%X.X*X*X.X%X%X+X_ _ V. XXX X/.h.{. X{..X)./.T.C./.)..X6X7X%X X/.%X*X*X*XoX%X.X X(./. X$XzXY.*.x.V.V.XXXXXXXXoXoXXXoXXX.X}.E./.A.A.A.A./.A.E./././. X X)./.E.A.oXNXi.i.h.rXx.Y i - 5 b i.&X&XrXrX7X7X7X6X6X6XwX;X.XoX3XwX6X>X<XXX X X{.!.oX%X%X$X6XU F j.w.X.$XXX%X%X.X.X.XOX X/.D././.)._..X.X X.X)..X).(.A.{.3XoXoXXXXX*XrX_ ; 4.{.}.}.{.K.{.J.!.{.{.{./.C.A.D.{.K.|.{.|.|.|.oXZXC.Y 7 P.XX{.XX.XOX}.{.|.}.}.}..X{./.E.C.6.%.N.B.C.{.(./.D.G.G.{.{..X6XXX].@.~.!. XXXXX*X%X*X.X{.(..XoXoXoX.X{./.A.{.XX3X6X6X/.5.4.4.3.} }  .3. XjX' Y.E.R.T.A.A.^./.)./.(.)./..X.XoX6X*X6X6XwX6X*XoXoX.X*X.X.XXXlX",
"!..X X%X%X*X.XA.E.{.OX.X.X X/.E.].R.b r.:.:.u.V.V.R.R.E.T.E.E.A./././..X X.XE.E.!.R.C.N.i.u.y.6.f.j.T.E.{.dXj @ u u a N #.E.XXE.E.%X&X X].!.Y.$X#X$X].Q. X-X%X;X&X%X*X%X1X,X!.Q.&XmXT U xX%X*X<X*X*X%X%X X)./.E./.g.N.E.!.C.R.'. X-X$X X$X-X&X'.;XXX%X%XkXDX!.k $.y.g.Z.i.u.u.a.V.C.E.]. X].!.!.E.A.Z. X<X XY.h.V.C.V.C.T./.;X%Xt.t.V.V.Y.R.T.T.E.T.!.!.!.T.T.E.E.E.).%X.X{..X XXX$X X.X.X.XoX*X*X.XoX*X X!.@.C 5.R.&XXX).E.)..X). X/.^.C.h.A.(..X%X-X-X).$XoX*X*XXX.X%X.X)./. X X&XlXt.o.k.Y.h./.oXXX XXXXXXXoXXXoXoX'.A.Z.{.A.Z.{.A.D./.}. X!.!.{.{.{.E.oXrXi.t.r.$X-Xh.o.` G 5 %.*X-X*XrXrXrXrX*X;X6XrXwXoXoX*X6X*XoXwX*XOX.X X). X%X%X%X*XP o.k.,.T &X&X%X%X.XoX.X.X.XE.D.E.{..X.X(./..XOX X X^.(./.OXoXoXoXoXXX.XrXP = 4.XX|.}.{.{.(.D./.(.{.{.D.A.J.}.}.N.L.K.|.oX|.3XZXt.M k R.XXOXOX.XOX.X}.4X|.}.}.}.{.}./.F.d.:.g.C.C.D././.S.A.J.{.{..X>XXX Xx a.$X$X.XXX%XoX*X{.oXoX.XOX.X.X.X}.}./.A.XX*XwXA.1._ A I A A I A z 6./.) T.R.V.C.C.C.A.D./.A././.{.{..XoX3X6XwX6X5X4X*X5X.X5X.X4XoXXXiX",
".XrXoXA. X;X%X.X). X.X.X/.). X{.{. Xb r.,.:.4.u.V.Z.V.Y.T.Y.E.R.A.E.A.!.E.'.!.R.b.u.n.g.u.8.8.:.:.8.g.C.A.1Xu @ + y t c B T @.%.-.2.5.} *.-.=.=.0.*.=.y.y.p.p.P.Y.p.p.p.b.V.h.V.V.$XU o r. X).).!./.E.C.V.u.h.h.t.-.#.n.y.$.3.2.=.=.=.r.r.p.p.=.q.w.h.t.V.[.e.k #.i.@.Z Z N L P >.N.E.Q.'.[.]. XR.n.R.].@X:X!.R.V.Y.E.!. XoXrX%X6.-.a.V.P.T.W.Y.W.Y.A.E.E.T.T.!.E.E.).XX].]. XXX$XXX XXXXX%X-XXX%XoXoXXX%XBX5.5 | r.'. X%X$X X X)././.).C.V.R.E.'.XX-X XE.]. X%XXXXXXXXXXXXX X X X=XjXx.X.r.p.C.OXOX.XOXXX}.oX4X.X}.}.Z./.A.H.Z.E.'.A.{..XOX.X{.'.E.A.{.{.oXyX,.Y L i.Y.&XrX7XjX] 4 E.&X&X].&X-X*XwXwXwX6X8X5X.XoX6X*X4X*XoXoX%XXX). X%X*X-XrXV ' ^.t.U -X%X*X.X.X4X.X}.{./.!.{.{./.}.(./..X X X XT././..XoX*X.X.XOX X6XI = 4.XXXX}.}.{.{.D.S.D.}.{.A.A./.}.oX{.A.{.|.|.|.3XGX<.e k Q.XXOX|.XX|..X}.{.{.}.{.{.{.}.{.A.f.9.u.C.A.D.J.A.B.A.{.}.}..XoXXXT.6 x.&X&X.X%X.X%X.X(.{.oX*X.X.X%X5X.X.X}.}.XX,XtXC...] ) B Z B B Z z ;._.| h.b.Z.A.B.N.N.B.A.A.A.R.R.^./.}.XXXX*X6X3X.XoX.X%X}.|.oX.X*X<X",
"Z.'.R.y.{.1X<XhX<X%X*X&X%XXX].[.'.b.J r.4.%.#.#.,.i.h.h.h.h.Y.C.Z.E.!.T.R.R.Z.C.u.:.6.,.:.6.6.6.%.3.u.V.2XU.@ @ @ + u a M p F M V V ] B l B G F F p B P F y 1 : , $ 2 F G s P i.u.h.z.i.*.i.h.u.C.j.h.C.j.B.j.C.C.;.c 5 4 x t 7 * $ M ` G [ ] { { { ` :.t.,.,.j.w.*.) m [ [ m l #.,.r.b.p.y.u.!.E.=.5.5.-.y.r.5.r.V.!.n.%.R.XX'.,.L I a.p.h.h.j.h.V.t.p.V.a.a.Y.V.R.). X].].XXXX].&X].T.$X&X&X%X&X&XoX*X-XnXn.9 C } 7.'..X&X$X X).).E.).!.E.R.E.].XX].!.].$X!.C.!.!.].!.).!.!.T.!.).;XQ.S @.a.Y. XoXR.E.}.OX.X|.|.K.OX'. XE.A.C.A.{.XXXX XXX}.{.{.{.{.{.{.XXvX#.B P *.i.E.&X1XrX X5 I !.&XZ.b.XX*XwX*X,X*XrX6X*XoX5X*XoX*X.XXX%XXX X X%X%X<X<Xb p k.,.L *XXX6X%X.X4X.XOX/.T./././.'.{.{././././././.(./.).OXXXOXoX|./. Xz * }  X}.}.{.{.{.{.D./.{.{.A.D.}.{.{.(.{.K.}.|..XoXVX:.= k Z.XXXXoXoXoX4X|.(.{. X{./.{.XX}.S.g.8.g.N.C.A.G.A.B.D.{.XX6XoX.X/.i.1 ~.$X$X%X.X.XXX/.E./. X.X%X%X.X*X%X%XoX{..X%XeX6XC.8.C.c.t.:.;.6.g.wXpXu.6.u.Z.j.N.g.8.g.N.A.A.A.j.6.u./..X$X*X*XoX}..X.XOX.X X X XXX%X",
"C l B [ :.%.i.,.5.,.t.%.4.-.I C E d x e.=.%.%.@.#.w.h.p.a.h.i.8.g.5.u.5.u.p.V.Y.A.N.g.A.C.C.,.R C b b f C v @   @ o . % y r P [ ) ) ..] [ | ] ..[ G ;.>.I s a 1 < $ >.`.%X).).%X X+X+X%X/.).$X%X%X%X%X7X3XwXoXtXcXjX).h.#.I c 7 7 f.^._.^.l.j.`.^.T.q.<.i.j.w.1.h.h.(.h.^.T.X.a i i x b U Y T T t X.V.g.u.g.C./.C.h.i.6.4.6.a.r.h.f.P 6.g.t.h.C.k.,.*.q.,.r.:.%.:.:.:.y.-.5.a.g.y.Y.n.r.n.Y.n.].]. XXX*X&XkXE.k z E 3.Z.XX&X-X-X X!.Y.Y.Y.n.p.y.b.=.%.i.i.@.i.] t.a.,.-.#.>.r.,.#.,.;XW.F b V.E.OX;X.XT.T..X|.3X4X|.OX>XOXZ.C.V.!..X.X X{. X{.'.'.{.D./.{.4XBX,.h.G ' .XXXXX%X,XjXI z R.Z.C.7.N.%X<X,X*X%XrX6XoXoXoXoXoX.XOX).XX XE.!.XX&XrX<XN e ' *.L  X&X%X*X4X.X.X.X(./././.E.].'.'. X/.(././.E.)././.XXXX*XOXj.| i.i = =.OXXXOX'.{.{././.D.{.J.A.A.XX|.}.{.K.K.}.}.}.}.cX<.; n H.'.|.oXoX4X4X.X}.}.{..X{.{.{.{.A.N.d.V.C.C.A.Z.N.N.A.}.oXwXoX}.T.%.i !.$X$X.X%X.X.X X X).;X%X X.X XXX.X%X.X.XOX6X.XXX%X.X).E.T.V.R..X4XZXeX,.i.u.n.N.N.N.g.u.8.N.N.j.C.C.V./.$X$XoXoX6X4X5XXXoXXX X X/.). X",
"` ) ) ] +.[ ] 1.t.6.k.C.B..X5X.X*Xs.y U I B I I I #.-.' ,.6.t.g.g.g.T.T. XA./..X{.}.oX.X*XlXxXT o : p p c T H U H D ~ ~ O.` >.j.g.i.C.C.C.u.k./.C.`.).T.T.!.T.E.i.9 t.%X/.).)./.).).).).E.E. X X)..X/..X.X;X*XwXlXrX].5X6Xn.$.x a 8XrX*X7X X$XrX].Y.R.$X;X7XtX%X.X.X%X%X).!.T.T.W.T.^.)..X;XrXhXL i.Q.E.G.N.{.eX4XE.!.rXlX XXXXX&X Xu.E.A.C./. X.X!.A.T.u.n.V.V.C.A.J.3X| 5 B B k t 4 7 k N k l Y M I ' ' :.*.p l w n P y.C.y.} ) P _ ] N l L U C l [ <.v.;.j.) N ,.t.;.' ;.^.x.t.q.).+Xv T r.R..XXX%X/.Z.{.oX3XoX}.'.{.'.A.C.A. X.X{.E.'.{..X'.E.E.D.{.{.>XNX4.%XF :.&X[.1X*X<XSXy.Q N.Z.R.u.y.&XrX<X<X&XhXkX1X,X*X.X.X6XoX.XXX XE.E.].&XkX;X` f.1.H D -X$X%X%X5X*XoX.X)././.{./.{./.{.A.A.'.!.E.!./.{.). X X>X0XF.<.t.i = 5.XX}.{.'.G.J.{.E.{.{.A.A.D.}.}..X}.{.{.{.|.}.{.lX8.= f [.OXXXoXoX3X3X.X}.}.{..X}.{.'.{.G.N.g.N.C.N.g.N.N.C.D..X.XOXXXXXN._ k ].&X&X;X.X%X X). X.X5XoXXX.X%X.X.X.X.XXX*X*XV.h.%XXX X].R.C.E.}.*XlXbXu.u.h.a.u.b.u.u.u.8.b.N.N.C.C.C.E.). XXX>X6X3X4X.X.X).{.].E.XXE.",
"5X5X%X%X%X).).%XeXtX*XoX5XeXjXjXkXMXu o L 6.j.A.E..X XV.T./.}.}..XoXOX.XXX{.{.{.{.{.{.}.}.oXBX&.1 j.^.).;XrX;X$X:X).`.fXfXgX+X:X^.T.x.h.R.).).$X$X$X$X$X%X$X].@X!.v q.).E./.).)._.).).).).).].).%X.X/./..X6X-X*XrX-XE.%XkXhXr.5 x  X). X%X X X XE.a.a.!.oX%X%X X X.X). X!.V.C.C./.!.E.V.E. X-XfX&.V.Z.Z.N.8.A.oXoXE.C.*XwX X{..X].V.2.b.C.E.E.'. XV.Z.Z.S.N.g.N.C.D.|.aXg.{ { e 5 e m ) | 6.8.k.C.<.u.,.q.,.>.,._ V m e ..1.<.G ) ) G B e b I Y L P :.>.^.,.<.f.;.+.o.o.] ` 1.w.*.R Y Y.L L k @.&XXX*XZ.XXXX,XuXwXG.b.{..X'.A.E.{.{.'.!.'.{.'.'.'.E.A.{.{.,XaX| _ F =.!.R.Z.Z.6.^.u.| ' @.$.$.@.2.y.y.m.V.Y.].R.'. X.XXX%XXX%X,X7X;X XXX<XDX+X` t.9X) D hX-XrXrXyXwX6X&XXX!.R.E.'.'.'. XR.E.'.R.!.].'. X].&X&X*XoX,X{.Y.4 > t./.}.XX{.K.G.J.{.D.(.{.(.{.}.XX}.(.{.}.{.}.OX}.rX6.5 z XXXXoXXXoXoX4XoX|.}././. X'.E.A.A.N.N.N.N.8.6.N.N.N.A.{.OX X}.'.N.} n Q.=X@XXX,XXXXX{.XXoX,X*X*X%X.XoX*X%X*X%X6XrX%X).$X$X$X XXX XXX,XyXlXLX%X,.i.u.M.u.u.8.u.u.8.8.b.Z.Z.E.!. XXXoX%X,XwX*X.X X/./.Z.A. X5.",
").$XXX). X$X!./.oX&X*X*X.X6X;X=X1XdXu y %X4XXX|.OX}.{.{.{.{.J.G.J./.'.J.{.{.}.}.{.{.{..X}.{.nXy.P ).E.Y.E.Q.!.V.V.Y.T.). X$X[.].!.Q.a.q.t.T.!. X X$X).$X$X!.Q.Q.Q.F ' +X).E.Y.). X). X.X.X).XX X.X/.{.}..XoX*X.XXX.X_.OXrXmXr.- G %X X{.{.[.].E.V.g.N.T.XX*XXXE.!. X X/.T.h.h.N.R.A.T.h.T.).+X=X=.y.V.C.g.g.A.{.'.G.D.}.XX}.}. XE.7.4.g.A.A.}.|.(.C.N.C.B.N.g.g.j.S.|.aXK.1.{ g Z | ..9.j. XoX*XoX6X.X%X;X6X%XT.h.j.C.V./. X(.A.V.).h.t.t.5.,.-.` x W.-X$X5X).%XVXxX`.(.`.T.h.g.u.-.:.5.#.' B I @.R $. .@.%.,.V.!.b.-.p.m.M.y.2.Z.V.T.!.'.XXOXOX X{.{.{.oXiXNX,.L N M F P [ [ [ j...[ { e 7 7 7 4 * 4 7 a a 7 s N c G Y N S J L F U U Y T @.t ~ 1.<.Z k r.r.p.p.p.e.y.s.-.p.y.2.=.t.&.-.@.$.i.u.V.i.#.} ) S @.E. XE.W.0.> 4 $./.{.{.J.J.A.A.'.'.E.'.{.{.'.XXXX{.}.{.{.{./.[.wX9.f A >XXX>X>X>XwX0XwX,XXX).T.!. XE.Z.Z.A.Z.Z.N.Z.8.b.b.C.{.*X*XoXoXE.C.#.> P.[.Q.R.E.Y.n.n.n.V.R.N.T.C.C.V.i.h.t.p.r.e.s.s.I.Y.Y.p.u.y.n.n.[. X6XbX^.1.o.$.,.%.5.t.t.6.<.} $.,.r.2.r.t.a.a.E.].E.h.h.g.d.6.E.6.N ",
"XX%X$X X%X%X%X.XoX-X6X6X;X7X7X&X#X#X, i 8X{.'.{.A.A.E.R.{.{.'.J.}.{.}.(.{.{.|.{.K.{.J.}.G.'.lXr.T E.W.R.Y.R.R.T.T.T.). X$X$X&X X X/.T.C.,.h.T.$X$X$X$X$X X:X!.!.W.P F +X_..X.X.X.X.X X*X%X XXXoX.X X}..X.X*XXX}.4XoX.X5XrXnX=.$ ' 7X{.{.{.{.[.R.j.g.B.A..X.X.X{.).!.R./.T.h.i.V.A.R./.T.T.!.!.hX3.i.V.A.8.u.C./.A.{.{.|.|.{.{.{.C.5.8.N.D.{.4X.X}.C.S.A.B.B.B.B.B.D.3XaXL.{ | ..N.u.:.g.{.XX&X&X-X&XXX&X*X-X%X.X).!.!.XX%X-X&X X&X-X&X].!.T.W.~.s.1 x.hXfXbXhXfXBXAXhXgX6X%X*X XE.T.Y.i.i.u.t.h.} I ] @.| i.r.a.E.-Xy.X k P N I #.} P L I _ %.5.$.} $.4.5.u.r.` c B B m ) { k.] 4Xj.<..._ F G M m p H m M { M B M e s p < $ $ $ * 2 2 a c i c s m M l B H M ` F G H 1 a 6 X . & R ).@.R U P } %.} :.6.k.k.;.` P l k y $ & 6 $.E.>X>X>XJ.OXOX>XXXOXOXH.'.E.}.XX X}.[.|.{.E.*X}.C 5 _ H.N.OX'.].#XXXXXXXE.h.6.n.E.Y.a.V.i.%.2.5.$.} } 3.r.y.a.Y.T.h.5.#.F = 8 l w Z Z P _ I ] :.u.<.u.g.E./.z ; ; m 7 : * > i x W c L L F I a.).).bXHXtX`.T.W.=XhXjXjX7X+X,.G s m M I ` F P #.*.5.t.1.6.| f.l...) ",
"XX%X.X.X%X%X*XoXoX-X7X<XrX7X7X-X#X!., a 5X X{.G.A.A.D./.{.(.{.{.{.{.OX{././.}.{.{.J.K.{.{.'.uX8.Y ).!.Q.T.T.x.V.T.E.).%X;X*X%X].$X.X/.T.T.C.T.).%X$X%X X!.).).:X X@.P ^. X.X.X.X%X.XoX%X5XoX%X.XOX}.(._..X*XOX.X.X3X6X6XtXmX$.O X.%XE. X X!.T.C.V.h.V.A._..X*X X/.^./.T.T.g.g.Y.T.Z.E.Z.E.!.:X-X$.r.V.N.7.8.N.D.J.J.}..X}.{.{.{.g.d.g.S.D.}.oXoX{.D.F.A.A.B.B.B.B.K.3XaXh.* t.T.C.:.u.T.XX*X&X-X1XXX&X-X*X,X*X;X%X X%X$X-X-X-X&X$X&X-X=X!.!.Q.:X~.7 x.7XhXzXvXhXvXVXjXjXrX;X&X%X X!.E.V.u.n.V.V.-.-.4.t.u. XE.Y.E.hX$X> Y.5XW.^./.C.,.#.' Z ) G e i _ o.Y Y X.>.>.f.j.f.1.) k.[ { <.| ' !.h.k.w.t.j.%X_.5X%X7X_._.^.j.1.) [ ` >.c.+X).gXgXbXvXf.q.^.T.$XtXtXLXGXGXIXJXGX$Xa 1 D xXFXjXvXBXlXCXAXrX.XtXjX7X7X8XtX`.<.q.w.H & B A I A I Z A } I Q A W n A N P P Z P ) P _ Z ) V l B B A N N C | } ] ] } ' ,.t.V.| I %.#.P %.,.t.:.:.#.} -.a.z.+X+X!.).+Xh.6.k.....(.g.6.t.6.u.C.!.(./.E.6XVXk.s ..k.f.6.<.#.,.g.h./.rXlXrXtXvXtX8X8XvXVXVX;XW.-XDXBXlX$X;X-Xc.l.>.f.C.`.^.5Xv.v.6.k.j.F.<.j.l.<.] ",
" X.X.X%XoX-X%X;X-X%X*X*XrX7X-X%X&XI.& 6 $X).Z.A.A.S.A././.E.{.{.K.K.{.{.(.}.}.}.OX{.K.D.{.'.yXy.P ).Q.~.V.x.T.!.).E.T.%X*X%X*X%X%X%X).).).T.T./. X XXX X X). X@X;XX.N E.).%X X.X.X%X.X X.X%XoXOX.X)./.{..X.X.XA.{.}.*XwXwXkXE X *.;X).). X/.E.C.C.C.C./..X.X.X.X/.E.E.T.C.i.g.C.E.A.Z.E.'.!.:X;X2.y.n.b.8.7.g.S.J.{.}.}.'.{.{.A.L.g.B.D.{.}..XoXD.S.A.A.A.B.B.B.S.S.K.PXV.= W.).f.8.j.).XXXX*XXX;XXX$X%X-X*XrXwX%XXX X$X&X,X%Xg..X;X&XrX$X!.Q.Q.a.x v.;XrXlXlXlXbXlXvXjXtX7X*X*X.X!.].R.n.Y.P.p.y.7.7.p.u.Z.Q.Z.Z.rXlXw !.$X;X%X%X.XE././.^.6.#.;.;.f.T.h.j.t.h.x.T. X;X6XE.T.k.6.6.8 b 7X;X%X).C.E.6X*XrX*X*XrXrXrXNXjX_.^.g.C.).$X=X&X$XfXhX:Xp.u.V.E.%X;XyXlXlXBXSXSXSXr.t S  X,XoXOX*X*X*XrXrX*XjXjX7X8X.XtXuXeXtXGXgXj.u.] ;.1.6.6.f.] e ; X X k Q <.T.C.^.(.`.T.(.^.T.^.k.l.<.<.w.t.4.6.i.E.).).%XwXrXvXP z *XrX.XeXvXVXvXtXuX/..X%X$X;X-X=XrXtXE.j.).V.C.E.{._.C.j.A././.).). X,XVX5X..v.)..XA.A.C.A.N.V.!.{.XXXXE.).$X&XtXjXzX5X$X).$XxXhXQ.~.+XbXq.k.c.T.R.).$X6X).).(.^.j.j.k.l.<.k.d.",
" X%X.X%X%X-X*X;X*X<X;X-X6XwX6X<X1XQ.& 7 `./.A.A.S.S.D.J.J.J.{.{.J.J.{.J./.{.{.4XJ.8.D.{.{.{.6XV.' !.E.T.Y.`.).%X X/.!.%X*X*X*X*X$X%X X.X.X_.). X{..X%XXX X$XXX:X$X! G 5X)._..X.X.X.X.X XOX.X.X X)./.A.^..X.X/.D.}.oXwXwXyXSXT o *.7X X)./.].{.E.C.A.A.^..X X.X X).E././.u.4.V.C.E.R.Z.'.'.E.Q.:X-.y.C.b.8.8.g.A.{.}.3XD.A.{.'.A.g.d.A.D.}.{.{.{.A.V.A.A.A.S.S.S.S.S.0XZXt.> Y.C.8.8.T..X X;X-X%X X_. X.X&X&X<X*X X!.).XX%X;XXXi. X%X&X7Xp.Q.@X$Xp.l ).5XhXlXjXtXhXjXuXjXjXrX*X*XoXXX'.V.V.E.!.Y.n.u.y.i.u.n.V.V.R.6XvX_ !.%X%X&X1X&X&X%X*XrX*XE.T.!. X!.T.R.Y.x.T.T.!.&XxXhX$XT.C. XX.L -XfX-X=X X X$X*X<X*XrX-X-X-X,X,X%X.XE.E.)..X X$X&X1X&X XV.u.u.V.XX<XrXhXjXlXhXjXAXX.* F $X XOX5XoXoXoX6X*X*X5X*X*X.X/. X X%X*XrXwX8X.X8XuXtXrXlXFXtXD.k.N - W 3.R. X&X%X-X*XrX-XrX<XlX). X_. X/./.V.h.Y.Q.E.!. XXX,XvXM l $X%X*XrXrX7X7X*X,X%X.X).XX$X X$X-X-X X.X X!.!.+X<XvX%X X.X{. X]./. XwXvX(.f.5X-X-X&X X).`.E.T./. XXX.X{..X;X%XrXxXxXgXjXgXfX<XkXhXBXxXxXw.h.~.Q.@X].$X;X<XhXhX7X7X8X4X).;X7X7X",
").%X_..X%X%XoX%XwX*XwXwX*X;X7X<XdX#X= 5 f.T.C.A.A.A.D.{.A.{.{.{.{.J.{.{.}.}.}..X{.{.XX|.{.{.[.-.T !.T.T.T.T.E. X+X).).%X;X6X*X5X*X%X%X.X.X*X.X.XXX$X$X.X;X%X$X).$XY N %X).XXXX X*X*X%X.X5X.X.XXX(./.A./._..X.X.X.X5X7X8XrXDXK   &.;X).).).).E.T.C.C././. X.X.X X/.T.E./.E.u.C././.C.E.!.Z.Y.~.@X&.5.V.8.8.g.B.A.D.{.oXA.C.{.A.D.B.B.D.{..X{.E.A.A.A.A.A.D.F.B.S.B.K.iXZXU . Z.i.6.j./.+X.X%X%X%X).).).;X6X%X-X&X XE.E./. X%X5X%X.X X%X_.:. X&X#Xx.c $X;XrXjXvXtX7XlXjXtXjXrXrX*XoXoX XE.R.E.T.R.a.u.u.u.y.8.u.g.C.6XVX@.Y.&X&X-X*X,X-X$X-X%XrX=X+X=X$X!.T.W.R.Y.Q.~.!.@X-XdX;X!.R.!.x.i Y $.5.V.T. X=X7X*X*X-XrXrX<X;X*X&X;X;X X$X+X XXX%X%X;X XE.C.C.C.}.*X,XrXrXhX7XxXGX! & X.-XXX.XOXoX*XoX3X4XoX4X.X.XC.A.}././.&XoX*XC.' ).XXoX,XwXrXuXrXKX Xo z p.'.[.XX$X%X-XXXoX.X;X7X{.;X*X*X%X/.E.C.C.h.h.T.!.]. XjXr.< :X].&XdXrXhX<X7X6X*X.X%X%X.X%X*X-X$X&X-X X%XkXxX-XlXrX%XXX&XXX X].XX;XlX;Xh.-X=XrX7X*X%X).)./.XX%X%X.XoX.X6X7XrXrX7XgXjXrXrXrXlXlXxXgXgX:XY.a.Q.!.R.R. X&X-X-X=X7XrXrXjXzXDXDX",
"_.).). X.X X X%X;X6X6XwX,X;X6X-XdXdX3 4 <.^.u.E././././.A.G.{.D.{.{.{.J.D.{.OXOXOX{.}.}.XX'.E.Q ' ).Y.i.T.).T.T./.).E.T.;X6X;X6X*X*X*X%X*X*X.X*X;XXXoXoX%X%X$X].$X*.F _.).XX XXX.X*X5X.X.X.X.X}. X/.j././.{._..XoXoX*X8XiXSX/   &.7X).!.)./.T.E.j.V.T././. X)././.E.T./.g.t.C.C.C.V.T.R.%.y.Y.!.-.-.V.8.6.g.A.D./.{.{.{.}.}.{.{.A.A.{.}.{.A.A.Z.A.E.D.A.{.A.F.S.S.K.qXZXW & R.u.y./..X).%X%X.X X).)..X;X7X%X%X X.XT.T.E._.%X.X).)..X X.X6X&X&X&Xx.U %X%X7XtXcXvX8XjXtXjXjXjXrX6X*XXX{.E.V.Y.Y.V.V.a.i.i.u.8.u.8.C.7XVX@.!.$X+X X$X$X&X!.@X].=X=X#X#X#X#XQ.Q.~.~.@XI.].@X=X=X=X@XE.$X!.G G B ) | d.6XwX6X6XoXoX*X<X*X*X-X%X&X*X%X.X X X.XXX.X{.'./.A.D.(.XX,X*XwX<XrXrXxXLXq.> =.<XXXXX.X.X4X6X6XoXoX.X X{.A.E./././..X%X*XwX/.)./..X*X,XwXwXwXCX~   z.=X X.XXX.XXXXX X.X*X%X6X8XwXrXrXrX.XE.V.V.C.T.T.T.!.E.6X7X6 :XXX&XkXkXrX<X7X;X%X*X%X X.X.X6X;X_.%X%XE.E.&XUXSX$X-X7X*X*X*X X X.X*XjX7XT.-X<XrXrX;X;X$X XXX$X%X6X%X%X%X%X%X-X-X7X7X7XhXrXrXhXbXxXgXgXc.z.~.!.!.R.'.XXXX*X6X7XtX6X&X-XzXSXzX",
" X X). X). X%X%X*X;X6X;X6X6X7X<XdX#Xh 8 i./.V./././././.A./.D.D.{.{.{.{.}.|.}.}.}.}.}.}.OXZ.Z.I I ).Y.t.C.).V.C.).T.).E.;X6X7X7X6X*X*X*XoXoX5X*XoXXXoX*XoX%X$X X&X-.l ).). X%X%X.X*X.XOXOX.X X/..X}.A.(.(.{..X.XoX6X8XeXtXDXe.  &.-X X).!.E././.C.j.V./.)././.)./.E.A. XV.| h.C.C.C.T./.N.i.T.!.p.r.b.b.8.N.A.{.}.{./.{.}.}.{.A.(./.{.(.'.{.D.D.A.A.A.A.A.D.F.K.K.K.pXNXd - V.a.g.A./. X%X%X$X X/.)..X%X%X X_.).).u.i._.%X)..XT.T.%X*X;X%X%X$X$XW.Y `.).rXlXzXAXlXtXtXtXtX8XtXrX6X%XXX'.V.T.T.V.V.h.g.y.y.8.6.8.C.7XvXR Y.+X!. XXX%XXX$XE.$X1X$XR.e.e.( K K ^ ^ J K / ~ 0.!.-X$X].@X!.t._.C.F.F.uXGXwX6XwX3X6XrXwXwX6X%XOX.X<XrXoX.X.X'.XXXX}.A./. X{..X3XoX*X6X6X7XwXyXAX,.& @.<X]. XOX*XoXoXoX4XoXXX{.(.A.E.{.{./.{..X5X*X6X5X{. XoX6XXX3XwXZXx x fX$X X.X%X.XXXoXXX)..X6X6XrXwXwX<XrX*XE.C.N.A.T.T.E.E./.oXrX9 Y.XXXXrXrXlXrX6X-X5XoX.X%X.X%X.X.X.X.X.XT.E.].UXIX~. X X;X*X%XXXXX.X%XtX).C.7X-XrX-X-X*X%X%X%X%X%X%X%X7X%X).XX*X7X7X7X8XrXhXrXhXDXSXfX5Xz.p.$X$X!.!.!.XX*X*X*XeX.X.X&X-X&X=XhX",
"E.T.!. X)..X.X%X%X6X6X6X;X7X7X<XdX#Xv = 6.C.C.E.A.A.E.A.D.A./.{.G.{.{.{.{.|.}.}.}.}.}.XXXXZ.V.I } ).h.T.).T.T.R.E.E././..X5X7X7X*X*X*X*X*X*X.X*X%X*XoXoX*X%X$X$X-Xr.y `.`.!.%X$X.X XOX.X/..X.X(..X_.^.}..X(.{.OXOX5X3XeXwXDXM.  ! %X]. X X/.!.A.A.C.E././.)./.(././.f.R.E.h.%XT.C.C.E.A.T.T.T.:Xp.r.u.7.b.N.A./././.(.A..XOX{.E.{.}./.D.D.{.D.D.D.A.A.D.A.G.S.S.D.K.aXiX5 5 f.h.h.^./. X{.XX%X).E./. XXXXX X X!.!.h.h.%X.X X X X%X7X6X*XXX%X%X%XW.Y ).%X7XjXlXKXBXrXjXtX8XeXeX8X7X6X%X!.E.T.R.h.a.u.i.t.g.6.9.g.C.*XSX@.i.$X$X$X%X$XA./.].$X,.F t : , :   o . . % 7 U X.t.).%XXXQ.~.e.b rXyXwX*XjXvXrX*XwX,XwXwXwX8X4XoX.X XkXyX%X.X{.'.'.}. X'./..X.X).OX5X6X6X6X6X6XwXGXh.- p.<X.X5X.X.X*X*XoXoX*XoX.XE.C./.E.'.{.A.OXoX6X*XwXoX.XXX6XA.D.eXFX' b $X&X X). X XXX*X%XC.{.6XrX6XrX,X*XyXlX XC.N.h.V.A.)././.oX*X4 y.{. X7XrXrXrX8X7X6X%X.X;X*X*X.X X.X/.(.C.A.!.2XSXfXh.!.%X%X*X%X.X.X6XjXT.i.6X7X*X-X*X*X*X;X%X;X6X;X*XtX8X/.).-X-XrX7X7XgXrX7XrXlXAXxX+Xq.a.!.!.].]. X%X*X7X6X6Xj.B.5X%X.X X7X",
"T.T.).).).).)..X_..X5X;X*X7X6X*XkX=XJ < ,.h.V.A.C.A.A./.{.E./.{.{.{.{.{.}.|.}.OX{.{.|.}.[.R.n.L ] E.h.!.%X).R.V.E.E.`.)..X;XwX*X*X6X6X6X5X6X*XoXoXwX6X*X*X&X%X&X=XP.i +X).). X.X.X%X%X.X)..X.X.X.X.X.X5X.X{.{.}.}..X4XwXyXDXM.X n g.{.{. X.X{.!.E.A.E.E./..X).T.T.E.u.j.(./..X).T.A.R.T.V.T.Q.@Xr.r.n.t.u.V.C.A.A./.)././.{.A.E./.}.{.{.(.A.A.A.A.{.{.G.G.H.L.S.J.|.ZX*X0 0 k.h.!./.E.).!.]. X].6.,. X&X X!.).E.E.`.)./.)..X.X%X7XrX8X.X%X*X=X-X).Y ).7X7XjXzXBXLXVX8XbXuX7XrX7X;X;X$X XE.E.Y.V.V.a.y.y.i.8.r.5.C.7XAXb q.;X X$X XXX!.T.7X.Xj.6.#.,.' U ~ ~ O.z.h.5.t.$X6X;X-X=X).P.X.n %X<X1XrXrX6XrXwXrXwX8XwXwX6X6X.X{..XrXrX*XXX/.{.{.!.'.{./. X X.XOXoXoXoX6X*XoX,XGX).5 a.%XoX%X%X.XoX3X4X3XoXXX}.T./././.E./.{.{.}.*X*X%X5XOXoXoXJ.A.6XNXT.0 h.=X$X).].XXXXXX-X%X5X7XrX7XrXrX*XCXcX)./.C.C.C.T./. X{.}.8X1 T 1XXX7XrXrXrX7X6X6X6X4X.XoXOXOX.X/..XA.N.V.Q.=XfXhXr.{.%X&X;X;X.X*XwXuXrX/.*X-X7X*X*X*X*X%X%X.X%X.X%X%Xk.<.6.{.<X<XrX7X7X7XrXrXxXSXgXx.O.R.:X X$X.X*X-X6X7XtXgX7X6XwX8X6X7X8X",
").).).).)..X)..X%X%X6X*XrXrX6XrXxXdXT < >.j.N.C./.A.A.{.D.{./.{.{.{.{.OX}.{.{.{.{.A./.}.{.R.u.N ] E.T.!.%XXXE.V.T./.T./.)..XwX4X*X6X6X*X*X*X6X6X6X6X6XOX.XXX*XXX&XP.4 h.).). X)..X.X.X X.X%X%XoX.X.X%X.X.X}..X.X}..X6X6XtXKXn.X O.v.). XXX X X{.E.!.E.{. XXXXXE.C.T.T.C.C.E./. X!.C.C.V.R.R.!.;X2.e.u.u.u.u.N.C.C.C.A..X*X[.N.j..X(.}.(.}.E.A.'.A.{.'.G.A.A.D.F.K.|.ZXb.* q g.V.R.E.E.E.T.E.E. Xi.%. X-X$X). X/.W.).)./..X X%X6XrXtX7X%X;X;X*XhX;XR %X%XrXuXvXlXAXIXzXjXtXeXtXrX6X%X%X X].R.h.V.V.V.6.y.i.5.y.g.T.7XLXU 0..X X X!. X).).6X5X.XF.C.T.f.a.V.n.a.].'.t.} T.7XrX-X&XE.u.T k ).-X<X,X,X6X*XwXwX6XwXwX6X8XoXoX/. XrXrX;X*X}.}. X(./.b.E.}. XOX.XoXXX*XwXC./.*XFX.Xi T.].XX.X%X;X*X*X*X5XoX}./.C././.{.{././././.OX%XoX.X/.OX{.D.(.oXuXuXC /.wX{...:./.XX.X*X*XrXrXrXwX*XrXrXSXlX X/.E.A.C.A./. X%X+XjX1 c  X*XwXrXyXwX6XwX*XoX*XoX.X.X X X X XA.N.C.R. X-XjXa.E.%X,X*X*XoXXXwXrXpX/.%X&X*X-X,XoX.X)._..X%X%X6X8X1.[ _ A.,XwXrX6X6X7XrX<XhXSXSXw.G !.;X&X&X*X7X7X7XtXjXjXjXjXtXtX7X)..X",
"!.E.!.).).)._..X.X).;X*X*X*X*X7XhX1X/ 4 ] g.Z.C.E.A.A.A.A./.{.{.{.}.{.J.K.J.{.}.}.(.}.}.'.Z.y.b #.`.!.%X&X&X].T.T.T.T././..X.X5X6X*X5X*X5XoX*X6X6X6X6X*X%X*X%XoXXXQ.8 h..X.X{.{.{./..X X.XXXXX.XXX.X.X_._..X.X/././.6X%X*XKX].X O.%X_. X X X X).!.)././.'..X.X/./.T.C.A.A.A.'.'./.R.Z.Y.A.E.!.xXm.y.u.8.8.8.N.A.:.9.j..XwXXXN.N..X.X.X}.}.A.Z.J.{.G./.A.A.D.D.D.K.3XNXT < w k.T.T./.E.R.C.C.T.E..X%X%XXX).V. X).%X%X).)././.*X7X7XeX7X5X7X7X*XrX*X} )..XwXtXtXzXBXIXGXgX7X8XrXrXwX,X*XXX X Xa.Y.V.h.y.i.u.<.u.k.E.6XGX*.-.;X).]. X X!.).T.)./.T.C.C.h.r.i.n.Y.!. XE.T.%X&X-X-X=X Xi.T q +X;X-XwX,X,X,XwX0X3XwX8X6X*X%X.X^.(.yXcX*XXX{. XA.E..Xf./.{./..XXX.X.X%X6X(./.rXSX7Xp T.XX.X.X.X.XoX3X*X*XoX{./.E.E././././.(.}./.}..XoXoXXX5XA.4.d.XX8XcX5.Y.rXf.Z ) g.XX%X,XrX6XwXwX*XwX6XlXBXlX-X!.T.Z.C.A./. X6X5XjXa 5 V.,X,XiXyXwXwX0X*XwX4XoX.XOX). X X/.C.j.N.C.).!.rXQ.V.XX*XoXoX6XoX,XrXuXi. X*X%X%X*X.X XE.). X%X.X6XeXD.d.8.'.*X-X*X;X*X;X*X-XrXDXSX>.Y ].$X&X%X6X7X7X7XrXjXhXrXhX7X7XtX5X/.",
"].E.!./.).)._.). X.X%X%XrX*X5X*XrXdX*.p ) j.V.C.A.A.A.D.D.{.{.D.}.{.{.{.OXK.}..X}.}.OX|.'.n.9.L #.)._.$X$X$X!.T.T.j.j.j.C.F. XXXoX,X*XoX*X*X4X6X*X%X*X*X*X;X%X*X&X@Xf i._.)./././..X X.X%X X}.oX.X X.X.X.X4X.X).(._..XoX>XmX[.X 0.`./..X X X.X/.A././..XV.A.XX!./.E.C.V.C.Z.R.E.E.T.R.E.R.T.XXBXa.-.5.i.u.7.7.N.8.d.A.{.XX'.N.A.}.|..X}.}.D.J.{.'.A.A.'.G.E.D.K.{.wXuXW > 5 h./.R././.Z.Z.A.C.T.!.XX&X%XT.t.E.;X7X7X6X.X/..X;XrX6X.X5X7X7X6X*XlXrX$.E.).5XwXjXlXjXGXGXVXtXwX7XrXwXXX%X$X$X).E.E.Y.h.b.y.y.t.f.V.(.7XGXq.Y $X X]. X!.E.Y.T.!.!.!.).W.T.V.Z.V.!.).$X5X5X X%X-XhX<XXXu.I w %X&X-XwXwXoX6X6XoXwX>XwX6X*XoX.X/./.lXNX-X%X X X(./.{.j.A././. X X XXX.X*X4XoXwXVXjXl q.%X%XoXoXoXoX3XoXoX4X}./.E././././././.)./.(.}.OXoX8XtXD.:.g.{.OXtX7.y.uXD.{ Z N._.oX*XrX*XwXwX,XrXrXrXrXjXrX XA.C.A.A./.!..XwXpXl ; V.<X,XwXwX,XwXoX6XXX*X6XXX.XE. XXX XE.g.b.C.E.C. X!.p.$X6X6X6X*X,X*XtXbXi..X,X%X%XXX XT.!.XX%X%X;X*XeXeX5X*X*X*X*X6X6X%X).%X].$XhXjXt.X.$X X$X%X7X7XtXtXtX%X.XrX7XjX7X7X6X*X",
"!.E.E./.).).).).).%XXXoXoX*X*X%X<X&X2.F ` j.Z.C.S.A.J.A.G.{.{.{.{.{.'.{.}.{.}.}.{.{./.(.H.b.4.l #.).+X%X$X X X)./.T.C.j.C.C./..XoXoX*X*X*XoX.XoXoXoX%X*X%X6X.X&X X-Xk :.). X.X.X)..X X.X.X{.{.oX.X.X.X%X.X.XOX_./.OX.X4X,XCX].X i.;X X%X%X.X.X_././.!.XXV.V. X X!.A.A.C.R.A.E.A.C.A.E.R.E.E..XBXV.2.5.u.A.N.N.g.V.B.E.}.oX{.N.(.}.3X.X|.}./.E./.{.Z.'.A.A.G.D.J.K.eX>X9 7 q x.E.T./.R.E.R./.A.T.!.!.!.E.j.h./.%X-X-X5X%X5X.XoXrX6X.X6XhX-X*XrXhXrX*.E.).;X7XrXlXzXbXzXAXZXrX8XwX6X,X%XXX X!.^.T.T.h.f.u.y.N.C.C./.*XGXq.c ).].!.E.!.T.T.E.).)./.)./.).T.T.E./.).%X;X.X!.&X7XxX<X[.5._ w Y.&X;X6X6X6XwX6X6X6XwXwXwXoXOX(.A.A.,XlXwX%XXX{..X}.{.#.j..X). X.X.X.X%X5XoX.XoXCXrXl T.*X%XoX3X3X5X*X6XoX*X.X{.^./.{.^./. X/./. X.X.X.XXX3XtX*X{.{.}.}.wX:.$.XX6XS.j././.*X*X*X*XwXrXrXrX<XrX%X7X6X X/.A.C.A.A.'.XXwXbXN ; V.&X7X,XwXrX8X6X6X5XoXXXoXoX_..X/.).A.N.N.C.A.T.E.*X X X*X6XwX*X*XrXjXAX/.).%X X.X.XV.V.{.XX*X%X*X6X6X7X*X%X6X6X;X6X*X%X_./.a.!.kXBX%X,.$X$X$X%X6XrXrXrXjX5X XrXtXjXrXrX*X*X",
"!.E.E.E.T.^././. XXXXXb.E.*X&X;X;X=Xq.S P a.u.b.j.N.A.D.G.J.{.{././.{.}.{.}..X.X{.{.}.{.Z.b.3.f ' %X).%X$X].!.)././.T.j.C.C.T.OXXX$X.XoXoX.X.X.X%X*X%X*X6X;XOX%X#X<Xz }  X{. XXXXX.X X)..X/..X.X.X.X X X.X.X}.{.D.(.oX8XrXZX].O i.8X.X.X.XoX.X X/.^.E.). X/.E.).!.Z.A.A.A.E.A.A.V.R./.g.V.E. XlXR.y.,.4.g.L.N.B.N.C.A.{.XX{.{.XX}.OXXX.XOX{.A.A.A.A.A.A./.D.{.K.|.iXZ.z k 8 V.).E.E.R.V.E./.A.E.E.'.E.T.V.T.).).7X&X.X%X5X5X*XwX*XXX*XrXrX-X<XkXhX,. X!. X.XwXrXkXlXlXzXBXlXyXrX5X*XOX_./.T.T.C.h.h.i.V.u.Z.N.C.T.-XGX@.U ).Q.E.R.^.T.E.!.).{.{.!.E./.E.T./.)..X.X.X X X7XrXrXxX{.b._ 8 R.-X*X6X3XwXwX6X6XoX*X*XoX3X}.}.D.A. XyXrXXX{.{. X X.XA.D./.{..X X.X.X.X5X.XOXoXAX;XN wX*XoX*X*X6XwX5X*X5XoX.X{././..X.X/./._.)..X.X}..XoX}.oX3X5X*X6X.XeX5.P  X X X X!. X.XoX5XrX6XwXrX6X;XrX8X;X5X.X/././.(./.Z.{.,XCX| 0 i.1X*X1X6XrX6X6X5X6X.X.XOX.X.X).(.^.T.j.N.B.C.C.E.KXUX{.OX.XwX*X*X,XhXBX.X). X X+X!.V.V.!.oX*X,X*XwX7X6X6X7X7X*X6X;X%X X(.f.,.XX-XjX' $.-X%XoX%XwXrXrXrXrXlX7XrX8XrXrX,X*X5X",
"E.V.Z.C.C.T././. XoX*X X X&X&X&X-X-Xy.x D h.n.N.N.N.N.B.A.A.J.{././.'.{.{.{.}.E.A.{.{.A.Z.b.4.z ' %X%X X$X]. X).E./.T.T.j.V.j./.XX$X%XXX X.X%X%X%X%XoX%X.XXX.X$XE.].b @. X!. XXX X X.X{.).). X.X.X.X). X.X.X_.).E./..X6XrXmX[.. i.7X}.XX.XoX.X X).). X).!./.E.E.C.E.E.E.E.A.A.V.C.R. XA.T.E.XXxXa.y.4.%.7.u.u.N.B.N.A./.}.}.|.XX}.}.}.oXoX}.A./.A.A.A.D.D.8.D.K.|.uXu.@.F 9 V. X!.!.C.V.E.T.T.E.H.'. X/.T.C.^.).%X*X;X6X*X.X6XrXoX4X7XeXlXY.%XrXfXr. XoX%XC.oXrXyXrXxXjXlXjXlXjX7X7X5XOX(./.!.T.V.C.N.j.V.N.V.A./.gXGX! F !.T.V.V.C.E.). X X{.E./.{./.E.E././. X%X*X%XXXrX-XrX<XXXR.#.p T.%X6X*X6X*XoX5XoXoXoX5X6X6X3X|.{.|.A.N. XoX!. X XXX.X X/./.XX{.). X.X{..X.X.X*XVX).' eXoXoX*X6X6X6X6X%X*XwX.X{..X/./..X)._..X)..X(..X4X|.oXoX3X6X*X6X X/.$.b $X X X'.{. X*X*X7X6X7XeX7X7X8X8XrX5X%X.X).)./././.(.{.XXVX[ - u.,X*XrXrXwX6XwX6X5X5X}.(..X.X)._.).T.g.N.C.C.C. XcXIXrX%X%X*X5XwXrXtXSXtX X X!.!.Y.p.Y. X%X*X*X,XwX7X6X6X7X7X;X6X*X%X.X^.6.5.E.$XT.< @.-X&X*X5XoXoX5X6XwXrXtXrXrXjXrX*X*XXX",
"R.T.V.h.T.T.T.). X%X*X-X%X*X;X;X-X;Xr.N M k.g.g.j.N.B.A.B.D.D./.D.{.J.J.D.{.}..XS.E.{.H.Z.y.%.N o. X%X X).).).).!.E.T.^.T.f.h./.).XX.X X X.X.X%X.X%X%X_.). X X X).).S }  X/..X.X X.X X.X X.X.X.X.X/./. X.X)..X/.A././..X*XmX&X. ,.+X X.X%XXX.X X!. XE.!.!.E.).E.u.!.E.R.C.A.R.V.A.Z.A.E.R./. XmXp.y.y.5.5.7.u.g.N.V.B.{.'.{.XX|..X(.(.OX.X}.J.A.D.{.A./.J.B.D.K.D.wXu.-.#.p t.E.T.E.T.T.^././.E.C.C.E.!.V.x.T.).).%X5X6X6X7X7X6X;X5X8XwXtX(.7XrXhXV.$X;X8X%X5X6X6X8XeXtXrXkXjXhXrXrX;X5X).!.!.R.Y.V.V.g.V.u.Z.8.{.rXJXD n $XY.T.V.h.R.].'.].{. X X/./.A.A./.(..X%X5X5X*X-X-XrX<X&XY.#.e C.*X,XoXoX*XOXoXoX4XoX.XoX6X6XoXXXoXk. .%.E.!././. XXX/./.{. X X.X)..X_._./.{.8XSX+XX.7XoX4XoX;X6X*X6X7X6X.X X{.).}..X XOX.X{.)..X).oX3X3XoX|.oX3X*X&X XE.-.8  XXX/. X XOX%X*XrX7X8XjX7X7XuXrX8X6XoX.X/._././. X{.Z.oXFX..5 u.-X*XrXwXwX6X3XwX5XoXoXT..XOX X X).^.k.C.E.A.E.%X<XSXrX$X%X*X5XXXwXrXBXgX).!.V.u.V.5.Y. XXX%X6X7X7X7X7X7X*X;X-X7X-X;X).F.d.:.E.7XX.5 q.-X-X7XrX8X}.{.}..X6XwX8X7X7XwX,XXX(.",
"E.R.Y.V.T.T.^.)..X$X&X*X%X%X%X.X&X$Xr.F F g.g.N.g.B.N.N.B.A.A.{.A.A.J.{.{.{.{.}.G.Z.G.Z.Z.u.%.B ' ). X.X X X).E.E.Q.T.E.!.V.C./.).)..X.X.X.X X.X X.X X%X X X X!.R.!.L P )././.)././.). X X.X.X X/.C.T./. X X X/.T.T..X.X*XkX@X& t.%X XXX.XXX X.X'.!.E.E.R.5.-.V.u.C.T.C.T.R.E.R.V.A.R././.R.C.lXa.b.i.2.4.4.8.8.u.N.C./.S.g.j.OX.X}. X{.'.{.{.{.{./.A.D.{.D.F.J.3XeXh.q.*.F i.W.Q.E.T./.T. X/.A.B.N.b.V.h.C.C.)..X+X%X%X5X6X%X5XoX*X*X8X6X7XjXrX Xp.$X;X-X7XrXyXXX6XrXtXtXtXlXrXrX6X6X%X X!.h.h.T.V.h.V.u.N./.u.{.yXLXx U !.V.h.5.E./.'. X X!./. X)./.A.A./.)..X.X;X;X7XrX7XrXrX-X).,.w Z.&X*X*X,XoX.X.XoX.X.X.X.X6X6XwXtXtXS.1.%.f.C././. X X X X X!..X)..X_..X/. X/.6XGX;XX.7X.X6X6XrX6X6X6X6X;X*X X{..X.XOX.X(..X.X.X%X.XoX.X3X4X{.}.3X*XoX X*X=.3 ]. X/..X.X.X.X*X6X6X6X7X6X7XeXrXwX6X5X.X_././././..X{.oXCX..; N.*X,XwXrX7X6X3X3XoX3X6X.X.X.X X X/.A.h.C.R.Z.A..X%XrX<X%XoX.XoX%X<XrXSXvX). Xu.r.i.r.T.XXoX;X*X6X;X-X7XrX7XrX7X-X7X-X.X_.C.f.E.-X#.7 s.dX<XrXtXtXwX}.}././..X.X;X6XXX*X*X.X",
"A.T.V.Y.T.^.).). X$X%X&X%X$X%X$X&X$Xy.P N f.u.V.N.C.N.N.S.A.A.S.A.{././.}.{././.C.A.C.b.b.M.4.V _ ;X%X$X)._.).).$X!.!.!.!.E.!..X/./.). X X)./. X!.).).).).).E.E.h.Y.Y b /././.)././.)./. X X.X.Xt.%.C.E.!./.)..X!.E.{..X%XrX=X: a.8X.XXXXX X X). XE.Z.R.E.T.T.!.h.h.E.E.E.Q.E.Q.R.V.Y.E./.8.:..Xa.Q.t.5.4.2.g.8.6.u.N.A.A.A.8./.wX,XOX.X/./.{.{.{./.{./.{.D.{.A.pXrXj.`.r.X.w.W.T.E.R.E.!..X/.A.B.g.g.6.8.y.g.T.%X). X)..X)..X/. X*X.X*X5XrXlX*XR.a.&X%X&XrXrXlXhX7X7XtX7XjXrXrXrX7X;X.X).T.g.i.C.T.h.V.C.T././.{.rXAXt O.!.V.i.5.'.'.!.{. X'. XXX'.!.A.A././. X.X.X%X6X6X;XrXrX&X Xr.k E.=X*X7XwX*X*X.X X.X.XOX.X.XrXrX7XjX6XT.g.N.C./.!. X X X X X X X)._..X X_././.5XSX+X0.;X.X*X*X6X6XwX6X;X6X*X.X.X%X.X5X%X X%X X.X.XoX%X;X6X6X.X}.oX*XoX X].S , Q. X'.{.{..XoXoX0X6X6X6X6X7XrXrX8X6X%X.X.X.X/.!./.{.%X XBX,.$ g.rX*X*XrX8XwXwX3XoX6X6XoX.X.XXXXX).C.j.C.E.C.C.{.%X<XrX.X.X.X.XOX6XrXBXlX$X$X+X!.h.h._..X*X*X*X7X6X6X7XhX7XrXwXrXwXwX%X%X%XT.Y.).` * &.dXrXhXcXjXeX7X8X4X^.E.!.{..X%X%X.X X",
"V.V.h.T.T.T.).). X X X$X XXX$X$X&X&X5.T c i.u.C.A.N.L.g.N.N.j.N.A.{.{.!./. XOX{./.{.R.A.b.b.2.z I +X).). X).T.T.).E.!.'.!.R.!.E.V.C.E.E./.T.)./././.).(.).E.E.R.n.Y.@.l E.E.E.E.T.E.!./.)./..X.X XA.V.u.C.R.).E.!.{..X%X-X1X=X, q. X{..XXX X/.R.E.E.A.C.V.V.V.Y.a.V.Q.E.R.E.Y.E.V.R.T.E.E.C..X6XY.mXu.:.;.4.6.:.:.4.8.N.Z.].B..XoX0X.X}.{.'.A.{./. X{././.D.J.{.NXA.j.^.j.,.i.Q.T.V.E.).)..X).^.F.B.g.8.;.:.5.a.).$X%X X X)..XC./.oX.X5X6XrXkX,Xa.a.XX%X&X*X<X1XrXAXjX7XgX8XrX*X,X*X%XXX)./.T.Y.C.T.C.R.T.T.A.{.}.tXAXi &.Q.n.u.E.!.E.!.{.!. X.X XE.C.A.A././.(. X).OXoX6XrXrXrX-X!.a.5 Q.<X*X*XwX,X5X.X/.(.(./..X.X8XrX7XrX*XOX/.A.A./.{. X)././. X X{./..X/..X{..XOXoXzXY.&.-X.X5X5X*X6X6X*X6X*X;X.X X X%X*X.X.X%X.X%XoX5X*X%XoX*XOX}.oX5X*X{.-Xx & y.].'.{.{.}.oX*XoX6X6X*X*X6X7X*X*X5X%X%X.X.X X).{..X%XE.uXk.0 u.rX1XwXwX6X6X6X6X6X6X5X6XoX.X.X/.{.^.N.C.T.C.A./..X*XoX X X/..XoX*X*XmXjX$X+X$X!.k.T. X%X*X6X5X6X;X7XrXrXrXtXrX6X7X7X*X%X X).Y.).X.* e.dXdXhXlXjXjXrXrX5X(.D.A.E.).). X.X.X",
"V.V.Y.V.T.)./.`. X X X].XX X). XXX[.y.U x T.n.n.Z.N.8.g.L.N.g.L.N.A.D.{.).)..X^.D.J.A.{.A.b.2.E P ).).).).).).).).).).E.R.E.E.A.V.V.Z.T.).T.^.).E.T.E.E.E.E.E.Y.V.p.' G E.Q.E.E.i.V.T.T.^./.E.).XX%X].V.y.V./.C.T./.{.XX-XyX&X& q.%XA.!. X X).T.Y.V.Y.V.a.i.5.p.a.a.h.E.R.E.R.Y.n.n.Y.Y.C.E.6X-X0.AX<X .%.4.6.y.8.8.B.N.A.%X8.N.{..XoX.X{.E.E.'./.{./.(.(./.{.}.cXf.j.k.c.i.x.!.T.T.C.!. XXX X/.A.j.f.4. .| :.4.h..X$X).%X%X.XC.A./..X.XwX-XyX-Xy.u. X%X5X;XrXrX7XvXmXrX7X7XwX,X*X%X X XE.T.Y.V.C.R.V.R.E.V.A./.{.rXBXN Y !.h.V.E.R.E.).!.!./.{./.A.V.C.A.{./.(./.OXOX6XwXrXrXrX-X$Xj., P.rX*XwX,X*XoX.X.X^.{././. XXX6XjXrX6X{./././.E.{./.).%X.X X X/.C.E./././..X.X*XzX X@.;X%XoXoXoX4X*X*XoX6X%X%X.X.X%X.XoXoX.X.X*X*X6X6X.X*X3X.X.X%XoX.X/.jXc & y. X!.!.{.{.%X6X*X*X6XrX*X,X<XwX*X%X*X%X X X X!.]..X.X%XVXk.5 Y.<X*XwX*XwXrXwXwX8X7X%X%X.X_.).}./.D.C.A.T.V.C./..X.X5X.X{.OX{.E. X1XlXhX=X;X$XW.t. X&X-X;X*XwX6XoX7X8XrXtXjX7X7X7XrX7X%X X$X).).' 6 ~.dX-XhXlXlXjXyXtX7X.X.X(.E.E.E./.).).",
"Y.a.h.E.E.).T./.).].].$X XE.$X). XE.i.%.F -.b 4.N.Z.b.8.N.N.N.B.N.A.A.{.(./././.E.'.'./.H.H.4.} B /.T.T.!.!.!.). X!.T.R.E.E.V.C.V.u.V.V.T.E.T.T.V.T.T.E.R.E.E.R.n.y.P P E.E.R.'.V.Z.V.Y.T.R.Y.E.].].].n.} 6.C.C.T./.). X'.XXP.$ >.hXE.Y.h.R.!.E.Y.V.a.p.y.-.=.2.2.y.a.Y.Y.Y.V.V.u.h.V.V.T.!.;XhX-.BXKXZ. .%.8.N.8.b.N.b.r.{.%.4.A./.OXOX}.'.A.A./.g.:.N.D.D.J.oXcXx.c.x.r.i.Y.W.W.x.Y.{. X).).)./.T.V.6.%.' } 1.i.).%X/.XX;XXXE.A./.oX6XwX<XyX;X%.h.*X-X%X*X6XrXrX7XlXvXhXrXrXrX-X%X$X!.W.Y.T.T.C.R.V.6.g.E././.XXeXVX#.' T.V.V.V.V.E. X X X!.E.!.R.N.C.E./.A.E./..X%X5XoX*X*X-X&X$Xh.1 Q.<XrXrXwX*X3X.X{.{.A.A././.{.%XyXrX6X.X{.{./.)./.E.). X X/.)./.C.A././..X X X.XlX;Xx.$X$XoXoX5XoX*X*XwX).).*X.X.X.X.X*XoX*X.X*X*X6X6XoXoX5X.X%X.XOXE.oX!.1 < i. X X{.'.!.%XXX).%XrXrXrX6XwX*X*X%X%X%X$X X X X.X%X;X&XVXg.< A.<X,XrX8XrXrXwX8XrXeXwX5X%X X.X(.A.A.A.A.C.h.F..X{.}.OX/./.k.} | ].*XrXhX<X=X-XT.h.%X*X*X5X.XoXoX6X7XrXtXtXrX7X7X7X7X7X%X;X;X).$XY > ;XhX;X-XrXlXrXrXrXtX7X5X.X_./.C.T.C.E.",
"V.n.V.T.T.E.R.T./.E.E.E.E.E.Q.Q.!.R.i.5.@.B 7 N Z.Z.R.Z.n.n.H.'.E.{.E.Z.C.E.A. X{.'.A.E.'.Z.7.$.b i.E.V.V.Y.Y.Y.R.Y.V.V.Y.).n.5.V.V.n.V.V.Y.T.V.h.T.h.T.!.R.!.R.V.e.Y B n.n.V.Q.R.Y.V.T.Y.V.T.T.T.E.!.E.V.h.Z.{..XXX&X1X2X'.=.: R -X,XE.5.V.V.T.n.i.5.u.Y.r.%.*.i.T.R.V.a.V.a.u.i.V.h.W.T. XQ.T.&.-XLX<XH.Q  . .3.$.=.$.q.<Xy.Q h.Z.G.}.{.'.G.A.A.L.8.B.A.D.{.wXwX,.x.k.q.w.x.z.x.z.Y. X].E.!.&X!.E.P.r.$.' } %.6.N.V.Y.n.R.].!.Z.A..X,X*X<X&XR.%.T.hX=X$X$X=X;X;X%X7XhXhXhXhXrX*X&XXX).Y.,.V.!.!.T.T.h.C././..X%XiXFXh.' c.R.R.E.j.E.!.!. X XE.E.A.h.A./.).E./. X_..X5X6X*X*XwXXX Xi.4 R.<X*XrXrX6X*X*X.X'.A.A././.{.{.oX8XoX{././.).E.E./.).)././.E.T./.A./.E./. X X&X<X-X!.@X X XoX.XXX.X.X%X6X).%X.X.XoX.X.X8X*X*X6X6X6X*X*X5XoX*XoXoX*X.XyXh.& > e.].$X X{. XoX X XoXrXyXrX*X*X*X XoX%X.X_. X). XXX.XXX%XVXf.$ C.-X*XwX8XwX6X<XrXtXrX6X6X6X.X.X.X/.F.A.A.A.A./.{. X.X/././.#.[ 4.Z..XkX].&X7X).!.T.%X-X6X;X*X.XoX5X6X7XrXtXjX7XtXhX7X;XrX;X$X$X+Xf.x $X$X$X$X,XtXrXyXyXtXrX7X8X6X_./.C.T.T.",
"Y.V.n.R.E.Y.R.!.!.Y.i.x.R.E.E.E.$XE.V.h.y.P p 7 R Q L C Q W d n b F b } %.] @.] } :.6.%.2.J t k 1 p $.%.#.@.-.#.#.#.X.-.t.5.-.R / @.5.a.a.h.a.h.V.V.i.q.:.,.:.$.@.S 7 6 $.I r.h.h.t.r.i.t.t.W.a.t.h.a.u.V.E.y.p.p.y.M.e.e.( v . T ].Q.p.y.n.E.'.Z.y.7.Z. X XV.V.'.R.Q.n.m.Q.y.y.p.Y. X!.R.&X:X=.V.&XAXSXXXQ E C W z 9 b R.E.a.} $.5.b.Z.G.A.A.Z.C.Z.A.A.A.J.{.aXoXt.T.i.O.h.W.,.' q.t.T.Y.a.~.$XY.z.~.a.' L #.$.u.n.r.n.n.R.].!.!.A.A.'.$X-X].p.T a.!.].$X#X$X*XoX.X;XrXrXrXhX-X&X$X).%XT.6.W.).!.).Q.E.E. X[..XoXlXSXP l h.s.r.T.T.E.E. X).).E.R.V.B.T.V.f./.)._. XoX;X*X6X6X;X%XW.t.4 V.rX-X<XrX<X*XXX}.'.A.{.A.A.(.{..X.X*X X/.(.)./.!.{.{.).).E.E.).!.E.E./. X.XE. X%X$XE. X].{. XXX%XXX%X%X;X$X%X*X*X6X*X*X6X6X*X3X6XoXwX6XoXoXoXXXoXXX.X,Xi.% 6 0.#XXX XXX.X XXX.X%XrXjXrX&X*X.X).$X X X X).OX}.XXoXXXXXSXj.4 _.6X%X6X6X8XoXwXwXrXrXwX.X.XoX8X.X}././.D.A.A././././.).)..XT.6.u.Z.XXyX} i.$X!.T.).7X6X6X8X6X5X*X*X*X7X7XtXtXtXhX7XrX-X*X*X$X$X).T.-.%XW.)..X*XrXrXlXjXjXrX7XjX8X6X_.)./.T.",
"r.r.*.2.-.#.#.*.>.q.m G X.#.<.,.;.:.h.C.A.,.! Y c m e B ..G w B B m m ] ,.;.t.] #.>.j.,.t.N > > > ; 7 4 - $ ; 4 a q 2 q N l * * * ; >.). XR.T. X].R.h.t.-.a.T.g.i.,.P G <._ t.C.V.a.h.T.A.C._..X X XZ.Z.E.rX~   X o             u ! S D v F S S P L V L D k x S v B L b n E L J v E ! T S / q.i #.h.+X-X} b W v b b h k x.$Xa.Y.3.} 3.7.b.A.Z.{.Z.n.u.Z.OXOXXX,Xt.@.`.O.U Y f.C.P ' ] t.x.P S X.~ O.&.X.x M P P ,.b.2.y.V.E.R.R.E.R.R.!.&X=X#Xs.L n.R.Y. X&XrXrX.X X%X*X7X-X<X-X&X%X$X XE.V.T.$X). X).E.E.{. XXXOXtXpXq @.T.i.a.R.A.T.E.!.XX X!.E.V.V./.:._ V. X). X.XXX%X%X%X%X%X.Xa.5 h.rX,XrXrX&XoXoX.XE./.A.A.C.A.E./.OX;X X^./. X X X!./.Q.E.).).). X^./.)./.C.R. XXXh.C.h.A.R.!./.).%X$X X$X$X.X.X6X6X6X6X6X7X*XwXoXoX3XoXoX.XoX%XoXXXE.E.Y.% > p.&X%X X). X X.X X*XrXlXrX;X*XoX%X;X;X6Xg._ g.%X*XoX%X*XNXC.5 $X*X*XwXoXoXoX6XwXrX7XwXoXOX.X6X.X.X/././.D./././.E././.E.%XC.9.b.Z.oXlXN r. XY.C. X7XrXrX6X;X%X*X.X%X;X7XjXhXjXhXrX7X-X-X=X#X$X$X+X+XxX`.).*X.X*XyXyXjXrXrXjXjXjX8X%X.X/.^.",
"R F i N G ` P ` >.v.q.P >.w.c.k.T.W.T.T.T.!.W.8X6Xk.k.<.<.).6X;X%X_._.;X_./.).^.T.f.T.h.h.Y.h.*.,.f.h.t.k.i.t.i.x.f.x.h.W.W.r.*.i * @.^.R.!.E.!.Q.V.5.i.C. X7X<X*XrX<X-XR.V.E.R.T.T.T.E.D.^..X%X.X XA.g.N.iXI.  @ + u y 9 y u u u , % < a y 2 < p m w p l < 2 p i B ' G f q < & $ t c c x p c N Y #.a. X X2.L 8 > > > & 6 h v j w w f z C C C Q %.-.I } 4.8.D.| a U c.q.c ' ,.h.i.k.f.` t.+.+.q.O.*.,.i.] F p l M z z N U _ N l B C ' } R &.O.c 6 *.b.i.h.V.&XMX1X X*X-X1XrXrXrX%X%X-X%XQ.R.R.'.Q.T.R.E.{.E.'.{.oXrX.X4 -.).V.T.R.V.C.E.E.).).)./.V.g.).E.6.V.).E.E.'..X&XXX&X-X$X$Xt.7 r.rX,XrX*X&X!. X/. X XR.Z.C.C.A.{. X.X/.T.T./. X X X!.R.E.E.].E.h.)._. X.X/. X X/.%X7Xh.V.h.h.T.T.).).%X X/. X*X*X6X6X*X6X-X6X*XoXoXXXoXXX.X.XoX.X/.8.7.rX~ O =.#X$X$X X XXX&X X-XrXBXrXoX;X%X.XT.OX6X{.g.C.oX%X%X.X XVX/.5 /.rX,X*X6X6XoX3XwXeX8X6XoXoX4X6X5X.X/./.A.A.A././././.T.C.E.u.7.u.b..XVX#.V.!.h.R.$X*X*XrXrX6X6X*XoX*XoX7XrX7X7X7X-X-X7X&X;X+X$X$X#XQ.UXxX`.;XC.%XlXtXjXrXrXhXrXrX6X;X%X%X X",
" X!.V.Q.$X).$X X$X$X;X%X-X;X%X$X-X-X X X X{.!.$X-XrXhXP.*.$X=X$X$X X$X-X;X X X). X$X;X#X@X].!.Y.T./. X!. X$X$X!.$X@X$X&X=X=X&XY.*.> c A.A.E./.E.V.i.4.:.6.C.).%XXX X{.].R.V.T.A.T.T.C.C.A.A./.!.XX!.C.j.d.OXdXu o / -X%X-X&X&X$X+X;X5X;X%X).).!.T.^.V.#.,.T.f.i.i.{..X%X-XT.w.: t !.W.+X+X$X).)./.%X5X%XrX*X[.p.L l c ! r.V.@XP.X.:.k.V.C.E.%.,.C.Y.6.;.j.#.`.f.[ #.q.f.>.q.#.#.,.#.$.B >.1.) >.<.o.` >.f.;...<.o._ _ P ] j.:.G _ ,.A.d.;.' ) ` ] *.j.C.f.#._ 6.h.i.6.6.t.V.V.).h.,.i.p.p.n.n.p.R.R.p.V.].].XX*XnXIXkX* *.&X XR.].'.E. X X]. X$XXXR.T.T..X.X X!.'.].].XX&X&X&X&X&X%Xa.c :.XX1X,X%X&X].$X X X!.4.5.V.R.!.!.{. X!./.T.!.XX&X X!.E. X X X X X&X X&X*X,XyXxXe.Q.mXY.g.g.h.f.u.T./..X%X_./.)..X$X%X,XrX*X,X&X,X>X&XoX[..X X.X XN.%.8.dXX.  T  X X$X%X%X$X%X.XXXrXBX;X.X;X%X.XT..X*X). X%X%XXX/./..XbX5X5 R.%XXX%XwX*X6XoXwXwX6XoX5XoX6X6X.X.X{.{.A.E.A.E.E.E.E.C.N.N.4.:.9.N.).zXY T.).T. X;XrXrXrX7X*X*X*X.X XXX%XrXrX-X-X&X&X&X).).!.!.@X].p.dXUXfX7X$X<XkXlXrX&XrXrXhXkX-X;X%X%X%X",
"R.n.V.Y.T.E.!.E.Y.V.V.Y.). X.XXX X X&X].].].].].].].$Xs.p.-X$X$X+X$X$X$X&X$XXX$X].@X&X&X].Q.Q.R.Q.W.Q.!.:X!.:X!.!.:X).$X&X!.P.p.p.n < v./.A./.E.E.V.k.C.^./. X.X*XXX XE.'..X/./.E.A.A.D.{.(. X X&XXXV.k.B.S.kXK   i.6X/.$X X X X).$X%XXX'.'.E.E.E.!.Q.5.T T.T.4.4.V.].].XX@XxXx L +Xa.V.V.Y.Y.Y.C.C.E. XXXXXE. X%X*X X X$X X!. X$X X;X). XXXoX X X.X*X*XBX X_.j.6.<.x.c.).c.T.Y.-.i.r.i.).5XA./.8X.X)._.^.;X5X5XbX6XT.w._ i.k.X.I  X*XwXoXwXwX8XtXoXoX.X5X8X6XrXeXeX4X.X5X(.T.)._.T.,.I @.' M 5 8 i e a c n b N ! R.q.X L V.y.7.r.t.e.5.-.e.s.p.r.r.q.,.p.p.p.V.R.V.R.Q.[.].#X&X&X=X:.l l B I } _ } #.,.-.#.*.v b R @.@.$.-.e.$.@.-.r.e.2.=.2.=.-.-./ =.s.=.Q ] @.@.$.*.y 0.IXMX Xh.A.i.6.!.!. XlXyX6XXX&X X XXX*X*X6X*X*X%X*X.X.X XXX/.E.C.C.Z.=Xa . / ].]. XXX.X%X%X*X%X&XXXE. X.X_..XE.6X*XXX X.XoX%X{.(..XNXuXe V./. X{..XoXoX0XoXoX3X6X5X5X*XoXXX X!.{.E.'.Z.E.A.C.Z.C.5.4.6.%.y.E.%X!.= a.$X].&XrX<X<X<XrXhXrXrXrXoXXX&X&X<X1XrXhX<X-X$X=X=X&X#X<XP.@XdXdX=X<XrXrXrX7X7XhXhXhXrX7X%X%XXX&X",
"u.-.r.V.E.E.!.E.T.C.h.h.).). XE.!.-X%XXX]. X X X].[.XXt.i.7X;X!.R.!.&X7X<X&X&X;X&X&X%X%X$X XE.!.].].!.:X!.$X+X$X@X$X$X$X$X].Q.R.R./ ; k./.R.T.T.].T.E./.).). X XXXXXXX.X!.E././.(./.A.E./.{./. X;X.XN.g.L.N.rX=.o i.*X XXX)./..X.X.X.X/.E.E.E.E./.R.T.T.V.h.T.T.E.W.:X$X!.Q.$Xb U W.h.a.V.V.V.C.C.C./..X XXX{. XXXXXE.E.).!.E.C.Y.T.).E.T.T.T.E.E.!.R.}.lXr.h.T.).$X&X-X-X$X*XrXxXlX<X*X&X;XXX%XrX&X.X&X XXX;X*XSXBXW.t.>.O.w.*.L E.{.A.'.OX{.{.{.{.OX{.OX{.OX}.3X6X6X}..XoXoXoX6XuX6XN.wXNXVXh.F i *.i.W.c.i.,.>.,.q.*.q.o.C P m a 7 w X.G H l i k m c N P ;.X.e 5 8 l P H i k X.Y H G s M l.f.<.] ;.k.w.,.#.X.o.Y o.M o.Y c l o.) ` 2 a D i 7 a 7 a q i Y >.>.;._ #.F 6 S z.i.&.! ! L I #.5.i.T.!.E./.!.*X%XR.&X<XkX-X,X<XrX%XoX*X;X$X-XXX/.V.lXy O / R.OXXX X.X XT.$X&X X). X X/.T./.T.7XrX.X.X.XOX5XoX|.oXNXtXf h.C.A.Z.'..XoX>X*X,XwXwX7XrXrXwX,X,X,X*X XE.i.4.6.%.@.:.L L #.I _ $.} I 5 e. Xn.Q. X*X1X%X{.&X].!.].V.n.n.u.n.n.u.n.R.r.i.a.t.r.e.' $.].dXlXhXrXwXrXrX-X-XrXkX<XhX7X&X&X$X!.",
"5.%.t.T./.!.!.E.T.R./.!.).).)._.%X%X;XXX!. X.XXX X]..Xi.*.%X%X X).). X1X-XrX7X6X%X*X&X%X&X%XXX%X$X!.$X!.!.+X).).!.!. X!.].].R.Q.].5.< *.).).T.T./.E./.)./.).).XXXXoX*X%X X{.E./.{.{./. X/..X_._..X_..X/.D.S.<Xy.o k.;X X%X.X X.X}..X/.(.(.!.A.E.!.A.R.Y.V.V.A.T./.!. X X].$X-XL *.:Xa.E.V.b.N.C.A.A./.^..X}.{.{. X.X/.)./.).E.Z.A.V.T.T./.A.N.g.C.E.E.!.rXr.,.x.+X;X&X$X@X:X].&X-X-X%X{.E.!.Q.+X$X].!.!.!.!.). XrXNX;X>.k.+.o.*.Y !.E.{.J.{.'.{.{.{.{.{.{.G.J.K.|..XOX/.B.L.S.D.C.OXI 6 y.,XCXrX*.8 =XkX<XlXlXNXBXVXGXVXNXBXVXVXtXjX7XeXvXvXcXjXbXjXjX8X%X5XjXAXjX^.k.6.<.^.w.` O.M ;.l.k.<.f.f.k.j.k.k.;.^.^./.F.f.)./..X(.`.9X(..X5X`.`.jX/.f.5X8XtXtX8XVX8X8XjXlXtX).).T.).Y.q.=.' P ' P _ P l P G V p z L b J Q ! $.$.X.X.$.r.a.r.e.y.*.I T / + + &.[.Q.Q.].&X!.E.hXrX$X&X;X XXX/.R. XrX,X&X%XXX*X<X*X*XwXBXnX4 V. X'.'.{. XXX&X*X&XXX%X).T.Q.p.e.$.L N Z } ' I ] <.' _ Z l l c N #._ G B F k k z b l l p { P V 5 k c l c G W n z L N l H M i F P x U @.=.2.V.u.i.V.t.u.'.kXmXlX<X<X;X&X X).",
"Y.V.C.V./.).!.E./.E.T.E./.!.).%XrX*X;XXX). X.X XXX X!.r.*._.).). X%X X%X*X-X*X%X X-X*X%X%X%X-X;X$X).).+X!.).!.!. X].].!.Q.E.Y.!.&X!.* ` ).).).E.).).).)./._.)./.)..XXXXX.X X{.)./..X)./. X.X.X_. X.X/.{././.1XY.o j.7X).XX%X.XOX.X.X|.}._./.'.u.C./.E.E.T.E.!.).). X). X X].-X! &.+XV.-.r.g.V.C.A.A./.}.{.{.}.{././.)..X!.E.A.A.A.C.C.T.A.T.C.h.g.V.T.T.$Xi.*.w.+X;X=X;X$X!.R. X;X*X*X XE.T.T.!.).).!.).).)././..XkXCXT.<.T.t.F B /./.D.G.J.J./.{.{.{.K.OXK.J.J.}..X}.D.g...d.D.g.A.).G 7 L.NXE.x & !.).R. X&X*XrXrXrXrX1XwX,XoXE.OXrX<X%X.XoX%XXX$X*X XR. X%X*XlXLX5Xi.E._. X).j.T.%X)..X5X%X.X;X6XrXwX%X*X6X*X8X*XoXoX5XoXrXwX6X*X&X.X6XcXlXN.{.XX1XwX6XoX}.}.6X,XwXwXuXuXZXcXlXlXiX8XtXbXbXbX5X5X_.^.(.k.^.Y X $ 1 q P o.' B m M c a 7 < : : % . , t 2.R.Y.!.T.,.@.,.~.Q.R. X!.Y.T.V.u..X5.5.E.].].Q.'.R.].wX$XX y S c a y t i i 6 < B P N $ & < 1 . $ ` <.j.k.v.F.v.l.+.] B B B B k.<.B s G e e ) s r { r { { { { B ) [ P N b w ' k.1.' +.) G o.o.w c M N l k P 6.V 5 8 f ' h.Y.#.u..X;X{.E.",
"C.R.!.R.!.E.E.'.E.E.)./.{./.E. X.X6X%XXX XXX.XXX$XXX X#.r.%X%X%XXX%X%X.XXX%XwXrX*X*X,X,X<X7X*X*X;X X+X).T. X X X X X!.W.Y.W.).!.dX$X` k.`.).).).)..X)./. X}._.). X X{. XXX.XXX.X.X/..X X.X_.}..X}._._././.!.1XR.7 ).%X XXXoXoXXX.XoXoX.X XXX%XV.T.E.E.).T.!. X X X). X.X]. X<X! -. X!.t.h.A.T.C.C./.OX.XOX.X XE. X/.(..X}.E.E.A.A.E.A.E.C.T.c.C.V.6.i.V.~.X.U s.@X=X;X$X!.!.h.(.*X*X-X*X).E.A./.!.Q.E.E.T.!./.T.}.%XBXSXh..Xi.) I  X{.{.J.J.{.{.{.}.}.{.K.OXK.}.}.oX{.A.J.D.S.S.S.A.{.{.D.{.ZXu.t 7 h.%XT. X%X<XrX*X,XwX6XlXrXB.:./.6X*XoX%X).).).W.'.R.T./. XXX-XGXV.-.;XXX'..X7X-X&X].$X%X5X;X*X&X*X;X&X;X6XV.u.%XoX*XXXXX%X*X%X$XXX&X%X<X&Xy.E.{.XXXX.XR.u.E.oX%XXX*X*X7XrX*X4X4X4X{..X7X8XjX8X.X)..X;XtXSXzXp N 5X.X6XlXVXVX.X(._.4X6X5X^.j.W.!.Y.s.a.V.C.E.T.h.g.a.a.h.T.!. X XM i j.C.j.:.6.T.j.h.u.C.g.E. X).W.W.Q.Y.E.E.).).t.Y l.3X4Xj.`.v.G q Q.-X&X6XtXrXtXjX8X9X8X5X_.(.T.T.!.k.v.^.<.] l.c.l.l.l.k.l.l.;.+.;.k.;.' #.P _ 6.j.j.;.;.;.,.6.V.6.6.^.}.A./.pXC.k.N.u.6.j.^.j..X6.#.| R ",
"V.V.!. XE.V.R.E.R.T./.).{.}.A.C..XwX.XoX XXXXXXX X$X X,.-.%X).%X$X$XXX.XXXXXXX,XrX*X*XrXrX-X*X6X5X%X X/.).]. X X$X$XE.Y.x.W.!.!.=X].i.).).!. X!.). XXX X X.X.X)./..X).{..X.X*X%X.X.X)._..X.X_..X.X)._./.E./.&XQ.L $X).].&XoXXX*X.X4XoX*X X{.]. X).)..XXX!.).). X X XXX X).$X7XU -.$X X X).]./.C.V./. X.X4X%X.X(..X X{. X.X'.Z.N.C././.A.C.T.T.T.V.t.5.a.z.X.F q.@X$X$X!.T.h.V.).;X&XrXxX7X XD.A.T.C.V.C.T.E.).C.!..XxXKX!.t.w.P #.)./.D.J.{.{.{.{.}.|.{.J.OXJ.J.}.|.}.A.J.J.G.G.A.S.S.S.J.K.CXV.H c q. XT.).*X6X,X*XwX6X6XrXiX|. X6X,X*X*XXX(.)./.T.R.A./.).). X*XSXY.a.-X-X&X,X;X%X&X X&X XC..X*X%X).%X%X%XeXj.t..XoXoXXXXX%X-X%X%X.X%X$XgX$X-.V.'.XX.X}./.C././.}.OX*X;X6X-X7X;X3XoX{.*XrXjXBXrX%X X X.XXXtXBXl I rX*X*X*XrXlXoX5X.X/. X5X.X X&X=X]. X5X.X.X5X*XoX.X%X.X)./..XrXGXG p zXtX6X;XwX*X6X*X4X8XOX X6XjXrXrXrXyXlXyXrXtXVXuXZXNXNXKXAXIXk., $X<X-X<XdX<X<X<XrXhXjXxXrXhXhXhX-XhXjXjX5X7X5X8XtX7X%XjXqXtX8X6.k./.C. X5X).(.^.}.5X8X7X%X*XwXyXoXrXZXiXuXeXeXuXuXpXiXeX0XwXqXPX8X[ ) M ",
"V.V.E.{.E.A.A.Z./.E..XXX X}.{.T.R..X.X*XoX.X.X%X$X).).t.,.%X).&XXX$XXX X.X X.X%XwXrX6X<X,X*X*X6X5XoX{././.{.{. X].).).).`.!.).$XkX$X8.).].]. X X).XX%X.X.X.X).%X.X.X_.}.OX.X.X%X.X.X.X.X_..X%X%X X).XX).E.E.Q.a.x Y. X]. X!.{.%X.X.X.X.X.X.XXX{.).)..X%XXX X.X X$X$X X XXX$X5XG t.;X$X$XE.R.R.V.C./. X5X%X.X.X5X.XOX.X{.].{.V.N.E././.T./.C.V.V.A.u.r.r.p.X.< q.=X$X X).!.,.h.T. XrX-XyXVX6X/.B.N.j.:.j.T.T./.E.]. X!.lX@X*.i.G ' /.E./.{.D.{.{.{.{.OXOXOXK.F.B.}.{..X}.{.|.{.{.A.F.S.N.G.OXsXZ.r.X.#.T.A..X*X6XwX6X6XoX*XoX6X6XrXrX,X*X%X.X)./.F.A.R.T.E.^.). XrXlX!. X$X-X1X*X*X%X$X%X;X*X_.*X%X*X*X%X.X.X*X6X6X%XOXoX3XoX*X*X*X&X$X%X=XjX).i. X{.}.oX{.{././.}.|.5X.X*X6X7X6X4X.XOX}.*XrXlXSXvX.X)./.{..X*X$Xf 4.yX*X*X*X*XrXrX6X).T.E..XXX.X.X&X$X X$X;X%X.X-X&X%X X).T.E.'.;XBXl l *X%X$X$X&X%X X).XX$XT./..X%XoX{.).XXwX%XoX*XrXtXrXrXiXwXeXGXT.> $XdX-X-X7XrX-X7X7X-X7XhXfXhXgX-X;X&X;XhXhX;X-X-X8X7X-X<XtXlXFX/.)..X%X X/.6XOX.X}.OX6XOX.X.XoXXXoXwXiXwXwXwXoXoX>X3XoXK.S.G.J.pX4X; e B ",
"V.b.E.E.R.A.E.E.XX X%X.X.X.X.X{.D.V.).%X%XoXXXOX.X X X-.*.)..X;X*X%X%X XE.D.E.{.,X<X<X&X&X.X%X*X*X6X X/.E.).).).).).).).).).XXoXrX$Xh.). X XE.!. XXX.X XXX%X X}..X_..X.X.X}..X%X5X%XXX$X)..X%X.X%X X X XE.E.Q.P.c T.). XXX).)..X.X.X.X%X.X{..X X).).XX.X.X X X X%X.XOX.X.X.X7XD i.&X;XXXY.V.T.h.h.*X*X&XoXoXoX.X%X%X.X X X/.C.:.A./.).)./.T.C.T.V.V.a.5.-.J > 2.&X=X X!./.C.)._ Z %X;X7XBX7X.X XA.j.f.N.E.E.!.!./.%XE.lXQ.*.#.F %.!.E.{.{.{.(.{.{.|.}.}.}.{.}.|.}..X|.XX{.D.{.}.D.D.A.D.A.{.NXV.!.t.Y h.A..X%X5XwX8X;X5X*XoX5XwXrXtXrX-X%X$X)./.(.T.T.R.A.E.E.$X;X-X X$X&X&X;X&X.X.XoX*X5X*X5X.XoXwXyX;X.X%X*XoX6X*XoX.XXXoX>X,X*XXX*X*X-XlX!.r.XX X&X&X X{.).'.).OX.X.X3X6X6X*X;XoX{.D.oXrXlXVXBX*X.X/._..X/.h.f b.wXwXwXXX5X6XrX.X/.V.C. X.X.X*X8X*X.X{..X X*X-X&X%XXXE.T.g.E.*XcXC f OX+X).$X;X%X X)..X.X{./..X.XoX*XD./.oX*X6X7XrXeXeXrXrXrXrXNX).6 R.;X-X&X<X-X7XrX-X*XrXrX7XgXrX-X<X%X&X-XrX;X=XgX7X-X-X<X<XrXVX!.E.'..X/.D.{.{./.{.D.A./.{.{.}.oX|.XXoX0XoX3X3X3X|.3X3X4X{.F.K.qXpX{ { 1.",
"Y.N.R.V.A.A.E.). XXX.X.X.X%XoX%X{.(._.%X*XXXXX.X.X$XXX5.$./.^.XX&X%X&X XR.C.C.E./.).$X%XoXoX*X5X%X.X).T.E.(.).)._.).).).).$X.XoXrX$X,..X). X{. X X X X.XXX.X.X.X.X.X X_.}..X.X%X5X*XoXoXXX X.X XXXXX{.!.E.R.Q.p.U Y.].$X.XXX.X.X X.X.XXXXX}..XOX.X).(._._.)..X_._..X.XXXXX&X7XF #. X).R.Y.V.h.h.j..XoX%XXXoX%X.X.X X.X.X%X).T.h.V.^.).).)./.T.T.R.V.n.y.=.S < -.!.;X$X!. X)..Xi.#.T._.6X7X-X;X*X.XE.A.C.E.E./././.%X;XlX^.] ] B ,./.A./.D.{.{.{.{.}.}.XXXX}.XX{.(.{.}.}.{.(..X}.{.D.D.D.A.J.NXu.W.$X,.h.T.$X;X6X6X;X6X*XoX*X*X*X6X6X%X$X.X%X X/.E./.E./.E./. X;XgX).V.;X;X*X.X%XoX.X*X*X6X*X*X*X*X,XtXrX*XoX*X*X*X6X6XoXoXoXXX*X,XoX*X*X%XhX!.r. X).&XXXXX X{. X/..X|.oX4X5X*X5X5X.X(./.oXtXyXNXNX*X;X%X.X).).,.b Z.XXwXwX6X*X*X.X/.C.N.A./.)..X6XrX6X*X.XXX.X%X*XXX$X XE.T.R.!. XlX:.f %X%Xt.g./. X). X.X%XOX.X}.OXoXoX}.XX,X,X8X8X8X7X7XtXtXrXwXNXY.3 $X@X=X&X%X*X*X6X*X6X7X*X&X6X*X-X*X*X%X&X*X;X-X7X-X7X-X<XrXjXVXV.!. X'.{.{.{.{././.J.D.D.E.{.wXtXwXoX0X3X3XwX3X|.3X3X6X3X4XK.K.iXpX[ 1.1.",
"C.T.E.C.E.E.'./. X.X.X X.X;X*X*X%X)..X5XoX*X%XXX*XoX&Xy.%.C.h.V.!. X%X&X'.E.A.N.4.6.^..X%X*X*X*X5XoX/.V./././.).).{. XXX+X%X.X;XrX&X$..X)..XXX).!.E.).XXXX.X X.X%X X)..X.X{._..XoX5XoXXX*X.X.X.X X X{.!.Z.Z.n.&.Y +X).XX X X X.X X_.)./.E.}.}..X.X/.).%X X X_. X X.X.X.X%X7XjXY ' E.h.u.i.h.j.V.T.oX%X*XoXoX.XoX_.C.)..X%X%X).(./._. X).E.`.!.T.Y.Y.n.7.-.n 5 N _ h.<X!.).). X XC.t./.5X;XwX*XwX*X%X X/.T././.!.E.$X;XyX4Xf.f.F ,.E.A./.'.{.D.{.}.}.}.}.}.}.}.{.{.D.{.(.}.}.}..X}.{././.{.J.iX7. X<X4.V./.%X%X6XwX7X-X.X)..X%X*X;X5XT.T.T.T.+X).C.A.E./.R./.XX$XxXY.T.6X.X.XOX%X*X*XoXoX*XoXwX,X,X*XwXrXXX&X%X6X6X*X5XoX%X.X.XoX*XoX*X*X.XlXXX4. X+X X)..X X{.^.(.{.}.4X4X*XoX5XoX}.(.oX6XeXtXBXBX;X5X*X%X X).' #.%X%X,X>XXX6X5X).E.j.N./.{./.T.*XrX*X*X X.X.X.X.X%X X).T.C.E.E.].wX6X| {.tX Xh.E. X.X%X%X.XoXOX/..XoX.XXX>X,X,XwXrXwXwX7XeXeX7X6XNXn.9 &X@X].$X%X*X.X.X*XoX.X.X*XoX*X*X%X%X%X%X*X*X*X*X-X-X;XwXrXjXNX:.D..X[.{.{.{.{.{.{.J.J.D.{.{.6X7XwX,XwX6XwX0X3X4X|.oX3X3X3XK.|.qXHX9X1...",
"T.R.R.Z.E.{.{./.)..X.X X/.oX6X*X%X/.oXwX*X%X%X%X%X&XXXV.-.E.h.h.T. XXX X X]..XN.d.j.^..X.XoXXX*XXX.XE.C.E.T.E././.E./.%X.X.X.X*XrX%X' _._.).{. X X X.X XXX.X.X.X%X%X%X X/./..X.X.X6X*XoX*X.X.X X X/. XR.Z.C.V.} P 5X.X%X XXX.X.X X X{.E.A.E.}..X.X X). X X.X.X.X X}.OX.XoXjXSX6 *..Xu.i.u.h.j.C.{.6X*X*X*X,X5X{.OX X(..X_.). X).).%X X).!.!.).!.!.V.a.y.=.b 8 l N #.%X!.%X%X%X%XT.T./..X4X5X6X*X*X&X%XXXE.(././.T.%X%X;X%Xc.t.R y.!.'.'.{.{.D.{.(.{.}.|.}.}.}.(.{./.A.{.{.}.|.}.}.{.{./.}.J.wX$.&X!.r.Y. X-X*X;X-XrXrX*X.X.X.X*X6X;X.X_.T.T.%X_.T.A.E.E.A.!. X XrX7X).;X X XXX*X6X*X6X*X*X6XoX6X6X*X,XwX*X*X%X4X6X6X*X6X5X5X.XoX5X*X,XwX-XBX-X$. X).)..X%X.X X).)..X.X.XoX.XoXoX.X{.{.4X3XtXtXcXeX6X*X.X_.).).P y.-X*X*X6X6XrX*X_.T.g.V./._.)..X6XwXrX6X.X.X.X.X.X.X).)./.A.E.Z.V.%XVXE.R.wX,XXX X XXX*X;X%X;X.X.XoXoXoX*XoXwXoXwXwX7XeXtXeXrX6X*XcXt.9 n.R.%X%X%X6X6X*X;X5X*X6X,X*XwX;X;X-X;X;X5X;X-X*X7XrX7XrX7XuXVX} A.{.{.{.{.K.D.J.{.{.{.}.OX}.OX6X*X*X6X6X3XwX0XoX.X}.}.4X3XqXqXqXsXpX1.s ",
"/.R.E.E.'.'.'./..X.X.X X.X.X5X5X5X.X5X8X6X6X5XoX-X*X,Xb.%.)./.T.h.T.{.].T.T.).T.A.E.(. X%X%X%X*X*X XA.N.C.A.A.E./.E.V. X.XXX%XXXrX%X]  X.X.X/..X).(.)./.OX.X.X.X.XXX.X'.!.{..XOXoX6XoX5X*X.XOX.X). X).Y.V.V.u.R -.%X).$X%X)..X X{..X{.D.A.T.}..X%X.X X X.X.X X.X.X(.(.OXOXrXSX! q. Xh.a.g.h.h.^.*X*X*XrXrX*X5X{..X.X.X}. XXXXX%X.X)..X%X X!.!.!.'.Y.V.y.$.S l *.i.V.&X]._.%X&X;X)./.).%X;X6X5X;X%X%X%X%X X.X_./.N./.).%XhXW.' U n.E.E.A.(./.{.(./.{.}.}.|.|.(.}.{.{.D.}.D.{.}.|.}.}.(.D.{.{.oX$.<Xs.*.V.].&X*X<XrXrX7XrX6X*X%X8X,XrX*X.X%XeX;X).T.(./.T.E.). X X*XlXY.%X6X6X*X3X6X5XXX{.*X5X*XoX6XwX*XrXwXoXoX|.3X3X5X6XwX*XoX5XoX*XwX,X,XSX$X=. X).).)._.)..X.X)./.(..XoX5X.X|.}.(.}..XoX8XjXuXtX6X6XoX%X_.).F V.1X*XrXwXrX7X*X(.h.g.C._..X{..X6XrXrX7X*X.X.X X.X.X/.^.^./..XC.6. XNX!.R.7X%XXX X X$X%X.X%X%X*XoX*XOXoX3XoX3XwXwXwXeXrXrXeXrXtX8XcX,.F !.y..X%X&X*XwX,X*XoX*X,XoXwXrX6X;X7X7X7XwX7X;X*XrXrX-X<XrXlXVXP Z.{.{.{.{.{.{.J.J.{.{.}..X}.(.XX4X.XoXoX3XoXoX|.oX|.(..X|.0X>XuXpXF.[ B ",
"h.E.E.'.'.{. X X X.X{.(..X(.%X5X6X6X%X6X*X6X.X.XXXXX*XR.%.)./.).T.Y.Y.V.h.C.(.)._.).(./..X.XXX.X%X'.Z.u.j.A.E././.E.6.V.*X%X%X%X7X X,. X X X X)..X).(. X.X X/.)..X X X].). X_..XoX6X*XoX4X*X%X.X).XX XE.Y.a.r.I h.%X X).%X).).{.}.}.{./.E./. X.XXXXX)..X.X X)..X.X.X.X.X.XjXSX,.i.XXT.h.g.V.j._.6X*XrXwXrX6X*XXXOXoX.XoX.X.X%X%X)._.%X6X$X X/.'.!.R.Y.r.! x t x.7X XXXoX$X%X.X*X.X X).%X%X5X%X%X%XXX.X/.).%X.X).^./.).).jXgXU c V.{.'.E././.}.}.{.{.K.K.K.}..X}.{.{.J.{.{.J.{.}.}.{.{.E.}.}.*X} -Xp.y.E. X;X*X6X-X6X-X7X6X6X6X6XrXwX.X.X.X;X6X).T././.C. X X!. XrXjXq.).*X*X;X*X.X.X.X/.oX4X6X6X6X7X6XwX*XoXoX.XoXoX*X6X6X3X3XwX6X6X3XwXwXVX X,.%X).).)././.{. X/./.{..XOX.X}..X/.}.}..XoXeXpXcXtXwX6X*X%XOX.XI %.S..XwXrXrX6X;X/.k.u.C.{..X.XoX6X6XeX7X5X%XoX.X{.)./.C.T.)._. X{..XhXE.).-X$X X$XXX.XXX.X.XoX*XoX.X.X.X*X4X6X6X8X8X7XrXjX7X7XtXrXbX| T DX].%X;X*XoXoXoX,XoXoX6X6X*X6X6X*X*X6X6X6X6X*X,X-X*X6XrXrXzXVXP '.{.{./.(.(.{.{./.{.D.}.|..X.X3X3X3X.XoX4X}.}.>X4X|..X}.|.|.>XiXpX1.;.B ",
"t.V.R.E.{.{.{. X{.{.E.4.B..X.X5X4XoX5X6X*X5XoX|.oXXX%X%X#.T.).!.E.E.C.h.h.T./././.).!.A.A.{.{.XXXX Xb.8.g.B.A.A.A.E.'.{..XXX X X%XC.y. X X X X.X_..X.X.XoX{.E./. X X X X{./.)..X4X6X6X6XwX*X%XXX{.'.].E.V.n._ N T._.%X X.X)./.).{./.{.{././././. X X.X/..X_..X.X_././. X5XtXvXP a.$XT.h.T.h.).%X7XrX7X-X6X6X7X6X*XoX.XXX.XoX*X.X)._.&X;X%X$X X!.!.R.Y.2.T y 6 ~.-X&X*X*XXXoX6X*X*X.X.X.X.X.X%XOX X.X{. X X.X).). XOX).%X;XvXq.M Y.'.{.{.{.{.{.}.}.}.4X{.D.}.oXOX{.J.D.D.J.}.|.}..X}.{.J.{.{.6X@.@XY.a.!..X X%X*X&X6X*X*X6X6X6X6X*X,X5X.X X X;X%X).).).T.V.). X!.;X$XY.).;X*XrX*X.XOX4XoXoXoXoX4X6X6X*XoX*X*XXX3XoXOX.X6X6X5XoXoX6X3X6X6XwXAX).#.5X)..X%X).E./.).)././..X X.X(..X_..X{.}.5XeXcXuXiXrX6XoXoXXX5X| A A 5.wXrXlX7X$XC.t.6.C.}.4X.X4XrXrX7XwX6X.X.X.X.X/.E.C.C./.)..X{..XlX XT.%X%X%X.X8X{.{.}..X.X3XoX.X3X.X*X5X5X*XrXuXtXtX7X8X7XtXrXjXc T xX1X%X*X-X*XwX*X6XoX;X6X6X6X6X*XoX.X.XoX5X*X6X-X6X*X*XrXrXBXtXM E.{.{.{./././.}.(.D.(.}.}.|..X4XoX.X3X3X*X|.|.|.oX3X.X}.}.oX|.eXNXk.1._ ",
"h.V.C.A. X'.'.).).). Xg.h..XOX.X*X*XoX*X*XoXoX.X|..X$X7X*.k.%XE.E.E.E.C.h.C.A.R.E./.).T.E.{.E./. X XR.y.8.j.C.C.V.E.E.{. X X)./. XN.7. XXX X_..X X X.X%XoX%X/./.). X X X.X(./..XoX6X6XwXwX*XoXoX X XXXQ.V.n.P l `.).).E.).T.!.).). X X/./././.E.E./._.).)..X.X%X.X%X_._.oXrXvXB >.].Y.Y.V.T.).5X7XrXrXrX-X;XrX5X4X5X.X.X%X5X%X%X).).oX%X X$X X X!.Y.m.3.S i 7 c.-X&X&X6X;X;X7X6X6X*X5X.X%X.X.X%X.X.X.X{..X.X_..X_.)._.).;XBX*.F E. X/.{.{.D.(.}.}.}.K.K.D..X.X}.{.D.S.D.(.}..X}.oX}.B.A.'.}.%XE ~.W.a.E..X.XXX6X6X7X6X*X*XwX;X*X6X*X*X.X X).%X%X;X.X).!.Y.).E. X;X!.!.h.XX,X;X5X.X.XoX5XoX*XoX6X4X*X.X5X*X4X.XoX.X.XOXoXoXoXoX.X3X4X3X4X5XVX%X-.%X). X$X;X X/.E.{././..X/..X_.OX.XOX}.oXoXtXuXuXtXrXwXwXoXoXwX| _ V ..oX<XkXrX).k.6.u.A. X.XoX*X6XwXrXrX6X.X X.X{.T.T.Y.C./. X X XXXlX XC.oXoXoXoX.XA.^..X}.|..X3X4X.XoXoXoX3X6XoXrX8X8X8XtXgX7X8XjXi &.-X&X&X-X-X*X*X<X*X%X7X8X6X;X6XoX*X.X.X%XoX%X6X6X*X*X*X-XrXVX5Xm E.'.{.{.}.{./././.{.{.}..XoX.XoXoXoXoX3XoX0X|.oXoX|.|.}.|.XXoX6XcX^.f.>.",
"V.V.C.T.E./. XE.!./. X/.)..X%X_..X*X%X.X*X6X4X.X.X}..XkXI B ;X XE.E. XE.T.T.C.C.E.T.T./.A.E././. X!. X5.5.N.B.C.A.T./. X.X'.].!.!.t.-.XX.X.X X X.X.X.X.X%X*XXX X]. X X%X_..X.XOX.X6X6XwX6X,XoXoX X). X'.Z.y.I b T.).E.].).).).!..X.X/./.!././.T.C.E.`.^.E..X.X.X.X$X%X.XOXrXBXm *.).Y.Y.Y.C..X6X*XrX-X7X*X*X7X*X.XOX.X.X.X.X%X.X_.)..X.X.X$X X X).T.R.2.S t 8 W.=X%X*X*X;X6X6X6X%X5X*XOX.X%X%X.X.X.X.X(..X.X.X.X/.5._._.$XDXr.i `./././.{.{.{.|.}.{.}.}.|.5X X{.D.C.N.D.}._..X}.}.}.B.A.D.XX&Xn x.:XY.)..XoXoX*X6X6X6X;X*X*X4XoX5X*XoX).%X)..X%X;X X). X X XE. X*X!.Y.V.).;X*X*X.X5X6X4XoX*XXXD.OX4X5X.X4X5X.X.X.X.X.X%X%XoXoX.XoX5XoX}..XAX5XP ).+X$X$X%X$X.X/.(./././. X/. X{..XOX.X5X6XrXiX8XwX8XwX6XoX6XwX;.B.g.(.wXrXrXrXXXg.6.8.A./. X X*X6X*XrXrX6X.X.X.X/.T.T.C.C.E..X X{.oXrX,X)..X.XXX*XoX|.}..X}./..XXX4X3XoX.X*X6XwX4XwXeX8X7XeX7X7X7XjXN -..X'.XX%X.X*X*X6X;X5X6X6X-X*X5XoXoX6X5X*X*XoX5X5X*XoX.X*X<XSX8Xe N.Z.{.{..X}./.(./.J.{.}.}.oX3X.XoX3XXX|.>X0X3XoX.X3XoX}.|.}..X0XcX_.k.,.",
"a.4.h.C.A. X X X!././.).). X.X.X.XoX5X5X.X5XoX.X.X.X&XrX-.P %X).]. X!.E./.E.A.C.N.C.T.R.R.{.A.R.!.).R._ :.u.j.V.h.T.!. X X].E.R.R.:.4./.'. X.X.X).{. X.XXX*X&X{. X!. X)._.OX}.oXoX6XrX6X6X*XXX!.C.!.].Q.R.y.N b c.E.T.&X$XXX]. X).). X!.A.T.j.C.T./.E././..X.X.X.XoX.X_..XlXmXP #.W.T.R.V.T.%X;X*X7X6X&X*X%X*X;X/.E..X.XoX.X.X.X.X.X%X X&X$X X!.E.V.n.=.J 6 7 ).7X;X5X*X6XwXrX*X%X*X%X%X X.X.X.X_.}.)..X.XOX_..X.XT.)..X%XxXz.c T./.{.E.D.{.K.|.(.(.4X}.}..XOX{.A.u.u.C.}.OX|.}.}.{./.J.G.{.rXv O.x.h.)..X;X6X5X6X6X7X*X*X6X*X*X*X*XXX)._..X%X;X%X). X*X X).).XX7X!.Y. X X%X6X3XoX6XoX6X*XoX5XE.%X6X4X.XoX.X.X.X}..XOX.X5X*X5X.X.X*X.X.X6XHX%XL $X$X). X X.X X{.A./.)././..X.X/.{.}.OXoX5XwXwXiXwX.XoX6X*XrX8X:.4XwXwXwXiXrXrXoXd.4.6.E.{.!. X*XrXrX8XrXrX.X X).E./.A.C.A.E.{.{. XXX<X XE.XX&X%XXXoX3X.X5X*X.X4X6X6X6XoXoX5X6X6XwX6XwXwX8XrXjXrX7X8Xl #./.'.{././.)..X%X.X*X;X%X;X.X.X.XoXoX.X.XXXoX.X.XXX}.{..X&XlX;Xm E.Z.(././.{.|.{.{.J.J.{.}.3X|.}.|.|.|.|.3X|.0X4X3X.X|.|.{.}.|.6XbX(.1.` ",
"V.h.^./.A./.!.{.)./././.)..X4X_..X%X%X.X*X5XXXOX}..X.XxXp.B %X).E.!.Q.E.E.E.A.A.V.V.V.V.A.A.A.C.C.).!.' 6.f.g.h.h.V.E.E.R.R.Y.n.u.' 5.{.!.)..X.X_./.(. X.X%X%X.X X)./.E./. XoX*XoX5X6XwX7X*X%X XT.).!.E.m.e.b L ).). X X]. X]. X X X/.)./.R.g.V. X/./.).)..X}.OXXX}..X.X.XkXlXP ' T.E.R.Y. X6X7X6X6X7X*X*X*X*X6X.X)..X%X*X*X%X%X5X%X.X%X%X&X$X!.E.V.y.*.U 9 5 j.oX-X6X6X6X6XwX;X*X*X%X%X.X X.X.X.X.X.X.X.X.X.X{.{. X).).$XhX&.#././.{.J./.J.{.}.{.}..X.X.XoX|.C.%._ 6.A.D.{.}..X}.{.{.A.Z.E.*X] S s.T. X_.;X6X6X5X5X;X*X*X6X6X6X%X.X.X%X%X.X+X5X5X).OX X!. X X&X7XY.p.$X%XOX6XoX*X6XwX*X4X*X4X.X.XoX3X4XoX.X(.OX}..X.X.XoX*X*XoX.X*X*X5X6XAX_.Y gX+X).$X%X%X.X.X'.(._./.{.{.{.{.{..X%X*XwXwXwXeXeX3X6X6X*X7XR.] .XoXoXrXrXrXtXoXd.4.g.C.E.E. X%X6X,X*X{.5X.X).^.E./.C.A.A.{.'.{. XoXrX).T.XX%X%X*X%XoX6X6XoX6X*X6X6X5X*XOX3X6X*X6X*X6XoX*XwXwX7X7X5XP 6.{. X{./..X/./. X)..X%X%X5X%XoXoX*X.X.X*XoXoX{.OXOX.X.X5X-XBX%XV '.'.{.{.}.{.OX{.G.J.A.J.|.3X}.}.|.|.|.|.|.0X3X3X3X.X|.{.{..X.X5XbX`.;.G ",
"g.E././.)..X).).).T.^.E./..X%X.X5X.XoX.XoXXX{.}.}..XOXtX X; >..XA.!.R.T.T.T.C.C.C.C.T.h.h.V.Y.C.h.V.T.c.u.y.h.g.a.h.h.h.h.V.p.u.4.] i.!.E./. X X).E.E. X%X*X%X.XE.E.E.V./. X%X6XwX*XoX8X6X*XXX.X X XQ.R.P.2.k ' %X). X].].]. X X).).E.E.)./.A.E./.T.).{.). X XoXoXXX.X.X%XrX$XB ' ).)./.). X7XrX*XrX7X*X*X*X5X6X5X)..X%X*XoX5XoX.X.X.X;X%X%X$X X!.a.r.$.L 8 i T.*X-X7X6X,X*X*X6X*X5X*X5X.X.X_..X.X.X.X.X.X.X.XOX.X}..X).-X+XF X./.E.A.A.D.{.D.{.}.}.}.}.|.oX|.A.8.8.C./.}.}.|..X|.E.G.{.Z.Z.V.h.j.X.T.XX.X.X*X*X;X*X6X6X6X4X7X;X5XOX%X%X%X%X%X.X_..X.X X/. XoX*XrX&.-.hX;X*X6X3XwXwXwX6X6X4XoXoX3X.X.X.X}..XOXXXOX.X}..XoXXX*X.X%XwX5XoX6XCXtX*.-X$X X.X.X.X.X.X{.!.{./.^.E./.^./..XoXoX6X7XtXrXrXeX6X6X5XeXV.| rXoX,XrXrXwXwXXXA.d.g.8.9.V./.oX6X6X8XoXoX{.).)./.^./.R.A.E.{..X.X%XrX%X!.XXXX.X.X.X6X6X6X6X3X*XoXXXoXoX.X6X3XoX*X6X6XS.XX6XwX6X-X+X#.C.%XoX%X X*X;X%X%X;XoX6X*X*X*X*X5X*X*X6X4X5XoX.XoX.XoX*X*X*XSXW.l E.'.{.{.}.}..X.X{.{.J.K.3X.XoX}.}.|.}.}.0X|.3XeX3XK.S.S.{.oX X5XbX_.k.` ",
"C.T.T./._. X.X_././.T.(././..X.X.X.X.X.X.X.X.X X/.{.OXyXrX1 C .XR.E.Z.V.T.T.V.V.C.T.T.x.i.u.V.V.h.N.V.h.t.t.i.y.u.V.C.C.V.h.y.%.} P g.E.u.b.{.{././././..X*XoX{.T.A.C.i.A._.6X8X3X,XwX*X6X6X;X.X XT.a.Y.y.e.k $.+X). X].!. X!.).)././.!. X X!.!./.R.E./. X X.X.X.XXX.X.X.XBX&Xi G %XXX).$X%X6X6X6X7XrX7X6X*X*XrXwX/.5XoX*X*X%X,X*X%X;X5X*X-X&X X!.n.r.$.E 7 q T.rX&X<X6XrX%XoX6X%X%X%X%X.X.X X.X_.{./.OX.X X{.}..X/.).E.$X$XY *././././.D.{.D.}.OXoX}.}.}.oX|.{.{.A.^.{.{.{.|..X{.'.G.J.Z.Z.5.:.;XI T. X%X%XoX%X*X6X;X6X5X6X6X6X5XoX.X_..X%X%X_.)..X)././..X*X%XrX@.! 7XwX6X6X5XwX6X6X6X4X6X%X.X.X5X|..X}./.OX X.X/.(..XOX%X*X.X.XoX4XoX*XGX).` -X$X X$X X{..X.X/.{./././././..X.X5X8.C.8XwXkXrXwXwX6X6X6XuXA.| 7X*XrXrXrXrX,XXXK.S.9._ A 4.A..X%X,X6XoX}./.E././.E.E.A.T.A./. X X&XrXrX!. XXX X.X X*X6XwXwX{..X%X.X.X6X6X.X3XD.}.6XwX6X6X6X6XwX6X).k T.,XXXXX).%X%X%X*X6X*X,X*X>XoXoX*X5X*X6X;X6X*X6XoX5X3X*X6X<XAX).w E.G.J.{.OX}.|.}.}.{.J.{.oX}..X4X|.|.}.|.|.oX0XiXK.{ A L./.}..X%X8X8X_.;.",
"C.C.T./. X_. X X.X).T.A./.E. X.X.X)..X%X_. X{.{.{.{.{.,XkXn I ).R.R.V.Y.Y.T.V.V.V.Y.Y.h.j.u.6.i.u.g.i.u.6.4.y.6.u.h.h.h.h.b.5.3.} B T./.4.7.{.{./.E.T.E. XoX.XE.R.C.C.C.^..X;X6X6XoX*XwXrX&X%X%X.XY.p.V.p.=.k ,.).!.$X$X+X). X).). X{./. X/.E.!.!./.A.E.)././.)..X.X.X.XoXmX].t c ).%X%X&X%X6X6XeXyXtXtX6X*XoX6X6X.X*X*X.X.X*X*X6X6X6X-X*X*X-XXX].Y.y.2.T 7 i ).*X1X7XrXrX,XwX;X%X5X%X).)./.). X X.X/._..X.X_. X.X)././.).$X' $. X{.{./.D.D.{.J.{..X4X}.}.}.{.{.{.C.u.}.(.{.OXOX.X{.'.'.'.{.i.P t.M !. X%X%X%X%X6XwX6XwX6X3X;X6X6X5X.X.X_..X.X)..X.X_./.).oX6X.XtXQ b *X-X7X6XwX6X3X3X6XwX5X5X%X.X.X_..X.XA..X).).^./..X.X).%XoXoX3XwX3X6XAXV.X.;X$X$X). X.X%X%X X X)././././._.OX4Xd.j.;XrXrX<XwXwX6X6X6XuXR.| rX6XwXrXhXrXwX*X}.(._ m Z 9.!.oX*X*X*XXX{.{./././.E.R.V.E.E.!. X XXXlX*X X XXX$X.X.X.X6X*XXX XcXtX6X%XoX6X/.D.:.A.oXwX6X6X7XwX;X%XV.9 !.-XXX X).).oX*X-XoX,XXX*X,XXXOXoX%X6X6X7XwX6X6X6X6XoX*X6XwXZX Xq Z.OX{.OX|.|.K.{.|.}.D.J.}.}.}.}.}..X.X|.|.|.0XpX..g g  .{.}.{.OXuX_.v.t.",
"j.T.A././..X.X_.).).E.C.T.(./.).).)..X.X.X)./.E./.{.OX,XmXK 7 !.Y.Z.V.T.T.Q.C.V.V.V.h.g.9.4.;.8.y.6.8.6.5.4.6.6.y.g.V.V.n.b.5.2.Q V h.OX'.!. X/./././.R.{..X X!.T.C.k.C./..X%XwXwX*X*X*X*X;X$X%X$X).V.n.r.$.8 #.T. X X$X+X).).T./.).). X X X).R.V.E.R.C.E.C.T.E..X X).T.}.nX!.t x T.XX$XoX%X6X6X7XrXjXrX6X.X.X5X%X X.X.X*X6X5X*X*X6X*X6X;X;X,X-X].R.p.2.L t k ).%X&XrX7X,X6X*X*X6X%X.X.X.X/.)./.).OXOX_.OX.X X}. X/./.!.E.E.$.#. XE.}.{.J.{.J.{..XOX}.}.{.{.{.{.{.A.A.}.}.{. XoXg.,.5.A.A..Xr.Y T i +X&X-XXXoXoX6X5X5X6X8X%X.X%X%X.X_..X.X X%X.X.X X/./..X5X%XXXjXX.d  X%XwX7XrXwX*XoX6X*X*X%X)..X.X.X.X}.(. X_./.)./..X.X_..X.X%X6X3XoXOXNXg.#.;X).XX%X X$X.X X.X/././././././..X.X.X.X6XrXrXrXeXeX8X6X8XuXh.I 7X*XrXrXrXrXrX*X.X.XF.d.1.g.{.XX&X*XXX*X}.}.). X/.a.u.k.R.E. X.XXX%XtX XR..X.X.X X.XoX6X;X/./.AXBX6X_. X6XoXwX(.}.oXoX6X7X-X7X7X6XT.w R.%X%XXX).T..XXXXXXXwX5XoXoXoX.X.X%X*X;X6X6X*X5X*XoX.X;X*X*XCX6X8 Z.'.{.{.}.}.|.|.|.}.J.D.D.{.}..X}.}.}.|.}.|.0XaXd.g f ..{.'. X.XtX`.F.f.",
"C.V.C.E.).).).).).!.E.T.T.T./.T./.E.%X_.).T././././.{.,XkX=.$ i.T.R.h.a.i.h.i.y.u.f.8.8.4.4.4.4.8.b.u.u.u.9.,.5.u.V.n.V.n.p.y.2._ N 5.OX{.%X X!. X XE.V.'..X'.E.Z.C.g.j..X*X%X7X*X*X<X%X&X]. X].].!.Y.p.e.$.t ' t.Y.!.].$X).).!.). X X]./.!. XE.h.E.E.A.!././.'..X.XC.h.R.lXp.8 p T. X XXXXXoX6X7XtXrX*X*X%X X;X.X X/. XOX.X}.oX6X6X7X7XrXrX*X*X].Q.a.e.T h t !.7X%X7XrXrX*XwX-X.X%X X/./.)./././.N.N.C.{. X!.!.'.E.E.!.Q.V.U 6..X{.}.{.D.J.D.{.}.OX.X(.{.{.{.}.}.|..X|.oXXX5X;.< 1 * ' V.[.E.k 1 x  X].oXoX%X*X*X*X3XwX;X*X*X5X*X.X}. X X.X.X_./.}././.*X&X.XoXjXT = u.*X*XwXwX6X8X6X5X*X5X_./..X.X(.OX.X/.{././.(.(.}..X)./..XOX5X{.g.6.eXt.@..X/./..X X X).}. X/.}./././.^./.)..X.X X6XtXtXtXrX7X7X8XeXcXi.P lX6X,XwXrXwX*X*X_.{. XD.N.B.{..XXXoXoX.X/.(.).!.).;.6.C.E.A././..X*XjX5X/.OX.X.X_..X3X*XoX%X XlXSXjX.X.X3X4X*XwX*X*X*X7X*X*XrXrXlXT.5 R.-X*X;X X/.D.oXXXXX*X*X.X*X.X%X%X.X6X5X*X4XoXoX5XoXoX.XoX8XAX).4 Z.'.'.{.{..X}.|.}.}.}.{.(.(.}.}.}.}.|.}.|.|.4XqXqX{.N.A..X}._.4XtX%Xk.<.",
"b.V.V.u.V.).). X XE.E.R.C.C.A.E.E.E..X/.T.R.R./.E.E.{.>XKXM.O #.$XV.n.p.i.5.5.5.8.g.u.8.8.8.8.u.8.u.V.a.p.r.5.y.y.u.p.a.p.s.r.=.@.P ,.).+X$X$X&X X&X].E.{..XE. X'.R.j.T.;X-X1X<X<X<X>X<X<X1X&X].#XQ.R.z.p.T > c @.h.!.].]. X X].Q.'.'. X!.E. X).).).E.T.E. X.X.X%XrXV.g.R.kXy.b 7 c.$X X X XoXwX7XrXrX-X6X;X`.7X). X).{. X.X.X4X7XtX7XtXrX7X*X%X$XW.m.-.U y 6 x.7X-XrX<X*XwX*X%X.X/. X'.E.E.!.E.E.T.g.g.E.!.).!.E.R.E.!.P.u.W 5.{.{./.(.{.D.K.J.{.OX.X}.{.{.{.{.|.}.|.oX3X3X4Xj.#.o.' h.C.Y.).c X i $X$X%X&X*X6X*X5X6X4X*XoXoXoX.X X.X).).{..X.XT././..X%X.XXX%XyXY = %.XXXXwXwX8X6X6X6X%X.X.X}..X(./..X{.). X/./.{.{.D.{.^.}.}..X5X{.S.4XLXq.*.$XT.E..X_.{./..X{.}.{././.^./././.XXXXoX*XrXrXrXrX7XwX0XeXvXa.N tX*X*XwXwXrXwX*X.X!./.V.N.R.{.XX X).XX%X.X/.V.V.!.E./.E.E. X).).*X*XtX6X.X{..XXX.X.XXX4X5XwX*XwXjXGX5X.X.X%X5X6X6X6X6XwX*X,X*XwXwX5.w oX&X*X,XXX XT. X%X%X%XXXoXoXoX4X*X.X5X*X5XwXoXoX*X6XOX.X%X8XVX).> R.'.{.{.}.OX.X{..X}.}.}.}.{.XX|.}.XX}.{.{.|.|.OX0XwXwX3X|.|.|.}.8X.Xf.;.",
"V.n.V.V.E.R.T.!.!.!.'.A.C.S.Z.E.R.E.).R.Y./.'.E.A.{.XX*XmXR.4 F ).W.Y.a.a.u.i.r.u.j.V.V.V.h.g.i.y.p.u.u.u.5.5.4.5.u.y.s.t.i.r.=.@.U n x S x c b J J b L B m b L T I ) { Y @.I } | :.=.$.$.=.@.3.2.y.0.! ~ S 9 7 2 a t.V.Y.V.V.i.i.u.y.u.i.u.u.i.C.E.A.i.A.!.'.V.*XmX/.t.!.kXq.b 5 h.). X&X XXX;XhXrX1X-X<X&X).$X/._.). X)..X5X%X7X7XjXrXhX7XwX;X$XR.Y.e.I 8 7 v.;X*X<X*XwX,X-XXX)./.E.A.A.E.R.R.E.E.E.A.). XE.Y.A.R.R.!.Y.2.z 5. X{.E.D.(.{.A.D.{.}.{.{.D.{.{.K.|.|.XX3X.X{.}..X.X*X%X).R.).a.S c s.$X$XXX-X*X6X,XoX0XoX6XoX*X.X.XoX X)./.A./.}.^./..X%X.XOX X7XrXb < b E.XX6XwXrXoX.X.X.X}./.}.}././././..X.X(.J.A.{.D.{.{. X(..XOX.XeXcXIXi.,.%X/./..X.X X/..X!.&X X/././.A.C./.'.].XX*XrXrX7XeXeXwXrX*XlXh.x lX6XrX*X6X*X8X*X X X/.R.E.{.{..X.X). X.X)..Xy.t.E.E.E.!.). X.XXX.X8XyX6X.X/./.).'. XoX6X6X5X6XtXtXuX6X.X5X6X6X8X6X7X*X*XwXoXwXtX,X:.C %XoX*X%X%X)./.T. X%XXXXX*X6XwXoXoX.X*XoX*X,X*X*XoX.XOX.X%X8XAXh.4 n. X{.OX{.{.{._.)..X{..X}..X}.|.}.|.{.{.J.J.{.}.|.oX6X3X3X|.|.{.3X(.f.o.",
"i.i.y.p.a.a.h.a.V.r.b.y.u.4.5.,.:.t.k.a.5.t.a.i.,.6.6.u. Xy.- 7 X.W.x.z.t.5.5.t.q.r.5.y.p.x.p.r.i.a.p.p.p.u.2.2.2.5.q.0.&.=.$.I L D > : i 7 2 ; ; 5 * ; $ ; ; ; 2 r 2 $ $ s 5 r r 5 q i k t < 5.V.'.]. X X].).T.h.w.i.w.t.r.r.@.} 5.#.#.#.#.' ] _ P 4 i } N e x I U D 8 L $.L S < -.!.).].]. X$X7X7X-X-X;X*X%X).W. X.X X).OXoXOX5XwXrXrXrX7X-X&X$XY.I.e.T t y W.-X-X6XrX<X*XXX{.!.E.E.V.N.T.T.E.V.T.C.T.).T.E.h.h.V.W.!.V.2.z b.{./.E./.A.A.D.A.{.[.{.'.{.(.{.}.}.|.}.4X4XXX(.{.{.{.{.E.!. Xt.k Y z.Y.$X-X&X-X&X*XoXwX6X6X5X5XoX.X%X.X.X).T.{././.}._.OXXXXXXXrX;Xk 4 k !.,X*XrXeXoX}.oX.X}..X.X.X)..X/. X{.}.{./.D.A.A.D././.{. X}.*XwXcXLXa.-. X{./. X%X).). X). X.X X/./.A.C.C.V.V.].*X,X7XeXtX7XwXeXeXNXu.i 7XwXwXrXrX*X-X*X X.X/.V.E. XXX%X.X X X/.{.XXC.V.A.R.E.). X). X%X%X,XcX6X/.}.{././..X%X6X7X5XrXiXtXiX6X.X6X5X6X6X6X6X5X5X6XoX,XwX.XI f  X%X-X$X).%X).T.^. X.X%X*X*XoX.X.X.X4XXXrX-X-XwXoXoX.X.X.XrXAXi.8 V.'.'..X}.(.}.}.}.}.}.}.|.OX{.J.J.OX}.J.J.D.{.|.}.oXoX3X3X0X3X|.eX.X`.] ",
"r.q.r.q.q.q.-.*.r.i.r.t.t.6.t.t.t.f.i.h.a.X.7 Y ;.| #.#.<.u.<.,.>.W.!.Y.h.u.i.a.a.t.a.r.:.t.i.t.5.R @._ I _ C B b N @.*.X.Y X.R R Y Y ) #.<.+.;.;.<.;.1...1.[ ;.[ ..+.1.+.l.l...;.;.Z ) Y 7 < C. X.X[.&X]. X XY.).!.W.).%X$X$X&X$XXX%X*XoX8X6X6XrXcXi.f ] m 5 V G H w w B _ B p 8 ] V.Y.R.!.[. X&X-XrX<XkXrX-X+X$X-X;X X X*X*X<XrXrXkXkXhXgX-X=X&X].R.p.~ y : i.=X=X1XrX<X*XXXE.V.Z.n.N.b.u.a.n.V.V.T.!.T.E.E.T.V.Y./.].n.2.C N. X].'.].'.{.G.A.{.OXOX{.J.J.K.|.|.0XoX0XwX3X3XXXXX XXX.XE.'.XXb ! &.Y.$X%X%X6X%X6X6XwX6XwX5X*X*X%X.X+XXX.X/.R./././..X.X}..XXXjX!.1 7 6 5.%XoX,XwXwXwXwX5X}.{.)././.).(.{.}.(././.A.C.C.A./. XOXoX4XwXrXNXcX! -.'.A. XXX.X X X/.{.{.{./././.A.g.6.,.u.XXoX7XrXrXtXeXwXeXwXNXg.2 %XrX*XrX<X7XwX*X%X.X).A.T.{.%X X X/./. X!./.V.V.E.E.].)._.). X XXXwXlXOX(. X/.).).OX.X;X6X6XeXyXtXcXoX X*X*X6XrXwX6XwX6XwX*X*X*Xh.I z &X&X&X-X X%X)./.T.C. X.XoXXX5X%X.X.X.XwX*X*XwX-XoX.X.XoXoX6XVXg.8 V.'.'.{..X}./.|.}.}.}.}.{.{.OXK.K.|.{.{.{.{.{.}.|.|.|.3X>X3X3X|.8X.Xf.o.",
"*X*X.X].'.]. XXX$X&X&X&X;X7XrXrX-X-X<X<XMXxXa ,./..X8X*XXXoXwX X'.].{.A.!.E.g.T./. X*XoX XyXzXlX;X^.v.<.>.l.] #.B p ;X).!.&X*X8XrXtXlXrXrXhX$X X.X5X%X X).i.V.$X).*X5XrXqXeX8X.X X;X!.i.*.Y w T.R.E.'.H.E.R.Z.Z.u.N.V.C.E.!.E.E.E.R.Y.!././. X{.oXrXLX2.A ..[ 1.B ;.[ [ [ ) V f w l z V N c x N N Y L &.Y F ! U R q.X.Y ,.:.*.y.y.4.*.m.r.s.e.z.m.p.e./ h , : x.-X=X-X;X-X-X*X!.u.V.Y.Z.Y.r.=.a.Y.P.V.V.R.E.E.Y.P.!.R.R.M.=.k 4 t y 6 7 c k f k l z Z C n Z } :.6.-.,.5.-.$.u.N.N.A.E.u.L _ b.W F J h.$X&X%XE.h..X6X;X*X*X.X%XoX.X.X X X'.E.R.E.{. XXX X{.{. XyXp.t t 1 L $X%XXX,X,XrX<X*X!. X X^.g.E./..X4X.X%X*X.XR.A.V.!.V.m.R.!.!.$XrX1Xb $.'.Z.E.'. XXXXX X X{.E.Z././.A.A.g.8.A.{..X;X*XwXrXrXeXeXeXCXu.X  XkX;X*X6X;X*X6X%X_.).h.E.].$X X/.R.E./.E.R.C.C.A.E.!.T.T./..X{.XX*XlX*X!. X.X)././.}.oX*XwX,XrXrXtXE. XXX*X6X*X6X,X7X7XV.!..X/.j.I S $X$X$X%X&X X.X{.R.V.Z.'.}.%X.X_.(.{.}.OXoXoXoX.X).).(..XOX8XVX6.8 Y.{.'.{.{.}.}./.}.{.}.}.{.|.OX).}.{.'.A./.{.{.A.C..X4XoX3X|.3X3X8X8X] G ",
"'.XX'.E.!./.E.'. X X X XXXoX%X X.X.X&X-X1XxXc 6.A..X.XOXXXXXrX*X%XZ.g.8.C./.N.C.E./..X}.}.%X*X!.+X.X%X.X5X XE.).&.7 W.$XXXXXXX;X*X*X&X&X-X&X].!.). X$X!.!.a.T.+X X%X*X*X9X5X;X;X;X$XXX&X-XY.N T./.A.E.Z.A.A.C.V.N.N.C././.C.!.Z.T.E./.).).).(.}.XX*XBXy.] ^.`.).,.6.g.d.B.j.%.Z l z k l P M M M G F a ` O.X.q.s.o.o.o.I P G < < X X 5 F N k i c S i a x 8 < 7 G >.r.h.V.t.:.*.X.T ' F x U n 6 t t t f i N l 5 p 7 7 t 8 4 5 e < M Y o.*.,.:.#.;.,.:.5.8.,.g.#.e = 5 8 < - < w 5 w l ' V V N k r w l h.).*X%XXX'.*XyXrXlXyXyXrX,X*XXX]. XQ.R.!. X X XXX&X.X.XXXSX$.u 6 > 7 h.6XoX.X.X%X XXXV.V.y.<.:.5.6.u.6.6.#.G F _ P P v n L x b k k h k = @.Z.E.R.E. XXXXX X!.{.!.V.T././.C.u.g.N.{.XXXX X*XtXuXrXyXrXAXq.X x.hX*X*X*X*XwX*X6X.XE.h.C./.). X!.E.T.E.C.Z.V.Y.R././.E.E.)._. X%X*XlX XE. X)./.E./.(..XXX,X,XrXrXrX6X*X X*X*X*X*X*X*XtX7X7X%X).g.P i T.!. X%X;X X/. X/.E.A.A.'.$X%X X)..X_.T..XoX X}./.)..X{.XX.XjX' 0 n.'.'.{.{.{.oX.X X{.D.{./.}._.}.|.A.A.{.{.}.}.(.A.}.4XoXoXoXoX.X3X5Xl.] ",
"E.]. X!.E.^.C.V.{. X X XXX%X%X.X%X$X$X&X-X<Xc ,.(.%X.X%X*X*X.X*.] L ) | g.A.A.C.A.E.}. X X X;X%XT.E.%X*X*X*X1X<XzX-.h.-X X%XXX;X$X$X$X X X$X].R.).!.Q.W.W.+X!. X%X%X;X;X5X;X;XXX$X!.!.!.$XY.} C.D.A.A.A.A.C.C.N.i.N.T.E.E.A.E.A.T.)./././.^.^.}.OX6XBX-.y.E.)..X X/.D././.tX*XrX%XrXrX7X7X-X.X.XtXcX6X.X7XVX8XjXSXjX8X;XrXtXhXY.> 7 )./.5X6X6XuXrXE./.T.E.N.i.<.w.h.)..X/.r.*.h.W.%X*.4 X : &   > ,.%XrX6Xh.h.).k.q.h.a.h.R.*X XE.OXlXlX-X6XXXD.}.|.G.|.eXZXA.5 ; p f.g.u.6.6.6.6.j.A./.A.t.%._ V l | #._ *.>.&.@.@.*.s.t.p.-.e.P.P.0.e.=.T X.@.q.t.r.a.a.i.5.p.k 3 6 < 4 I 6.,.,.#.y.6.a.V.u.t.h.).T.Y.XX-XlX;XY a V m w ; a F i G P V | ' W b.R.-X].].$X&X&X,X%X$X$X).).!.E.C.Z.N.N.{.E.{.{.%XiXuX3XeXyXFXt.- $.lX&X*X6X6XvXtXoX{./.V.u.]. X).Q.E.T.C.Z.b.b.V.A.{.!. X X X}.}.XX<XmX XE. X).T.^./.^.|.oX6X6XrXtX7XrX%X X*X*X*X%X1XrXBXvX7Xh.Y.V.P i x.W.!.$X$X+XE.E.V.V.!.V.V.). X).T.^.)..X.X X/.(..X.X X X%X%XbX_ > Q.XXG.E.A.A.(.oX.XD.D.{.{.}.|.}.{.D.S.D..X}.|.}.}.}..XoX.XoXoX4X3XtXF.1.",
"E.].!.!.T.E.E.T.'. X.X XXX%X%X%X%X%X&X&X&X<Xv #._..X.XoX%X5X_.T.).).^./.{.N.C.C.A.E.{./.). X).).h.g. X XXX%X&XXX<Xp.@.E.!.).$X).+XXX$X$X X X X X!.!.!.W.R.W.Q.).%X&X;X=X-X-X&X$X$X!.E. X$X$Xi.V.T./.A.A.A.A.C.u.g.N.A./.R.C.T.E.E././.'.(./.D.{..X*XkXR i.A.E.E.u.V.6.h.T.XXXX X.XoX&X%X X XE.!.&X<X$XE.R.wX;XOX;X-X7X6X6XrXCX-X< l T.N.D.J.{.XXA.A.E.A.E.D.D.D./.{.A.N.C.A././. X4XBXXX$.r.K O D ).wXtX%X{..XoX.X{.{..X}.{..X.XZ.N.8.b.g.A.A.A.N.S.S.D.K.eXC.8 7 b C.S.N.B.B.A.A.D.C.A.A.{.{.{.!.A. X^.h.C.j.t.r.#.#.#.-.-.-.r.#.&.y.*.6 &.z.z.z.:Xs.i 8 k T ,.i.a.a.T.k.V././..X%XeX;X6XjXtXlXlXzXhXlXzXBXLXSX5X1.) ] w l L F B I ;.F } } b R $.b.7.5.5.r.5.i.a.h.g.a.V.R.V.7.@.7.i.V.V.V.E.E.wXoX4XoX6XZX1.X 6 Q.V.V.E.(..XC.%.I 6.i.-.i.R.W.C.V.a.u.n.V.Z.Z.'.[.]. XXXXXXX*X,X*X5.n.&X&X%X)././.{.XX6X*X6XrXxXjXrX,X%X*X<X,X1X>XlX,X;Xh.h.h.h.' c T.!.@X$X=X-X%X$XW.Y.$XT.V.n.C.E.g.C./.XX/.A.E./.!./.).XX%X7XGXI * Z.].E.{.A.A.{.{.}.A.A.{.{.{.|.}.J.A.B.A.{.'.{.}.F.{.}.|.|.3X|.3X8XtXk.,.",
"Q.E.E.T.T.T.T.!.!. X X$X$X%X%X&X%X X%X&X&X<Xn >.5X.XoX.X X%X;X7X7XrXrXrX@XV.u.C.T.).E.).!.).!./.A.A.'. X)..X%X&XkX( c h.j.V.a.p.Y.W.T.W./.R.Z.V.V.h.a.a.r.t.h.a.p.t.r.r.-.r.a.h.T.E.Y.R.!.;Xg.T./.A.A.A.Z.C.N.g.N.V.T./.C.^./.E.A.^./.{.{.D.D.{./.*X&X#.h.C.^.)./.,.:.V.c.).E./..X_.).).]..X{.T.E./.T.V.g.T.tX7X X%X%X%X5X7XMX!.* F d.d.A.F.A.J.A.Z.A.C.A.A.S.B.S.F.(.(..X}.4XJ.K.OXoX>X>XkXs.X X.eXwXOXA.{.{.E.A.C.D.{.{.{.{.J.}.D.| ] | g.A.B.S.L.S.K.3XiX{.w 5 z {.S.N.b.N.N.N.8.b.8.g.N.N.Z.Z.{.{.XX.X%XoXwXwXeXqX3X0X0XeXwXOX XOX{.R !.fXdX<XkXyXXX XoX6XoXXX XE. X.X{. XOXXXXX$X.X*XrX<XrXrX.X*XwXyXuXmXZXxXq.w N y.z.a.k.j.j.T.h./.k.f.q.q.q.f.k.f.t.<.f.1.,.<.,.<.u.k.6.1.>.x a q.#.6.#.,.h.^.h.a.T.o.s 7 b F P ) ] 1.>.[ M s m 7 i F a 5 0 4 1 F k y y 6 u 6 u 9 8 S b l 5 X U %.:.<.1.1.:._ ..1.:.:.6.,.%.%.@.#.5.5.e.-.p.]. XT.t.T.x.a.P i Y R $.2.%.5.g.r.a.W.Y.h.!.V.].).V.u.A. X%X,XoXXX{.'. X X&XjXvXp * y.Z.Z.{.A.A.{.E.E.B.{.{.XX}.oXoX0XH.S.'.XX>X>X>XXXoX0XwX*X.X.XwXrX_.[ ] ",
"T.T.)./.T.T.T.T.E. X X X X$X%X%XXX$X%X%X>XdXa ,.5X.X*X%X%XoX*X-X7X*XrXrX!.a.a.T.T.!.W.).E.E.E.E.A.A././._..X*X%XMXE c 5X X.X;X6X5X$X XXXE.T.h.w.%.*.q.x.h.h.h.5.<.5.u.h.t.,.u.h.T.T.T.T.E.rXV.T./.^.E.E.A.A.C.V.8.%.N.F.T.E.A.E././.D./.{.D./.(.{.oX+Xo.T.C.T.T.).u.#.T./..X).)..X_.).).{.!. X{.C.h.f.h.g.u./.%X%X%X%X*X*X6XnXV.$ #.^.8.A.D.D.A.A.D.A.S.A.A.D.D.S.A.D.D.}.3X0X0XOX}.{.{.'.rX2.X q.wX{.{.Z.A.A./.A.A.D.{.{.K.{.{.{..X}.}.A.A.F.S.S.S.K.K.0XiXXXw 8 z '.C.S.N.Z.A.L.u.L.8.8.g.L.C.A.Z.A.{..X.XOXoXoX0X|.>XoXoX|.}.}.(.E.h.T 2.!.R.&X,X*X1X,X%X/.E././.A.E..X X.X)._..X X XoX*X*X,X*XOX.X5XwXuXKXDXvX*.< H $X!.$XrXhXrX*X;X;X*X7XhXrXjXzXBXBXBXlXrX7X*X6XtX7X7XoX*X;XlXh.! 7X*X.X/./.lXyX.XrXSXAX;XV. X6XuXpXtXuXiXeX3XF.A.`.5X).f.k.6.6.#.O.a % , O T r.r.,.t.j.).A.j.h.V.V.(.A.f.C.(.F.d.d.d...1...[ [ B c q ; X > P.*XwXY.a.*X&X!.E. XV.g.h.u.;.I } #.*.,.q.*.*.#.*.%.:.4.j.}.:.5.i.n.b.V.C.n.].jXjXf 9 V.R.Z.XX{.{..XoXoXA.V.A.}.C.N.A.XX7.4.8.M...4.4. .%.} %.$.#.,.#.) X.' M ",
"R.E.).T./.!.!.E.!. X). X_. XXXXXXXXX.X;X&XdXu o.5X%X%X*XoX*X%X.X%X&X<XMXQ.p.z.c.T.!.E.E.E.!./.E.T.(.).)..X.X*X*XmXT t _. X!. X).).). X XXX).$X).h.@.,.W.+XT.E././.t.i..X/.).%X.X;X_. X.X.XtXh.T.T.A.T.E.A.A.A.T.4.C ..C.C.E././.D./.{.D.{.{.{.{./..XT.#.T.C.T.T./.E.T.E..X/. X.X%X_..X). X X X X/.V.A.T.h.k.T..X%X%X%X%X.X6XlXp.X ;.^.A.A.S.F.A.D.A.A.E.J.A.A.D.D.A.F.D.K.qX3X3XK.S.D.D.A.wXe.X r.$XS.Z.A.A.A.D.V.A./.{.J.K.OX{.{.{.J.D.S.S.F.S.F.S.K.K.0XsX/.5 w V A.C.Z.Z.A.A.L.g.N.g.g.L.N.C.A.A.A.(.OX.XXX4XoX|.|.oXoX.X}.}.}./.A.C.| -.&X@X%X*X X$X XE.{.!./././.{..X.X.X).)..X.X XXX&X*XoXoX.X4X3XrXuXBXZXzXq.7 R Y.Y.$X&X&X].!.E./. X+X).).$X-X7XhX-X-X-X%X X.XXX-XXXXX&X&X&X!.h.E./.{.{..X8X{.A.wXrX.XD.L.C.'.3X5XoX0X|.oX0XoX/.oX6X XA.{.oXoX0XuXcXp < 6 R.%X*X,X,XwXwXwX*X6X,XmXcX5X}.8XaXcXlXtX8XeX5X4X3X(./.h.g.q.: 6 $XnX6X} 9.*XXX X.XoX.X.X5XwX/.j.R. X X X!..X*XwXyXyXeXqXiXLXa o & . X $ = ; 4 B B C C _  .%.%.} ' ] l N I #.Z V C N m e V m e l l I  .} ,.,.r.h.h.V.i.c.W.W.x.",
"E.).).).T.).).).).).).).)..X X.X$X X%X%X1XdX6 @.8X.X.X%X%XoXOX XXX X1X].^ D x O.T.E.R.T.E.E.E.E.T.T././._..X.X<XmXT 1 %X%X]. X%X%X X%X.XXXXX XXX.Xi.a.R.]. X!.]. Xh.C.T.:.j.&X.X6X%X%X%X%XuX6.h.F.T.E.T.T.A.A.{.u.z | A.C./././.{./.D.!././././.'.*Xz.#.T.T.C.A.T././. X X X.X XOX}._./. XOX.X). XE._.(././.)..X.XoX.X.X*XwXZXu.$ o.D.C.S.A.A.S.B.C.D.C.A.A.A.A.A.S.D.K.4X3X4X|.J.F.D.F.S.*Xr.X r./.N.A.G.{.{.D.C.E.D./.OXK.{.{.{.D.{.A.B.F.S.S.B.B.S.K.0XaXV.w w z C.A.N.S.N.B.N.N.L.g.g.N.A.A.A.D.D./.}.}.|.|.3XoX|.oXoX.XOX}.}.(.S.A.:.C  X$X&XXX$XXX!.'.!.{././.{. X.X.X%X%X.X.X.X.XoXXX%X*XoX4XoX3XeXpXBXPXjXq.H F Y.!.$X&X X X'.E././.).).).$X-XrXjXrXrX6XoX/..X&X&XXX&X&X&X&X%XC.A./.J.{.OXeX{.{.4XeX{.C.4.} 4.B.{.XX>X|.oXwX3X(.{.D.N.u.S.N.L.N.J.NXd.; 4 !.'.].}. XXX{.{..X{..X*X,XwXoX6XrXtXtXhXtXrX*XoXXX X).T.u.w.D h &XwXwXXX3XoXoXXX.X.XOX{.{.6X}.D.A./. XA.E.G.J.'.|.oX|.>XiXPX:.| u.6.,.:.:.| u.k.g.6.;._ A {  ._ ' } C _ -.6.] | 1.| [ | _ p s l P h.R.R.E.V. X;X6XrX6X7XBXhXgX",
"!.).!.E.T.E./.T./.).). X/.). X X X X%X%X=X=Xt N %X+X.X.X%X X X XXX!./ 3 + + : 1 i.W.E.!.E.E.R.A.R.T.C./._..X4XwXMXK $ x.;X/. X X.X%X_._..X%XXX XE.E.E.!.!.!.!.'. X$X6X).h.(.oX-X;X8X6X%X8XjXh./.^.A.T.E.C.T.V.C./.C.C.A.E.(././././. X{.{./././.E..Xq.-.E.T./.T./.).). X). X_..X_..X)./.(..X X%X.X X.X).).). X.X.X.X.X.X3XrXSXy.0 #./.A.A.Z.Z.A.V.A./.g.C.A.A.A.B.D.K.|.3X0X4X|.}.{.J.S.A.oXA.* i.C.N.N.A.{.{.A.D./.{.{.{.OX}.|.}.{./.A.K.S.S.S.S.S.F.K.0XaXg.l f z R.A.A.B.C.N.N.N.N.N.g.d.B.A.A.D./.D.{.{.{.|.3X|.|.|.3XoXoX3X3X}.{.D.A.8 Y.-XXXXX X X.X X!././.{.XX%X*X.XXX X).(..X5XoXXX%XoX3X3X3X4X6XuXZXAXE.] L 5 V.$X].].'.'.)./.E./. X X%X%X*XrXrXyXrXwX5XoX_.).XX XXX X%X-X5XT.^.{.{.{.OX4X4X(..XuX4X}.k.9...S.A.}.oX4XwX6X.X.X}.A.N.g.A.g.S.L.d.3XGX` l &XXXR.R.XX;X.X.X%X.X/.OX6XwXeXtXiXlXlXuXtXlXrX,XrX;X$X!.V.X.7 J ,X,X3X3X3X|.oXXXXX}.|.{.{.}.}.{.{.{..XB.N.G.S.J.{.{.|.0XqXeXS.D.{.{.{.D././..XXX X X.XS.V.j.D./.A./.{.A.'.A.E./.A.F.g.f.6.#.B w _ !.Q.].]. X&X%X-X&X;X*XxXkX<X",
"!.@X!.!.).E.T.T.^.(.)._.).). X XXX).).;X=XdXt 7 c._.W.).%X.X.X X*XQ.E u , , 1 y j.!.!.!.E.E.R.E.A.V.h.E.|..X3XtXMXK & w.7X/.E..X.X5X%X%X).%X.X XZ.R.E.E.!.T.E.'.'..X.X X)..XoX;X*X6X6X6X7XlXE.).).T.^.E.V.T.C.i.A./.E.E.D./.{./././././.{.{.E.R.E. X$.q.^.T.).T././././.{. X(..X). X/.A.A..X.X.X X.X_.).). X X_..X_..X.XwXrXBX4.- } !.C.N.C.C.N.C.A.(.C.V.Z.C.A.A.D.K.3XK.|.}.}.{.{.A.L.S.}. X9 g.N.b.N.N.J.D.{.A.G.'.{.{.}.{.}.}.{.}./.F.S.K.S.S.S.S.K.0XZXF.V l z V.H.A.A.A.N.C.B.N.g.8.L.S.Z.A.A.A.(.J.{.{.}.|.3X4X3X3X4X.X3X.X|.}.|.XX4 &.=X XXX X.X.X.X}./.!..X.X$X;X XT.!.(.T..XoX%X*XoXoXoX3XwXoX6XcXVXVXC.<.I b $X&X$X].E.E.!.!.E.!.{. X%X$X*XrX<XrXrXrX*X5X)./.)./. X).XX-X).t.(.D.{.K..XOXoX|.6X6X4XoXD.g.d.L.N.A.(.|.wX6X6XwX{.N.g.N.T.A.B.f.8.{.FX1.z &X X].{. X%X$X*X*X.X/..X6X6XrXtXtXuXuXlXjXjXrX7XwX;X$XT.T.' 6 E ,X>X3XoX3XoXoX3X|.}.oX{.{.{.{.{.J.{.}.{.{.K.D.D.A.K.K.OXsX|.A.oXoX5XOX.X.X.X.XwX*X1XyX0XoX.X*X6X*X6XwXrXwX,XwXrX,X5X.X.XV.:._ z *.].#X&X%X-X%X*X&X%X%X-XyXkXkX",
"Q.+X).E.E.T./.E.!.).).).). X.X X.X).).*X<XdXx < w.5.} f..X X)./.oX*XY./ D t < ' T.R.E.E.E.!.Z.E.C.C.C./.}..X3XyXdXv . w.8X$XXX.X X+X%X.X_.%X X).'.'.E.E.E.E.E. XXX.XXX.X%X.X_. X3X6X6XwXtXlXE..X X^./.T.A.C.C.V.V./././.!./././.{./././.!.A.R.E.R. X' *.E.Q.)./.T.^./././. X X.X.X.X/.A.A.{..X X%X.X X).)..X%X%X.X.X.X.XXX3XlX=.. z R E  .V.C.N.C.F././.Z.Z.N.H.J.{.|.oX|.}.K.}.}.(.A.L.N.oXrXy y.L.N.N.A.{.'.{.{.{.{.{.}.}.|.4X}.{.}.{.D.S.S.B.S.S.S.K.3XsXB.P z V Z.'.J.A.A.C.N.C.N.N.u.N.Z.{.A./.{.J.J.(.{.{.|.|.|.|.|.3X3XoX|..X3X3X*Xh ! =X X$X X.XXX X.X/.E.{..X%X X).h.^. X)..X;X.X%X%X5XoX4XoX6XwXiXbXtX_.j.Z I <X&X$X X X!.E.).E./..XXXoX*X*XwXwX*X6X6X*X%X$X(.).).). X%XrX.XC.}.A.{.{.(.{.|..X3X3XoXoX}.B.g.L.d.g.S.D.{.3XoXwX}.A.8.C.A.D.A.g.d.J.VX,.b &X$X$X.X XXX.X;X6X.XC.(.6X6XeXuXjXpXtXuXjXjXtX7X7X6X.XT.h.U 4 $.yX>XoXoXoX|.oX3X.XoX}.}.(.D.D.{.J.J.{.|.}.{.K./.J.{.OX0XsXJ.A.wXoX.X5X6X*X3X*X,X<XrXrX7X7X6X7XrXhXrXjXyXtXhXhXrXjXtXtXuX8X,.G l a.].].&X%X-XoX&X$X%X.X&X<XkXlX",
").).).!.)./.!.E.!. X X).).)./.{.OX.X.X;X<XMXh q j.6.Z 1./. X/.E. X;X].u.#.' -.W.!.!.Z./.E.Z.E.A.T.C.C./.}..X3XyX1Xj . *.7X X X.X.X_.%X%X%X$XXX X].Q.E.E.E././. X%X.X.X.X.XOX)._.*X5XwXrXlXlXR.%X.X/./.E.E.A.N.h.h.E././.E.{./.{./.}.{.)./.E.E.E.E. XB #.W.Q.T.W.T.V.E.^./._._..X.X/.E./.{.).).).%X.X.X.X X X.X_.)..X_..XOX5XlX%.= k b f f | A.V.C./.D.R.A.A.N.4.N.E.oX0X0X|.}.|..XD.S.8.8.OXrXh f.f.N.N.A.N.A.G.G.OX{.E.OX}.}.4X}.(.D.D.D.D.B.F.S.S.S.K.qXZX{.1.V 5 S.{.A.A.A.C.N.B.N.N.N.L.A.G.A.C.A.D.{./.{.|.{.{.|.|.|.4X.X3X3X3XoXoXiXk T =X].$X XXXXXXX{.'.{.{.oX%X.X).).%X X/..X.X.X.X.X.X.XXXXX6XwXeXuXpXcX(.w N -X=X$X X!.{.!.E.E.).%X.X*X6X6X6X6XwX6X7X6X X.X).)..X$X&X$X7XoXZ.{.{.}.D.S.}.|.{.}.oX|.|.|.D.D.S.L.d.B.L.S.D.D.{.}.N.g.V.A./.D.A.N.S.cXr.k 1X].&X&X%X).)._..X)./..X5X6X8XeX8XpXtXuXvXjXjX7X7X;X%XC.u.L > Q ,XOXOX|.OX}.|.4X|.oX}.}.(.A.D.{.G.J.J.}.{.}.|.{.K.K.|.K.PXS.N.rX,X6XwX6X6X6X*X*XkXhX-XjXjX-X7XrXrXjXlXyXjXjXlXlXlXjXlXlXVXk.B 8 E.Q.!.].&X*X;X%X&XXX X&XrXkXrX",
" X).!. X!././.!.!. X X X).)./..X.X.X5X*XkXMXh c %Xv.#.d./.E.).V.T. X!.E.T.T.`.).!.).E.E.E.T.T.T.C.V.A..X.X}.4XkXdXj . O.5X).$X X.X$X_.%X$X XXX!.!.!.E.E.T./.).).%XOX.X.X.X.X.X.X*X3X6XrXjXhX/.%X.X/././.E.E.C.B.C./.)./.). X.X X/. X X)././.).!.].].k *.).!.!./.T.T.E.^./..X.X.X.X).A./. X.X(././..X%X%X).)..X_.)._./.(.}.8XlX%.; l N f i V C.A.A./.E.A.A.{.d._ _ S.3X4X3XoXOX|.}.A.g.d.L.OXxXt :.u.6.N.A.Z.S.'.OX.XD.A.}.OX}.oX}.{.A.A.A.{.A.A.C.B.D.K.qXpXK.j. .f g.{.A.C.Z.Z.N.B.N.j.N.N.A.A.A.B.S.D.J.{.(..X(.{.oX|.|.oX3X3X4X3X4X0XuXz x $X!. X$XXX X X X{.!. X.XXX.X). X.X%XXX6X.X_..X.X%XXX.XoXoX6XeXiXlXGXuXq U rX-X$X XE.!.E./. X.X.X%X6X6X7X6X5X6X*X.X.X).$X).)..X;X;X*X8X.X/.(..X3XD.B.|.3XB.{.|.|.|.|.}.K.J.D.S.S.S.A.A.G.J.D.N.N.N.N.{.{.{.A.S.iXV.J &XXX&XXXoX.X/..X.Xj.).5X6X6XwXtXtXcXpXtXbXtXjX7X7X5X).A.t.L = / ,X'.OXOXOX}.|.|.4X.X}.}.(.A.D.D.S.S.D.{.}.}..X|.|.K.0X0XPX' b.rXwX6X6X6XwX*XwXrXkXrXrX7X7X-XrXrXrXyXyXlXcXcXlXlXlXNXlXbXGX%X` e h.Y.E.].$X%X;X%X.XOX).XX<XrXyX",
").).).!./.!.!./.'. X!.E. X X{..XXX.X.XwX<XdXh c 5X%XR././././.V.Y.R.E. X).T.E./.^.).T./.T.T.C.C.j.C.{._._..X}.yX2Xu . H gX`. X+X^.).).%X X).]. XE.V.R.T.).).).).%X*X.X.X.X_..X.X4X;X6XwXjX8X/.;X.X/./././.!.A.A.(.{. X)..X/._.OX.X.X^.T.)././.R.].&X4 Y ).!.E.T./.).).)..X.X.X+X X). X_..X.X.X/.(./..X.X_..X.X).).`./._. XwXMX$.; P C 8 e m B.C.V.D.D.B.N.oXA...| F.5X}.oX}.XX{.'.A.d.g.S.XX<Xx t.,.6.C.A./.A.A.OX}./.}.}.(.{.oXoX{.{.J.{.A.A.A.B.B.S.K.qXpXF.k.| 8 8.Z.C.S.N.S.N.N.N.B.g.N.A.N.A.A.A./.J.{.{.OXOX}.D.|.XX4X3X3X3X3X|.iX6XV i h. XXX XXX X X].!./.).$X.X_..X X(..X.X5X)./._..X.X%X.X*X5X5XwX0XrXVX7X2 P hX&X$X X{.E./.{.%XXX.X*X6X7X7X7X6X6X6X4X%X.X)._.)..X.X%X%XtX7X/./.OX|.3X4X.X4X|.|..X3XoX3X|.}.{.J.J.D.S.S.G.A.J.A.N.N.N.N.A.{.}.A.A.*X(.}  X].&XXXoX/._..X.X.X5X8XcX3XwXtXuXjXtX8XuXjX7XtXeX7X.XC.h.L = / n.y.'.OX}.}.}.|.|.|.}.}.{.{.j.B.A.B.F.{.{.(.}.K.K.}.K.qXPXG t.eX*X5XoX6X,X*XwXrXrXjXrX7X-X7XrXrXrXiXlXuXuXnXnXlXnXlXlXIXGX8XM N r.Y.V. X XoX.X%XoX_. XXX-XrXrX",
"!.).).). X'./.{.).{.E.R.!.!./..X.X.X%X*XkXMXt M %X%X XA./.).E.).).E.!.)./.T.E.).).T.T.W.W.T.T.T.C.C./.(.(./.>XyX#Xu O H 5X).).).).)._.%X X).$X).T.C.x.T./.^.(./..X%X.X%X.X(..X.X*X5X6XwXlX7X). X)./.E.A.E./.A.^.).).).)..X/. X*X.X X)./. X{.E.V.].&X9 H $X!.R.E.E.E./. X.X.X X%X).)._..X%X%X.X.X.X/.).%X%X)..X(._./.(.(.}.rXkX$.4 8. .f r _ 8.6.g.C.A.A.g.A.D.B.F.D.D.K.}.}.}.}.D.A.d.N.N.{.rXv 5.4.,.A.D.{.A.A..X.X(.(.}.{.(.|.3X}.{.{.{.D.A.S.A.B.S.K.eXsXF.f.| 5 i.A.N.Z.S.N.N.N.N.C.N.B.A.S.S.A.A.A./.{.(.{..X.XD.{.3X3X3X3X3X3XqXiXwXf 5 h..X!. X X X].!.).!. X.X!./. X}..X X.XoX%X.X X%X_..X.X.X.X4XwX*XiXbXtXk P -X$X]. X'.{.'.].XX*X%X%X*X6X6X7X3XwXoX.X X X X/.T./.).).%XhX).C.(.|.|.}.|.3X|.3X.X4X3X3X3X.X|.|.{.{.A.A.A.G.G./.A.A.C.N.L.N.J.oX}.D.3XD.Q oX X$X*X%XT.)..X)..X6X7X5X/.8XtXtXbXtXtXjXtX7XtX7X6X%XV.h.Y 4 E '.XX{.|.{.}.}..X|.OX}.}.}.}.N.g.A.A.A.D.{.{.J.J.{.K.0XqXPXp q.rX*X*XoX6XoX3X6X6XwXeXrX7X7X6XrXrXrXtXyXuXnXnXcXlXlXlXlXxXSXvXo.P x.R.Y.!.{.OX.X}. X X). X.X<XrX",
"T./.).`.). X{.!.{. X/.!. X).). X X.X5X*X<X1X6 H .X).{.(./.(.).). X). X X).).V.T./.E.T./.T./.).).T.C.^.).{.{.>XMXU.3 + S 5X).)./././.).%X%X.X).^.T.V.V.C././.)..X.X%X+X%X%X_./.(..X*X5X7XjX7X).).)./././.^./././.). X%X$X.X)..X%X.X/. X/.).!.E.E.-XR.< v W.!.R.T.T.E.!. X XXX X%X).)..X.X.XOX.XoX}.^..X+X.X).)._.(.(.(..X*XaXyX$.z H.M.} #.d.g.C.C.B.A.C.B.B.A.J.|.}.J.{.|..X3X}.D.S.d.g.S.}.kXb j.9.C 6./.A.D.}.OX}.{.}.}..X{.{.3X}.A.}.{.A.A.B.A.B.S.K.4XNX(.<.| 5 g.Z.Z.Z.A.N.N.N.N.N.V.N.B.A.S.A.A.A.D.A./.{..X.X4XoX3XoXoX3X3X3X0XiXuXk y T. X X X X X X/.E.!./. X X/.{.{..X.X*X%X%X%X.X.X.X.X/./..X.X6XwXrXcXjXi Y -X$X!.].'.'. X.X&X*X*X%X*X;X6X6XoXXXXXXX{.{. X/.^.C.h.T..XrX!.E.{..X|.|.oX|.|.3X3X6X6X6X.X|.oX}.{.{.D.A.G.Z.A./././.C.N.u.N.A.{.}.D.oXoXb.%X$X$X X.X/.).)..XoX%XwX.XE.eXtXtXpXuXtXtXpXpXtXrX7X.X/.T.` 7 W ].XXOX.X}.}.{.|.XX{.}.}.{.}.OXD.D.D.A.D.K.D.S.D.J.K.0XqXPXa -.rX;XoX5X*XoXoX5X*X5X6X7X7X7X8XwXwXrXtXtXlXuXiXlXlXlXjXxXgXxXSXf.' ). X!.). X X/./. X^./..X;X*XwX",
"!.).).).).].'.!.).).)./.{./. X X.XOX.X,XaX1Xd P _./. X X`.).).).!.). X]. X XE.E.).R.A.C.C.!.T.T.T.A./. X.X}.,XMXm.+ , H ;X).).!././.). XXX%XXX!.R.V.h.A.^.^.)..X.X.X.X`..X.X.X.X.X.X.X5XuXrX). X/.E.E.^.E./.).). X X X X X.X_.%X.XXX X!.E.T.T. XdXI.4 t z.!.R.V.A.!./. XXX X.X%X.X)._..X.X)..X5X).C.+X%X).). X)./.).{..X.XyXlXC w b.b.8.A.B.N.S.S.S.B.A.B.g.D.K.|.}.D.{.}./.A.D./.g.d.d.N.{.lXn C.S.f } (.S.K.{.}.{.{.|.}.}.}.}.{.{.J.{.D.A.A.N.B.N.S.J.eXcX.Xh.| w g.A.N.Z.A.N.N.j.N.C.B.A.N.N.C.S.B.D.D.A.{.{.}.}.}.3X4X3X3X3X3X3X0XiXZXL 5 z. X].E.!. X'.{././.(./. X/./.{.{..X*X6X*XoX.X XOX}.A..X.X*X6X6XrXcXwXw ' -X$X!. X X).).$X%X%X X}.oXwX6X6X%X%X*X.X.X).).)././.C.A.).rXR.^.OX}..X3X3X3X|.oX3X3XoXqX3X|.4XOX(.{.{.A.E.A.A././.E.C.N.g.N.N./..X{.}.XXZ.XX X X%XT.:./..X.X*X*XwXtXeXtXtXeXjXpXjXlXcXeXeXrX8X.X).`.o.7 n '.XXOX(.(.(..XXX}.{.K.K.J.}.|.C.B./.D.D.D.{.J.J.K.K.|.iXFX1 @.rX%X%X.X.X.X.X.XoX6X6X6X7XrX6X6XrXrXeXjXuXlXlXpXpXlXlXtXrXjXbX>.` W.].).$X;X*X X).).T./.%X*X*XrX",
"!.]. X].).!.!.!.E.).!.!.!.). X)._. X X*XkX[.t } 7X).!. X).)././.E.). X XXX X X/.!.E.A.C.C.T.T./././.R./..X3XiXMX( + , x +X). X X X/.).).).).$X XV.g.h.C././. X.X)..X.XT.)..X.X.XoXA.6.}.tXrX!. XE.E.T.A.T./.T././././.XX.X.X;X6X;X$X$XE.T././..XkX7.9 9 Y.E.Y.V.A.E./.)._..X.X_._..X.XOX.X)..X*X%X%X%X.X/./.)././.^.A.(.XXnX1Xf _ C.b.N.A.A.A.S.B.g.B.A.A.S.S.D.}.|.}.{./.(.A.g.g.8.6.6.g.}.kXx ,.d...N.A.J.J.{.}.}.{.D.{.{.{.{.{.}.}.K.G.A.C.N.L.N.S.{.eXpX5Xj.,.z u./.A.A.C.N.N.N.N.N.S.A.A.N.N.C.A.A.G.{.{.{.{.|.|.|.|.oX3X|.0XoX3XqXCXP 9 Y.&X X X X'.E.'.!.A./.{./././. X.X.X.XoXoX6XoX.X.XOX(.).OX*X6X6XrXcXwX8 X.;X X X X X X)..X*X*XOXoX6X6X6X;X.X*X5X*X.X)./.(./.A.E.{. X7XT.A..X|.|.|.3XD.K.4X|.>X3X3X3X3X3X|././.{.A.A.A.A.A.A.D.A.B.L.B.A.J.{.}.{.{.!.$X$X X).).Y. X.X;X6X6X6XrXrXhXjXuXpXuXbXcXuXtXrXeXrX6X).T.' 2 f Q.XXoXD.D.}.oX.X}.}.J.J.D.J.oXN.8.J./.(.J.J.D.J.K.|.OXiXFX6 / 1X X%X%X5X.X.XOXoXoXoX5X6X6X6X6X6XeXrXtXuXjXuXuXtXtXjXtXrXtX9Xo.w.).!. X X X.X X)._.T./..X%XwX6X",
").!. X).).)./.E.!.E.!.). X X]. X)./..X*XrXP.6 ] 8X;X$X X X).).).).). X.XXX X/./.).E.C.V./.T./.E./.{.A./..X3XiXdX^ @ , a ).).). X.X!.T._._..X$X&XV.C.C.C.T./.XX{. X}.OX_.)./..X}.5XoX.X.XeX7X!.!.Q.T.R.E.E.A.E.E././.{..X.X5X7X7X%XXX XE.T.E.E. XMX=.k 9 i.R.h.h.C.E.!.{./..X.X).)..X%X%X X.X.X.X6X6X;X).`.E.W.^.A.^.{..XoXyXZ.5 t.^.g.Z.A.A.A.D.S.S.A.B.B.A.F.S.(.}.|.A.J.}.{.A.d.4.4.d.8.}.lXb ,.:.N.S.J.A.D.oXC.8.A.A.{.}.{.}.}.{.{.{.{.{.Z.L.N.d.S.D.tXtX.XF.u.P 6.D.A.A.N.g.N.N.B.N.B.S.N.C.N.N.A.N.A.D.{.}.{.|.|.3X|.3X3X0X0X3X0XeXNXI 4 x.;X X X X'.{.{.{./././.). X/.{..X|..X4X*XoXoX3X.X;X.X/..XoX6XwXrXcX7Xy ! &XXX.X X X X.X%X.X/..X5X3X*X6X6X;X*X;X5X.X XE.E.T.R.E. X X-Xi.A.{.(.|.4XqX1.d.3X|.>X|.3X4X3X8XK.D.D.A.A.A.A.A.N.A./.A.B.g.B.A.A.}.}.OX(.T. X X/.T.).'.'..X%X;X7X7X7XrX8XjXjXuXuXjXpXpXlXjXtXrX*X%X^.*.i 8 Z.XX4XoX.XoX4X}.{.{.{.J.A.F.J.}.A.{.{.D.D.D.D.D.J.K.|.eXFX1 E XX]. X.X.X.X.X.XoXoX X.X*XwXrX6XoXrX7XrXjXjXtXtXiXeXjXtXrX8X5X+.>.).]. X XXX X X)./.C.E.{. X*X6X",
"!.!.].!.!.).).T.!./.!.). X).!. X/.)..X-X<XY.i o.8X&X&X X X). X/.T.). X.X X X X X XE.Y.V.T.T.W.T./.A.E./..X4XnX<Xv @ O i v.{.!. X X]./.`._.).%X/.:.i.C.C.E./. X!.!.E.!././.A./. X.X5X6X6XyX<X].'.E.T.T.C./.E.E.E.E.{. X}.}.oX6XrX;X X X!.V.V.V. XkX} S 4 t.W.h.h.x.E.!./. X XXX.X X_..X.X_._./._..X*X5X.X).E././.).`..X.XoXrXh.5 6.(.N.Z.A.N.G.{.D.S.B.S.A.S./.(.}.|.|.B.A.{.A.Z.g.8.6.8.g.|.nXF :.8.8.S.J.A./.4Xd._ A.(.}.|.}.}.{.}.OX{.{.G.A.u.8.d.N.A.pXpXj.<.j._ 6./.A.A.N.g.N.8.j.B.B.N.B.B.N.B.A.A.A./.D.{.}.OX|.oXoXoX|.0X0X0X0XeXZXI 5 !.$X{.)./.!.E.{.'.)././.{././././.}.oXoX6X6X*X4XoX.X.X/.oXoX6XwXwXyX-Xi X.-XXXXX.X X X.X%X%X.X*X*X5X.X;X%X%XoX*X%X X/.E.A.A.C.E./.$X;X-.C.{.|.{.4XiX4X4X3XoX>X3X3XqXiX4XJ.A.B.B.E./././.u.D./.{.A.g.C.Z.E.{.XX;X).W.).!.!.T.V.N.E. XoX*X6X7X6X7XjXtXtXjXjXuXuXcXlXlXjXtX7X7X^.X.i 8 R.XX.XoXOX}.}.{.{./.D.J.D.A.D./.}.{.D.D.{.J.D.J.J.K.K.qXVX1 L &X!.)..X.X_./..XoX5X.X.X6X;X6X6X*X8X7XrXtXpXuXtXeXjXtXjXjXtX5X+.;. X XXXXX.X X.X/.E.T.A./..X*X*X",
").!.].].!.).!.).).).).).).). X!.^.).*XwXnXp.8 *.bX;X%XXX X{.E.R.T.E.)._..X%X X X;XE.;.h.T.E.).)./.E././..X>XMX2Xj @ 1 c j.C.{.). X X!.^./.T.).,.N ,.V.E.E.!.'.).'.'.A.{.{. X X X X%X8X7XcX-X].E.Y.T.T.C.T.T./.E./.{.{.{.}..X.XrXlX].].'.A.T.h.!.-X$.R.c r.T.a.V.Y.!.). X). X X.X{.!..X%X.X/.(.E.)..X.X X/./.E.).^.(.(..XwXnX5.0 d.D.b.Z.A.N.H.Z.D.B.B.j.S.D.(.{.}.}.}.A.G.G.H.b.7.5.5.8.S.oXlXn %.8.g.S.J.{.A.}.{.A.{.{.{.}.}.}. X}.(.{.}.}.'.A.u.u.N.A.eXtXF.f.u.G u.E.Z.N.S.N.N.g.B.B.B.B.B.B.C.B.C.A.A.{.(.D.}.}.OX.X4XoX3X>X0X3X0XeXZX_ 7 E. X].]./.E.E.!.!.!.E.!.{.!.{.A.{.}.OX5X5X*XoX*X*XoX XOX.X%X8XwXwXlX-X7 #.*X.X%X*X%XoX.X;X6X;X6X*X*X*X%X%X.X.X6X.X X/.T.T.C././. X$XhX-.h.T.}.}..X.X3X3XoX3XoX3X0XiXiX|.S.B.N.N.E.'.!.u.y.V./.D./.N.C.C.R.{..X*X*X X/.T.)./.#.' j.XX%X*X*XrX6X6XrX7XtXlXjXuXuXjXcXjXlXjX7XtX(.) a t V.XXXXoXXX}.}.}.{.'.G.{.D.D.A.D.{.{.J.{.}.{.{.J.J.D.K.qXpX* L  X/./. X.X.X/..X.X%X.X.X%X*XoX.X.X5X8X6XrXtXuXuXjXjXrXrXlXjX8X1.<.%X X%XXX.X;XC.k.^.).A.C..XoX4X",
"). X!.!.!.).).).+X).).).). X).{.).).XXrX<X3.w I 5X;X&XXX X].R.V.C.C./.)._.$X$X$X XT.,.g.Y.T.).).)././.)..XiXMXm.3 + y x g.u.E.E.Q.E.E.E././.!.Y.,.C.T.)./.!.E.!.E.E.E.E.!.{. X)..X.X;XrXlX-XE.R.Y.V.h.V.C.T./.E.A.E. X{..X XXXjXlXE.r._ ) >.q.).!.! q.k r.h.p.i.h.T.).).).).)..X X/.).%X.X).).T.E.E..X XT.)./.E.C.`..X.XyXmXR * :.N.N.S.A.A.'.S.A.A.N.B.S.D.K.{.oX{.E.b.b.V.Z.b.7.5.9.9.B.oXrXi :.8.g.B.{.{.{.{.|.{.{.{.{.|.{.}.}./.D.{.}.}.{.D.N.9.g.{.tXrX_.k.,.l u.E.C.A.N.N.N.N.B.g.N.j.N.S.N.B.A.S.A.A.{.D.}.{.|.|.|.4X|.4X|.3X0X0XcX| c h.].'.).{.!.{.E.E.!.E.E.'.!.E.E.{.}.}.oX4X6X*X5X%X.X.X.X.XoX*X6X*XrX-X4 X.;X$X%X*X;X6X6X6X3X;X6X*X4XoX%X6X*X.X6X5X.X/.^.A.C./.'.).!.hXt././..X}.}.4X|.|.|.3X0XwXeXiX>X{.N.N.N.N.C.).C.%.9.C.A.A.E.V.C.C.D./.OXXX8X_.Y.T.)..X<._ k.XXoX,X<X,X6XrXwX7XtXtX6X8XjXvXjXcX8X8X7X8XA.Y a n R.XX|.|.}.}.}.{.}.{.{.{.E.A.D.D.D.{.{.J./.{.{.J.S.D.J.qXaXq P V.i.Y.E././._./.)..X(..X.X5X5X.X/.A./.OXwXrXeXtX8X7X7X6X<XjXvX;.i.$X].&X.X*X8X6.;.T.).T.j._.oX6X",
"!.!.!.!.!.T.T.).).).$X$X$X X X X/.).XXrX[.%.w l ).T.E. XXXV.V.u.u.g.C./.).%X$X$X XE.Y.C.V.T.).).)./.T./.(.rXMX/ O y n > *.!.Q.].T.h.R./.E.$X XR.T.E.E.T.E.E.T.T.R.V.C.C.T.T.{././. XoX*XlX&XR.V.V.a.g.g.V.A.{.XX.XXX7.$.y.XXlX-X XoX4.e [ ;.,..XY.-.! 1 *.h.t.6.t.h./.).).).).). X%X)..X.X;X.X/.A.C.E.).).`.!./.E./..X%XrXnXL 4 f.N.S.A.S.N.N.N.S.A.B.F.A.D.D.4XD.| w < , , t *.y.7.4.4.S.oXoXt u.8.g.S.{.{.{.{.|.[.{.}.{.{.{.{.{.{.D.D.J.}..X{.A.9.9.D.pX.X/.`.u.l i.T.A.C.C.C.N.C.B.N.N.g.B.N.N.S.S.S.S.D.{.{.{.J.}.|.|.3X|.3X4X3XeXqXNX..l V./.!.!.E.E.E.E./.!.'.'.E.E././..XoXoX6X6X6X6X*X.X.X/.(..XoXoX*X*X7XhXh R rX%X%X%X;X6XwXoXoX7X7X4XoXoX5X6X*X*X*X*X.XT.E.T.C.T./.!.!.=Xi./..X{.|.}.|..X|.K.|.3XeXuXiXXX/.j.8.g.u.N./.6._ u.A.A.A.A.C.j.C.F.A..XoXwX.Xh.T.T.!.C.h..X.X%X6X6X6X8XwX8X8XeXtXwX7XjXcXlXcX.X/.eXtXj.I i v ].XXOXXX}.{.}.(.{.'.A.A.J.A.A.A.A.J.{.J.A.{.|.K.d.S.J.3XHXe N I b Z.Z./.(.}./.}././..X.X.X.X}.F.d.g.N.{.*X8XtX4Xj..X6X*XrXvX<.f.).$XXX.X;X5X^.c.).).).A..X.X5X",
").!.W.E.!.W.T.Q. X X X X X$X X]. XE.XXrXy.#.V c C.h.V.XX&XE.n.b.f.g.T.E./..X X%X$X/.Y.V.V./.).).).).(.T.).kXkXv & X.&.7 1 R.&XE.E.j.h.!.!.E.E.E.Y.Y.T.Q.R.T.Q.R.C.C.C.V.T.).W.T.^./.5XwXMX].Z.R.i.t.h.V.R.{.XXXX*XXX2.5 & N Q.*X X%X%XV.6.6.^.rXn.3.p.t &.x.t.q.%.6.F.).).).).+X_.%X%X)._..X.X).{./.T.^.T./.!.T.E._.OX*X<XyXb 4 C.A.B.A.9.z z 1./.A.F.D.F.D.D.4XF.;.p 1 & X X O $.8.9.8.S.eXXX6 6.f.N.A.{.|.{.{.}.'.OX{.{.}.}.{.{.D./.(././. X{.{.g.1.S.cX8X^.C.k._ u.E.V.C.V.C.C.C.S.C.S.C.B.C.N.S.N.A.C.D.(.|.}.J.J.|.oX|.oX|.oXXXqXoXbX| l T.).!.!.E.!.E.E.{./.E.!.)././.E._.5X;X6XrXrX8X*XoX.X{.}. XoX6XoX*X&XkXL ' $X&X-X-X*X*X6X4X.X6X6X6X6X*X6X;X*X,X*X;X XE.C.T.j.A.T.E.Q.).u.E.}.|.}..X.X3X3X4X8X0XeXuXrX4XOXA.9.g.8.8.C.6.6./.)./.D.E.A.C.C.C.F.}.*X6X6X!.Y.Y.).V./.%X%X6X7X7XrX6X7X8X6XwXtXyXuXjXlXcXvXjXjXrXbXj.M 8 E ,XXX>X6XOX(.}.{.{.G.J.{.{.J.J.A.J.J.{.{.^.}.}.K.J.F.J.qXFXg B C.g.E.V.A.{.{.{._..X.X5X.X}./.(.}.A.B.N.C..X6XrX4XN.|.6XrXrXbX] <. X X-X%X%X%X.X%X$X$X XE..XoX5X",
"$XY.i.t.u.p.Y.E.$X].Z.R.A.$X X-X].n.!.T.T ` N w ' q.t.V. X-XE.Z.8.y.5.6.g.h.V.A.E. X!.E.E.E.!.].E.]. X!..XyX&X} L >.X.F 7 c ;X=X].].R.!.=X$X$X].R. X].E.!.E.Z.Y.T.V.V.V.C.^.E.E.E.(.XX*XMXR.n.n.u.7.a.R.XX).V.=.$.$. .Z e b l 6.$XXXrXyX&X*X*XlX$.E r.i @.~.r.r.i.N.E./.E././.).).%X.X)..X.X X.XXX/./.T.Y.E.E.C.T./..X6XnXkXk q u.A.C./.j.B r A C.E.'.G.J.A.A.}.3XeXoXE.r./ U n N 4.5.j.A.uX'.6 u.u.B.{.}.}.K.J.J.J.{.K.{.{.}.}.{.D.D.{./.D.}.{.{.N.g.d.pXtX_.k.f.I #.A.A.A.V.C.V.N.N.C.A.A.C.C.B.N.B.N.A.A.{.{.{.{.}.|..X|.|.|.|.XX3XiXZXI N ;X X!.!.E.].E.{.[.A.'.!.!.E./.)._.*X,X*X6XrX6X5X4X|./..X.X.XOX%XoX;XuXR *.-X X%X%XoXoX*XoX.X6X;X%X%X%X;X*X*X*X%X6X%X/.h.C.C.A.T.T.E.Y.y.D.}.}.|.oX4XoX3X3XeX.XtXpXtXeXrX/.9.u.g.8.g./.A./..X)./././.D.C.F./.OXoX.X%X XR.E.!.E.)..X5X7X6X7X8X7XeXrXwXwXeXeXeXtXcXcXcXlXjXtXcXj.[ 4 E >X>X,XoXoX{.}.(.D.S.D.{.J.A.D.S.G.J.J.{.{.}.|.{.{.D.D.4XZX_ ) E.V.A.V.A.A.{.XX.X.XoX8X4X}.A.}.}.{.F.8.8.u.Z.rXyX*XoX6X,XwXVX,.r. X X&X%X.X X.XXX%X%X%X/._..X*X",
"@.F L T P T @._ ' I _ #.#.@.X.@.@._ :.X.7 c a ; 7 7 p F #.$.! b N L l N P P P ) ' r.h.r.n.V.n.Y.T.$X XR.^.6X].p.h.,.r.' L S / *.$.3.$.%.t.V.a.y.r.r.s.2.q.,.| @.*.$.#.| #.,.u.i.i.g.A.R. X*.r.q.@.r.=.P c y 9 = 5 w q r B | e l r.$X<X-XhX&X&X-XQ I _ 8 X.i.r.q.u.V.T./.!.E.E.).%X.X.X X X%XXX%X$X).^.).T.E.E.T.A.^..X7XmXkXf z j.B.N.A.{..XN.6.g.A.J.{.{.A.A.J.}.XX3XwX&XE.b.u.4.-.:.g.{.NXR.> ,.f.N.A.}.{.}.{.{.{.}.J.{.{.}.XX|.{.A.G.{.A./.}.{.{.A./.8X}.j.k.u.) I i.V.V.Z.C.Z.N.B.C.A.{.D.B.N.N.B.N.S.A.J.{.{.(.}.}.4X}.{.{.|.|.|.qXNXZ P 7X!.!.E.!.!.E.E.Q.'.E.E.E.E./. X). X*XoX,X*XwX6XoX.X}.{..X(..XOX X*X7X' ' &X X&X%XoX.X.XoX_. X X%X%X6X*X5X6X*X*X*X%X/.j.h.R.^.^.E.E.C.6.A.}.|.|.|.}.|.4X4X4XB.uXNXyXuX6Xh.9.8.9.4.8.E..X XOXE.(.A.A.A.D.{.OXoX6X X).).E.E.E.)._.%X6X7X7X7X7X7X7X6X6X5X6X6XwXtXlXcXcXlXlXrXbXj.) r $.1X>XoX3XwX3X}.D.A.D.D.A.D.J.A.J.J.D.A.J.{.}.{.}.A.D.{.3XHX[ P /.C.Z.V.N.C.Z.{.|.oX6X4X_.(.H.{.4X{.4...g.7.u.oX*XoXoXoXoXrXvX' h. XXXoXoX.X.X XXX%X;X.X.X/.OXoX",
"b p c F c l c l l V Z P P F ` O.w.t.V.Y.t.s.q.q.i.t.q.i.a.r.,.q.q.,.,.t.a.q.#.,.r.L 6 i t c c F F c I ' >.f.w.O.w.x.rXr.' ] I V z V l B P k t h 7 < , * ~ j.6.T. XE.T.Y.a.h.T.).).!.T.$X!.Y.E.R.p.Y.t.t.6.5.,.} L B i 2 l { r q w M B G L #.5.b i P Q k @.p.,.5.a.Y.E.T.E.R.R.!. X XXX XXX.X%X%X;X X!. X).E.R.C.T./..X*XBX>Xz V g.g.S.N.A.J.A.D.D.A.A.}.}.A.D.D.E.}.{.'.R.n.y.4.4...9.N. XzXy.6 a.C.j.N.{.{.J.}.J.{.{.}.K.{.A.E.OXOX{.A.A.D.A.{.|.|.|.B.{.F.k.f.f.>.;.,.%.8.n.Z.b.Z.C.B.A.(.{.D.N.N.d.d.A.A.J.(.K.^.D.{.}.K.}.K.|.K.|.eXcXN b R.!.R.A.E.R.A.R.E.R.C.Z.A.A.E.{.E.!.{..XoX6X6X4XXX(././.)./.)..X%X;X7Xi.b T.h.C.wX8X6X;X5X).).%X5X;XwX6X*X6X*X;X*X*X XA.g.R./. X!.E.E.%.A.XX|.4X|.|.|.{.3X4XK.pXcXuXyXwXN.:.9. .:.6.A.A.A.A.C.A./.{.{.|.oXoXoXrX}./.E././.A./._.%X;X7X7X7X6X6X6X*XwX5XoX6.A.uXcXpXuX7XtXtXbX;.m 0 7.yX{.oXwXoXoX|.{.J.{.{.{.E./././.{.J.{.{.J.(.{.|.}.K.K.3XFXM F E.C.A.V.N.Z.A.E.oXoXoXoX}.F.C.F.<.e 2 P 6.b./. X.XXX%X*X6XrX7Xc !.$XXX&X%X.XOX%X*X*X%X*XOX_.XX%X",
").R.5.u.h.6.u.j.D.D./..X5.:.).).;X X%X$X&X&X!.!.).).$X&X&X$X$X$X+XQ.Q.$XdX X!.!.&Xp.9 L C U G Y F B ) o.w.1.>.O.w.f..X-.] ,.<.6.8.:.] | #.i F i t 7 1 % *.jX X.X&X&X&X=X;X;X%X&X<X-X&X-X1X&X&X].XX X&X*X*XrXlXcX5X6X).t.6.t.P V ) B ) { ] v..X] B @.I k k } ,.r.a.Y.!.].E.E.'.&X X%X).OX.X.X;X).XX;XXXR. X X!.h.E.).{.*XNX{.z A ..;.8.N.Z.A.D.D.A.D.A.{.|.}.{.(.A.E.{.E.C.u.7.4.3...8.A.$X-XU 9 h.g.L.S.J.{.J.}.J.{.}.K.OX0X{.4.R.OXA.{.H.'./.A.XXpX(.8.F.C.F.1.j./.u.5.#.@.6.b.N.b.b.N.C./.OX.XA.C.S.N.N.A.G.D.J.D.D.D.J.}.}.}.|.OXOXeXyXl l 5.n.Z.R.V.R.Z.R.R.V.Z.V.C.A.Z.{.E.A.Z.E.}.XXoX3X.X.X(.T./.)..X X;X.X7X).X.E.:. .%X6X7X;X*X%X%X%X7X6X*XoXoXoX%X*XwX&X%X/.V.T.R.{.).Q.E.} C.XX|.oX|.|.}.|.3X4X3XpXuXlX6X{.N.7.N.9.:.d.C.g.C.A.(./..X.XOX}.3X0XwXuX XT.E.E.E.T.).). X5X5X6X5X6X7X6X6XoXoX4Xg.{.pXuXlXtXtXtXjXjX] B 4 n.,X'.oX0X6X3X3X{.D.(.{.{.{.{.E.{.{.{.}.{.{.}.}.}.|.|.K.3XsX[ c !.V.C.B.N.C.A./.oX4X4X6X.X^.C.j.C.f.9.,.t.V.!. X X XXXoXoXrXjXX.T. X*XXX&XoX*X5XXX*X*X*X%X X.X%X",
"iXnX[.OXXX{.G.OX}.H.Z.wXa.q.!.R.!.E.'.].Q.E.Y.T.T.R.!.!.!.].E.Y.Y.V.R.R.Q.R.R.R.-XP.J %.@.P Y o.X.#.] ;.,.#.[ *.w.<.;.;.<.<.f.g.V.i.N.u.k.:.6.,.#.@.@.b Y $X X).XX X$X$X X). X$X X$X X!.].]. XE.Q.!.].E. X-X;X&XXX.XwXuXnXrX,.;.1.] [ 1...<.F.j._ #.P b d z R -.r.0.a.x.V.V.R.!.E.).E.{.XX X;X$X!.).$X+X$X$X).!.{. X X XkX'.k z %.%.4.D.{.A.H.{.H.'..XOXoXoXoX.X XoXoX.XZ.8.8.8.6.%.C.rX2.v 6 8 V.N.{.{.XX}.{.}.J.OX0X>XXX,XlXn.n.u.g.N.N.t.4.-.*.:.P ;.f.F.f.] f.%X:.@.i.r.u.C.Y.h.V.V.{.{.rX>XA.Z.E.N.L.A.H.J.D.D.D.B.D./.D.(.}.{.XXwXtXk k ,.y.Y.R.R.Y.Q.R.T.E.R.Y.V.Y.T.R. X/.E.C.!.XX>XXXXX*X;XT.E.). X XXX&X&X!.2.<X{.{.;X7X7X7X%X%X;X6X;X*X*X%X.X.X XXX%X%X;X).C.c.T.E.!.T.W.P Z.XX}.oXoXoXoX|.XXoXwXyXyX*XA.E.C.j.C.N.N.C.N.B.N.8.A.E.{..X}.|.3X0XwXuX/.E.T.T.E./.). X X$X*X7X8X6X6XrX6X5XOX0XrXtXtXlXlXjXtX8XjXjX` M 5 m.>X}.>XwX3XwX.X}./.{.{.{.'.}.D.D.{.{.{.{.J.}.}.}.D.(.|.4XsX5XF A.T.V.C.C.N.C.E..X%X;XrXwX/.T.C.C.C.h.t.u.h.E. X X X X X%XrX;X6.!. X&X&XXXoX5X*X%X*X*X*XXXoX.X.X",
"OXXXXXOX'.J.A.S.G.H.G.<X,.i.).T.Q.'.Q.Q.'.E.A.{./.!.].].E.!.E.A.R.V.Y.E.$X$X[.&X1X$XU #.@.-.h.C.C.R.V.V.h.T.).T.).).`.%X5X)..X$X!.)..X X X.X%X6XXX,XrX).F _.).).$X X.X$X X X X).!. X XE.).).).).!.E.Z.!.!.;X6X;X$X X{.*XyX X_ ,.f.<.[ ] { { ;.<.;.,.F < 4 3 $ $ 2 . X < 1 : : : % > 6 7 8 i 7 w N c a 7 8 c I F l P B Y L 8 e l $ l I $.g.2.i.V.u.Z.Z.R.!.E.V.y.5.=.R L C I R #.L k #. X@.$ : < P I } #.I C I I C C f f f 4 9 4 , l ' q 5 * 5 l ' g.j.^.d.f.j.t.6.i.i.F k l N L U F Y R $.$.a.:.I L z W %.A.7.8.d.g.B.f.A.A.C.A.}.OX|.iXnXi x t.n.Y.R.R.R.!.].R.T.E.E.R.E.].!. XT.%X XV. X*X1XrX,X-X$X X!.!. XXX@X;XP.*.&X<XwX-XrX7X;X%X5X6X6X<XrX;X$X$X.X.X X;X*X;X%XT.E.!.!.!.R.!.L -. X.X|.oX|.}.{.}.oXoXwX&XE./.(.E.V.R.Y.oX*XA./.B.4.4.B./.}..X}.}.3XeXlXV././.E././.)./.)..X%X7XrX7XwXwX6XoX}.*XyXtXuXcXtXjXtXjXtXtX#.p 9 e.Z.XXwX{.XXoXOX{./. X}.OX{.}.D.D.{.{.{.{.{.{.}..XN.A.|.J.K.8XP h.V.N.Z.A.V.V.T..X6X7XrX,X X^.C.j.u.6.t.i.V.C.!.T.E.'.XX&XlXZ.@. X$X&X%X%X*X.X*XwX;XXX%XoX X{. X",
"{.{.|.XX'.A.A.F.A.H.'.,X,.q.Q.W.E.!.E.!.'.E.A.E./.'.].]. X!.E.Z.V.b.r.r.r.r.y.a.V.-X=.b h.$X=X=X!.!.-X;X%XXX!. X).$X;X&X&X$X;X$X X!. X).T.V.T.OXXXXX&X*X-./._. X X$X$X$XXX.X X X)./.).).E.).).).E./.).).). X.X.X X)./.*XBX XR g.C.T.T.).6.k..X_.A.j.%.L P ' ' ' o.@.` #.>.;.o.O.#.X.@._ I L 8 % 7 i.-Xx.,.,.:._ I _ Y ] P l Y G q w 5 4 q 7 w q p M l l N S 6 X b r.r.$.7.b.y.g.%._ i.C.*.@.o.I %.#.:.h.:.#.6._ N A C z z k > 6 t ) #.B B ] t.h.!.*X7X7X.Xj.E.).C.V. XQ.@.@.y.i.q.q.r.r.b.u.j.h.V.u.5.P l 2.!.R.A.E.E.T.E..X X(.E.C./.6XT.l c -.5.r.r.2.2.r.y.,.q.r.r.5.i.u.5.i.,.5.*.L L @.! X.' @.] I P P I H b F 7 ! -X-X-XfX-X-X&X XoX$X%X;X&X-X).E.!.$X!.E.E.).Y.h.V.Y.n.Y.n.i.9 #. XOX X3X.X.X|.oXoXXXOX.X/.E./.A.C.!.!.*XXX}./.N.4.4.9.8.A.{.D.J.|.wXrXn./.R.E.T./.E.E.]..XoX6XwX6X*X6X8X8XoX*XuXuXtXtXtXtXtXtXbXtX<.q < 3.'.G.OXA.}.>XoX/./.{.{.'.D.D.(.A.D./.{.{.}.{.}.|.{.J.0X|.3XeX} 5.8.u.N.A.C.A.E.).&XrXkX<XoX/._.^.g.f.u.y.h.V.Z.A.E.!..X*XlXT.%.a.V.!.&XoX;X6X5X.XC.C.{. X{.R. X",
"E.J.{.{.{.}.{.A.A.J.{.*X:.r.T.!.!.!.E.!.!.'.!.!.).XX X$X!. X].Q.n.z c V e g p l P =X&XN W.].$X$X!.). XoX$XXX].!. X$XXX$XXX X X X$X!.E././.V.V.).OXoX%XXX#.T._. X X.X.X.X XXX%X]./. X).).).)./.).)./..XOX X). X)././..X%XmX].%./.T.h./.E.V.E./.{.E.E.'.A.Z.E.'.J.{.oX0XoX|.XX3XoXoX6XXX>X.X,X XY a +XdX&X$X$X!. X{.{.E. X).T.V.C.N.g.f.6.8.D.A.A.T.C.V.7XrXzXq.X #.{.(.{.}.{.N.g.A.S.A.D.E./.oX3X}./.{.{.|.oXaX{.N.N.N.N.8.2.A 5.{.yX{.8.N.!.oX/.f.V.T.).%X.X XXX]. XXX.XC.y.N.E. XXX{.XXrX3X6XoXiXyXCXXX9 2.rX<X1XrX6X-X-XlXlXrXrXrXjXjX6X;X_.V.C.j.u.#.>.#.#.#.#.` X._ _ | P P } ,.#.4 5 c a a M ) ) ) ` ' ` ' *.o.b ' -.r.q.q.s.q.=.*.q.@.#.i.j.;._ P @.:.o.,.;.B l e 7 i 5 = l I m 5 8 l P l C P | 6.V.E.h.V.V.V.Z./.C.{.wXyXyXoX}.D.g.g.9.9.9.S.{.D.}.aXC.9.!.E.E.T./.E.E.R.!.XX*X*X*X7X7X;X*X%XrXlXtXeXtXtXuXtXtXtX8X(.) * Q [.XX'.XXXX*XXX{.A.A./.'.{./.A.A.D././.{.{./.J.K.{.K.|.0XCXwXZ %.3.7.8.N.Z.Z.Z.!.oX7X*X-X-XXX].R.V.b.i.6.u.i.b.u.V.!. XrXtX.X@.P Q n. X&X&X,X*X*X&X6X!.i.b.Z.{.",
"D.D.D.D./.{.{.D.A.Z.{.,X6.t.R.T.!.).E.!.!././.).$X%X X$X X X].Y.R.] Z { m m V M >.+X!.Q !. X X X.X.X%X$X$X%X X).).XX%XXX X X X!. X!.R.T././././.)..XwXrX-.V._.).{..X.X.XOXoX.XXX X)./.T./.). X/././. X.X.X/..X.X.X X.X*XkX X5.R.E.Y.V.T.C.V.A.E.A.A.D.A.N.L.N.8.9.L.{.D. X.X}..XXX|.{.}.XX&X].@.7 q.!.].!.].$X$X X].E.!.$X$X X XE./.!.C.E.&X]. X XE.Z.*X,XmXR.< ;.D.A./.A.S.S.g.g.S.S.D.A.A.J.{.N.A.S.S.D.K.pXoXJ.}.{.{.{.b.A :./.{.E.'.E.Z.N.y.%.6.C.V.:.6.A.'.'.{.E./.A.C.8.8./.).{.{.{.}.J.{.OXoXNX[.9 %.1X&X&X$X%X%X*XhXjXrXrXyXuXjXlXiXrXXX%X*X$X!. X$X X$X XE.)..X).;X/.C.i.] N o.).*X7X7X6X6XwX.X*X*X X). X%XrX).C.T.$X$X7X%X+X;XtXhXtXVXGX^.<.) #.q.).)..XoX5XOX.X XE.).+X).`.T.T.`.T.h.u.<.#.#.:.Y c S n x < y k c t S A } A z C Z Z A | | } %.C.BXL ,.!.E.E.!.!.{./.R./.XX*X6X,X*X*X%X*XrXrXkXxXjXlXjXrXlXtXlX8Xl.[ a W R. X'. X!..XoX/.%X'.OX{.V./..XoXXXE. XXXXXXXoXoXwXeXJ.d.S._ z %.%.2.5.b.N.A.A.'.oX*X&XrX-X=X&XE.Y.V.a.a.r.2.4.u.u.T.!.lXBX$X` z U 2.].&X<X1X<X-XkXIXSXy.2.5.V.",
"{.{./././.A.{.}.{.{.D.XX4.i.E.V.Y.E.E.E.E.!.).).%X%X XXX X_.).R. X.X/.:.' [ B +.T.!.a.U ). X$XXX X X$X X X). X).).%X.X X X X{. X X!.E.A.T.A.E./.(..X6XrX%.a.)./. X_..X_..X.X X X X).)./.)././././. X/.)._.)..X_. X X.X*XmX&Xy.n.C.A.C.V.N.j.C.E.A.A.D.A.N.N.D.j.1.d.D.D.|.}.}..X|.}.D.{.oXwX&Xq.Y *.T.).E.]. X X X X{.). X$X-X=X XXX X X X X). X).{..X%X>XyXY.- :.{.A.D.G.E.A.C.B.S.F.D.J.D./.D.A.A.B.B.J.}.qXqX|.oXXXOX}.!.#.C .X/./.E.'.D.B.C.C.C.C.N.8.B.A.A.A.J.{.E.A.N.N./././. X(.D.{.D.K.{.oXcX Xk 4.*XXXXXXXoX6XrXjXjXtXrXeXtXtXyX<X,X X X).!.E.Y.R.Y.Y.E.R.A.[.{.XXyXLX;X> 8 a.6X<X*XoX*XoXXX.X].E.h.4.u.{.*X*X5X;X.X6X6X%X.X.X3X3XwXlXLX$Xt.f.$X!.$X X%X*X6X<XwX<X-X7XlXrXrXhXcXAXBXrXcXcXcXvXvXjXhXjXxXzXR.g.k.C.k.f.g.j.4.1.| @.P c w 4 7 i i D 1 #.V.P.Y.R.b.V.k.u.g.T.XX;X*XoX X'.,X$X&X*XgXgX7XhX;X%X7XxXT.1.{ B , & : & < q C N C _ ' #.I P ] I N z z I _ | | } Q $.7.:.6.k...e e Z I @.,.:.r.u.Z.{.!.V.!.+X$X!.a.a.Y.r.-.Q P } *.4.a.V.$XhX`.c 6 t x S J R ! e.e.*.P.Y.%.] R ] ",
"{.{./.D.D.(./.{./.{.{.{.$.u.Y.Y.Y.a.h.T.^.E.).). X$X X).).%X).). X X&X Xj.i.<.h.Y.Q.R.I T.). X X%X%X%X X X)./._. XOX}./. X{.).{. X/.E.A.A.(./.(.(.OX7XlX-.6. X)._..X.X.X.X_. X).).%X X X X/.T./..X).).).).).).%X.X X.X*XlXXX5.C.g.:.u.k.V.V.A.D.A.E.J.A.C.C.A.E.(.J.{.J.|.oX3X}.|.{.V./..XrX<XV.h.o.x.!.E.!.!.). X)..X%XoX*X<X-X6X%XXX.XOX.X.X{.).)..X.XXX1XY.= 5./.A.F././.A.B.S.S.D.S.J.{./.A.A.S.B.S.D.}.3X3X}.}.J.J.A.A.} q ).E./.{./.A.A.A.A.A.A.A.'.'.{.{./.(.(.A.A.A.N.N.N.A.A./.D.D./.J.{.4XpX.Xb r.-X$XoXXXoX5X7XtXtXrXeXwXeXeXrXrX,X.X).).W.E.A.C.Z.Z.R.!.!.E.[.{.XXBXR.> J h.%X%X.X XXX X X.X XE.h.,.b.E..X.X.X.X.X%X6X5X4X4X.X4X3XeXCXrX#.h.!.]. X]. X]. X&X&X%X X].%X$X=X!.a.$X&X X X X X&X6X*XrX&X-XBX,X X{.XXrXtXuX0X*XrXlXiX8XrX7X7X7XrX;X6X7X%X%X)././.E.C.j.6.*.#.f B ,.,.c N x.x 8 6 t a y Y F ; 7 7 a O.{ s p F c s F q.h.1.| [ +.;...[ ] e w B ) ) m s f g 9 , 5 } (.(.j.] B q 7 l b i w 8 t G H P U F x H F H Y U > X.E.&X&X<X-XrX5X7X$X$XxXxXdX XZ.E.T.&X7XW.h.!.).).).^.",
"}.}.{.{./././.{.D.D.{./.%.a.V.R.E.t.h././.).).).%X$X X$X$X%X.X X X$X X].E.R.Y.V.a.E.E.#.h.T..X.XXX).%X.X.X XOX.X.X.X}.).}. X{.). X{.{./.T.E././._. X%XBXr.,.W.E. X.X.X.X X)..X)./././. X/._.)./.).). X).).).).)..XXXXX].yX!.%.B.C.5.t.V.A.D.(.D.A./.{.A.N.j.D.(.J.A.J.OX|.|.oX}.{./.D././.6X<Xh.X.q.Q.$X$X X X).).E. X.X.X6X;X*X*X*X%X%X%X*X%X.X.X.X.XXX&X1X*XI u.T.A.D.A.A.A.A.A.S.A.D././.D.A.N.d.B.D.}.|.3X3X{.D.J.A.Z.Z.%.8 i.)././.{.{.'.A.D.A.A.'.{.{.J./.E.A.D.E.D.A.A.C.8.d.g.B.A.(.{.J.J..XcXE.c V.;XoXoX*X*X6X8XeXuXuXeXwXrXeXrXwX,X*X.X)./.E.A.Z.u.b.!.E.E.A./.{.XXnXa.i 5.). X.X.XOX X].{. X X.X.X.X X X X{./._..X%XoXoX*XoX3X6X5XeXcXFXh.i.@X!.!.Q.!.E.'. X%X*X-X-X6X6XrX*X*X*XwX*X&XoX%X%X;X*X*X&X;XhX.XG.'.{..X{.{.{.{.A..XoX(.D.}.|.oXoX{.A.}..X.X.X}.|.XX3XoX.X.XuXC i./.{. X{.%XOX;X&XrXjXjX7X6X*X7X).).%X).%X%X&X&X;X.XrXtX5X_.4X8X8X.X5XiXT.6.XX6X3X|.A.S.A.OXOX|.oX0XwX3XqXeXuXeXaXuXuXyX4X X{.oXwXwXwXrXrX;X X$X%X-.5.&X$X&X&X&X;X;X5XE.E.6X&X-XrX*X;X;X7X-X^.T.T. X.XXXoX",
"}.}.{.{./././.E.{.Z.{.{.%.i.h.T.)./.E.)./.).). X.X.X.X.X%X%X.X%X%X$XXX).E.E.R.Y.p.V.V.' T..X.X X X$X%X.X.XOX.X.X.XOX.X.X/.{.). XC.h././.!./.{./.). X XxXh.&.W.).)..X.X.XOX_./.T.)./.E././.).).)./.).).{././.}.). X$X X].rXE.| k.5XrXE.B.D.{.{.D.A.A.'.G.N.f.D./.'.J.{.}.|.oX|.}.{.J.D.F.D.oXtXy.l r. X]. X X).)./.E./. XOX.X*X%X6X6X*X%X%X*XXX.X.X X XXXXX$XrX:.k.A.C.D.A.A.J.D.A.C./.D././.A.N.d.L.S.D.{.|.|.4XK.A.{.A.Z.u.8.z 4.E.E.{.{.{.D.A.C.8.B.D.D./.J.A.D.A.D.J.J.A.A.D.C.D./.A.{.(.{.{.}.|.cXR.k h.;XXX%X*X3X8XeXeXtXtXrX8XeXeX8XrX*X3X.X(./.E.A.C.g.k.T.Q.E.Z.A.A.}.cXu.P E././..X{. X.XE./.}..X}..X%X X X).).)..X.X)..XXXoX4XoX6X6X5XtXFX6Xt.h.a.a.a.R.R.E.].XX%X*X*X6X*X*X3XwXoX6X6X*X*XoX,XoX*X%X%X6X6X/./.}.{.{./.(./.{.A.OXoX{.D./.}..XOX{.C.A.D.{.{.}.}..X3XXX{.4X3X_ {.!.{.XX.X.XoX*XwXwXwXtXrXrXrXtXrXlXmXhXrX;X6XyXyXuXrXeXtXeXlXcXtXrXyXNXLX*X/.E.C.S.b.7.9.H.G.G.G.OX|.|.0XiXiXpXpXeXqXiX3X|.{.}.6XwX,X,XyXnXZ.R.V.%.y.&X&X&X%X*X;X.X5X.X X%X).).;X.X-XrX%X.X X).T./.).). X",
"}.{.(.{.{.{.{.{.{.G.A.}.%.8.V.V.Y.!.!. X)./././..X X.X)..X.X.X*X%X&X$X).T.!.T.T.h.E.Y.I ). X).%X%X)..XOX.X.X.X.X5X%X.X.X.X/././.C.g././././.E.{./. X&XMXQ.#.).)..X;XXX%X X).).E./.)./.).).T.h..X_. X.X.X X/./.{. X X X X-XV.| A.|.{./.D.D.{.J.J.A.(.G.A.7.B.(././.{.{.}.}.}..X}.K.D.D.D.D.}.lXr.i V.$X X]. X X/././././..X.X.X5XoX;X%X.X%X.X%X%X_. X_. X XXX7Xt.T./.C.A.A.{.A.A.A.D././.^.A.j.g.B.D.D.{.{.4X3XK.OX{.J.E.V.V.6.A } A.A.{.{.{.(.{.(.d.A.D.D.{.K.A.D.D.J.{.D.A.A.F.A.A.A./.{.}.(.D.(..XcXC.f t.6X%XoX5X3X0X8XeXtXtX8X7X7XeXrXwXwX3XOXOX.X/.E./.R.A.T.E././.S.D.}.pX| _ )./. X). X/.{.E./. X.X}..XoX.X.X/.(.(._..X).XXoXoXoXoX6X7XwXeXNXcX` a p L t.].'.'.{. X%X6X7X6X8X6X.X5X%X6X6X6X6XoXXXoX*X*X%X%X;X/./..X{.{./././.{.{.oX0XD.S.OX}.5XoX|.D./.{.{.{./.}.|.|.}.}.3X3X_  X]. XXXXX%XoX*X5XoX6X7X6X5X%X.XoX-XwX1X%X.X6XwX<XwXrX7X6X6XwXrXjXtXwXlXBX6X).j.u.f.8.9.8.N.S.Z.J.{.|.|.>X0XqXqX3X8XqX8X8X5X|.|.|.3X3XyXrXAX&XN.V.| ,.&X].1X*X5X6X6X5X.X%X.X).%X7X;X6X%X%X6X%X.X X X/.).(.",
"{..X}./.{.'.E.A./.A.Z.{.4.7.b.b.h.R.{..X]./.)..X}.(..X.XoXOX.X*X%X%X$X).E.T.T.C.T.T.Y._ T.). X.X.X/./.{..X.X(..X.X.X.X.X).)..X/./.E.T./.E.E.E./.{. X X<XY.$. X). X&X$X=X$X).)./././.).).).).).%X.X). X X{.!./..X X XXX$X1X5. .(.}./.{.D.A.{.'.A.D.^.A.A.8.A.D.{.{.(.}.4X|.4X4X.X}.F.B.S.D.{.uX*.= h. X].].!. X/.E.E./.{..XOX%X4XoXoXoXoX%X.XoX.X).).).%X X X*X!.T..XA.A.A.A.A.D.D.D.D.A.D.A.g.B.S.A.F./.{.3X3X|.{.{.G.{.A.N.8.I A Z.E./.{.D.A.D.{.D.F.D.J.{.K.J.J.G.A.}.D.D.D.D.D.A./.A.G./.(.(.}.oXCX.XN 2.;XoXoXoX3X8X8XtXtXtXeX8X8XwX8XeXwX3X5XOX.X}.)./.T.T.T.T.E./.A.F.}.cX .u. X/.)..X{.{.}.{./././..X.X.X*XOX.XE.T..X.X X.X.X.X6X3X6X8XrXwXNXNXf.j.T.x.V.!./.).)..X%X;X6X7X7X7X7X6X7X5X;X6X8X3XoXoX6X X).6X%XV./.}.}.(.{.{./.{.{.|.3X.XJ.4X4XoX3X.X(.D.(.(.|.}.}.|.|.|.}.6X,X%.oX X&X/. XoX.XoX.X%X5X7X*X.XOX{.}.XX*XoX%X*XrXrXwXwXwX6X5X3X8XrX8XrXtXvXVX7X/.8.u.g.8.9.b.S.B.A.J.}.|.|.|.0X0X3X3X0XeXeX3X|.oXoX3X(.9.t.p.R.E.8.E.,.$.&X&X&X*X6X-X6X5X%X5X5XOX%X6X6X;X%X.X). X%X_.)._.^. X",
"{.OX{././.D.E.{.J.{.'.XX8.5.u.8.u.C. X!.!. X/. X X_.}.OXoX*X*X*X*X%X%XXX).T.A.E.E. X XT )./.).). X)././..X.X.X.X.XoX.XOX%X.X.X{.(.^.T./././.^./.{.{. X-Xa.%.).). X&X%X*X X_.).)././././.).+X)..X X.X).).{.{.'.E. X).$X].XX%.4.}.(././.E.D.(.{.{./.D.A.A.S.J.J.J.D.D.}.}.4X.X}.}.}.D.B.B.A.OXnX#.* R.). X'./.!./.T./.)..X.X.X%X*XoX%X.XXX%X%X XT./.%X.X%X).E.;Xh.E.OXD.D.D.{.{.{./.A.A.D.D.B.B.S.A.D.D.(.}.oX3X|.}.K.{.J.A.A.u.| C Z.{./././.D.D.{.(.J.D.(.{.OXJ.A.A.A.A.A.A.A.A.A.A.D./.{.A.{.{.}.}.tX.XP _ ).XX,XoXwXwXeXtXtXpXuXeXwXwX6X6X6X6X6X5X.X/.}./.^./.^./././.A.A.}.eX9.}..X)./. X{.{.{./. X{./.XXoXoX.X).).)._. X.X.XoX.X5XoX6X6X3X0XeXcXuXC.!.E.Y.R.!.).). X.X.X*X*X7X7XrXeXrX6XwX7X6XwX3X6X*X*X/./.7Xg.u..XC.D.{./.D.D.{.}.oX.X3XoXOXoX4X4X|.}.{.{.{.}.}.oX}.}.J.}.0XwX9.XX%X*Xh.C.;XoXoXoX*X;XtX6X.X.X{./.}.OX.XoXwXwXwXrXrXwX8X6X6X6XwXeXeXtXcXVXvX.Xi.N.N.7.8.N.A.N.A.{.}.}.|.3XwXoX3X3XeXeX3X3XF.}.4XoX{.;.M q 7 7 :.6X#.k @X&X&X6X*X6X*X6X6X6X*X*X5X%X%X%X%X_._..X%X.X.X.X{.}.",
"{.}.}.{.A.A.D.J.J.J.'.{.y.5.u.r.y.b.Z.A.!.E.'.].XXXX X}..X&X%X%XXX%X%XoX X XA.D./.$X=XP u.T.T.(./..X.X(./..X.X.X%X.X{.{..X X)..X{./.A././.`.^././.{.XX-X'.I ^.). X.XoX%X X/./.T./././././.).).)..X.X.X).).'.{. X X X X$X].#.g.OX{./.Z.Z.D./.D.D.A.A.D.A.D.D.D.D.A.D.D.D.}.{.(.}.}./.S.k.S.K.nX$.< h.).).{.C.h.T.T./..X.X%X%X.X%X.X.XoXoX X%X%X/./.).%X%X%X;X6XT.A..XK.J.D.{.{.{.{.A.A.D.A.D.j.4.A.A.A.D.}.}..X.X.X}.(.{.E.Z.V.5.k 5.).E.A./.{.J.D.(./.{.{.{.D.{.J././.N.C.A.A.A.A.B.A.D.{.{.{.G.{.}.4X.X' #.$X X*X*XoX6X8XtXtXtXeX8X7X8XwX6X5XoX6X.XOX.X}./.(.A./.A./.A.C.A.}.wXg.}..X{././.E.{././.).}. X.X X.X X!.T.^.^._.4X.X%X4X*XoXoX*X.X5X5XlXlXP.Y.Y.Y.E.!. X!. X.X%X5X6XrX7XrX<XrX,X6X6X*X5X6X*X6X*X4X*XlXI 6..X{.{.{.{.D.D.(.{.XXoXoX|..X3XoX3X|.|.}.(.(.{.4X4X6.A.|.oXwXXX4.{.XX%XOX.X6XXX,X*X7X7X7X6X.X/./.A._..XOX*X6X6XwX8XwXwX8XwX6X6X6XeXeXrXcXcXtX8XV.C.V.6.8.N.N.N.B.{.{.{.}.5X4X6X3X0XqX0X3X3XF.D.oX|.OX>X0X0X.X.XoXjXT t =X=X-X7X6X6XoX6X*X*X%X6X6X*X%X.X+X.X X%X%X.X.X.X_.}.",
"{. X{.{./.A.D.D.{.G.A.{.b.5.b.6.5.r.h.!.E.E.!.!.).XX)..X*X%X*X*XXX.X%X X X X(.D.{.%XyXP ,.C.T.)./._.OX X.X.X.X.X.X.XXX.X). X.X/.)./.A.^././.W.). X_. X-X].U ). X).%X;X%X/.E.R.E.T./.E.D./.).)./.)./././.{.].].{. X). X$X!._ g.3XOXD.Z.S.Z.G.D.A.A.D.A.F.D.A.A.D.A.(.g.4.F.D.}.}.|.K.F.g.k.B.nX#.> V.).!. X!.u.C./._.)..X.X X.X%X%X5X5X.X.X/.(.{./.).)._.%X&X-X/.A.3X3XA.D.{.D.D.J.A.S.G.D.{.D.9.S.{.D.(.}.{.}.3X.X|.{.J.{.E.b.7.n U V.V.C.D.{.A.D.D.{.(.}.{.{.(.D.D.}.{.A.A.A.{.A.A.D.A.{.{.{./.^.{.rXoX_ } %X$X*X6X3X8XwXeXtXeXwXrXrX8X8X6X6X6X6XoXOX.X.X/./.{././.F.F.A.C.{.E.t.}.).XX X/.(.!.).}..X}..X). X.XE.Y.C.T.T.).%X%X%X%XOX.X{./..XrX;X7XvXT.Y.V.T.!. X/.E. X.XOX*X%X8X8XrXrX<XrX7X%X;X6X6XoX*X*X6X*XlX] h..X{.{./.}.K.{.}.}.|.|.0X4XoX|.|..X.X}..X(./.}.3X3Xd.B.}.oXwXoXi.*X X%X,X*XoX6X*X8X6X8X7X6X.X}.D./.XX.X%X4X.X6X8XeXeX8XrX6X5XoXwXwXeXwXcXvX7X8Xh.<.5.9.g.N.g.N.C.A./.}.|.3X4X6X3X3X0X3X3X3X{.(.|.3XOXJ.J.J.OXOX.XtXD x $X&X$X&X*X;X;X6XwXXX.X6X*XoX.X.X).%X%X%X%XOX.X.X).}.",
"}.{.A.}.{.{./.A.{.{.{.XXb.2.n.y.5.r.i.V.E.!.!. X).)./..X.X*XwX*X%X*X$X X)././.A.E.XX1XR t.j.T./.)..X.X.X.X)..X%X.X*X X X X.X X).(.C.C.D.A.^.).)./.). X&X].J c.E.). X%X).T.R.T.V.T./.A.!.]. X/./.T./././.!.].!./..X). X$X!.I i.S.{.A.N.Z.A./.A.C.A.A.A.A.A.C.B.S.B.(.A.;.A..X}..X}.D.B.k.d.g.cX@., !.$X!.).!.h.C.)..X.X.X.X}..X5X.X.X.X.X.XT.T._.).). X%X%X%X7X).C.6X3XB.g.(.J.{.D.J.A.A.S.A.F.A.A.A.(.{.}.D.D.3X|.|.{.G.A.Z.V.p.n H R.8.8.A.(.A.(.{.(.{.(.{.J.D.(.D.D./.{.A.J.A.A.A.J.A.J.J.{.{./.).wX/.P %.;X$XXX4X4XwX8XeXtXeXwXrXwX6X6X6X6XwX6XoX%X%X%X).)./.h.A.A.C.C.D.6XoXr.{. X/. X}./.E.}..X.X5X%X$X&X!._ 5.h.T.)..X.X%X.X4X.XOX8.I %X7XrXtXlX).Y.a.T.!.E.!.E.E.).{.OX6X6X7X-X*XhX7X7X6X6X6X6XoX*X6X*X5XVX:.5.E.{.A.{.{.{.}..X}.|.4X4X|.|.3X|.4X.X}.|.}.D.{.{.oXqX{.K.}.eXoXa.XX X%X%X*X6X6X*X7X7XrX7X5X.X_.D.E.%X%X5X*X.X6XwX7X7XrXtXwX4X*X7XtXtX7XcXBX).5Xh.5.6.V.B.N.u.C.N.A.A.}.OX5X8X4X3X3X3X3X3X3X}.}.OXtXoX{.{.J.D.{._.5Xy x =X&X&X&X*X-X6X;X6X,X*X*X,X5X.X.X%X_._.$X;X5X.X.X.X/.",
"{..X}.OX}.{.{.D.A.J.J.*XN.r.V.a.5.2.2.y.n.T.E.).).).)..X.XoX*X%X-X*X%XoX X/././.{. X-X_ t.T./.)._..X.X.X X.X.X.X%X.X.X.X X.X X/.).C.h.A.A.E./.T.E./. X-X-Xb h.).E.!.XX)./.!.A.V.T.T.^.).!.{.{.T.C./././. X X/./.).).).$X!.I V.9.j.C.N.N.A.D.B.S.D.F.A.D.F.B.g.d.B.A.D.B.D.}.}.}.{.D.C.j.B.9.iXT > +X)./.).XX X/. X{..X(.|..X.X.X5X.X.X5X%X.XOX(.)..X.X.XoX.X;X6X6..X3XD.F.{.{.D.J.D.J.A.A.B.N.A.S.J.J.{..X{.(.|..X}.}.}.G.A.Z.V.S T *X5.b.A.{.}.D.{.{.{.{.{.J.D.J.A.J.{.{.D.A.A.D.B.C.A.{.D./.J././.eXA.C #./. XoXoX5X3X6X8XuXtXrXrXwXwX6X6X6X6X3X.X.X_.%X X_./.E./.A.A.F.D.eXoXy..X{.].{. X X{. X.X5X%X6X-XgX).#.u.T.E./..XOXoXoXwX6X6X.XC.%XwX7X7XrXY.T.E.T.T.E.!.T.E.(..X.X5X6X6X*X.XrXeX7XrX7X6XrX6X*X6X6X*XcX#.6.R.A.A.D.K.J.{.}.}..X|.}.|..X|..X.X|.}.}.{.{.(.J.|.oXD.(.|.uXZ.8.%X.X X%X*X6X6X6X8X6XeXrX*X.X.X/.F..X.X%X*X*X6X;X6X7XeX8X/./..X8XtXeXeXcXjXY..XC.g.V.C.N.g.8.g.N.C.A.}.XX|.0X3X}.oX3X.X4X4X}.}.}.qXrX X{.{.D.J._.8Xy j =X@X&X-X-X6X6X6X;X*X6X*X6XoX_._.+X.X%X%X*X%X%X_.(./.",
"G.OX|.}.{.A.{.E./.D.A.wXZ.5.a.i.y.=.@.2.4.7.V.R.!.!.].!.).%X%X%X*X%X.X X.X/._.).XX X=XR q.T./.)..X_. X%X).%X)._.%X%X_..X).). X!.R././.A.A.^./.C.E./.E.XXkXL -.;X).!.!.XX X'.E.V.A./.E././. XE.C.E.E.).!.).]. X/.!./. X-XT.} V.g.g.g.u.g.C.A.D.D.A./.{.A.N.B.B.C.C.B.B.B.S.A.{.{.{.'.A.j.L.N.lX@.8  XE.T. X X!.{. X X_..X.X_..X.X%X.X%X5XoX{./.}..X.X.XE.T..X.XtX| h.6XA.D.(.D.{.D./.(.{.D.g.d.F.J.J.{.{.|..X3X4X}.4X.X}.{.{.C.N.C b XXV.E.'.A.{.J.{.{.{.{.{.D.D.D.J.D.{.D.A.C.A.D.g.8.A.(.D.F.A.D.{.tX/.P P a.T.).5X6X3XrXeXeXrX7X8XwXwX3XwXwX3X3X3XoX.XOX.X}. X{.'.A./.A.A.eX X5.$X X'. X/..X%X.XoX5X*X5X-X7X7X$X).).)..X.X.X4X6X6X6X7XrX6X/.6X7XrX<XV.R.E.T.!.E.)./.)./..X.XoX*X7X8X.X6X8X6X7X7X6X;X6XwX*X%X*XtX#.A./.D.A.{.J.D.K.{.{.}.4X|..X.X|.|.|.}.|.}.}.{.{.}.oX|.}.|.3XuXA.9.XX!.{.*X6X*X*XwX8X6X8XwX6X.XOX)./.T._.6X6X6X*X*X*XrXtX7X/._.5XrXeX8XwXuXbX8././.A.J.N.j.B.N.u.g.L.C.J.oX3X0X3XD.|.3X|.}.|.K.J.}.|.aXoX(.{.{.J.|.uX7 h dX#X#X-X-X7X7X7X%X5X6X6X8X*X.X X).+X%X%X%X%X%X.X_.T.",
"J.OX{.{.A.u.E.A.D.F.G.oX'.4.R.n.p.*.R ' @.3.5.-.y.V.E.).%X%X%X;X;X6X.X.X).)..X).$X-X&X' ,.j.T.).)..X). X%X.X)..X.X_..X_.)./.{. XE./././.T.A.E.E./././.&XkXW I  X X!.E.!.{.E.R.T.T.R.!.E./. X/.C.E.^.T.T.!. X!.{.A.E. XrXV.#.g.g.g.g.L.N.A.A.D.{.{.{.{.J.A.N.A.D.A.B.S.S.D.A.{.D.A.A.A.N.8.L.uXT 7 _.C.!.]..X{. X_..X.X.X.X.X.X5X.X%X.X%X*X/./..X.X.X;X).T.+X.XjX,.<.|.F.D.D.D.(.(.D.D./.(.(.S.A.D.{.D.{.{.oX}.4X4X4XOX}.{.{.C.8.A f  XT.E./.(.K.J.J.{.}.(.{.D.(.D.A./.D.D.A.B.D.F.D.A.D.J.D.A.S.J.{.4X).' l h.). X6XwX8XeXwXrXiXyXeX5XwXeX6X6X6X3X6XoX.X.XoX.X{.{.{.E.A././.tX X-.XX!..X.X X.X.X.X5X*X*X;X6X7X-X$X%X%XOX.X.XoX.XoX*XrX6X7X6XT..X;XrXrXp.Q.E.Q./.).).).)..X.X%X%X5XrXeXrX6XrX7X6X7X7X6X6X5X5X*X6X;XI E.{.{.J.(.D.D.K.{.{.{.K.|.4X4XK.|.4X4X.X(.^.{.}.}.|.XX|.|.oXuXa.u.wX8.E..X%X.X5X7X6XrXrXwX;X%X.X.X/.^.OX5X%X,X;XwXwX).6X8X.X5X6X8X7X7XrXlXpX6.{./.Z.Z.b.8.d.N.S.N.g.B.J.XX|.3XK.L.}.3X3X}.K.K.}.}.oXyXuXJ.{.D.D.{.wX1 u :X2X&X=X7X<X<XrX*X6X%X7X6X5X/.^.). X%X.X;X6X5X%X_.).",
"{.{.}.{.{.A.J.A.{.D.A.XX!.v X.U K h y x n n c k l ' h.E..X%X;X%X5X*X.X.X X.X.X.X X-XyX:.,.i.T.E.!.{. X X.X X/._..X_. X.X/./.!.E./././.A.E.A./.E.!.E. X%XkXx *.-X X).]. X'.E.E.).R.E.!.{. X X XE./.T.T.T./.).{.'.A.E. XrXZ.5.N.8.8.N.N.C.A.A.{.{.{.A.A.{.D.A.C.B.g.B.B.S.A.A.A.A.S.G.D.B.9.L.>Xk i ).!.XX X X X X X.X.X%X.X.X.X.X.X.X.X%X.XE.T. X.X.X.X.X%X.XoXvXi.} /.A.A.D.F.{.{.A.D.D.A.D.A.S.A././.{.{.}.}.XX}.}.}.{.{.E.A.8.P l /./.{.D.{.{.D.{.(.A.D.F.D./.{.D.D.{.D.B.B.A.D.D.J.D.E.D.A.A.A.(.oX).-.B !.XXXX6X6XrXtXrXyXyXrXjX6X8XtX7X8X*X6X6X4XoXoX.X X{.{.!.E.{.{.}.yX!.}  X). X{.).}. XoX5X5X%X*X*X*X*X;X*X*X*XoXoX.X5X4X8XwX*X*X6X6XoX7X7XrXy.!.E.E.E./.)././..X.X.X*XoX7XlXtX6XrXtXrX6XtX7X6X6X;X;X7X.XP /./.{.{.A.D.D.K.D.J.}.(.}.4X|.|.}.5X4X|.{.A.K.|.|.(.|.3X|.3XVXi.i.;XZ./..X.X*X5X6XrX*X6XwX6X*X*X*X}.D.^..X*X-XrX,XwX5X;X8X*X6X6X7X8X8X6XbXpX| }.A.A.A.N.u.7.7.L.B.g.g.}.oX|.4X3X4XK.oX3X}.J.|.}.}.oXiXNX.XD.A.{.{.).< 3 :X1X&X-X;X-XrX7X*X*X*X6X7X7X)./.).%X.X%X6X;X.X%X.X.X",
"{.{.{.{.{.}.}.E.A.F./.XXXXN M n 7 : 7 7 7 7 i e p V ,.!.).%X*X%X*X.X X.X X).{.).XXXXyXr.5.V.V.E./. X{.{.{.}.{.}._.}./.{.)././.A././.E.^.A./.^.E.E./.'.&XhXy ! 7X X X X X X X/.).T.E.!.).]. X X!.E./.T.A.E. X/.'.E.{. XkXu.:.g.8.N.u.N.B.A.A.{.D.J.J.A.{.D.S.N.N.B.B.B.S.S.N.S.A.G.G.D.L.L.L.,X} c %X). X$X XXX.X.X.X.X.X_._.%X.X.X)..X.X.X%X X%X X.X X.XoX;X,XBX5.U /.A.F.A.A.D.(.D.D.A.D.{.G.A.A.D.D.J.{.|.}.}.oX|.}.{.D.A.S.u.Z V E./.{.{.{.}.(.D.D.S.D.A.A.J.}.}.(.{.(.A.C.A.D./.{.{.Z./.D.J././.6Xg.) i.-X%X,X-XrXrXrXrXkXlXrXhXrXrXtXtX8X6X7X6X5X*XoX%X.X X{.'./././.}.uXh.L ].). X X.X.X.X*X6X*XXX%X%X6X*X*X*X.X8X*X5X6X6XoX3XwX6X4XoX3X6X8XtX6X6.T.T.).^././.E. X.X%X.X X*X*X7XBXjXrXeXrXwX;X7X7X6X*X*XwXE.P .XA.G.G.J.{.D.D.K.{.}.}.|.}.}.}.}.4X}.}.{.A.(..X{.K.oX|.oX6XZXi.:.!.XX.X_..XoX*X*X6X6X6XwX5X*X5XoX.X(./..X*X*XrXwX8XwX8X8X6X6X8X8XtX7X6XVX7XP D.A.A.Z.N.N.d.9.4.9.d.N.{.oX|.}.|.3X|.oX4XoX(.3X.XD.{.wXcXeX_ 8.{..X5X< + p.2X1X*X;X-X-XrX7X6X6X7XgX5Xh.T.XX*X.X_.*X;X)..X).).",
"{.{.A.{.{.{.J.E.A.F.D.oXXXy.%._ -.-.Y L R Y c M G { f.!./.). X%X.X$X X X X X). X.XXXnXu.-.h.V.Z.Z.'.{.{.{..X X(.}._.).)././.E./.A.C.T.T.A.E.Z.E.E./.{. XdX3 D 7X$X%XXX&XXX XR.E.T.E.). X]. X X].E.E.T.)././. X{.'. X.XrXy.V.Z.8.L.j.N.N.A.A.A.{.A.A./.{.A.B.C.N.B.N.S.S.N.8.N.N.C.D./.A.L.L.,X9.m E.). X X X.X.X_..X.X.X5X.X.X.X.X X.XXX.X;X;X.X_..X.X}..X6XrXBX@.L '.C.D.D.D.A.A.D.{./.{.{.A.Z.A.A./.D.}.}.}..X|.}.}.}.{.E.N.8.A 8 Z.[.E.{.{.}.{.{.D.K.K.(.D.{.{.}.{./.D./.A.A./.A.{.{.A././././.{.rX6.w R.;X%X-X<X<XrX6XrXrXrXyXtXrXrXhX8XrX7X7XrX*X*XoX4X.X.X{.{./.{.{..XlX6.f u.!././.)..X*X*X6X.XT./.5XwXoXoX3X6X6X5X6XoX.XoX8X6X4XoXoX3X6X%XtX6Xh.T./.E./.T./././..X.X.X}.OX.X8XrXBXjXrXrX6X6X7XeX7X*X;XtXi.c OXJ.{.}.{.{.D.D.{.D.{.}.}.}.{.{.}.|.|.}.}.(.}.4X.X}.|.4X3X3XVX,.>.E.{. X X.XOXOXoX*X6XwX6X*X/. X.X_././..X.X6XwX8X3X3X3X6X6X6X3X8XeXeX8XuX| l A.Z.S.N.L.8.8.8.8.:.4.L.D.{.{.}.{.|.}..X.X6XD.{.{.A.{.oXiXNX5XD.D..X$X: + p.fX&X-X7X-X-X6X6X6X6X7X5X[ m ] E.XX)._.%X%X.X). X X",
"D.{.{.G.A.D.E.A.j.F.(.*X$Xi.p.*.r.R.!.V.a.y.5.t.h.^. X[. X!.$X$X X X X).!. X). XXX&XlXh.:.Y.T.V.E.A./.).{..X{.{././..X)././.T.C.C.C.C.C.C.A.R.R.E.E.!.&XkX6 i +X!. X XXX.XR.R.E.C.T.).).XX X].!.T.T././.!.!. X{. X XoXlX3.V.Z.b.d.L.N.B.D.C.B.{.9...J.{.S.A.N.C.j.g.g.N.N.5.8.N.S.A.{.S.g.7.oX8.V .X). X XXX.X.X5X.X.X5X_._._.)./. X{.XX.X$X.X X.X%X.X.X.X*XtXKX-.L A.N.S.D.^.{.J.{.{.A./.{.B.N.D.D.A.D.{.{.}.}.}.XX}.}.{.G.N.8.C 8 R.{.{./.}.(.}.}.{.(.{.(./.D.{.}.}.}.{.D./.D.{.{.{.{.J.D.{.{.E.E.*Xr.t a.$X$X*X*X,XwX6XrXrXrXrXrXrXrXrXtX7X7X-XrXwX6X*XoX.X.X). X X X/. XlXh.N 8.E.). X)._..X.XoX*X/.T.OX5X4X3X6XwX*X6X6X.XoXoX5X*XXX}.oXwX6X;XtX*Xt.W.T.E.C.A././.).}..X{..X.X.XoX8XuXlXrXrXrX7X;X7X;X.X$XjX@.b ;X{.XXN.8.A.D.{.{./.}.A.{.}.}.}.}.}.{.{.{..XOX.X.XOX|.3X3X|.HX' q.XX'. X.XOX.X.X4X6X6X*X*X6X/./..X.X.X{./.5X*X8X3X3X3X8X3X0X6XwX3X4X4XD.9.w e E.N.N.g.L.8.d.6.8.9. .8.G.J.{.(.K.{.J.}.{.}.D.(.}.D.D.}.3XuXCXwX{..XtXy @ #X#XoX;X7X*X7X6X5X*X*XeX.XB { V A.{./.4X5X*X.X.X(..X",
"A.J.G.A.C.A.E.N.d.F.E.*X'.i. XY.a.Y.R.].!.V.E.].XX&X X]. X X$X X X).).!. X!.). XXX-XnXY.i.R.E.T.R.T.A.E./.{.{..X XE.V./.E.T.C.T.C.V.V.N.h.C.C.V.Z.E.E.].dXt t .X!. X X$X%X XR.V.V.T./.!..X!.!.Y.T.T.).!./.]. X X X X*XlX:.C.C.N.g.g.j.C.A.A.C.}.A.8.{.A.C.C.N.N.N.d.8.u.u.4.8.N.N.A.A.A.N.4.}.d.Z  X/. X$X.X.X%X.X%X%X%X.X.X X/.!./.{.E. XXX X.X X.X.X.X%X5XrXAX*.b OXA.A.A.D.{.G.A.{.A.D.{.A.A.D.J.A.D.A.{.}.|.}.}.}.XX{.Z.Z.8.Z l E.{.{.{.}.}.}..X}.}.{.D./.{.{.}.(.E./.D.G.{.{.{.{.D.{.A.A.A.A.E.oXT.b i.XXXX-X*X6XrXwX*XrXeXrXrXeXwX8XwX6XrX7X6X6X6XoX.XoX.X X X X X!.!.jXV.l #.T.).T.C._..X%X%X6X/.j. XOXoX5X6X6X6X5X*XoXoXoXXX{..X{.oX4X*X6XcX6X5.T.T.T.C.E./././..X X X.X.XOX.X8XrXyXrXrX6X6X6XwX6X*X*XBXU b wX|.D.z f 4./././.D.(.D./.{.}.{.}.}.{.{.{.|.}.}..X.X}.|.4X|.VXP i.oX[..X.X.X.XoX5X6X6X;X6X*XOX X.X|._..X5XoX3XwX6X3X8X5X8X6X8X3XeXF.4XB.] e 5 Z.H.Z.L.g.9...4.4.9. ...H.{.{.A.J./.{.}.{.D.D.{.}.{.A.(..XwXBXuX}. XtXa + U.fX&X*X5X*X7X*XwX6X4X6X8X[ V ..6X/..X5X8X*X.X7X.X_.",
"A.G.A.N.N.Z.A.j.d.j.C.XXV.-.Y.n.Y.Y.].].!.E.!. X X$X].&X X X!. X).!.!. X!.).). XXX%XxXp.i.!.!.T.u.h.C././.!.R./.{.C.6.C.T.T.T.Y.h.V.V.j.k.h.V.Z.V.C.C.].dXt 1 E. X]. X].XX/.E.V.C.T././.E.T.V.V.E.E.!. X)././. X/. X*XrX5./.A.N.N.8.N.j.C.A.C.B.D.{.{.A.A.A.N.g.8.7.u.8.u.9.4.N.L.A.Z.G.N.4./.u.} .X X$X;X.XoXXX%XoX.X.X).(./.T././.!.V.g.!. X.X.X X+X%X.X7XtXSXL P .XC.A.A.A.D.A.A./.A.A.A.{.{./.D.{.J.J.}.|.}.}.{.}.OX'.G.A.7.C k V.{./.}.}.{.{.(..X_.}.(.{.}.{.{.{.D.A.D.J.J.A.{.{.J.E.G.E.C.g.A./.h.b 5.&X X%X6XwX*XwX8X7XeX8XeX8XwX8X6XwX6X8X6X7X5X3XoX.XOX X.X{.!.!.!.rXV.P @.Y.E.V.i./.)..X%X%X.XD.}.OX5X6XoX6X5X*X*X4X6X3X}.}.}.}..X5XoX}.NX X#.W.T./.t.h.E./.)./.)..X.X_..X*X5XrXrXrX,X;X6X5X*X8X*X;XlXD ! 5XeXB.e q C A./././.A.{.{.}.K.F./.D.(.{.}.|.oX|.4X|.4X4X|.4XVXN x.$X{.).%X.X.X.X6XwX6X7X6XoX/..XoXg.C.OX.X3XwX6X6X6X6XwX6X6X6XeXeX8XaX4Xd.z 8 Z.'.Z.S.F. .A _  . ...4.N.J.J.A.A.A.D.(.}.D.A.D.{.{./.J..X*XeXcXoX(.-Xi . I.#X].;X*X*X;X8X6X8XwX3X8X3XS.|.8XoX6XoX;X*X5X7X.X.X",
"V.8.7.C.Z.Z.E.E.B.g.N.*XV.*.y.2.5.i.V.!.R.E.E.]. X!.].].!. X!.E.).!.!.T.T.E.!. X X&XrXrX5.,.,.h.u.#.u.!.T.T.A.E.!.{.A.V.C.T.h.h.a.a.h.u.g.g.u.u.g.V.V.R.=Xy . j.).$X$X X X'.E.Y.V.E.!. X'.E.Z.V.{.!.!. X).).).). X X*XwX%./.C.N.g.N.g.B.A.F.B.A.D.F.A./.E.Z.V.u.f.b.u.9.4.6.6.8.A.A.A.Z.Z.8.A.k.#.%X$X%XXX&X.X.X X.X X X!./.T.T.E././.T.V./.)._..X_.T.F..X-XrXSXb I .XC.N.A.D.S.A.N.A.A.N.A.D././.}.|.}.|.|.3XoXXX|.}.}.'.!.C.y.N z {.{.{.{.}.}..XOX}.}.}.K.}.J.{.J.J.{.D.D.D.(.D.(.{.{.'.!.{.A.V.T.).#.k #.;X&X*X*X5X6X6XrXwXwXwXwX6XrX6X6XwX6XrX7X6X6X%X.X%X.X X.X X!.!.).%Xr.L *.E.E.].A.(.{..X.X.X.X.X.XOX3XoX3XwX6X4X5X4X*X4XXX{.|.}.5XrXA.9.cXj.;.^.T./.i.V.).).E./.).).).).%X%X5X8X8X6X4X6X5X8X.X).6X5XzXy / ,XwXeX .V | Z.'.}./._ 9.E.{.(.D.A.D.(.|.|.|.|.|.|.4X|.|.|.qXNXc P.]. X{._.OXoX5X5X;X%X6X6X%X_.%X8X/.C..X.X5X8X*X3XwXwX6X4X5X8X8X8XtXtXpXtX4X4 b.{./.{.{.8.{ | }  ._ 9.d.B.B.A.A.S.S.A.{.A.A.{.{.J.D.D.oXwXXXtXAX.X-XH X I.#XXX*X7X=X-X8X7X6X6X5XoXeXwX5X4XrXjX7X7X6X;X*X.X%X",
"Z.N.7.A.Z. X{.XXA.C.T.%X5.=.p.7.r.r.6.i.h.E.E.!.!.Q.V.E.!./.A.R.T.V.Y.Y.E.T.E.!.!. X-XrX6.6.(.). XE.u.i.t.V.!.R.R.R.].Y.Y.C.T.T.V.h.i.u.h.V.%. .C.T.V.!.Q.6 $ q.T.$X@X$X!.].T.Y.Y.Y.E.).E.R.E.E.]./. X!./.`.).!._.%X6X%X%..XA.A.B.g.g.g.A.C.A.C.A.C.A./.{.Z.C.u.f.8.8.7.%.6.:.8.d.A.A.{.{.N.N.V.' ).$X X%X.X X_.{. X/.!.E.A.E./.).E././.T././.T./.).A.T.{.*X<XAXb ] oXN.N.A.D.D.M...g.S.C.A.E.{.}.}.XX.X|.}.3X0X0XoX*XoX{.!.V.u.z L .X'.{.{.}.}.}.(.}..X.XJ.J.{.J.}.{.D.{./.A.J././.}.B.C.E./.A.A./..X-.i X.$X X*XXXoX.X%X6XrX-X7X6X5X*X6X*X6X6X6X6X*X*X.X%X.X.X X{.'.E.R./.!.=.b 5.E.'.'.{.}./..XoXoX.X*X.XOXoXoX6X,X*XoX%XoXoX5X.X.X.X6X6X6X.X{.7X#.#.T.E.!.!.E.E.!././././.)..X_.)..XoXwX6XwXoX.X;X).T.;X7X8X, y.XX'.J.|.0XS.G.A.OXOX} | g.A.D.B.A.(.}.}.}.|.}.|..X|.4X|.}.qXtX7 z.].}. X.X.X*X6X*X_..X.X6X5X%X%X.X_././.oX4XwXwX6X6X3X3X.X.XoX8XeXiXeXtXHXPXk 1.|.D.J.A.N.8.6.;.]  .9.B.d.8.g.C.B.N.S.A.A.A.{.D.D.A.S.D.oX.X'.BXrX5X*.O I.=X$X).7X-X7X7X6X6X6X*X5X;X6X7XrX7X8X7X7X;X6X*X;X.X",
"6.8.5.6.%.@.T ' @.I ,.6._ -.u.y.,.,.r.t.i.b.Y.E.E.R.h.a.T.T.V.g.b.b.h.V.!.!.Q.E.).;XtX%XE.).).). X X Xu.i.y.h.a.r.r.r.-.,.:.#.} #.I T @.$.&.L c U X.o.*.S , 2 #.T.).$X-X$X;X,X&XE.E.).Y.a.R./.E.!. X X].E.!.).!. X$XrX{.} !.j.N.A.g.g.g.g.B.D.B.C.j.g.C.N.Z.g.N.N.4.4.8...4.4.9.8.A.A./.{.m.N.6.| ). X$X%X X X/. XE.'.Z.C.A.E.).E.T.)./.T./.T.T.T.T.).).E..XlXlXN ;.wXC.S.B.A./.N...4.S.N.A.A.{.E.{.}.OX.X4X5XwXwXrXeX8X XE.a.$.9 _ {./.{.OX{.}.{.}.}.}.|.D.D.{.(./.D./.(./.{.{././.oX:.| E.E.A.C./.).4.k R ;XXXXXoXoX.XR. X*X,X*X*X6X6X6X7X7X6X6X6X%X.X.X;X.X X{.{.R.C.V.R..X2.b u.E.E.'./. X X.X.X.X.X.X.X*X5X4X*XXX%X.X%X*X5X*X%X*X.XoX%X*XlXVX.XT.W.Y.Y.R.T.E.).R./.E././.)./.)..X.X.X*X8XwXoX.X%X7X6X*X8XgX1 a. XE.A.A.}.D.A.D.Z..X}.E._ B.A.B.A.F.}..X}.{.{.|..X|.4X}.|.eXeX4 P.Q.!./..X)..X8X.X_.}..X5X*X.X5XoX}././..X5X6X4X4X3X3X4X.X.XoX6XwXwX6XwXpXJXl  .wXXXJ.{.L.9.%.| %. .g.B.d.9...9.8.g.N.B.S.B.D.'.J.S.S.S.A.D.XXuXuX5Xi.- ~.<X-X$X7X8X7X5XrXwX6X6X6X6X6X7XrXtXtXrXrX.X5X%X%X.X",
"P P P b l b p X.>._ w.,.' #.-.,.t.k.V.t.9.r.i.V.x.t.q.t.T.V.6.| ,.r.y.r.e.i.t.t.a.Y.i.#.#.i.u.5.n.Z.Q.'.R.#.N N B L ] #.w.i.k.#.#.N l k t > X $ ; a F Y c 7 r 5 7 q a a i k c T S U *.X.Y *.a.h.V.].XX@XXXXX-X&X<XrXlXE.%.oXV.B.C.N.u.f.N.B.C.A.A.N.h.h.E.V.Z.A.A.Q z ..7.7.4...d.S.A.Z.E.b.Z.y.#.E./..X). X X{.u.%.g.C.V.i.Y.E.E.W././.^.T.C.C.T.T.T./.E..XlX.Xz A .XS.d.g.N.A.A.N.8.N.A.N.S.A.S.{.{.}.oX4XOX8XrXiXaXiX X5.I k < ]  XE.{.{.}.{.(..X.X}.|.}.(.}.D.D.(.{.A.D./.{././.OX{.S.F./.A.E.E.].i.k N !. XXXXX%X.X{.{.oX%X*X6X*X6X6X-X*X;X*X%X.XoX%X4X%XOX/././.C.V.R.E.@.b V.'.!.!.C.^. X X X.XOX.X8X5X6X*X*X*XoX.X.X%X6X%X6X%X X.X;X6XiXAX6X#.q.a.Y.E.!.T.Q.T.T.T.T./././././.{.}..XoX5X*X.X.X.X*X*XjX;X$ h. X{.D.(.{./.A.A.A.C.'.OXj.C.C.F.(.}..X|.}.OX}.|.}.3X3X.X|.pX3X& ~.T.B. X{..X*X6X.X_..X.X.X%X5XoXOX.X.X.XoXoX*X5XoX.X4X.X}..X4X6XeX3X4XwXbXPX) } wX4X4X6XA.8.4.| | 8.S.B.9.9.9.....4.N.N.N.N.A.D.A.A.B.d.d.N.|.yXrX6Xj.= P.=X=X-X7XtX6X%X5X6X5X*X6X6X7X7XeXjXrX6X5XoX;X*X*X.X",
"XX X/. XP.U P ;.t..X;X-X!.+X$X;X;X$X;X XE.V.P.W.!.!.W.+X=X!.).E.V.!.&XP.t F M ] u.E.a.V.x.C.g.u.V.V.V.V.E.R.j.C.F.C.j.g.f.k..X|.^./.C.8.$.b n w s ).%X%XXX).T.T.t.*.,.-.~ S S U b U v l M B I N m w k x v D J T ! q.Y.@.W V.h.f.;.:.,.6.6.6.u.y.@.L 6.,.u.h.%.} $.6._ ' 4.@.%.2.r.N.R.'.Z.y.N.Y.a.!.].!. X). X.X} 5 ) T.g.a.h.V.V.T.T.^.T.Z.V.u.g.C.C.A.)..X6X/.I f 5XOXN.S.A.Z.A.A.A.N.H.S.N.L.b.S.S.8.N..X X6XtX.XXX6XXXr.k t 6 ,.XXA.}.}..X{.}.}.{.oX}.OX{.}.D.D.A.J.{.{.{.oXA.B.A./.{.J.J.E.E. X/.<._ k i.].XX XXXXX/. X.X,X*X*X*X*X%XrX*X%X%XXX.X%X5X%X.X)./.E.R.V.u.Q.R.I c T.].].].5.V.;X X$X X.XoX*X*X&X-XXX*X%X%X%X%X6X&X%X*X XXX%XoXtXHX5X,.t.Y.Y.Q.Q.R.R.Y.T./.T.E.E.E.C.!.E.E. XOX;X.X). X%X*XXX<XW.> '.OXK.J.J.{.A.E.A.S.A.A.A.C.A./.E.{.XX{.{.K.K.}.|..XoXOX{.OXNX.X. 2.a.8.u.E..X.X.X%X X XOX%X.X.X5X%X.X.X/..X.X*XoX.X.X.X.X.X.X6XwXtX3X|.wXpXPX| N 6X*X5XoXC.N.9... .H.XXG.g.9.4.8.} _ 8.g.8.g.A.A.E.A.d.d.8.d.'.wXrXtXC.4 p.=X=X-X-X<X6X%X.X5X6X6X7X6X6XrXtXtX7X8X;X;X%X*X.X.X",
"%X5X,XkXdXW b F t.*X&X&X&X$X@X$X$X!.).:X:XQ.Q.W.:X@X!.!.$X!.!.!.!.].&X@XS L Z g..X}.XX*X.X X.X}.OX/.E.!.A.{.{.{.A.B.g.B.D.}.3X3XoXoX|.OXXX&XrX5.7 T.{.{.E.A.E.XX.X'.XX*XoXXX%X<X*XeX}. X{.(..X.X*Xr.> 3 > 1 X.z.z.r.Y.).XX).$X$X XT.g.a./.h.T.i.r.p.h.i.t.h.i.8.g.A.}.p.1 > y t < 2 < < < 8 6 6 s.Y.Q. X).$X X;XV.} ,.T.h.g.k.C.h.g.h.h.V.b.u.9.6.j.N.A.{.wX,.1.P N _ #.R I I Q R P I  .Q Q } Q E } ' T P } | %.g.6.#.,.C.,.k 6 i -.a.V.C.C.A.A.A.D.C./.A.(.A.B.g.A.g.8.8.b.A.{.u.4.j.A.N.7.8.7.4.4.#._ ] M z I -.#.%.5.:.5.2.5.h.V.C.!.R.T.V.h.Z.T.T.E./.F.^. X XXX].R.R.].T.] b X.U U *.,.h.Y.Y.T.W.!.XX%X*X*X XXXXX.X6X;X%X&XrX-X].%X X&X%XvXGX_.k.k.p.Y.Y.W.h.h.T.V.Y.T.T.!.R.T.E.E.!.). X%X$X X&X*X&X&XzXe.3 XX'.{.{.{.{.{.H.A.B.A.A.u.%.4.A.{.{.}.{.K.{.{.}.|..X}._.}.|.HXT.X y.:X{.C.f.V.%X.X.X.X X/.)..X.X%X.X/..X(.OX4X4X5X.X(.(..X.X4X6X4X.XoX3XwXpXIX| 9 .XXXoX}.C.N.9. .8.>XwX}.C.4...L.L.9.B.B.1.9.N.E.{.S.g.9.9.8.S.oXwXeX(.t p.1X1X=X-X7X7X;X.X%X;X5X6X.X5X*XrXrX7X%X5X6X5X%X%X.X",
" X.XoXrXMXv x s f.+X X$X].). X!.).).).!.+X!.!.+X+X).+X!.).!.E.T././. X<X-.z V C.{.E.Z.8.N.A.A./.C.A.A.A.A./.'.E.V.g.6.d.F.{.}.{.OX.X{.{.{.{.&X=.: +XE.R.C.C.B.A.A.A.A.A.{.D.E.[.'.Z.Z.E.E.D.J.Z.XX,XJ D a t W.tX6X%XrXrXrXrX,X*X6X).)..X;X.X!.). XXXoX*XoX}.}.XX5XiXSXUXT 0.dX).R.R.a.] P P 9 , c U L Y R Y L Y :.t.,.6.5.4.i.g.#.t.Y.T.V.Z.y.6.6.h.C. Xn.E.B | m e * * $ o - * $ X $ 5 $ $ 5 2 * * X * ; 7 m B l ) #.] <.g.X.w k x a S c N V C B C V V B V { { { _ Z B Z P _ N b P ' f.j.4.8.4.6.5.i.i.,.,.q.#.:.Y ] ] G m 0 2 ] ' Z _ ;.i.,.g.j.h.;.k.<.k.<.P ' *.r.-.r.V.-.I ' R ' F c l M s c a c F Y ] ] X.@.} #.%.,.,.,.q.-.-.@.$.$.-.,.Y.%Xk.:.;.t.h.t.f.h.>.f.t.t.<.,.%.:.,.,.%.t.i.i.T.T.h.T./. X].xXU u %XA.D.A.{.{.{.A.N.N./.(.N.:.%.Z.H.J.A.A.J./.(.}..X}.{.{.G.|.FXi.X e.@X'.R.N.V.{..X.X.X(.T.E./. XXX X{..X.X%X.X5XOX(.T.F././.5X4X.X}..X3XrXcXIX#.*  XoXoXXX X!.g.7.b.>XyXoXA.6.4.7.b.Z.Z.C.8.4.N.{.'.N.8.8.9. .8.XX*X*XC.l e.&X=X=X-XgXjXjX%X.X6X6X7X.X*X*X8X7X7X6X%X%X%X%X7X;X",
".X.X>X,XkXT t H w.+X%X). X).). X+X!.Y.Y.).Q.!.+X).).T.!.T.T.).E.T.). XrX#Xb B ^.{.R.C.} 6.A.A.A.A.j.C.C.C.{.D.N.Z.j.f.k.A./.(./.{.F.K.J.J.J. XX., ).E.C.C.C.F.E.E.A.D.D.A.A.D.A.A./.D.A.A.(.A.S.oX>X%.} M i j.%X.X X%X,XwX*X*X*X+X).%X).)./.).).E./.].'.R.E.D.A.(.XX*XSX! e.*X.X[.>XiX,XXX'.E.E.Y.b.a.h.C.,.g.h.t.,.#.6.i.,.>.X.x n L E W L L b l L _ @.P g.t.#.) ,.<.f.>.#.#.] >.` M P [ { ) [ [ ] >.>.` #.f.C.d.f.^.t.h.a.Y l F H L O.R ] ) ] | :.:.1.| | _ ..1.Z ) | ;.,.t.5.r.n.u.V. X{. X{.XX-X%XoX$XXX%X&X%X.XrXlXtX.X}..X6X6X_.j.^.C.k.c.%X).k.j.k.D.(.,.' ` ) G c k c I I } %X/.,.<.+.>.o.o.` G F ;.o.' ) ` o.` ' G G _ F P c t F P ;.>.C.T.w.#.w.>.x.k.k.k.^.] v.k.;.B { :.;.[ [ _ P _ B | X.L P X.*.% h -X[.Z.E.{.{.{.D.B.8.B.A.N.9.u.B.N.A.G.G.G.{.3XeX6XoX|.,X>X>XPX-.X 0.].E./.!. X X%X6X4X5XC.V.E./..X}..X.XoX*X*X.X.X/.C.C.A.T.(..X4X.X.X3XtXeXFXt.> XXyXyX,XyXyXZ.b.Z.XXnX*XZ.N.9.N.N.S.C.V.8.5.b.{.{.A.8.L.L...6.OXoX.XT.M r.=X<X<XgXhXvXvX%X.XeX7XrXwXoXwXwXrXjX7X;X7XjX8X7X6X",
"_..X3X,XMX/ t G w.%X_. X).). X$X X].5.%.k.T.)..X.X).W.!.E.V.T.E.E.!.).1X<Xb ) _.E.Z.{.{.C.A.A.C.C.j.A.N.C.A.{.A.A.A.F.A.D.^./.{.D.A.(.J.A.G.{./ 4 '.{.Z.Z.A.Z./.A.A././.D.A.A.D.D.D.A.A.J./.D.{.0X*X%.%.f 2 h.%X.X.X6X6XwXoX.X.X%X.X X.X.X).)././.^.E./.E./.(.A.(.{.}.mXe.r.).E.'.G.'.G.N.Z.Z.Z.b.M.b.C.Z.E.{.XXXX*X*X8X*X*XwX*X/.A. X-XI 4 $.@.I #.:.6.V.XX.X X X.X%X7X$X*X*X*XrX%X X.XrX*X$XXX;X*X-X-X;XV.T.XXwX6X*XoX*X*XY.V.V.].-XXX$X%XoXXXoXwXwXoXOXXX.XpX6Xz _ V.V.E.R.R.Z.Z.n.'.oX%X X{. X{.{.XX X X X%XoX{.'.XX>XwX,XwXoXwXBXh.t.i.f.w.o.).gX).(.}.3X8XtX6X.X/.t.-.' G N R X.,.,.j.k.F.6.<.t.6.6.F.j.9.] 1..X5X.Xf.[ | ;.] ' X.Y Y k.t.<.x.x.q.o.o.6.1.f.f.k.<.9X(.v.1.{ 1.v.l.<.w.f.j.[ k.f.;.>.<.Y . D V.V.E.{.}.}.OX(.V.f.N.A.V.6.A.{.Z.XX!./.C.i.u.%.6. .I ' %.A.7XS X T /.g.C./..XXX1X<XE.-X-XQ.E..X).%X X%X6XrXrX<X XE./.A.{.}.XX6XwX6XeXuXaXcXIXj.w C @.| $.} _ @._ } ,.:.%.1. ._ |  .| | :.%.A | y.6.%.%.2.:.:.%.A./.8X$X' Y q.u.V.i.C. XC.h.).rX-X-X<X<XkX<X<XMXDX#X&XMXDXxXxX",
"_.%XoXwXnXT 6 G T._.$X X X X].].].&XN.#.j./. X%X%X X!. X).Y.T././.!.].&X-Xz #._.E.A.E.A.A.A.A.C.A.D.A.A.B.j.N.A.D.D.D./.D.{.(.{./.(.K.A.G.H.'.} 4 '..XN.N.A.E.E./.D.A.A./.D.A.D.D./.S.g.A.A.A.A.oXoX-.@.F 7 T..X.X.X*X6X4X.X/..X6X*X%X%X.X).). X).E./.E.E././.D.D.}.}.kX@.r.OXA./.{.{.E.A.A.C.Z.b.7.8.8.u.N.A.A.C.A.oXOX^.tXBXSX,XOXoXlX5.P T.t.r.i.i.Z.T.V.E.!. X).&XXX XXXXX*XXX*X%X].&X X&X&X$XXX]. XXXV.R. XXX*XoX*X%X<XXX].].XXXX X X}.oX*XrX6XwX6X*X6XrXFXJ.O } E.Z.A.V.Z.H.n.m.N./. XE.{.}.OX{.oX*X*X*XwXwXXX{.{.{.}.OX.XZ.Z.<Xh.f.c.w.Y 6.6X-XT.T./.oXoXXX3XeX;Xi.E.E.%.,.q.:.i.h.6.u.k.<.:.f.<.f.k.d.k.....5XjXyXA.1.6.6.#.] t.o.#.w.h.u.V.T.h.<.T.g.j.T.g.T.8XqX9Xl.[ [ 1.l.k.] [ 1.v.1.1.1.1.v.`.a X , a c #.,.f.u.g.C.,.%.h.N.6.6.u.5.%.t.-.%.R P } A ..| V p q q a i a Y } | ;.#.| | ] F u h x v x F Y P ' P ] #.#._ o.| ] ' | ;.8.5.5.4.6.i.6.t.k.Z m w 0 < 5 4 r m l q < } g.8.d.N.N.B.N.8.8.b.9.6.9.y.u.@.R 8.,.,.C.V./.).t.P x U I I I _ X.r.i , y u y t h t t y y t h y j j D ",
"_..X4X6XMX/ t B `.%XXX%X$X XY.h.E.XX'. X X.XXXoX X X$X X X!.!.).!.{. X-X<XC 6./.Z.G.{.A.A./.E.A.A.A.C.S.C.C.g.B.B.A.{.D.D.D.(./.A.A.A./.J.A.].E - h.8.| C.A.A.E./.A.A.A.A.A.D.{.(./.A.8.N.Z.N.A.}.6Xy.4.N q h._..X5X*X5X.X.X.X4X6X5X.X*X.XOX.X X/./././.D.D.D.{.D.(..XBX$.,.5X(.D.{.{.D.A.A.B.B.8.6.8.8.d.A.D.A.C./.5XE. XzXUXkX|.|.|.uX#.$.P.a.y.y.y.u.u.h.T.T.!.).). X%X%X;X6X%X.XXX!.). X X X.X{. X{.E.u.C.).%X%X$XXX&X$X&X%XXXXX[.{.{.!.(..XXX.X.X/.{.Z.oXCXE.- -.T.V.C.Z.Z.V.Z.N.u.g.C.A.'.XXoX.XoXoXoXoXXX>XXX}.}.{.{.E./.{.E.-Xt._.gXw.x E.6XC.N.j.g.g.j.L.F.|.6.U R. XXX!.E./. X*X%X X.X{..X6X*XwXeX7XpX(.#.>.t.i.u.C.C.Y.C.C.E././.V.C.A.A.'.E.E.{.%XcX XC.%X_.(.(.1.{ [ l.l.1.] <.j.F.<.^.f.:.(./.$./ 0.=.s.x.Y.~.E.;X$X!.&X<X%X X X5X< H E.Z.'.XX<X&XwXeXqX6XwXXX{.D.rXnXNXeXpXZXpXeXrXuXxX&   @ + 1 7 G H B ) d.1...[ j.<.{ B B V I I ' @.r.h.T.6X7XbX6Xg.:.' ) f.6.F.4X] 8 Z.rX|.>XwXeXeXiXeX0XwXiXyXrXwX6X%X%X7X%X;X6X*X*X X{.E./. XXXoX.XXX>XFX,.* 8 S S C Z C V L N b n k n a x ",
"}..X3XwXMX~ t p T.;X$X$X$X XT.g.T. XXXXXXX%X.XXX%X%X X).!.).).).!. X X*XrXR :./.E.A.A./././.D.A.A.A.A.A.A.N.B.B.C.A.D.{.{.D.D.A.A.B.E.(.{.G. XE & Y.6.8.A.Z.E.A.E.A./.D./.D.A.A.A.E./.E.A.A.A.D.}.3Xf.6.L 5 f.5X.XoX>XoX.X.X.X5XoXoX%X4X5X.X.X.X/.{.{.A./.A.D.A./.{.{.MX*.' /.D.{.'.{.{.A.A.N.g.8.8.g.N.B.C.A.B.B.{.rX!.:XvXBX$X/.}.3XNX:.r.Y.V.u.y.u.i.b.Z.C.R.^.T.)._._.OXoX*X.X.X).E.).E. X X X].'.!.V.,.4.a.;X&X%X].XX%XoX%X X{.{.{.}.{./.{.|.oX|.}.D.A.{.ZXXX5 ,.).V.Z.Z.C.N.N.u.u.g.g.A.(.{.OX3XXX|.3XXX|.>XXX{.XXXX{.N.N.{.'.'.@.W.SX>.x ;X{.A.A./.A.C.N.C.A.E.#.L -.Y.V.C.A. XOXOX{./.{.{.'..XOXwXeXwXNXjXC.f.f.Y.R.E.E.!.R.!.E.{.XXZ.N.A.E.G.A.Z.'.XXuX%X{.8X8X4X4X9X<...(.k.[ [ _.bX`.T.7X6XrXrX;XhXyXxXxXzXmXmXzXlXxXyX<XrX*X&XXX&X7X9 Y.E.N.Z.oXiXOXwXcX4XD.{.{.D.A..XoXeXwXiXuXiXrXiXwXSX$.  @ + 3 C <.f.^..XeX3X8XtXcXbX8XjXvXbXVXNXBXSXCXBXBXlXlXCXmX*X;X/.h.8.%.C.4XZ w b.[.'.|.|.{.|.3XoX0X|.oXoX4XoXOX}._..XOX*X,X>X3X.XD.A./.{.{.{.{.}.oXsXB.w z A _ _ _ _ A I I A A Q I } T ",
".XoXoX,X<XK h V v.$X+X$X.X!.E.C.E.).%X%X%X%X%X%X%X%XXX]./.).).).).). X7X<X} 6./.E.G.D./.D.A.D.A.G.Z.A.C.N.N.C.N.C.A.D.D./.D./.D.{.A././.D.A.XX/ 8 )..XA.A.A.R.A.A.A.A.A.D.D.F.C.A.T.A.D./.D./.{.}.6X:.#.G q k.%X.X.XoXoX.XoX4X.X.X.X6X4X.X5X5XOX X'./.A./.A.A.D./.(.}.lX2.P C.G.J.{.{.{.G.S.S.B.N.N.N.N.C.A.C.B.A.^.eX%XT.-XhX XA.J.|.pX%.u.n.h.u.5.y.u.u.V.V.T.T./././.{..XXX*X%X.X).).!./. X X].{.'.E.Z.u.V.E.)..X$X.X.X.X.X{.{.{.{.{.XX{.{.{.{.D.C.N.g.4.N.FXOX5 6.T.V.Z.V.E.V.n.b.f.N.N.A.A././.{..X}.}.|.XX,XwX>XXX.X.X(.^.{.{./.%.#.gXq.] rXA./.{.{.{.Z.C.A.E.Q.u.n.x.h.V.A.(././..XoX.X(.(././.(.{.5X3XiXcXC./.C.R.E.E.'.E.A.A.R.'.'./.A.A.'.A.A.A.A.(.|.5XoX4X6X3X3XbX8Xk.PX4XB m +X8X*.+X$X=X-X1X&X%XXXXXXX&XrX*X*X7X-X*X%XrX*X XXX7X-Xk ].V.u.N.}.3X.XwXNXcX.XB.B.S.B.D.(.|.3XeXlXtX0X0XoXuXnXS 3 + ~ R.rXlXzXlXlXrXnXlXlXlXrXlXtXlXkXlXyXyXyXyXyXrXrXjXlXlX&X;X*X&X%XpXLX..2 8.>X'.{.S...D.3X3X.X.XOX|.}.4X.X|..X{..XoXeXwX3XoX(.F.D.{.{.}.}.K.qXsX..e Z _  . . . ._  .A } }  . .A A ",
"}.|.0X0X,XW M M f.).$X). X/.A.N.A._.%X%X;X&X%XoXXX X X).!.)././././..X7XkX#.f.T.E.'./.{.D.{.G.A.{.{.A.C.N.g.N.j.A.D.{./.D.D.D.E.G.A./.D.A.A.XXJ i /.A.A.Z.A.C.R.E.A.A.A.A.A.F.C.^.T.E././.^.(.{.}.wXu.G ` q t.%XXX%X*X%X4X5X*X.X}..X4X6XoXoXoX.X.X{././././.D.D./.(.{.lXy.,.OXJ.J.H.A.D.A.A.S.L.S.N.B.B.C.A.T.A.A.D.5XrX!.T.E.E.D.{.oXaX%.V.V.h.a.u.y.7.u.V.A.T.E.^.(./. X}.XX-X*X*X.X!.). X/.).{. X).!.R.A./.{.{.{..X{.{.{.{.{.{.'.'.{.OXXXoX5X}.N.:.9.%._ D.GX/.0 6.).V.Z.Y.V.V.N.g.u.N.Z.'.S.C.(.OXoX{.{.{.XXXXrXNXlXOXOXOX_.XX XXXi.G >.P i.6XZ.}. X X/.Z.b.E.].n.5. XR.y.h././.}.}..X4XA.B.}.}.}.{.D.}.3XpXbXA.E.A.'.A.E.{.E.C.E./.{.{.XXA.A.A.{.A.A.D.D.}.|.oX.X|.5X.X7XtXf.(.l.[ ] 1.X.T !.).$X&X-X X.X.X.X$X&XwX7X7X7X8X*X;X7X6X.X%XrX;XB  Xb.b.C.}.4X|.6XuXBXeXj.S.D.D.D.(.}..XwXeXeXwX3XoX>XPXr.O 3 p.-X*X-XrXrXrX7X7XrXhXrX7X7XrXwX6XrXtXrXrXtXrXtXrXrXkXlXrX6X*X,XrXlXGX<.; %.*XG.|.K.8.A.}.4X/./.{.OX}.|.{.(.|.|.4XoXeXeX3X3X}.D.A.{.}.}.|.K.qXsXB * _ 4..... .4... ._  ..... .W  .",
"{.3XXX<X[.8 i M c.).).XX X!.C.g.C.(._.%X%X%X.X.X). X X).).).).T.)./..X6XyX%.g././.E././././.D.A.{.A.A.A.g.N.N.N.D.A.D.{././.A.A.A.G.{.A.G.G.&XW l E.T.A.E.A.E.A.A.A.A.A.A.D./.D.D././././.(.(.{.}.<Xy.I ` a i..X.X%X*X*X*X6X.X.X.XoX5XoXoX XOX.X X{. X{.)./.E.E./.(. XjXr.5.XXJ.J.J.A.A.D.D.A.k.g.B.S.A.C.A.A.A.^./.oXtXbXE.g.C.E.E..X;X@.T.a.a.h.u.u.u.g.h.A.C.A./.(./. X{..X%X*X*X%X X{..X/..X X{.{. XC.^./..XOXXX X{.{.{.(.D.}.A.E.}. X{..X.X}.{.D.A.D.A.wXKXoXl ,.T.V.V.Y.V.V.Z.u.8.N.C.8._ } g./.oX}./.(.{.XX*XrXCXlX.XoXOX.XXX*XE.,.X.' h.!.{.XXOXE.Z.C.V.V.h.,.V.*XlX7.u.A.(.}.}.|..X(.{.|.}.}.}.|.}.3XtXZXN.E.'./.{.{.{.{.D.D.D./.{.oX{.A.D.{./.A.A.D.}.|.{.4X3X.X}..XbX`.;.1.j.^.l.o.>.!.:X X*X6X%X%X%XoX%X-X,X7X7XhX8X7X6X6X6X.X%X*X X:.V.g.L.A.K.|..XoXiXcXuX.XD.S.D.J.{.|.|.3XeXwX6XoXXXXXZXs.  O s.&XXX,X-XrX7X7X;X;X7XrX-X*X8X5X6X6XeXwX6X6X8X8X8XrX8X*X5X.X.X.X*XrXLXj.- %.,XH.{.|.}.}.}..X}.{.|.}.|.(.K.J.K.}.}.}.eXwX6X6X3X/.(.{.}.}.|.3X0XsXr 5 6.N.g.L.d.9.d.L.9.9.8.b.b.L.b.",
"(.3XXX>XI.8 c M j./.). X X!.R.g.j.).).%X*X%X.X%X.X).).).!.).).).).%X X;XrX$.h./.A./././.D.A.A.A.A.{.A.C.g.8.N.A.A.D.A.A.{.D.A.A.A.A.A.A.{.[.XXE F E.A.A.A./.D.A.A.A.A./.A.D.A.F./././.(.A./._.}.OXyXn.L F s j.+XXX.X%X*X4XoX.X}.OX.XwX3X3X{..X.XOX{./.!./.E.C.C.(./.).hXq.r. X{.{.D.D.D.{.A.S.A.A.B.C.B.A.A.A././..XOX6XlX%Xu.f.6.t.V.h.R E.V.a.V.a.u.i.g.j.T.C././.).). X/..X*X,XrXXX.X!.).)./.). X X).g.A./.{.{.XX{.{.{. X.X/.}.A.A.{.{..X X.X}.{.{.{.}.}.qXCXwXC :.R.n.V.V.V.C.C.N.C.{.g._ C Z 8.C./..X/.E.D.{..X*XrXnX*XoXoX*XXX*Xh.o.c i.T.T.{.XX{.{.A.N.A.g.#.C.!.].rXZ.8./.A.(.}.}.|.|.XX|.|.}.4X}.}.}.pXeXj.E./.A.{.D.{./.D.D.A./.}.OXJ.C.D.J.{.A.D.D.{.|.}.|.|.|.{..XtX6...<...j.k.w.t.+X!. X;X7X%X.X.XoX%X*X,X<XrXtX7X7X7XwX5X.X*X;XrXC.B.8.g./.OX|.|.oXeXiXtX3XD.A.D.J.}.}.|.6X8X8X3X}.OXJ.wXs.  @ I.-XoX*X7XrX7X6X%X*X6X7X6X6X6X0XwX8X6X7X%X*X6X7X%X.X.XoX.X.X.X5XwXtXGXF.X $.XXZ.J.{.{.}.XX}..XOX}.}.}.{.{.{.K.{.4XeXwX0XwX6X3X{.{.{.}.|.K.K.qXsX5 0 ,.D.B.S.N.N.L.L.9.b.N.S.S.N.H.",
"}..X3X,Xm.t F H j.).). X X].E.C.j./..X.X.X%X%X%X%X.XXX).).).).W.)..X%X7X Xb h.R.E./.(././.{.A.A.C.A.A.C.g.8.g.A.A./.{.E.D./.A.A.A.B.A.B.A.'.,XW _ ;XV.A.E.A./.A.E.A.A.A.A.A.B.D././.'.{./.)./.|.|.,XH.@.F i j.%X.XoX%X5X4X.XOX.XoXoXoX3X4XoXoX.XOX.X/.T./.!.g.V./.E.{.-X*.y..X}.{.{./.{./.D./.D.C.N.Z.A.A.A.F.F./.|.5X3X5XcXC.6.8.i. X7X&.n.h.n.V.h.i.t.g.V.C.C.E././.)./.)..X%X*XXX X X).).(.).). X X/.N.g.E././.A.{.{./.{.}..X}.A.B.g.D.{..X.X{.}.{.(.{.}.eXZX8XZ %.E.C.Y.V.V.N.N.B.A.}.N.| C _ B.A.T..X.X{.{.{. X%XwXrX6XoX3XoXoX&X_.,.' g.T./..XOX{.XXE.Z.C.:.L./.XX).E./.E.{.{.{.4.B.|.|.3X|.3X|.|.}.}.|.cXE.#.{./.D.{.{.{.{.D.{.D.D.{.}.}.'.A.{.{.{.}.}..X}.4X|.{.}.|.{.wX;.] ^.:.;.<.f.f.).). X%X;X5X.XOXXX*X6X*XrXtXtX8X7X8X6X.X.X*XrXlX'.B.N.N.J.6XoXoXXXwXiXeXeX{.S.A.D.{.}..X3X8XwX6X.X{.{.oXi.X + P.&X*X*X*X8X6X*X*X;X*X5X6XwX6XoX6XrX6X7X;X6X7X5X6X.X.X.X(.}..X3XrXyXGX9X$ } XXZ.{.E.{.{.}.{.}.}.}.}.4X4X}.}.}.|.0XeX3XwX6X6X3XD.N.J.{.OX}.|.qXsX{ ; _ {.A.A.A.B.C.B.9.j.B.S.Z.Z.C.",
"_._.%X<Xe.k P B ).).).XX&X].].Q.V.T..X_..X)._.%X%X%X X). X).).).+X X).7XE.} h.T.T.E.)./.A.A.D.{.N.8.N.V.g.8.7.L.S.D.{.A./.E.A.A.B.B.B.S.A.E.oXI | OXA.A.A././.E./.^./.A.F.A.C.A.A.E.{.{./..X.X{.K.wX'.3.c l ^. X.X.X.XoX.X8X5X/.OXoX3X5X*X.X.X.X X(.(.T./.).E.R.E.E. X<X$.2.oX}.}.{././.{.A.A.D.A.C.C.A.C.C.D.D./..X3X3X.XVXtXV.N.{.6XmX&.Y.n.h.V.h.g.u.u.C.T.C.E././././.)..X*X.X.X X]. X X!. X X].]. XC.f././.E.{.XX{.{.{.{.OX}.}.(.A.D.}.{.OX}..X{.(.{.|.eXCXeXA :.E.V.V.h.V.g.j.V.A.oX{...} 8.C.C.A.'..X X{.{./.oX-X&X.XoX*XoX&X%X%Xt.`.f.E./. X}.XXXX{.Z.8.8.S.H.Z.V.T.E.{.{.oX|...L.|.|.|.3X0X4X3XoXoX5XcXC.} /.{.{.J.J.(.{.{.(.{.{.E.}.}.{.A.J.}.{.{.}.OX.X.X|.(..X}.{..XF.g.j.g.P ;.<.f.!.). X%X%XoXOX.XoX6X6X,X7X7X7X7X7X7X6X5X*X*X7XlXA.g.k.B.{.XX0XoXwXwXiXuXuXoXD.A.D.D.{.(.3X3X3XoX.X(./.^.5.- O P.%XXX-X-X*XwXtX6XoX6X6X6X8X*X6XwXwX7X6X6X7X6X6X6X.X/..X.X(..X6XrXlXHX`.X @.].G.E././.{.{.}.|..X}.{.}.{.}.}.4X3XeXqXwXwX3X3X3X{.(.}.}..X}.|.qXqXF.' C  XA.A.A.A.A./.E.A.A.A.A.A.A.",
"(..X&XkX2.F G M c.). X$X@X X].E.E.T..X.X.X_..X.X%X%X). X).E.).).).).).7X Xr.R.T./.E././.(.A.{.{.'.4.8.N.g.8.8.g.A.D.{.E./.E.A.A.N.8.B.A.A.A.*X} o./.C.A.A.E././.D.A.C.A.A.C.B.B.A.{.{.}.{.{.{.{.}.wX!.@.k ' )..X.XOXOX.X.X.X5X/.}..X3X.X6XoX{..X.X).(./.E.`.E.A.A.Z.E.dX&.y. X{.{.{.{.E.E.'.A.A.A.A.A.C.C.C.D.J.{.}.4X6X}.iXAX}.A.D..XvX2.E.n.V.V.V.h.h.u.j.E.E.E. X X X_.}..XoXoXXX XOXXX.X{. X X]. XXXh.6.)./.{.{.{.].{.{.{.}.XX}..X(..X/. XOX.X.XoX.X|.XXeXFXrXP :.E.V.n.N.N.g.N.N.A.}..XR.C.D.A.E.E.E.).).(.(./.oX%X)./..XoX.X%X;Xh.,.).h.E.E./.{.OXwXE.g.8.d.N.N.N.A.A./.(.{.|.3X}.{.3X3XoX3X0X3X8X3X|.3XeXB.' {.A.'.J.{./.D./.{.{.{.{.{.}.{.D./.{.K.OX}.4X|.4X|..X4X.X/.5X4Xj.1.#.B ,.#.h.$X].$X X.X%XoX.X|.oX.X5X7X6X6X7X8X6XoX%X.X%X1XlXA.N.B.S.{.oXoX0X0X3X8XpXpXuX0XD.{.}.{.}.oX5X4X*XOX).E.N.a.> O R.*X*X*XrX6XrX7X8X.X_.*X6XwX7X7XeXrX*X6X;XrX7X5X6X5X.X.X(.(.oX4XwXrXSX7Xo T &X'.E.A./.D.{.}.XX}.{.{.{.K.}.}.3XwX0XqXwX0X4X3XwX.X}.}.}.|.4X|.qXqXl.(.| A./.(.A.E././.E.D.D.A.'.E.'.",
"/.{.XX1X' ' [ m h.). X X]. X).T.T./._..X).).). X_..X X).!.).)./.T./.).7X$X-.E.C./.T.A.E.{.oXXXA.H.A.V.Z.u.8.8.g.A.A.E.A./.E.C.C.C.N.A.A.A.Z.>XL Y /.C.Z.A././.A.R.A.A.A.A.C.A.A.A.J.A.'.'.{.{.}.}.*XR.5.P ] `. X%X.X5X.X.X/..X.X5X.XoXoX4X.X/..X.X X/.T.^.C.C.A.A.E.E.<X/ q.$X{.{.{.D.N.B.A.A.A.A.A.A.A.B.A.D.D.D.|.oX4X}.oXuX4XD.D..XlXe.!.V.h.a.V.V.h.g.C.T.T././. X.X X X.X%X%X.X.X X). X_.). X X X XC.g.}./.E.'.'.{.{.{.(..X|.XXOXOX}..X}. X.X.X*X.X.X*XrXPXcX#.#.T.V.b.g.u.b.g.N.A.A..X X/.E.E.!.E.).).)./.)..XoX%X.X_.OX.X{.)..X^.C.h.T.).C.C./.OX{.8.N.N.L.N.N.N.A.A.D.{.{.{.|.4X4X|.|.3X3X0X3X3X4XoXoXeXg.Z /.{.A./.{.A.A.{./.'././.}.}.}.{.A.{.|.K.4X4X}.|.4X}.|.D.D..X.Xo.B ) B ,.#.h.+X]. X XXX%X*X.X.X.X.X6X7X*X*X6X*X.X.X.X%X;X-XlXT.B.S.F.}.|.oX3X6X6XeX8XuXuXCXyX(.}..X3X3XoX*XoX{./.E.j.h.6 . Q.*X-X-XrX6X5XrXwX%X/.OX5X5X6X;XwXrXwXwX*X*X6X*X3XoXoX.X.X.X.X6X*XwXcXjX. D &X{.D./.A.{.A.'.D.{.{.{.}.}.}.|.3XeX0XwXeX6XoXoXwX4X}.}.}.}.4X4XpXqX(.eXk.u.{././.{.{.D./././.D./.Z.E.",
" X}.,X*XC I ) G W.).XX$X X)./.T.T./.).)././. X X).).).)./.).)._.%X+X X=X!.:.T.T.A./.F.E./.XXiX{.A.A.Z.n.u.7.6.u.j././.A.A.D.A.V.C.A.A.A.'.{.XX@.%.C.A.A.A./.E.A.A.A.A.A.A.B.B.A.A.A.A.{.'.{.{.}.}.XX%Xt.l ,.+X).). X.X)..X).{..X.X.X}.OX5X.X/.)..X/.R.A.C.E.D.T.C.C.!.rX! e.XX{.{.E.{.B.A.B.A.A.S.A.F.C.N.A.A.D.(.4X|.3X3X|.wX.Xg.K.4XeX0.].V.h.h.V.T.T.h.B.T././.)..X X XXX X).%X.X_.)._.(./.). X].].$XV.5./.J.{.G.'.J.{.{..X4X}.XX|.}..X(.}.{.}..X.X(..X.XrXAXrX%.| A.N.8.b.b.u.N.N.C.A.{. X'.E.E.R.D././.A.A./.OXOXoX6XoX|.oX.XXX6XjX^.,.C.R.C.N.}. XA.A.A.C.N.S.S.N.A.D.(.{.}.(.}.|.4X|.3X3X3X0XqX3X3X3X}.8X8.z D././.A./.A./.D.{.'.{./.}..X.X{.J.D.|.|.}.|.}.}.4X}.OX/.(.OX5X;.l ] w.k.' t.$XQ.). X X.X%X.X%X.X.X5X6X*X5X5X*XXX/._..X;XrXvX/.A.A.S.(.oX>XoX3XeX3XeXwXeXnXPXuX.XOX3X3X5XoXOX{./.E.N.5.d + @X-X%X,X-X7X-X;XwX8XoXoX*X*X%X*X6X0XoX,X*X7X;X*X6X4XXX}.}..X.X5XoX8XxXvX. h 1X XA.A.A.{.{.A.A.{.{.}.}.}.}.oX0XeX0XqX6X6X3X6X0X|.}..X|.}.4X3XiXqX9XpX`.<..X X{.{./.D.D.{./.{.D././.",
"OX{.<XrXE o.O.) v.!.).$X$XE./.T.^.).).)..X.X).)..X.X). X).).).%X%X+X+X$Xh.,.C.h.C.A.A.A.D..X6XXX{.Z.Z.n.u.u.t.6.T./.E.A.A.D.V.C.N.N.B.A.A.'.,XI #.R.V.Z.A.A.A.A.C.A.A.A.A.A.N.B.A.A.A.G.{.{.{.}./.OX_.c.B >._.).%X).). X.X).)./.(./._..X.X.X/./.%X.XR.A.C.Z.E.C.R.A.E.rXT *./.G.{.D.A.A.A.A.D.S.B.B.C.B.D.A.B./.}..X}.3X.X3XwX|.S.F.5X7X-.).Y.V.Y.V.V.j.h.V.C././.).)..X X.X.X X.X.X_.)._.).).). X X X.Xi.5.{.A.A.J.{.{.D.{..X.XXX}..XOX}./..X(.{.}.}.}.|..X6XNXtX_ } E.Z.b.b.u.N.b.N.C.(./././.E.'.J.A./.}.N.N.C.OXXXoX*XoXoXXXXXoX*X;XC.i.i.C.N.H.{.A.T.A.B.N.Z.Z.Z.H./.D.{.(.}.}.|.oX|.3X3X0X>XwXeX.X6X3XoX.X:.z /./.E.(.(.A./.J.A.{.{.{.}.}.4X{.D.J.|.|.|.}.4X}.3X4XOX.X/./.oX;.1.g.).j.' ,.!. X{.)..X_..X;X%X.X.X8X6X*X*X6X%X)./. X.X*XrXcXT.C.A.A.{.oXoXoX3X0XeX0X>XwX,XuXNXoX4XoXoXoXoX.X{./.C.8.u.b & !.-X-XrX*X-X*X%X*X*X3X4X*X5X6X;X6X*X5X*X*X6X*X*XoXoX.X.X/..X%X*X6X%X8XSXy S <X{.A.C.C.A.D.A.A.{./.}.(./.}.XX0X0XwXeX3XwX3X3XoX3X.X|.{.K.|.3XaXqXl.(._.t./. X.X.X{.{.{.(././.{.A.(.",
"{.'.1X=X! *.H H x.).).$X X)./.E./.)././._.).)./._.)._./.).).).%X X!.).=XY.-.T.C.A.D.A.B.F.(..XoXXXE.'.C.Z.y.d.%.k.^././.'.'.A.N.C.N.N.C.D.{.,X} ] A.A.A.'.A.E.^./.E.C.C.A.B.B.A.A.A.D./.{.{.}.{.{..XE.,.l t. X).).). X_.).).(.(.E.(.(.{.OX%X.X)..X).Z.E.N.R.A.C.Z.A.].&Xv *.!.'.'.{.{.A.A.{.{.D.A.A.A.C.A.B.A.F.{.}.}..X3X4XwXoXJ.}.6XBXr.T.h.V.T.j.C.C.C.C.T.^./. X.X$X%XoXXX.X.X%X.X).).).). X).).).%XN.%.E.{.A.D.{.D././.{.OX.X.XoXOX{..X/.}.}.{.}.|..X|.3XZX6X' -.!.N.b.b.b.N.u.C.C./././.{.G.{.A.S.A.XX{.Z.A..X4X*X6XoXXX}..X&X7X5XW.k.6.k.A.C.N.A./.C.B.C.A.Z.'.A.D.D.{.{.(.{.}.|.3X|.3X>X0XrXeX4XwX3XOX}.4.C /.T.A.E./.D.A.{.J.J./.}.|.}.}.K.K.K.}.}.|.}.|..X|.}.OX{.A.{.{.,.h.T._.j.P 6.!.!..X/._.).%X%X%X5X.X4X3X6X6X5X X)./.{.%X*XrXBX.XE.A.A.{.oX4X3X|.0XeXiXtXwXwX0X0XoX6X3X4X|.oXXX{.'.A.8.8.l 4 !.-X1X*X*X,X7X*X6X%X5X*X*X*X6X*X*X*X6X6X6X,X,X*X6XoX.X.X). X.X*XrX6X8XVXD t <XA.N.A.D.A.A.A.A.D.(.K.}.}..X|.oX3XwX8XwXwX0XoX|.oX.X}.D.K.{.|.aXqX1.f.`.j.{.}.OXOX{.J././.}./.}.{.OX",
"{.}.yX].J X.>.*.x.).$X X X X$X).E./.)._.)..X{. X/.{.).(./..X+X).).a.~.!.,.i.C.T.F.A.B.C.A.D.{.}.}.{.'.wXT.5 ] C.C.A.A.!.!.E.A.C.C.g.N.D.'. XyXC P ,.g.A.A.A.E.A.E.A.E.A.C.N.N.B.A.D.A.D.J.A.'.'.{..XT.I w T.%X$Xt.4././.).)./.T.A.(.).{.{.}./.)..X/.T.C.j.C.C.T.E.E.].&Xy U 5.L u.'.{.{.{.'.{.A.{.D.S.C.A.F.D./.K.}.}.4X|.4X3XoX{.{.4XlX=.T.c.T.h.T.T.T.T.T.T.E.).)..X.XXX.X%X%X.X X.X.X)./. X{./. X X.XN.9.'.A.G.E.A.A.{.{.}.XX.X}..X.X{.}.{.{.}.(.{..X|..X0XaXOXz ,.V.C.Z.b.u.b.N.Z.C.E.!./.^./.A.A.A.Z.'.{.}.OX.X.X4XoXoX|..X.X.X7X%X6.u.C.h.7.u.A.A./.C.7.A.B.A.A.A.D.D.{.J.{.}.}.}.3X3X0X3X4XeXeXiX3X3X}.D.} P /.E.A.E.A.A.E.{.J./.{.{.{.{.}.}.|.}.|.}.{.}.|.|.|.|.}.'.A.A.N.,.<.T._.<.] f.E.!.!.).).)..XoX%X.XoX6X5X;X6X7X.XOX(.(..X8XrXzX.XA.T.(.{.|.3XoX0X0X0XeXiXrX>XoX3X6X3X4XoX3XXX}.'.Z.C.8.1.P i $X&X%X*X,X-X6X-X;X%X%X6X%X*X5X5XoX.X.X%X5X*X%XoX*X%X5X.X%X$XoX*X*XrX*XSXe.u &XOXS.N.A.D.A.A.A.D.g.F.}.{.{.oXoX0X0X3XwX0X3X0X3XoX|..X{.(.K.|.qXqX9X^./.6.E.{.XX.X{./. X.X}..X}..X{.",
"OXXXkX&Xv Y h.#.h.E. X X$X). X X).).).).).)././././././.).).).). X!.].Y.@.h.T.h.A.A.A.j.F.C.A.{.{./.XXiX8X} ,.C.Z.A.'.'.'.Z.C.C.N.j.A.D./.XXyXC ] P ;.A.B.A./.A.E.A.A.Z.S.N.N.L.A./.{.A.A.D.A.'.G.[.V.] p c.).$XC.u.E./.)./.^.A.T./.). X/. X).).;X).T.C.C.T.Z.R.E.!.{.MXS H f.X.i.!.E.'.'.Z.{.G.{.A.B.A.D.A.D.D.K.{.|.|.|.4X.X4X|.{.oXlXe.).Y.T.h.x.T.T.h.V.C.T.T.).).%X.X.X%X.X X X X/. X/. X!./.!.'.{.b.N.{.A.H.A.A.A././.OX.XOX}.OX.X}.}..X{.{..X{.OX.XoX3XNX.Xf 1.C.Z.N.N.b.y.N.N.N.A.R.E.A.D.A.A.A.A.A.'./.{..XoXoX5X|..X.X.X.XeXtXh.;.C.6.5.N.B.C.{.(.V.A.C.B.A.S.S.S.D.D.{.{.{.4X3X3X3X3X3XeXqXiX4X4XOXC.} A A.E.E./.A./.{.A.A.E.{.{.{.{.}.4X|.}.|.}.}.{.|.3X4X|.{.D.A.J.F.;.<.f.k.1.] h.Y.T.E.).E.^./. X.XXXoX%X;X.X.X%X/.D.}.}.oX;XrXvX/.A./.{.{..XoXoX3X3X0X6XeXeXwX3X3XwX0XXXoXoXXX}.{.E.C.u.8.Z k @X&X*X*X,X-X;X;X;X$X.X%X+X_.%X.X)..X.X.X.XoX*X5X%X.X%X%X%X%X&XrX,X-X7XSX!.y &XA.E.A.C.A.A.A.D./.D.{..XJ.{.|.oX0X|.3XwX0X0X3X3X3X3X.X}.}.|.|.pX4XF.F.F.j.N.!..X.X X/.6X8X.X X.X.X/.",
"J.XX<X,XF U Y ` h.!.).$X$X X).].E./.).).).).).!.!.).E.).)./.). X XE.].P.*.T.C.N.C.A.F.S.B.A.g.B.E. X}..X XE.V.u.g.C.E.E.!.R.A.N.8.g.E./.}.|.yXb ,.T.V.V.C.A.A.E./.E.A.A.Z.N.A.N.A././.A.A.J.A.J.J.}.*X>.i c.).!.!.T./././.T.A././.(.)..X). X X.X X/.V.g.T.T.R.E.!.F.E.dXK ! C.y.A.A.'.{.{.E.A.A.'.A.A.A.A.D.D.{.{.{.}..X|.{.}.|.}.}.XX<X2.E.h.t.j.T.j.T.h.x.T.E.T.). X.X.X.X%X.X.X)..X).). X X X X'. X].u.u.E.R.E.H.A.C./.}.}..X5X}..X{.(..X{.{.{..X}.XX5X.X8XZX.Xf -.T.V.n.b.b.g.g.N.b.A.E.A.A.A.A.A.A.S.A.A.D.{.}.|.XX|.XX}.}.{.oX7X;Xg.t.u.y.5.b.C.V.A.A.A.A.B.g.B.A.A.A.D.D.}.}.}.3X3X4X4X3X0X8XpXtXrXoX}.N._ } /.T././.D./././.E.{.J.K.}.}..X|..X}.{.}.}.}.|.|.|.4X{.D.A.}..X| N | k.f.X.a.Y.C././.)./.). X.X.X.X.X%X.X.X%X/./..X.X*X-XrXvX/././.D.(.}.|.4X3X3XwXwX6XwX3X3XoXwXwX4X6X4XOX{.}.D.A.g.f.' 8 ].=X&X%X7X*X-X6X*X%X_.).$X.X)..X.X.X*X4X.X5XoX*X5X.X.XoXXX*X*X6X*X6X6XBXxXv @X{.A.A.A.A.A.B.A.D./. X}.{.{.XXeX|.}.oX4X3X3X3X|.}.|.|.}.}.XX3XpXeX1.d.(.C.V.{.OXOXOX).6XjXOX{.OX.X.X",
"{.|.uXQ.v X.G P T.).$X X X$X].!.E./.)./.).E.E.E.E.E.E.).E.).).!.!.!.E.V.5./.R.A.A.A.A.A.B.B.d.8.C.{.}.'.[.A.j.8.k.A.E./.'.A.C.N.g.B././.{.|.yX9 ,..XC.A.C./.A.E./.E.A.A.Z.C.A.A.A.{.{.A.A.D.A.G.G.{./.u.b T.$XXXE.E.)._.).(././././._. X).).).).).T.j.V.Y.E.E.R.R./.Q.=X~ &.E.%.9.A.{.'.G.A.A.C.A./.A.A.A.D.D.J.K.(.}.}.|.}.}..X|.OX*X<X2.!.u.5.h.h.C.E.E.E.R.E.E.).$X%X%X6X%X%X%X%X%X.XoX X X X.X X'.].Z.n.{.E.A.A.S.C.A././..XOXoX}.{.{./. X{.).{.}.OX}.|.eXaX{.f ,.A.V.b.n.N.d.g.g.N.B.A.A.C.A.B.A.S.A.A.B.A.D.{.}.{.|.}.{.{./.XXrX_.i.T.g.y.u.u.N.C.A.A./.D.A.d.g.B.B.F.D.{.K.K.}.{.}..XoX3XqXqXiXiXiXOXA.L._ } /.E.E.D.D.A.C.A.A.(.{.J.}. X}.}.|.}.}.}.|.}.|.4X}.{.(.D.J.{./.#.P k.k.>.,.Y.V.R.E.E.E./.)..X.X_..X.XoX%X%X.X)..X{.{.oX6XrXlX/./.{.{.}.}.5X|.oX3X8X3XwX3XeXuX0XwX3X3X5X.X.X/.C.{./.V.g.;.n !.&X&X%X-X,X*X;X6X_.' t.]. X%X.X).5XoX5X*X.X*X.X%X.X%X*X*X*X*X6X*X7X7XzXDXL %X XF.S.A.A.F.S.A.A.A.{.}.{.}.3XeX>XJ.|.|.|.3X3X3X4X|.}.}.{.{.|.pX8XF.k.v.<.V.{.XX}.XX.X.X.X.XoX5X.X}.",
"{.XXkXe.Y q.H ` h.+X X+X).).].E.).E.T./.E.E.E.R.R.A.E.R.V.E.!.E.!.R.P.=.5.R.A.A.A.A.A.S.B.N.g.S.B.A.G.'.{.D./.E.A.T./.{.!.A.N.j.B.A./.D.J.>X<X8 ,.T.T.C.A.A.A./.E.{.E.Z.C.C.A.A.(.{.J.{.{.D./.'.'.{./.r.P R.].$X$X%X.X.X X)./.)./.E./. X X).).).).T.h.V.A.C.A.E.V.V.R.dX0.O.$XV.N.A.G.{.{.A.A.D.A.A.A.A.A.A.A.{.{.}.}.}.}.}..XOX}.OXXX,X&.].u.i.C.C.T./.!.A././.). X X$X%X+X X.X%X). X X X X'./. X{.{. XV.N.{.J.A.A.A.B.C./. X.X{.{.}.{./.{./././.{.OXOX{.4X8XaX}.w :.C.b.b.g.g.g.d.N.d.N.N.N.C.C.B.N.A.Z.A.A.D.D.D.{.{. X{.{.(.{.|.yX7XE.E.u.i.b.Z.8.N.A.A.A.A.A.F.A.B.B.B.A.(.{.{.|..X}.}.}.K.}.qXiXiXiXOXA.7.A } /.^.A.F.C.A.A.A.A.G.E.{.{.u.{..X{.K.}.}.4X.X}.}.}.{.A.J.J.oXF.t.,.6.v.` ,.a.n.E./.).`.E.`./.).)._..X.XoXoX.X_./.OXoX5X<XhXlX/./.A.(.(.}.OXoX3X3X3X3X3X>XwXpX0X}.3XwX6XXXoX/.B.A.A.j.j.6.C E.;X&X%XXX*X*X5X7X7Xt.a.E.).$X X%X.X6X*X*XoX5X6X.X_.5X5X*X-X7X6X6X7XwXjXAXq.!..XA.D.A.S.C.D.S.S.A.J.{.J..X0X3XoX}.|.K.|.3XoX4X|.|.K.}.(.}.|.0X4Xl.(.(.' h.!. X}.}.}./..X.XoXXX3X.X",
"{.,XkXJ T i.G G w.).+X$X!.!.].!.T.V.V.^.!.T.V.Y.V.V.V.T.h.V.T.V.Z.n.y.} f.T.C.A.S.A.Z.Z.A.N.g.g.g.C.A.D././.OXXX{.'.E.{.'.E.N.N.N.N.A.A.J.>XyX8 <.E.B.C.A.A.A.E.'.{.A.A.C.C.A.!.{.{.A.E./.E.A.E.'. X.XI P T.V. X X%XXXXX.X%XoX$X^.T.^.!.).E.T.).^.h.g.V.R.Y.Y.V.C.8.b.1X=.X./.V.A.A.A.A.{.J.A.D.A.A.D.A.A.E./.{.{.}.{.}.}.{.{.}.{..X*X$X&.&XE.T.A.j.C.E.A.R.E.{.{.!.'.]. X).$X$X X).%X X X'. X{.{./. X%XA.8.A.A.A.A.C.N.N.A.(.OX^.}..X/.D./.{././.{.}.|.|.4X3XaXtXV :.u.8.7.L.8.N.N.b.g.d.L.N.B.N.B.A.A.A.A.A.A./.A./.{./.{.{.}.{.}.tXrXr.u.i.n.V.2.f 6.A.D.A.C.A.D.S.N.S.N.g.B.D.{.oXoX3X4X}.}.4X0XeXpXiX>XD.8.A | ^.C.C.B.C.C.S.A.{.u.I #..XV.{..X}.}.}.}.|.|.|.}.K.J.D.{.{.eXC.[ G o.<.>.:.h.Y.E.)./.).)./.T./.(. X XXX X/. X/.(..X5X6XrXhXjX).E.E.'./.{.{.,XrX3XA.B.oX.X3X6XB.D.4X0XXX{.{.XX{.A.j.N.j.8._ ].$XXX;X*X*X%X*X*X%X;X;Xj.). X$X%X*X*X*XoX6X*X6X5XoX*X6X*XXXoX6X6X6XwXrXAX XE.{.D.A.C.S.A.S.B.A.J.G.J.J.}.oX3X5X}.|.|.S..X.X|.|.|.|.|.j.| (.wXtX1.1.(.P $.Y.R.[.}..X.X.X.XXXoXoX6X",
"N.1X1X3 x #.I G x.`.).!.!.].R.E.Y.h.V.T.T.Y.Y.V.a.h.T.Y.h.T.).R.Y.n.e.! V.E.T.Z.Z.H.E.A.V.N.f.u.u.u.B.A.A.E.{.}.OXA.A.E.!.C.V.C.u.f.F.J.|.0X,Xf f./.N.C.V.A.A.!.{.E.A.A.N.C.Z.E.!.{.{.E.A.A.A./.'..X*X| I T.V.V.Z.V.E.!./.{.XX XT././././.E./.).E.h.h.Y.V.V.h.u.i.V.E.<XK @.T.N.N.A.D.{./.{.E.A.J.D.A.A.F.A.^.{.D.{./.(.{.{.(.K.J.{.XXR.*.-X!.E.R.V.C.A.A.'.{. X'.Z.C.C.T. X X X X X$X).). X XXX.XOXXXwXE.u.A.Z.A.S.A.N.N.B.A.|.}././././.E.{.E. X{./..X.X.X4XaXiX_ | d.7.4.8.8.7.N.N.g.d.8.8.L.g.N.b.N.S.A.A.A.A.C.D.D.D./.D.{./.}.eXvXg.t.u.C.R.a.l 5.E.E./.A.A.S.4...N.B.N.B.A.D.{.}.3X3X}.4X3X3XiXiXeX|.A.d.A | D.A.A.S.C.B.D.4X4.z = $ I ).{.{.{.{.}.|.oX.X/.{.D.D.J.J.}.pX(.| B [ [ ;.,.h.n.Y.)..X X)./.(.A.D./.).)..X)././..XoX5X*X6XrXlX^.).E.'.{.{./.oXeX3XB.d.eXeXoX3XD.8XwXoXOX{.E.}.).A.N.j.N.y.R !.&X$X%X&X%X;X5X;X%X$X.X X).%XXX X%X*X6X*X6X*X%X.X.X-X*X*X6XoX6X4X5X6XrXBXrX!..XJ.S.B.S.A.D.D.J.S.J.A./.OX3X3X}.|.3X|.d.D.|.}.|.|.|.3XA._ F.pX5Xl.<.<.p =. XXXOXXX.X.X}.OX|..X4XoX",
"r.Y.K   1 M c B ` ^.%X).].].Q.R.Y.a.,.5.a.Y.V.r.,.5.5.,.X.,.i.p.i.2.L i g./.E./.{.E.{.E.C.u.N.V.u.b.j.N./.{./.{.OX/.A.{.{.C.C.C.6.S.J.K.|.uX'.z u.^.A.N.C.N.A.E.{.!.E.Z.N.N.C.E.'.A.R.V.V.A./.'././.oX6._ h.V.Z.N.Z.g.C.B.j.E.{.R.V.V.E.E.).T.E.T.a.V.R.n.u.u.2.@.6.R.dXJ @.T.N.B.D.D./.D.E.Z.{.(./.A.A.A.D.D.{.'.{.{.J.{.{.(.{.G.'.oXh.O.&X X!.E.V.Y.C.E.{. X.X.X'.E.C.j.C.E..X$X%X X). X$X X X)..X X7XE.6.D.A.F.A.B.N.L.N.D.}./././.T.D.A.Z.'.'..X.X}..X}.4XpXVX..A 7.4.4.7.4.4.8.8.8.N.N.N.g.N.u.b.N.N.A.A./.D. .I 4.A.A.D.A./.{.8XtXF.d.k.B.C./.C.C.E.{./.A.B.F.g.9.L.N.d.d.N.A./.{.}.}.4X3X3X3XeXeXiX3XA.g.|  .A.D.A.S.A.B./._.N l p 2 F E.{.{.{.K.}.}.}.}.D.D.D.J.J.K.|.uXD.1.;.[ o.#.,.V.R.Y.!. X X/./.E././.T.). X).)./.).OXoX*X6X6XrXhXh.T.A.{.{./.{.}.oXeXwX6XeXpXwX4X4X3XwX3X|.{./.{./.A.A.R.C.C.@.R.&X*XXX%X.X%X;X6X%X.X.X.X). XoX%X*X*X*X*XwX6X;X.X.X*X*X6X6X*X6X6X*X*X7XvXBX/.^.D.N.S.N.N.C.A.A.A.{.D./.{.}.}.|.|.|.3X|.}.4X}.}.}.K.}.|.D.K.3X4X9X<.[ s @.*X[.OX}.}.OXOX}.oXoXoXoX",
"%.Q x W N Y ' _ P X.*.&.X.! J h t 7 ' ;X%X*X=X Xa.n.W.Y.Y.x.i.V.Y.y.' F u.x.h.V.R.y.V.n.y.-.6.,.-.,.5.6.d.8.4.6.f.8.6.V.A.C.u.V.E.(.{.G.>X'.z f 6..XE.{.{.E././.{.{.{.E.H.Z.A.E.E.C.A.A.C././.E.'.OX X,.%.Y.V.b.b.Z.C.k.d.8.j.C.C.h.g.V.h./.!.!.n.p.R.E.n.V.R.5._ o.a.hXK @.E.N.N.Z.D.'.E.A.{.{././.A.A.A.A.{.{.G.'.{.{.(.}.J.D.G.'.XXp.~ -X@X X).R.R.Z.E.!. X%X%X XE.C.g.6.f.Y.!. X).).). X X X).%X$XtX Xf./.A.A.S.B.g.g.f.B.{..X/./.A.A.{.A.A.E.{.}.}.}.|.5XiXiX9._ 4.4.2.3.4.4.4.8.8.N.g.N.N.N.N.N.Z.C.B.B.D.J.9. .4.C.A././.(.}.eX8XB.8.g.N.N.A.!.{.A.A.{.'.A.B.B.S.g.g.N.L.B.S.D.(.D.F.D.|.3X3XrXeXeXoXA.Z. .} A.A.A.S.B.B./.).C.V.y.:.6.N.'.}.}.}.}.}..XoX(.J.J.J.J.{.{.pX^...;.[ ;.' $.Y.Y.T.E.E.!. X/.E.).).T.). X)._.T. XoX5X*X6XrXyXfXw./.E.A.A./.}.{.oX|.|.0XwXwXeX6XqX8XwX6XoX}.E.D.A.!./.A.C.).5.V.;X%X&X6X%X%XoX*X.X.X.X X.XXXoX%X.XXX%XwX*XrXwX6X%XoX5XoX*X*XrXrXwX*X7XlXVXC.B.B.N.C.S.B.C.A.A.{.A./.J.J.{.}.|.}.|.}.|.}.{.}.}.}.}.}.{.{.4XqX4XF.1.] { S &XXXXXXXOX.XoX|.oXoXoX4X",
"*X<X1X<XyX1X*X X X&X-X1XhXkX/ v U i t.7X*X,X*X;X X%X*XrX<X7XrX-X&X$X$XQ.P.h.h.i.,.5.i.a.n.a.a.).@.5 8 r ) ;.' _ I B c x k y 5 c M w l L 4.$.N q f } 6.%.1.C.V.u.u.Z.E.R.N.V.C.A.g.V.A. X!.A.B.A.*X&X%.w P ,.:.%.;.,.| V Z P P ] ] V m N ) #._ #.@.I F c H T @.&./ P ! 0.3 *.A.S.8.5.C.N.B.D.D.(.{.{.R.A.C.A.D./.A.(.A./.D././.D.A.Z.A.a.H %X X@X X!.n.R.R././.XXlXkX].V.g.8.8.9.b. X X X$X].!.R.). X%XjX/.6.A.C.C.A.j.j.8.8.8.N.}.'.E.A.A.A.Z.A.A./.D.E.{.{.wXpX3X.. .8.4.2.2. .4.5.9.8.7.u.N.N.N.g.N.N.N.N.S.B.D.}.{.E.E.(.(.{.{.}.eXVXB.9.N.B.A.A.J.}.D.C.A.}.A.B.S.N.B.g.8.N.g.D.A.A.D.D.C.D.}.oXwXuXeX.X}.Z.9.2.V.A.S.A.C.S.D.OX3XOXD.6.1.N.A.{.{.{.D.{.XX}./.D.{.{.{.J.}.iX^.B 1...B ) ,.a.V.E.E.E.E. X).E././.!. X.X/.).).%X%X%X.X8XrXgX7X,.).T.A.A.A./.(.oX|.|.oX0XwXeXwXeX6XwXwXoX{.A.A.A.{.}.Z.G.wXV.u.$XoX;X%X.X.X.X%X;X}. X.X_..X.X XoX&X$X%X*X7X7X7X6X6X6X*X*X*X*XwX<X;XwXuXGXu.,.h.A.B.B.N.N.A.A./.A.J.J.J.}.{.{.XX}.J.|.}.}.}.{.{.{.{.{.g.{.eX4Xj.l.f.A n &XXXXXXX.X.XoX4XoX4XoX6X",
"&XXX$X XXX].].].!.'.XX*X<XmXe.K T p x.&XoX&X&X%X%X).$X%X-X-X&X$X$X$X].].!.!.!.Y.' ] h.T.E.!.!.&X Xv 7 p `..X X X]. XY.Y.!.a.#.} | #.C.!.E.A.'.g.| %.:.P z V N w > 4 d > > w I @.I } } @.$._ C $.a.5.z l #.' m e ;.| B f y i I g.g.| | 1.6.F i 7 < < < < : $ < * . X X o   -.Z.A.}.N.8.N.N.g.D.D.D.E.'.Z.N.N.D.A.A./.A.A.C.8.k./.{.'.).r.U &X].&X&X].Y.Z.E./. X XxXIX<XR.u.i.N.u.y.T.). X X].R.N.T.%X*XrXOX6.A.C.V.V.N.N.g.u.8.g.E.!.Z.Z.Z.C.N.V.E.C.g.V./.{.3XuXpX| _ d.7.5.4.4.2.5.7.u.7.u.b.b.N.g.8.j.N.N.A.A.{.{.A.A.A./.{././.}.tXeX| g.B.B.S.'.}.OXD.8.B.}.A.L.7.4.N.8.g.8.N.B.S.A.A.A.B.d.B.}.6XeX7XOX}.{.Z.9.V.C.C.A.S.A./.(.oXXXE.B.d.N.D.(.D./.A.J.}.{.{.D.J.(.D.G.{.eXeX1.8.;.>.P r.V.V.R.Y.R.E.).!.E.T.T.R./.).h.t.).).%X%X.X*X*XjX;XR ).C.!.C.B.A.{.{.|.|.3X0XwXwX6X6XeX4X.X.X(.A.A.E.{.XXA.A.uXu.I ).%X%X.X X.X.X*XXX{././. X.X.X.X.X%X%XXX.X;X7XrX7X8X6X;X5X;X*X6X7XwX5XeXFX_.<.N.N.A.N.S.N.N.B.A.J.J.J.J.{.}.}.}.3X{.D.(.}.J.{.D.(.{.{.D.}.tXk.f._.^.P k #XXXoX}.4X4XoX.XOX5XoX3X",
"*X&X X X].&X$X].].{..X%X,XlXe.K H x j.$X XXX%X%X%X%X%X%X%X;X;X%X).$X$X).$X$X).].n.p.V.Y.T.T.E.E.&XdX@.w ^. X[.E.E.E.n.V.Y.V.u.E./..X.X/..XrXXX6X*X7XlXjXXXi.V.P.e.&.~ 3 c i./.A.T.T.R.T.T.).).Y.R. X*X*XwX|.6X8X4X.X.X6XuXwX6XoXF.|.8XaXrX] h.x.i.V.t.r.,.*.O.Y ! S v y 6 I 6.t.!.A.g.A.A.d.A.8.B.}.XXZ.r.A././.R.A.A.A.A.8.8.A./.R.XXq.! jX-X$X&X&X XV.E.D.'. X&XUXUX@XY.Y.E.R.Y.E.). X$X X X/.^.%X6XrXOX8.V.C.V.N.N.N.8.7.8.8.C.Z.C.Z.Z.V.b.V./.h.6.8.A.{.oXuXpXd @.u.7.7.4.7.4.4.7.y.8.y.u.u.u.N.6.6.8.N.S.A.{.{././.(./.D./.{..XpXrX} C.Z.A.A.{.XX6X6XN.N.A.A.S. . .A.8.8.8.b.Z.Z.A.C.C.B.d.N./.8X6X4X.XOXXXoXy.R.A.A.Z.A.A./.{.OXOX{.A.N.N.A. X/./.A.{.{././.{./.{.{.{.}.wXiXe 6.d.<.B r.Q.R.E.E.!.!.E.E.E.E.T.E.T.%XT.,.T.6X.X%X%X-XlXzX$Xk !.b.%.8.V.A.'.}.}.OXoX3X0X6XtXtXwX3X|.}.A.C.A.A.{.}.A.S.pXN.5. X.X). X XXX*X.XXX)./.E.{. X{.).)..X.X&X*X*X7X7X6X6X5X*X6X*XoX*XwXrXeXOXNXuXE.A.A.A.S.S.N.N.V.A.A.G.{.J.{.}.}.3X}.D.{.D.(.J.{.D.J./.{.D.{.uXk.1.k.<.N t R.&XXXXX3XoXoXoX4X6X4XwX",
"&X*X X). X$X X].). X/..X7XmXy./ T c x.+XXX$X.X%X)..X%X%X.X%X;X%X%X;X)..X$X!.!. XE.R.n.Y.C.C.A.E.].DXm.9 T./.].{.).'.R.%.@.] I 2.V.C.V.u.h./.XX*XrX*XwXrXXXQ.'.n.m.p.-.W h./././.F.T./.A./.;XhXXX!.S.Z.N.A.}.|.oXXXoX3XXXoXoXoX|.D.D.|.wXyX5.R.Q.Z.Z.Z.Z.Z.V.p.n.m.m.n.-.#._ Z C l l l z V V Z A _ I } J n T #.$.2.5.9.6.N.4.5.h.E.R. XR S  X]. XQ.-X-Xn.Z.G.8.E.;X!.hX$Xy.*.5.h.h.t.r.Y.x.Y.R.p.r.r.i.Y.*.6.E.C.C.C.b.N.b.8.d.N.A.OXA.Z.'.A.C./././.A.A.{.{.|.ZXnX> @.V.4.4.%.%. .%.5.9.8.8.8.8.u.g.4.6.9.8.N.A.A.{.{.}.J.A.{.}.}.OXtXtX} Z.'.}.XXoX>X6XtX{.B.}.{.Z.N.8.C b %.u.N.8.Z.{.A.B.C.B.A.{.oXoX*XoX5XwXrXC.C.V.Z.A.A.A.A.Z.{.{.'.H.N.N.E.{./.).}.oX4X{.A.A./.D.G.{.{.rX7X- P 6.;._ 2.E.R.].E.!. X$X$XQ.R.x.Y.h.T.T.q.C.%X).T.!.!.@X$X&., y.2.} 7.Z.Z.E.'.'..XoX3XoX3XuXNXwX4XXX{.(.A./.{.A.{./.A.ZX8.V.$X X X)..XXX$XXX.X).).!./. X X{. XXX%X-X1X*X*XrX7X8X;X*X%X;X.X;X*X>XwXrXFXuXA.(.G.{.G.A.A.Z.E.{.{.{.A.A.}.|.XXoX{.D.{.K.D./.A.J.A.A.A.A.|.yX| ..1.` b 4 e.#X>XoX.XoXoXOXXXoXoXoX",
";X7X7X X).!.).E.)._.)..XrXlX2.Q I F c.$X X%X%X).). X_.$X%X;X5X.X*X.X*X*X$X).).).E.T.T.Y.C.T.F.^.&XMX@.q _._. X X).).).E.V.g.6.%.t.E./.T.C.T.).5XrX6XrX<X X X XE.R.p.@.I /.E.D./.E.E.E.C.)..X.X/.A.A.B.B.A.{.}.}.}.OX.X}.(.{.{.}.D.D.D.3XZXu.Y.!.R.Y.Y.Y.V.p.V.n.P.R.V.n.u.u.4.:.| _ } | } | | _ { | @.v O + , 3 t t 7 5 7 F -.5.t.r.i.*.@.q.p.i.5.z.L w I P f B N p a p i M c l L ' c < D U R U L L c v t @.t.,.I A C P Z ' ;.P b v b k b b L L C I E L } } :.C.E.k T -.} #.4.#.%.} %.} @.| #.,.u.u.5.t.A.N.:.:.%.I R Q R | #.%.8.8.C.E.I ' P b L I ` P %.] G *.#.' #.#.X._ _ ,.} _ } 5.4.} %.:.| 6.g.f.f.E.{.oX'.b.A.Z.'.G.E././.{./. X*X*X!.C.V.g.V.E.!.).E.h.| 6.D.j.| ;.;.,.o.i 5.A.C.;.C #.' T #.] C L c p p F F F o.] B ] X.Y L 8 y , . . O 8 b 2.S.!.'.H.C.N.A.{.XXrXuXwXtXrXoX/.{.E.A.{.^.C.{.oXOXCX' r.&X$X X X X&X]. X.X)./.).).{.{. XXX X.X$X.XXX$X-X-X-X&X%X.X.X.X)..X*XrXyXLXT...f.4.r.5.5.7.6.u.N.A.8.N.B.N.g.j.S.K.4X4XoX{.J.J.J.{.{.{.XX0X4X[ ] ' Y 5 > $.].[.XXoX3X3XoX.XOX4X6X",
"oX;X-X;X XR.T././..X.X6XrXmXM.W F m ^.+X).$X%X%X6X%X%X%X X.X%X*X5X*X*X.X).$X).T.).E.E.Y.C.j.j.(.-XlXL q %X.X X$X_._. X).E.C.C.C.V.C.E.(./.^.(..X*X6XwXwXR.n.].].m.5.P _ A.'.E.D.A./.{.E./././.A.A.D.C.S.S.D.{.}.}.}.|.}.}.}.}.}.{.K.D.4XeX5.E.].!.!.E.Q.V.t.V.T.E.E.]. X{.!.C.n.g.4.7.N.u.g.8.4.9.N.i.=.O + , D *.! L L B >.XXXX X XE. X*X,X0XXXwXyXg._ _ ) ) z w N F F k c m m ] o.k & &.h.;X,XkXlX!.%XrX%XoXV.b.Q.R.R.g.T.).C.-.X.~ S a 6 1 6 > , &   , i ,.R. X-X-X$X*X-X<X%X-X*X XXX!.E.;X.X%X;XjXtXAXLXXX9._ - & $ $ 7 i 7 e B ' ,.:.#._ Z ) #.1.;.#.;.>.>.q.-.s.h.$X X$X X<.1.' V.E. X].E.Z.R.T.i.} _ ;.9.A C u.g.N.b.y.g.a.t.t.t.%.g.:.I f N o.#.~.$X;X7X7XcXuXcXcXuX.XR.7XzXwXrXlXrX*X*X;X6X7XyXE.T.Y.W.).].%X*X.X).oXnX%X] P N F c 3 , & O 4 3.].&X{.{.}.N.A.OXoXcXaXiXNXtXOX/.OXXX.XOXOXA.OXr.H.LXZ } $X[.]. X X X$X X X).V.N.!. XXX$X%X6X/./.5XoX;X7XhXgX;X). X/.).h.7.N.).).jXj.;.' i c l l N l e z Z V B A A V { _ { V _ Z w f f f i x u d C ] ;.;.P Y w 4 @.R.[.oX|..X|.|.6X}.|.6X",
"*X*X7X=X%X/.Y.A././.OX*X,XnXn.b N B v.+X_.%X_.).).%X_. X)..X.XoXoX.X.X;X%X)..X).).).T.Y.C.C.A./.wXkXl f ^..XXX&X%X.XOX X).!.E.V.C.A.E././././..X5X*X5X*X XT.!.E.n.-.C | A.E.J./.D.A.D././.D.D.D.D.{.A.E.D.A.{.|.}.{..X}.XX|.|.|.{.D.B.K.NXy.Y. X@X]. X).).E.).). X$XXX$XXX X XE.C.C.A.T. X!.R.Z.S.C.R.@X3 , , &.V.r.5.4.i.N.R.Q.E.!.E.T.E.oXoXXX{.*XiXwXA.B.A.f.t.V.7XmX$XV.i.E.Y.9 3 O v R u.C.E.Q.C.C.'.'. X{.(.XXoX8X{.N.oXSXLXAXCXCXZXyXXX X].!.z.u > U :X$X$X%XXXXX&X1X&X$X&X;X$X$X$X!. X{. X.X-X7XBXUXSXXXi.> y s.a.R.E.R.T. X;X;X).XX.XrX,XXX-X&X6X%X XR.).:X;X&X&X-XrXxX7X#.V h.A.oX,XiXaXZXKXCXeX3X{.D.{.V.6.b.b.8.y.9.y.6.,.:.} 8.,.,.M q e o.hX$X;XhXlXlXtXlXNXBXoX9.!.yXrXrXrX<XrXrXyXNXyXKXrXQ.V.V.Y.!.%XXX.X X-XKX7XN z b.iXnX-X-X@X].u.%.u.A.V.f.g.| [ P _ I _ N Z c y i N c Y #.] _ ) q %. XV $.-X$X$X$X X-X<X,X6X5X4Xd.C. X).).V.E.t.:.u.;.X.#.o.Y r.E.C.T.T.E.A.A.T.`.5XcXcXNXZXBXNXBXcXuXtXlXlXBXlXlXpXcXbXGXZXA.C.R.t.).k.F q 1 , < 1.j.q : > b 7 . b V.{.XXXXoX8X6XeX.XoXpX",
"wX*X*X*X.X XE.C./..X.XoX,XlXn.b L H _.%XXX X$X).T.)..X.X.XOX.XoX*XoX;X5X%X+X+X).^.T.E.T.C.j.F.{.rXyXk N %X.XXXXX%X.X%X X{.E.R.'.R.D./.).)././..X6X6X6X%X$XXX].E.a.,.B ' E.R.A.G./.A.J./.E.D./.A.A./.'.{.{./.(.(.{.(.|.|..X}.XX|.{.(.B.F.NXn.-.R.!.E.E. X)./.).). X X%X%X&X&X$X XE.R.E.E. X%X$X X!.'. XMXK + 1 q.a.y.=.%.a.Y.E.!.].!.E.E./..X-X*XXX].yXhX6XoX.XoX,X&X<XlXjX%XoX*XrXt , O t w _ C.N.C.N.V.g.V.N.g.g.g.S.D.S.d.D.6XtXyXyXyXrX,X,X,XoX1XkXt - -. X@X$X X X XXX X X).).+X$X+X X!.!.!./. X&XrXzXSXAXNX$X1 x hXkX-X-X&X;X=X-XrX-X*XyXmXkXhXhXxX<X!.Y.!.Q.E.E.$X$X=X&XrXhXR N 6.L.{.|.>X0XiXiXyXiXiXwXoXoX{..X*X{.A.XX,XwXwXwXtXrXeXiXZXNX*.8 ' ;X X X*X7XwXrXwXwXuXcX8X6X8XwXwXrX6X*X*XrXtX,XjXBXrXV.6.h.!.oX X)./..XSX$XX > b.&X,X,XwXiXuXyX!.C.XX XA./.D.V.j.k.Y.W.W.! X.s.=.&.U c M P 1.| _ Z l F w r.R.x.Y.a.r.5.:.} %...{ B B Z B ) #.#.,.t.u.i.w.H o q.$X XOX.X%XoX.X%X7X7XrXtXrXwX,X,X<X*X%X;X,XyXrXwX,XrXrXuXuXNXtXlXmXBXLXAXr.R.kXhXrXtXjXQ.a.Y.!.p.%.%.%.} 4.A.d.g.6.| ..:.C.",
"*X6X6X*X%X)./.Z./.}..X.X6XkXn.J F N +X+XXX XXX).).).%X%X.X.X%XoX*X*X*X%X%X%X)..X).E./.T.C.C.^..XrX1X8 C 8X.XXX{. X X.X{./.!.E.E.E././.)..X.XoXXX*X6X6X;X&X X].R.u.#.N } E.E.A.Z.G.J.A.{././.D.A.A.D.D.{.(.(.(./.{.{.}.}.}..X>XXXOX{.A.D.lX5.y.!.!./.).).).E.T.).).%X$X*X;X%X X!./.E.R.R.!. X$X%X).T.V.MXe.O , s.z.p.t.5.V.R./.!. X X X/.OX*XwX6X*X%X7XtXrX{..XoX$X%X*X*X%X X/.|.zXK + D 5.$.,.Y.C.B.N.g.g.g.8.d.L.g.L.B.F.K.K.4XwXiXtXtXrXrXrX*X.X;XkX9 F *X X!. X).$X). X].].).).%X%X).).!.E.)./.).%X6XuXBXDXAXSXt 3 $X<X-X*X&X*X*X<XrX-X7XhXxXxXrXxXhXhX+X$X$X!.R.R. X&X&X-XyX=Xv N ,.d.}.3XeX0XeXeXeXeXeXwX3XXX|.oX>XJ.Z.A.{.{.OX.X{.{.}.OX,XZX6.= ' ]. X$X*X*X*X7XwXoXrXiXtXrX8XwX8XwX8X6X4X8XeX7X$XrX-X).C.V.E..X)./..XoXAX;Xo 8 Y.E.|.oX|.3X|.oXoXOX.X.X.X}.OX.X5XoXwXwXlX.XOX,XyXNXKX/.} T./.,.,.6.,.).i.z.W.n.Y.:XY.z.x.a.h.g.j.N.N.C.T..X*X.X.X%X7X7XbX+X7 R.&XXX.XOX.X.X*X*X6X*X6X6X6X6X*X*X5X%XoX*X6XrX6XwX*XwX6X6X6XrXyXwXrXrXnXuX9.Z.,XwX,XwXwXoXXX;X*XXXXX!.8.I  .B._ V V ' ;.9.g.",
".X*X*XoX.X X/.C.A./..X%X*XlXR.E c F `.$XXX$X%X X X X)..X%X%X.X%X%X%X;X%X%X%X.X)././.T.C.C.`.(.5XkX'.0 ) 8X|. X.X X X{.]. X'.E.E./.^..X/..XoX6X8X*X6XoX&X%X.X!.R.p.#.N ' A.9.A.A.A.A.A.{.D./.D.D.D.A./.D.{.|.{.A.A.(.{.|..X3X|.oXoX}.D.{.yX%.u.).)./.).E.W.).).)..X%X5X;X*X*X$XXX.XT.i.V.Y.!.$X=X;X-X$XdXfX+ , i.a.Y.g.V.V.T.). X X X).)..X*XoX6XwX8X*X*XrX%X/..X.X%X6X4X5X*XN.XXBXS . 0.$XR.E.E.E.B.N.g.d.d.d.N.g.g.l.B.F.K.4X3X6XeXuXtXeXrXrXwX*X*X$X4 &.=X$X].E.a.h.). X).E.{.oX;X%X_.).)./.)..XOX.X3XtXlXSXIXIXT $ s.yX7X-X-X%X-XrX7X7X7XjXlXBXlX5X;X$X8X-X$X X!./. X*X;X-XhXzXP V 6.g.{.3X3XeXpXqX8XeX6X8X|.4XoX3X3XOXC.N./..XOX}.(.(.}.|.oXnX} - 2.].E.E.T.OX5X*XwXeX6XwXpXZXrXeX7X8XwX6X6X5XrXrX%X.X).).T.C.Y.{././.oXoXCX;Xo L XXA.A.|..X.X|..X|..X.X|.{.{.}.}.}.}.}.OX{.{.).D.{.}.eX{.9.rXrX*X].-X-X-X-X;X=X&XhXSXxXhXgX-X$X-X-X-X&X%X*X*X;X7X7XrX6XrXlX7Xk !.&XoX%X.XXX.X%X.X5X6X6X.X4XoXoXoX.X.X*X6XwX6X3X*X6X*X4XoXoX5XwX6XwXwXwXwX/./.OXoX}.}.}.}.{./.(.}.XXXX{.C.A.}.oX}.oXeXoXXX6X",
".X*X5X*X.X.X XZ.A..X(.OX*XlX#X/ b H ^.%X$X$X%X%X.X)._.).)..X.X%X%X_..X%X$X).).).!.).T.T.A.^..X%XuX7.; #.4X_.{..X X). X!.{.)./.E.E.(.(.}.}..XoX6XoX5X%X%X&XXX!.R.r.@.b _ V.4.E.E.A.A.A.D.D.D.D.A.A.D.(.J.{..XB.N.D./.F.}.4XoXoXoX.X|.{.{.yX%.r.!.E.).W././.).)._.OX5X%X5X%X*X*X7X7X/.%.6.).;X$X=X-X*X,X>XzXx , i.x.h.h.h.C.T./.)._..X.X/..X.XoXwXwX8XoX*X6XwXXX.XoX6X3XwX6XtXoX6XBXU X /  XR.E.E.E.A.V.V.g.S.N.g.B.g.d.g.D.F.}.5X6XeXtXeX8XwX6X6XoX*XT.* q.<X X%X;Xt.>./.).)././.{.oX X).).).).). X{.oXoX6XyXlXKXUX! : X.;X&X%X*X;X6XrX7XjXrXjXvXDXbX5X7X X%X7X;XXX). X X.X;X%XrXSXR z 6.B.{.3XwXeXqX0X6XeX0X3X3X|..XoX.X}./.D.{.{./.(.}.(.{.|.6XNX} 0 C. X X| e _ _.*XwXwX3X3XtXuXrXeXeX6X6X8XwX6X*X7X7X;X_.)./.A.E./././.5X4XCX;Xo X.{.A.A.{.{.{.4X}.|.4X3X}.J.}.}.|.}.|.|.}.}.{.{.{.{.D.pX:.} lX&XdX7X-X=X;X=X-X&X;X-X;X-XgXgX-X-X*X-X-X-X6X6X6X7X-XrX<X<XrXzXjXl V.&X$X*X.XXX.X5X.X.X6X6X*X.X.X.X.X%X.X6X5X0XoX4X4XoXoXoX.X5XoX6XoX6X6XXXoXC./.OX5X6X X/.{.}. XOX}./.XXoX'.{.E.{.}.oX0XXX.X{.",
"OXoX5X.X.X X/.{.)._. X.X*XyX[.Q a F T.+X$X$X.X$X$X$X X$X.X%X%X%X%X%X%X%X_.%X X!.).T.T.T.^.(.}.oXrXU * ] 9X/.{././.). X'.!./.).). X.XOX|..XoX6X8X6X6X6X%XXX).a.V.5.@.c P {.R.A.A.A.A.A.A.J.D.D.A.D.A./.{.}.OX:.4.D.(.D.}.oX3X3XoXoX}.{.{.rX4.-.R.T.(.E././.)..X.X.X%X5X%X%X5X*X.X;XE.%.i.z.=.%X-XrX-X*XXXxX~ & q.h.T.V.T.R.E.E.).). X.X{./.5XoX8XrXwX5XoXoX8X4XXX4X6X6XwX8XwXoX>XBX/ X *.&XE.].)..XE.C.C.g.B.B.j.g.F.k.B.K.D.{..X6XeXrXwXwXrXwX*X.X;Xz.< q.=X]. X6X%X/.).).)..X/./. X/..X_. X X.X/./.oX5X8XtXnXnXAX=.$ H ).%X X*X*X-X6XrXhXjXbXbXbXgXgX;X.X.XrX7X%X/.}. XXX X-X<XSXR w 6.N.{.XX0X6XwX0X0X6X3XoX.X.X.X}././././.{.(.{.}.4X}.}..X4XBX*.9 $X].*X X' o.(..X6XwX8XwXtXtXeX7X6X7XwX*X*XXX6X;X7X7X6X%X/.{.'./.}.{..XoXCX`.o r.{.A.d.(.|.}.{.oXoX|.|.|.|.}.K.{.|.OXK.|.OX|.XX}.J.B.5X6.@.rX;X-X-XhX=X;X7X7X<XrX*X-X-X7XhXrXrXhX7X7X7XjX7XtXrXrXwXrXrXrXBXlXl u.%X*X.X%X.X.XOXg./.5X.X5X%X.X.X*X4X%X.XoX6X6X6XoX4XoX5XoX5X5XoX3X6X5X&X*Xu.Y..XrXNXT.C.XX%XOX.XOX X}..X/.A.A.{.{.>X|.(.{.{.",
" X%X%X_._. X!.{./._.)..XoXyXXXT x ` +X%X$X;X X X%X$X%X X$X$X%X$X;X%X;X*X.X.XXX X/.T.T.T./.}.OX5XlXL 2 o.%X X}..X X X X!.).).)..X X.X.X.XoX6X6XwXwX8XoXoX*XXX%.} 3.} b _ /.R.A.A.C.A.A.{.{.{.A.D.D.D.D.{.}..XD.j./.(.{.}.XX4X3XoX3X|.}.{.eX2.} V.T.T.E./. X X%X X_.5X%X%X*X*XoX.XOX X X$X, o x.8X-XrX-X X=Xh.x h.a.g.V.T.T.E./.). X/..X.X}..X5X6X8XtXeX5XoX6X6X6X8XoX.X6X6X8XoX,XhXn . r.%XE.).)..X'.R.A.f.C.A.C.B.j.g.A..XF.6.A.3XeX8XwXwXrX,X*X*X;Xr.- @.&XE.).%X%X).%X.X)././././. X X.X X{. X(.)..X%X6X6XuXyXBXy.X x k.%X.X%X*X*X-X7XjXjXjXjX7X7X7X6X*XoX6XrX%X/..X.X.X*X&X<XVXX.8 4.S.XX3X6X0XwX0X3X3X3XoX3XoXoX.X}.{.B.A.{.{.{.}.}.}.}.oX4XAXr.9 !.Q.&XrX%X.X X*X*X6X*XrXtXtXeX8X6X6XrXwX&XoX%X.X%X*X*X*X.X{. X X/.OX5XoXiXa.X a.Z.y.} g.{.G.{.}.}.}.|.|.J.}.S.S.F.{.|.oX{.}.oX}.}.D.4X;.| jX&X7X-X*X7X-XrXrXrXrXrX7X-X6X7XrX-XgXhX7X7XjXtX8X8XrXtXjX7XtXVXAXM E.XXXX.X.X.X7X.X<.g..X.X4XoX.X.X4XoX}..X.X5XoXoX5X6XoXoX5XoX3X*X.X.X.X*X*XN.V.oXwXuXu.%.oX*XwX3XOXOX(.}.OX}.{.}.XXwX4XA.F.D.",
"%X%X%X+X_.). X X/.)..X.XXXrX&X/ n G _.%X$X$X$X%X%X).$X). X.X$X%XXX.X%X X%X).).).E./.T.T./.(.}.6XhXK < o.7X.X X}..X.X.X).)..X.X.X.XOX.X6X*X6XwXwXeXwX*X6X6X,X/.y.=.} b Z T.C.D.A.A.A.A.D./.A.A.A.A.(.{.{.}.}.{.{.}.}.{.|.|.3X6X4X.X4X|.{.wX .] T.T.T.T.Q.).).T.).%X%X.X%X6X5X*X*X*X*X,X].U D x._.$X&X-X+X=XQ.b Y.h.a.V.T./.(._./._./._./.5X5X4X6X6X6XwXwX6X4X6X8XrXoX3X6X6X*X*XuX-., , i.6X/.!. X{./.E.C.N.A.).T.A.A.B.E.}.4X(._.8X6XwX8X8XwX6X%XoX*Xr.& t.-XT.XX%X.X%X_.$X). X X{.E.E.). X.X X/./._.)..X3X8XwXwXzX!.= t Y `..X.X*XwXtX8XtXcXjXrXtXtXrX*XoX.X%X7X6XOX_..XXX*X*XrXVX-.f 8.A.}.oX3XeX3X3X|.3X|.3XoX{.D.(.{.}.B.A.(.{.{.{.}.}.|.oXoXCXy.t E.]. X%X.X.XXX,XoX}.8XwXwXtXrX6X3XwXwX,XoXXX%X.X*X6X4X.XOXOX.XOX.X4X.X3XCXi., !.n.N.N.N.B.N.S.N.S.B.B.A.{.{.D.A.A.D.{.}./.(.{.4X}.K.iXXX} 7X&X-X5X*X,XwX*X-X<X-X-X7X7X6X6X7XrX6X8XjXtXtXtXtXtXyXjXrXtXjXvXGXM T.).{.(..X X.XwX.X{.oX6X*XoXoX5XoX.X.X*X.X*XXXoXoXXXoX*X4X*XoXoX X X.X.X*X5.C.,X*X*X/.^.}.}.XX}.(.}.}.{..X|..XOXoX0X4X|.D.S.",
"%X6X%X.X X). X X X).)._.oXrX1X-.c M `.+X+X).$X$X X). X_. X_.%X_..X%X%X%X). X).E.`.E.T.`./.(.}.*XlXL r w.7XOXXX.XXX%X X.X.X.X%X.X.X3X5X;X;X6XwX8XwX8X6X6X*X&XXXQ.7.$.N f V.A.A.B.C.C.A././.^.C.A.D.D.{.{.}.}.{.{.}.|.|.}.|.5X3X3X.X4X3XXX}.' _ ).T.Y.T.T.^././.)..X%X*X5X%X5X5X6X7X6X%X XQ.!.)..X`.).$X$XhX].E R.V.E.T.)././._._._./.(.OXOX.X4X5X6X6X4XwXeX8X6X6XwX6X8X8XwX6X6XBX#.3 , h.6X).T.%X)..X.X/.A.(./.E.T./././..X.X5X6X7XeXeXeXwX8X6XoXXX-Xe.$ i.$X X;X.X.X%X%X.X X).).E./.V.E. X.X X!..X/.OX.XoX4X6XwXjXhXk 1 c ).;X%X%X;XrXtX7XeX7XtXrXrX;XoX6XoX5X6X7X;X.X.X.X%X%XrX6X%.A 8.D.}.|.oX3X3X|.}.|.3X3X4X| 9.}.{.{.A.D.{.{.{.{./.}.}..X3XZXC.& t. X XOX/.XXXXwX*XOX6XeXrXeXwXwX6XwX6X6X*X%X5X.X.X.X.XOX.X.X.X_..X4XoXoXAXY.t ,X'.S.N.L.B.A.Z.Z.}.A.B.D./.D.{.D.A.A.D.D./.{.(.}.}.K.eXwX_ &XXXoX*XoX6XoX6XrXrX6X6X7X7X4X6X8XrX8X7XjXtX8XjXjXuXlXjXtXlXpXjXLXY a.).!.{..X).)..X.XoX*XoX3X*X5X.X5XoX.X4X.X.X{..XoXoXXXoX5X6X/.h./.{.oX%X.X:.R. X{.{._./.OX.X{.|.{.{.{.}.OXXX4XoXoX6X4X}.(.J.",
").%X.X.X X X!.'.).(./.)..X8X<Xp.c x W.).$X XXXoX X+X+X.X).%X X$X%X).).%X). X).^.).W.T.!./.^.OX,XjXD 2 +.4X.X}. X X%X.X%X)..X.X_..XoX6X;X;X6X6XwXrX6X6X;X-X&X].R.p.} z b A.A.C.A.A.C.C./.(.C.C.D.D.D.A.(.}._.}.|.OX4X}.}.}.|.oX3X3X|..X}.R.L ' +XT.V.C.C.R.E.^.).)..X.X5X%X*X*X6X5X,XXX XT.h._. X).).h.).&X$X3.P.Y.!.T.T.).).)._.)..X.X.X.XOXoX3X6X5X8XeXeX6X6X6X3X6X6X8X8XoXwXVX-.6 1 i.).).).). X).OX/.E.E./.).)./././..X.X4X6XwX6X8XwXrXwXwXwX*X%X$.. a.$X%X).+X%X.X X.X.X%X)./.).E.).). X'.{./.{..X|.6X*X5X3XtXzXU > c T.5X*X6X5X7XtX7XeXtXtXtXjX6X%X6XoX*X6X7X5X XE./.*X&XrXrXi.A 6.A.{.|.0X0X3X|.}.|.3X3XoX8.B.{.{.(.A.D.G.{.{./. X X{.|..XVX}.P C.R..X6Xh./.oX>XwXwX8XwXwXeXeXwXwXwXwX5X6X*X6X.XoX%XOX.X5X.X.X(..X.X.X.XVX:Xt <XiX8.N.8.8.u.N.Z.E.A.G.{.D.D.D.D.(.{.{.{.J.J./.}.{.(.eX{.L -X}.XX%X*X*X*X8X7X7X7X7X6X;X5X6X6X7X7XtXtXtX8XtXtXuXuXiXrXrXuXpXLX' h.T.T.!.(..X)..X%XoXoX>XoXoX6X.XoXoX.XoX5X.X6.6./.oXwXoX6XrX%Xg./. X.XoX;X%.T.{.}.}././.}.{.|.|.{.}.{.{.{.{.XX3X3XwX6X4X{.4X",
")..X%X.X X!./.!.E.!.).)..X7X&Xa.N x j.).+X%X&X;X%X%X$X X).%X).).).).$X).!.E.T.!.).).).E.g.^..X6XxXL < +.%X_..X.X$X X.X_..X_..X`.(..X5X5X*X6XwXrX7X7X6X%X;X%X XQ.b.@.z C E.A.C.A.C.C.A.^./.j.j.D.A.A.{.J./.(.OXoX4X3X|.|.}.}.oX3X3X.XoXXX XF Y +XT.h.V.h.T.T.^./.(.)..X.X.X5X6X8XrX6X.X XT.T.%X.X%X*XE.E.).!.r.Y.R.R./.)./. X). X.X.X.X.X3X.X4X4X6X6X3X8XwX*X6X3X8XwX8X*X4X3XwXSX,.4 > V.%X/././..X)./.C.E.T./././.E.)..X.XoXoX6XwX8X8XeXrX8XwX5X%XrX@.. !.$X%X).%X%X.X X X%X.X).)./.E.).).).).). X.X_..X5X/./.8X;XhX2.* i h.*X*X;X6X6X7XrXeXtXeX7XjXtX;XoX4X*X6X7XwX.X8.N..X;XrXnX Xd 5.{.}.|.>X3X3X.X|.}.}.4XoXJ.{.}.{./.A./.{.{./.D./.A. X{.|.VXOXI A.T.).wX%X.XoXoX6XrXeXwXeXeXwX7XtXrXrX8X6X5X5XoX5X*XXXoX.X.X(.{..X.X.XoXGXW.> -X,XoX{.N.y.u.N.Z.C.A.Z.J.D.A./.A.D.{.{.{.{./.{.}.{.K.iX/.b ;X}.XXXX%X;X%X;X7X7X7XrX6X5X6X6X7X7XtXtXjXtXjXjXtXhXtXjXlXrXtXcXPX] j.).V././.{.{.OX.X5X*XoX*XoXoX6XoX.X5XOX4X5Xf.] 6..X5XoX,X7X8X%X.XoXOX*X7X%.h./.{.{./.(.A.}.|.{.{.{.{.{.{.{.}.oX3X3X4X}.|.3X",
".X*X.X.X).E.E.E.E.!.].). X7X Xi.F x W.).$X%XoX%X%X%X%X X).).).)._.%X).).).).).).!./.{.!.#.k.(.6XMXL 2 o.%X.XXX%X%X%X.X.X.X.X.X.X.X%X*X6X6X*X;X7X;XY.x.%X*X%XXX[.n.$.N V E.N.N.Z.V.F.T./.[.A.A.A.D.F.D././.)..X4XXX|.|..X}.}.oX4X3X|.|.|.*XY L ^.h.h.h.V.V.C.T.E././..X)./..XoX3X5X*X X).).)._..X;X*X X!.E.5.@.T.E.T.!./.{.{.{..X.X(..X.X5X5XoX*X5XwXwX6XwX6X6XwXeX8XwX8XoX6XwXLXh.3 6 Y.).T./.)..XT.).E./.E./././.)..X)..X5X*X6XwXwXwXwXwX*XwX*X*X<X! & Y.).)..X%X.X%X_.)._. X/.E./.)./.).).).)..X_. X.X5X X.X*X*XrXn.4 5 $..X XoXwX7XwXwXwXrXwX7XtX7X5XoX.X*X6X7X8X8Xg.B.}.5X7XmX-Xz 7./.}.XXoX|.3X|.}.}.}.}..X}.{.{.{.D.{.{.{.}.^.A.N.N.(.(.|.VX.Xf T.T./.%X*XoX*X*X6XwXrXrXrXrXrX8XrXrX8XwX8X6X6XoX*XXXoX4X.X.X{..X.X4X5X*XGXx.y wXXX>X,X].Z.N.N.Z.A.J.A.'.{.D.D.D./.{.{.(.E./.(./.K.K.eXT.i &XXX}.XX4XoX.X*X7X7X6X6X7X6X6X6X6X7XgX7XrXtX8XjXtX8XjXjXlXjXrXjXLX;.h..XR.A.Z.E.E.}.oX*X*X5X4X*XoX6XoX6X6XoX_.%XC.u.C..X%X*X*X-X7X.X.X.X%X7X8XF ).%X}.}.{.{.A.}.{.A.D.{.{.J.{.}.|.oXoX3XoXoX}.3X",
".XXX).)./.T.T.).`.E.).).E.%X].2.L x v.+X$X;X.X%X%X$X%X).).).)..X X).).).T.T.)././.).!. XT././.*XxX! 2 O.gXXX%X%X.X%X%X.X_.{./.}..X.X4X6X*X*X,XrX0.: < >.6XoX&XQ.p.$.B I N.b.u.N.V.C.^././.J.A.D.A.A.D.{.}..XOX}.}.}..X{.}.}.|.oX3X}.}.|.,X%.b h.h.b.u.h.g.h.C.C.T.A.A.).}.5XwXN.A.OXXX X%X%X%X%X6X%X X XR.V.p.V.R.T.R.E. X!.). X X).OX%XoXoXOX5X6XwX6X6X6X6X6X5XOX5X*X.XoXoXwXBX$Xy > !.!.C.E./.)._.7X%XT././. X%X$X)._..X%X5X6XeX8XeXwX6X6X3XwX*XlX_ > i.Y./. X X.X.X X).+X).!.E.E.!.E.).).)..X).+X%X%X*X7X*X*XrX-XdXh 3 $..X X.XOX5X6X6XeX8X6XjXtXhXuX}.A..X6X6X%X*X5X.X.X5XrXlXlXz 9.{.{.XX4X|.3X.X|.{.|.}.(.(.{.{.(.}.OX}.}.{.D.B.d.A.D.D.}.NX4Xw V.h.C.)..XoX*XoX4X6XwX8XrX7X7X6XrXeX8X8X8X6X*XoX.X5X.XoXOX^.(./.5X6X3X6XFXa.k *X|.oX,XoX{.'.A.A.Z./.E.{.{.{.D./.J.{.{.(.J.{.{.D.D.D.eXc.> 1X&X X.X*XoX.X%X6XrXwX6X6X5X6X6X6X7X7X7XeX8XeX8X7X8XtXtXtX7X7XlXIXw.q.-X'.}.A.S.A.'..X.XoX.X%X5XoXwXoXoXwX5X_.E./.).OX%X*X*X*X6X*X*X6X*X%X8XgXS  XoXXX.X{.A.{.{.D.A.A.J.{.J.{.}.OX}..X3XoXXX3X.X",
" X X X/.E.T.T.^.E.E./.).E.!.XXe.U a f.%X$X;X;X%X$X). X X).).).).).x././.i.k.`.T.E.).!.E.).(.).*XhX&.: o.%X_..X X.X%XOX.X_.{..X(..X5X*XoX*X*X%X-X=XH $ X.7X%X$XE.b.2.C ) C.Z.N.N.h.C.E./.D./.A.A.B.A.A./.}._..X{./.}.}.}.}.}.}.}.4X|.|.3X,X$.8 t.a.i.a.u.i.h.h.h.C.C.^.(._..X5Xf.^.%XoX%X%X.X%X5X%X X%X X X;XV.V.E.A.R././././././..X.X%X.X.XoX6X6X6X*X6X6X6XiX8Xk.}.oX.X.X6X3XtXjXF & h.).E./.E./.).jXeX/./..X.X_.%X%X.X.X.X.X7XwXwXtXwX3XoX3X*XtX*XP q j.h.h.T./. X.X).^.).E.!.E.T.T.Y.T.E.T.).).).). X.X*X5X6X,X,X<Xk > _  X X.X.X.X_.OX5X.X*XtX7X7XlX).C. X*X6X.X%X5X.X.X*X7XlXAXb %.{.(.}.}.3X.X|.{.{.|.|.D.(.{.{.{.(.}.OX}.D.S.N.g.B.S.S.4XaX6Xw i.h.C././.XX.XoX.X3X6X6XwX6X7XrXwX7X8XeX7XwX*X6X5X5X5X.X.X/.C.D..X6X5XoXCXr.b ,XoXoX%XoXoX{./.A.{.{.D.{.{.{.{.}.(.}.D.D.{.{.J.{.J.|.pXv., $X X{..X.X.XXX.X*X5X*X5X5X*X5X6X6X6X6X8X7XwX7XwXgXtXeXrXeX6X7XjXLXw.Y -X].{.^.E.A.R./.OXOX6X%X5X5X6X*XwXoX5XOX(.D././.OX*X%X,XrXwX8X6X*X*X5X$XF %XoX|..XOX(.{.{.{./.A.{.{.{.B.A.}..X|.oXoX|..X3X",
" X X XE.T.T.T.T.T.E.T./.Q.$X$Xy.L n f.;X&X-X;X-X;XoX X X).E.E.!.T.T.^.).T.).T./.T./. X)._._..X;XdXe.2 X.+X.X%X.X.X.XXX}.T.(..X.X.X4X6X;X*X*X&X*XrXz.H x.rX X).!.m.5.A z C.V.N.g.N.V.A.D.D./.A.B.B.C.D.(./.OX(.D./.{.}.XX}.}.}.oX|.}.}.4X>X-.4 6.y.p.i.8.5.u.g.h.C.T.E./././.T.E.`..X;X.X.X.X.X.X.X.X%X&X.XhXQ.T.T.A.C.T./.A./.).)..X X.X.X.X.X5XoX6XwX6X8XwXrX8X.XD..X_..X4XwXwXSXs.$ r.).)./.E.).).7XjX/. X.X.X)..X.X.X.X.X6X3XwXwXtX8X*X6X6X6XtX_.) l ).T.C.A.)..X)./.A.A.E.T.C.T.C.C.T.T.E.).).).)..X.X*X5X5X6X*XlXn & P  X X.X X.X_. X.X.X%X6X*X.X*X.X). X.X.X.X;X7XoX5X6X6XhXSXI %.{./.}.}.}..X|.}.}..X}.(.{.{.{.D./.J.{.(.{.D.S.C.B.C.S.|.aXaX_ V.u.C.C.E. X.XoX6X3XoXwXwX8XwXrXeX6X6X8XeX6X6XwX*X*X.X%X.X(.(./..X5X.XOXCXq.8  XXXOXoXXX}.{.{.}.{.}.K.A.D.(.{.}.}.}.F.{.(.}.{.J.D.{.pXB.$ T. X]. X X.XXX.X6X5X*X6X6X5X.X6X7X5X5X6X6X7XwX6X8X8X8XrX7X7XrXrXGXx.F =X X.X X{.A.Z.{..XXX5X.X5X5X*XoX*X6X5XoX}.9.d.J.}..XoX6X6X*X6X*X*X*X6X;XS {.oX}.5X5X}.}.(.}.{.D.D.{.}.A.A.}.oX{.}.}..XoX3X",
" X X XE.V.i.C.c.`.T./.E.E.).=Xp.T c w.-XXX*X*X*X*X;X$X X!.E.Q.T.T.T.W.^.T.T.T.T.T.E./. X.X_..X%X<Xs.w _ %X%X.X.X.X.X.XOX/././.)..X.X*X7X%X%X*X*X*X.X$X6X6XXX$X].Z.3.A l h.h.g.N.g.B.C.F.A.A.B.L.g.C.A.{.}._.8.A.(.}.}.}.}././.}.|.|.}.|.yXn.0 #.u.7.5.i.t.6.i.g.g.R.E./././.h.T.)..X;X XXX.X.X)..X.X.X%X*XrXR.T.T.R.A.D.D.A.T././..X)..X.XOX.XoX*XwX6XrXrX,XwXwX8X.X_.OX*XoX>X*XDX!.O :.)./.^.(.)._.%X;X%X/..X}..X.X.XOX5X5X3X8X8XrXiXrX3X4X3X6X7XcXh.l !.!.T.F.(._./.^.A.S.E.V.V.V.h.C.h.C./.T.E.E./..X*X*X*X.X.X;XzXN < P )._.%X%X%X%X_.%X%XoX*X4X.X.X.X%X.X.X/.)..X.XoX%X6X;XrXSX%.#.A.{.{.}.|..X.X|.|..X|.}.{.K.D.D.D.{.{.{.^.A.A.B.B.C.D.OXaXaX..N.N.C.A.E.). X%X5X*X8XwX6X7XeXeXtXeX3X*XoX4X3XXX5X*XoX5X5X).(..X.XoX.X%XLXs.3 E.{.OX|.XX}.}.}.{.{.|.}.{.OX}.}.}.}.}.D.D.D.{.}.D.D.{.pXl.X w.&X]. X/..X.X%X*X*X6XoX*X5X5X4X5X5X5X6X8X7X6X8XrX7X8X8X7X8XwX}.lXT.b =XXX}..X'.{.E././..X.X.X.XoX.XoXoXoX.X*X4Xg.7./.{.%X*X5X.X*X*X*X*X%X6X$XL XXoXXX.X.X.X}.{.}.J.D.A.{.XX}.}.}.XX|.4X|.XX|.wX",
"!.!.$X!.x.r.i.T.E.E.Y.R.E.!.].r.I c o.).).*X*X-X*X;X$X!.E./.T.E.T.V.T.T.T.V.T.T./.).). X%X_..X).&XY.i Y %X.XXX$XXX.X.X*XoX$X).)..X.X*X.X*X*XrX*X*X*X*X*X*XXXXX.XQ.y.T C V.V.N.u.d.B.A.A.E.A.S.g.N.B.A.A././.C./.(.{.{.{.}.C.B.(.(.4X|.4XrX!.5 ) t.5.r.t.5.,.8.6.g.C.C./.).R.A.^.)._..X.X X X{.)..X.X.XXX<X&Xn.E.!.R.R.E.E./.^.)./..X.X}.OX.X.XoX4X6X6XwXwX,X*X7X6X.X(.{..XOX.XXXBXr.3 `.T.`./.).%X%X%X7XtX/.{..X.X.X}._..X.X5XwXrXtXuXoXoXoX3XoX6XvX.XL ).).T.D..X.X/.T.C.g.V.g.u.g.u.u.h.V.j.h.j.)./.}..X5XoX.X.X6XvX$.7 M T.%X X%X.X.X.X.X.X*XoXoX.X.X).%X.X X X.X.X X.X.X.X%XlXlXC ;.(./.{.{.{./.4X4X.X3X|.}.}.K.D./.A././.D.D.A.A.j.C.S.J.|.qXpX8.N.N.C.T.T.)..X.X%X*X*XwX8XwXwXrXtXtXwX6X^.C./.oX*X5X*X%X.X}..X.X.XoXoXoXLX*.3 =X{.}.}.}.XX}.}.{.{.J.{.{.}.|.}.{.}.|.{.g.B.A.A.D.K.K.3Xj.$ ! $XE./.)..X.XoXoX5X*X5X%X5X%X*X5X5X5X5X5X6X6XrX7X7XjX7X.X8XeX6XlX_.b XX&X&X X/.{..X.X}..X5X.X(.}..X.X.X.X.X.X.X.X(./.OXoX*X6X*X*X*X6X*X*X6X'.L ;XoX.X|.3X3XOX.X}.{.{.D.D.}.}.}.oX}.}.}.|.}.|.rX",
"W.!.].R.R.t.t.Y.T.Q.Y.a.Y.E.].i.' F m P w..X%X%X*X X X!.E.N.f.h.h.f.u.g.h.c.j.T.T.%X%X.X X X$X X!.n.i G +X.XXX%XXX%X%X*X%X.X_./._..X.X.X*XwX,X*X6XoX*X%X.XXXXX XR.b.} l V.Z.C.8.d.g.A.A.G.A.N.N.d.N.S.{.A.'.{.}.{.(.(.(.{.| 9.D.{.OXOXoX<X$Xc P q.5.5.,.:.%.:.6.6.k.k.j.T.A.T.).^.).).).). X!.E.)./. X.XrXY.y.E.E.C.C.R.T.T./././././.)._.(..X3X4X6X6XoX6XoX6X6X6X%X5X.XOX X/.XXyXq.7 x.V.E./..X)._.%X6XlX.X/.}..X.X.X}.}.5X6XrXeXwXoX{..X3X3X3XwXcX5X' C.).E.E..X XC.V.V.u.t.5.:.6.6.t.g.h.g.i.C./._.}.*X6X.X(..XrXvXT 2 a u.$X]. X).). X.X%X.X%X*X.X/./. X.X.X_.}./..X_.)..X+XrXBXz _ /./.D.{./.D.wX4X|..X.X.X}.}.{.{.{.(.D.A.F.C.B.C.D.B.S.K.0XNXN.C.N.C.C.T.).).OX.X6XrX6XwXrXrXrXeXtXrX6X_.T.C.}.oX*X5X.X.X5X.X.X.X4X.X*XLX~ t *X}.OX}.}..X}.}.}.}.D.D.J.{.}.}.{.{.}.}.B.A.D.D.D.J.|.qXB.$ 1 &.m.E. X)..X.X.X*X5X*XoX5X%X4X.X.XoX.X.X4X6X5X6X7X8XtX6XrX6XrXcX9Xm !.]. X&X X.X{./..X.X3X.X.X_.4X4X.X(.}..X/._..X.XoXoX5X6X*X5X6X6X*X*X*X!.E XX.X{.|.|..X}.}.{.{.A.D.A.D.{.}.d.9.A.{.}.}.|.eX",
"$X$X&X!.Y.a.h.Y.~.!.W.!.!.!. X6.P Y q l ] `.6X%X;X$X X].R.a.5.r.g.g.i.g.V.Z.Y.T.).OX;X%XXX)..X].Q.m.9 i A./.{..X$X%X%X&X*XXX{./.).)..X.X6XrX,X,X6X6X%X*XXXXXXX XQ.n.} k V.Z.A.u.8.g.B.D.Z.A.N.N.8.g.A.C.8.A.{./.{.(.(./.|.d.8.J.A.{.}.oX<X1XC l >.,.,.5.,.#.:./..X6.w.h.T.^.T.T.T.E.).T.E.R./.).T.).).%XrXi.i.T.a.V.Y.V.T./.A.E./././. X)._..X.X5X8X8XwX*X6X6X6X6X*X5XoXoX.X).%XtX*.7 !.T././.{./..XoX;XwX6X{. XoXOX.X.X.X.X8XrXwX8X X}.oX3X3X3XwXZX5X' k.(./.'.OX XE.T.E.i.<.6.;.:.4.6.6.t.f.V././..X.X.X.X5X}..XtXmXJ 1 e :. X'. X.X).).).+X%X%X.XC.u.C..X).).(././.).).(.)..X6XSXG ' `.!.G.J.D.(.3XD.}.}..X.X}.}.(.}./.D.A.D.A.d.S.A.B.B.B.J.>XZXN.j.V.g.T.T. XOX}.OX5X6X6XwX6XwXrXrXtXtX7X_.d.9.(.3XoX.X.X.XoX5XOX.XoXoX4XCXK U ,XOXK.4X}.{.}.}.OX}.{.J.K.{.{.}.{.{.{.}.D.{.}.{.J.J.|.iX{.- & t r./. X).%X%X%X*X*X5X4X.X.X5X5X4X4X.X.X6X.XA.%XeX7X8X8XrXwXwXuX8Xe ).&X&X%X%XOX.XoX*X.X4XoX*X5X5X.X}./././.(.{..X.X.XoX4X*XoX6X*X*XoX6X*X'.L R.'.}.{.{.OXOX}.(.{.D.A.A.F.}.B.g g } H.K.OX|.4X",
"t.P.-.$.&.r.i.i.i.i.t.w.i.x.h.-.I F q i ' t.).$X).T.].E.T.V.i.r.p.Y.n.V.V.i.h.E.;X&X*X XY. X;X$XQ.p.h 8 i.^._.%X+X%X%X*X*X%X X).)..X.X6X6X,X,X;X6X8XrX6X*X%XXX&X].a.@.w V.E.V.N.6.u.N.A.G.A.N.g.g.N.N.Z.N.C.{.{.{.{./.T./.J.D.S.J.D.}.oX,XrX$.b @.t.,.-.%.#.%.h.C.h.6.C.T.E.V.7.g.C.C.h.h.C.T./.T././.XXtXR h.Y.a.V.Z.V./.R.f.g././.!./.)..X.X%X*X6X6X6X6X6X8X6X6X6X4XOXOX%X%X&XjXF 7 ).E.^./. X.X.XoX.X6XyXXX.XoXoX6X4X.X.X6X7XwX{./.oX6X6X3X5X8XNXD.;.k.T./.{.*X*X$X).$Xx.y.i.t.,.:.y.i.g.C.T.^./.+X%X%X5X.X(.}.lXrXk a i X.).].].).)..X). X X.X*X).C./..X).(.^././.).)..X_. X%XzXI _ /.E.G.J.(.}.{.{.}..X.X.X.X}.}.{.{.(.A.D.A.f.B.B.d.S.S.J.|.aXD.V.V.C.C.T.^.{._.).OXoX6X6X8XwXrXtXtX7XtX8Xg.g.{.oXoX4X.XOXOX.X.X.X.XoX5XZXx Q ,XOX3X}.}.}.}.}..X/.{.{.(.{.}.}.{.J.J.}.D.J.|.K.K.K.|.qX(.$ , ! Q./.). X.X*X5X5X6XoX3X.X.XoXoX.XoXoX|.oX6X}..X7X8XeXwX7X6X*XeX5X5 T.*X&X;XoX.X.XoX6X5X6X6X5X5X.X{.(././.)././..X_.OX.XoX*X6XwXoX6X*X6X*Xn.E &X'.oX|.{.OX.XOX.X}.D.A.A.A.(.3X .{ _ H.|.XX3X6X",
"#.,.#.b D O.*.o.o.*.q.*.q.r.u.y.q.R i x D a p ~ H U ! F D c n n a t y y 7 7 7 i c x t < y O.q.t.y.Q k k h.).$X X$XXX.X%X%XoX/.T.)./..X%X%X*X*X;X*X;X;X*X&X%X&X$X!.P.$.w Y.].E.Y.g.8.g.A.Z.N.L.g.g.L.g.N.N.B.C.A.A.D.A.C.C.A.A.D.J.A.}.oXwXwXY.@.Y i.,.5.:.%.| 5.5.u.6.y.N.V.Z.N.N.f.g.i.f.u.j.h.C.T.V.-X!.k Y.Y.V.V.C.Z.V.T.i.8.T.E.E.A. X X.X.X.X6X6X*X*X6X6XrXwX6X*X.X.X(. X-XSXc 7 T.T.).E.'.XX.X.X.XoX5X X X5XoX6X8X.X.X*X6X.XZ..X*X6X6XoX.X4XNX.XC.6.V.D.F.(./.!.$X X XR.y.a.h.t.,.u.h.E.E.V.).%X%X%X.X4XD.5XcXV.7 a t P )./.!././.).).).).!. X X).%X.X/.C.E.^.T.^././.).{. XrXV.#.E.A.Z.D.A.{.{.{.}.oX|.}..X}.}.|.}.{.A.A.B.L.B.d.j.S.S.J.>XaXV.V.Z.N.V.A.D./././.}.5X5X6X6XrXrXrXrXrXwXtXXX.X*X5X4X5X6X*X.XoX5X.X5X.X,XZXh -.*X}.|.}..X}..X(.(.}.{.}.{.}.{.G.B.F.J.{.D.K.{.(.D.D.}.iXOX$ & 0.].D.).).%X.XoX5XoXoXoX.X.X.XOX.XOX.XoX.X5X8X6X8X6XwX8XwXwXrXtX5Xf t.).%X{.N.h.E.oX,X%X6X6X5X5XOX/./.{./.). XOXXX.X.XoX*X*X6XwX*X*X*X6XjX5.v <XXX5X.X}.}.XXOX}././.A.S.A.A.{.|.}.J.{.}.}.oX6X",
",XoX{.%.>.x.q.w.h.!.@X-X@XI.I.R.!.Q.].#X:XW.@X;X=XhX=X&X=X#X=X@XQ.Y.a.0.r.,.@.L F b U S 7 a F H F x 7 < Y ).-X&X&X$X6X;X*X;X X).XX{. X%XXX.XXX%X%X.X.X*X*X%X$X$XQ.P.@.q h.%X XXXV.6.8.f.S.N.8.7.7.g.g.j.8.u.N.A.A.C.C.N.C.C.A.A.A.'.{.>XwX*X).$.F q.-.2.,.,.4.6.7.:.,.6.5.u.a.a.h.6.u.6.u.5.4.u.i.h.A.!.,.N h.Y.V.b.V.h.V.Y.V.V.T./.C.V.T.{..X.XOX5X6XoX6XrXwX*X<X*X%XXX.X_.).@XdX8 t ).!.)./.)..X.X)..X.X*X.X_.{.oX;X%X.X%X%X%X!.{.*X*X;X4X.X3X3XcXeX8.g.g.C.C.g.N.C.V.R.]..Xi.y.E.).Y.u.g.E.). X%X%X5X%X}.{.3XwXeXY p F 5 b T.).T.E.T.T.T.`./.T.V.C././.).T.V.V.c.C.T.^./.E.A.E.*Xh.C }.N.N.4.8.B.F.(.}..X(.}.OX}.|.XX|.}.}./.g.g.g.8.k.S.S.S.{.BXZ.y.V.n.V.A.A./.{.oX6XoXoX6X8X6X6XwXeXoXoXwXwX*XwXrX8X6X6X*X*X6X4X.X.XoXrX-X. Y.XX{.}.}.D.(.}..X}.}.F.K.{.|.oX9...A.{.{.(.J.D.K.J.J.}.eX.X$ X ^ #XR.).).).%X*X.X*X6X*X.X.X.X.X*X.X.XoX4X%X*X*X*X6X;X6X6X5X6X6X%Xf r.!.-X.Xg.u.{.,X*X*X*XwX6X*X.X*X*X X(. X X%X*X5X*X*X6X-XwX-X*X-XrX7XbX,.8 E.}.XXOX|.}.}..X X}..X/.C.N.B.A.{.}.oXXX{.|.OX*X",
"nXcXXX,.,.,.,.*.t.!.!.!.Q.Y.*.@.r.Y.!.].]. X*X&X-X1X&X!.&X1X<X1X&X-XXX'. XE.p.%.} -.m.I.W c o.O.S L i 7 7 :.h.j.C.E.T.T.T.T.E._.E.E.C.V. XT.E..X;X7X$X%X;X XY.].].p.@.k i.XXXX*XXXy.4.u.A.N.N.8.g.d.g.B.g.h.C.A.C.A./.A.A.A.D.A.{.OXoX>XwXXXV.,.F ] $.} U C ' 5.9.%.} } ,.a.V.Y.u.y.4.4.t.,.:.,.r.u. Xa.#.P t.a.n.b.N.N.V.V.n.Z.V.C.C.C.T.)..X X%X5X;X7XrXrX,X6X*XXX.X.X{. X$X&X=XS x T.).E.E.).)./.C.)..X).T. X X;X;X-X7X%X;X X). X7X7X6X%X.X.X3XpX5Xd.j.u.N.V.g.N.g.N.y.u.C.a.5.R.&X$XE.Y.).%X6X*X5X6X.X.X/.XXuXj.l P ) l i h.E.Y.Y.j.h.C.W.T./.g.C./.E./.A.g.g.u.j.C.T.C.h.h.Y._.).P /.{.G.N.g.8.A.S.F.{./.{.|.}.{.}..X{.}.{.N.8.8.L.B.B.S.F.K.NXb.S R.n.V.A.E./.'.}.4X*X6X6X8X6X6XwXwXoXoX,XrX,X-X7X8X8X7X;X*XoXoX4XoXoXlXr.o Q.{.{.{.}.(.{.(.}.}././.A.}.|.3X}.D.{.(.{.D.{.{.{.K.K.|.qXoXX   j Q.!.).!. X.X%X.X%X6X6X%XOX.X.X.X.X.X.X%X%X%X*X*X*X6XwX.X5X5X.X.XN y.E.$X;X.XwXwX*X1X,X*X6X*XoX;XwX6X X_.%X%X5X;X%X*X*X*X,X*X*XwX*X*XrXrXi.k V. XXX4X3X|.oX}.}.}./.A.A.A.g.A.{..XXX}.}.|.}.oX",
"yXBX-X&.@.X.,.` w. X!.:X@X@X*.L a.T.!. X X&X%X&X*X&X X).%X$X&X-X&X&X X XR.]. X]. X].-X&X$.h O.H ` @X:XY.i.w.<.r.6.,.#.:.#.#.*.q.q.*.*.Y *.,.#.P ] >.k.^.6.h.k.a.r.-.! k :.^.T.V.C.:.Z ) _ | | } |  ._ | _ | ;.;.:.:.,.#.| 8.<.6.8.8.8.N.{.E.,.t.5.$.,.-.L N w i w q 4 0 t P #.t.C.E.i.4.%.4.#.%.,.r.Y.r.X.' w.Y.a.i.h.u.g.h.i.u.V.h.C.T.T.).%X).XX*X5XtXwX*XXX*X%X%X X.X/.!.!.$X;XF P ;X$X).XX X).T.V.C./. XE.).j.t./.5X XwX*X*X!.T.T..X.XE./.(.(.pX8X6.g.V.u.A.V.u.u.u.t.:.4.i.i.$.V.E.!.).).&X;X8X;X7X%X_.C.3XpXt._ ] o.b 5 ,.Y.V.h.k.h.j.g.j./.R.T.).{.!.V.u.7.7.8.V.T.C.h.k.g.(.5X] #.8.B.A.A.S.{.{./.A.V.A.XXG.G.OXoX{.|.D.g.d.d.N.B.B.B.S.J.nXn.u R.Y.V.Y.C.E.!./.OX3XoX4X3X3XwXwX8XwX*X6X6XwX6X7X8X6X5X6X*X*X5X;XXX6XbXU + E.{.{.}.{.{.{.(.D.(./.}.J.G.{.{.K.}.{./.{.{.{.K.D.K.K.|.qX*X- O u Q.!.!.!.).oXXXoX.X.X%X.X_..X.X.X.X.X.X.X.X%X%X.X*X6X5XOXoX.XoX_.f #.} #.XX$X{.XX*X*XXX.X*XrX*X*X*X.X/.).%X&XoX6X*XoXoXoXwX*X*XwXoX*X;X8XA.W R./.}.}.}.oX3X.X.X.XB.S.F.A.g.A.}.OX}.}.|.K.|.oX",
"7XcXnXV.-.' O.O.w.).!.].].$X XE.!.).). X&XXX.X%X%X;X).!.). X%X*XrX*X%XXX].E.&X*X-X<X-X<Xm.S F a F :X~.P.R.Q.!.E.!.Y.T.$X$X$X=X;X;X;X-X%X).rXrX!.%X_._.%X).%XT.T.R.R.r.@.G i p X.#.-.$.' | <.<.6.:.:.4.%.] $.] P o.#.#.#.R ,.#.] | %.%.C f.T.T.T.V.i.5.5.X.X.I L l k l i 8 7 ; < q G X.] _ @.R ' *.t.h.@.-.X.,.s.h.p.p.i.t.t.s.i.t.f.i.k.T.).).(./..X%X7X;X-X.X$X$X+X+X:X!.E.!.;X Xx G w.h.i.i.Z.h.u.u.8.C.R.V.)./.h.T. X!.;XrXnX).6.6.8.j.C.9.:.{.ZXeX6XC.7.u.E.8.7.u.t.6.| _ ,.T.i.r.V.'. X$XrXwX-X-XrX*X.XD.pX_.<...] ;._ 5 I r.5.i.u.q.q.5.r.r.r.a.V.C.6.4.%.A _ ' | ;.,.#.[ | :.f.[ ) [ r * q z C P } ,.| u..XE.{.3X|.oXXX{.A.S.N.d.N.B.S.B.H.NX:Xu Y.n.Z.V.R.T.E.)..X.XoX*X*XoXoX3X*X4XwX6XoX6XoX6X*X5X*X6X4X3XoX*X3X6XNXa O Z.[.J.{./.A.D.^.D.F.{.J.Z.A.{.D.D.}.{.{.D./.D.D.K.J.K.K.qX.X* + u I.C.E.E.).!. X.X.X%X5XoX X X). X).%X.X.X.X.XXXoXoXoX*X*XoX.X.X!.8 ,.,.%.;X,X&X*X6XrX5X*X6X6X.X5X%X.X/./.XX%XoXXX*XoX*XoX*XoX*XwX6X6X;X6X XI u.!.}.}.}.}.4XoX5X6X..} B.A.B.D.{.{.}.OXK.OX}.XX",
";XtXSXrXp.@.H Y f.E.!.].].!.Q.'.!.). X&X%X!.!.$X%X$X).E.).).%X6XrX<X1X%X&X%X*X<X-X-X-XxXI.0.~ 7 U W.R.!.!.].!.].).!.!. X!. X$X$X$X$X$X;X).7XrXlXBX7X=X-XjX$X X$XrXdX XhXr.M q.W.W.E.!.R.E. X&X,X&XXX X{.$X&X&X). XXX6X<XyX<X X/.wXyXSX!.b >.`.). X$X*X;X$X).!.E.E.E..X XY.Y.i.,.' ` P M N F L a c Y T Y q.s.Y.Q.!.Q.!.Y.V.Y.a.h.i.i.h.h.c.C.h.T.C.x.C.T.C.h.p.t.i.h.z.x.Y.T.h.R H ,.h.0.q.s.&.*.#.} T P L G F F F P _ } #.} 6.i.6.} _ | 9.C.d.:.g.(.4XuX8Xy.5.r.$.#.} I I P V _ *.:.#.g.T.Y.C./.).&XT.Y.V.i.a.k.B 1.(.d.k.j.;.P M I #.5.g.V.E.Y.Y.a.V.Y.T.!.C.E.V.a.p.h.V.h.a.a.E./.4X4X.X.X).p.-.y.6.i.a.l 5 8 t 5 z A  ._ E I } I I Q } ;.4.8.N.%Xq.. V.n.n.V.E./.!.$X.XXXXXE. XrX6XrXwXtXwX6X8X7XOX*XrXyXtXtXlX/.C.5XtXpXFXa & u.OXD.A./.D.D.D./.D.D.A.A.A.A.A././././.A.A.D.D.D.J.K.|.0X.XO + 3 =.V.j.Y.T.c.h./.)..XrX%X X!. X).).).). X*X.X.XoX5X6X5X7X&X;X;X).t $.Y.].-XrX7X*X*X6X6X*X8X/.v..X.X.X).E.Y.V.E..X.XXXXXoXoX*XXX*XoX*X*X;X.X$.i.A./././.OX.X|.|.8X{.:.d.A.B.A.{.}.OXK.}.}. X.X",
"4X6XyXlXR.*.H F w.).!.!.'.!.E.]. X{. X).).).+X%XXXXX!.C./._..X;X-X<XrX&XoX6X*X7X7X-X7XrX[.^ ! < O.`.:X!.!.].].!.!.).!.)..X.X).T.$X)..X;X6X;X;XfXbXhX7X-X$X!.).$X&X<X-XDXr.Y !.x.Y.V.n.N.N.C.E././.T.T.C.^./.A.A.C.A.^.{..X{.A.S.{.XXyX=X4 ,..X).$X%X*X6X6X%X;XrXrXR.h.T.V.u.].$X-X,X*X X).$XY.R X.! D 7 O.x.$X=X=X=X$X].E.Y.R.Q.!.$X).`.).).T. X%X)..X). X$XXX%XXX$X%X;X;X%XfXL L *XXX,XyXkX<X6X.X{.A.N.N.g.:._ ] _ @.] } _ ] | i.5.N P ,.6.:.:.k.^.|..XeXhX*.X.h.W.T.T.!.).!.Y.h.t.,.<.<.:.:.;.6.<.-.%.#.,.x.h.T.).%X^.F..X.X(.t.#.#.7.Z.oX,X,XrXwXoXoXwXNXiXrXwX,XiXiX0XoXwXwXrXeXiXiXqXiXaXZXyX>XyXnXKX%.4 4 < U hXrXaX,X,X[.R.R.!.Q.Z.u.t.8.N.A.} v 2.y.y.u.h.T.T.Y.a.r.a.$.@.h.,.5.r.i.6.C.}./.T.E.T.).V.r.,.N i I P P u.: 3 7.A.J.}.{.D.XXOX{.A.Z.N.S.A./.A.A.{.A.A.A.A.(.D.J.K.OX{.pX%.o + + ~ ~.W.Y.E.T.i.!.).$X&X X-X X).). X/./.E..XC././.).^.T.T.T.x.i.@.= J n.=X<X<XjXrX7X7X6X6XrX.X(.%X5X7XrX6Xg.V.'..XwX6X*X<XrX-XrXtXlXlXxXyXlXy.u.C.Z.A.D..X}..XoXoX.XA.j.B.N.B.J.{.{.K.|.{.{.OX",
".X6XyXlXE.-.Y H h.W.!.{. X XE.E.V.R.!.).)._..X.X.XwX.XY.V..X%X-X7XrXrX7X*X6X6X7X*XrXrXdX=X/ S > X.:X!.Q.].!. X X!.!. X!./. X).^._..X%X6X7X6X.X6XrXhX7X-X-X;X%X$X%X1X1XzXy.-.!.R.Y.a.N.N.N.C.^.T./.T.E.T.E./.A.A.B.C.F./.!./.D.C.D. XjX!.9 h.%X.X.X%X%X%X.X.X%X6X%X%X)./.u.a.!.E. X*X<X6XhXhXrX-X=XW.&.7 F o.c.$X&X].E.T.h.a.W.).).!.!.$X).T.).&X%X XXXoXXX/.!.E.).{.{.).).!.;X! C {.{.{.{.OX.X}.'.E.S.A.A.C.C.6.6.| ,.y.6.%.2.5.Z.{.6.y./.E.B.C.A.D.}.}.wXZXt.6.-XrXyXhXhXlXlXwXrX5X6X X{..XK.C..X/.).).).).%X;X7X7X8X7X;X.X8XlXcXh.:.N.C.A.D.D.A.J.J.{.{.}..X|.4X}.{.{.J.D.A.{.|.3X3XoX3X0X0X>X0X}.OXXXuXOX} b - E yX1XwXeXyXiX<XyXyXyXuXuXyXrXwXyX,X X7.9.6.#.} } -.%.#.,.h.E.i B 5.i.V.V.h.g.6.6.;.] #.:.%.*.@.#.@.} -.:.t.t.I } I | 4. . .:.N %.8.Z.N.u.N.u.C.Z.N.u.N.C.g.A.D.D.J.J.S.A.t o + o , s.u.i.C.C.C.h.a.h.p.q.=.-.5.r.y.t.6.] ;.` ] ] X.' P ] #.o.` c < b r. X$X$X%X+X/.V.j.h.h.j.t.5.f.,.' #.M L @.%.$.=.e.q.0.z.e.$./ / 0.~ ^ b 4.b.Z.N.T././.}.|..X{./.A.D.A.A.J.}.G.{.{.J.{.}.",
"%X*XrXMXR.X.Y m x.!.!.{.'.!.E.!.V.Z.{. X).)..X%X Xy.t.T.j. X%X7X7X7X7X7XwX8X7X7X-X7XhXrX1X=.b 7 *.!.Y.!.].]. X X). X X{./.)..X.X.X).%X%X7X7X7X5X;X7X7X7X*X*X%X%X*X-X<XmXq.-.].R.E.V.V.C.C.C.A.T././././.(.E./.E.C.V.C.C.C.T.A.N.V.C.;X-.5 C..X_.%X.X*X_..X.XoX6X6X-X;X Xh..X;X/.)./.XX X%X-X&X1XdX=XP.c T q.W.$X!.~.T.Y.T.E.T.T.W.E.!. X).).t.B ).XX%X;X.X.X/./._.)./.). X!.@X&.E oX^.{.}.OX.X|.{.{.Z.{./.A.Z.C.7.:.6.f.y.8.5.5.b.'.Z.N.G.{.A.C.k.d.B.K.3XZXI _ rXwX,X*X;X6X*XoXoXXXXXXXXX[. XXX&X$X X%X%X.X.X{./..X X%X%X%X;XjX7XE.E.A.g.S.F.F.B.D.D.{.K.F.}.}..X}.{.J.D.D.D.D.}.3X3X3X0X0X0X3X8X3XoXoX3XuX'.' = E XX.X|.3X0XoXoXoX}.{.|..XXXoXXXOX.X'.E.Z.u.8.8.8.b.N.C.{.4XLX Xg.rX,XrXnXZX8X6X6X5X/././.*XuXrXrX*X%X*X;X<X%XA.N.8.t.4._ _ V o U XX]. X].'.Q.].&X XE.C.g.6.u.6.6.d.j.^.R.Y.P.I.P.&.r.,.;.' M l q q , $ . = n y.&X&X<XrX6XuXjXlXzXNXBXNXNXcXNXSXlX$Xi.5.5.t.;.#.] g.T.V.Y.x.i.i.5.*.P H O.o.I P L @.y.z.s.e.&.0.~ T ~ U D a U =.u.C.N.A.T.V.C./.T././.^.C.E.{.|.oX>X0X>X|.>X0X",
"%X*XrXlX).O.D c c.+X!.!.!././. X{.{.'. XXX X}.&XT.5 l T.`._.%X6X6X7X7XwX5X7XrX7XrXhX7XdX<Xp.S 2 q.T.R.!.!.). X X X/.]. X}. X).).%X%X%X7X7XtX7X6XoX.X*X*X%X%XoX*X-X*X<XrXe.q. XQ.R.!.R.T.T.R.E.E./.T.)./.E././.E.C.V.g.h.C.h.j.C.C.C.T.U 7 /..X_..X.XOX.X|..X.X*X;X%X.X.X!.%X.X*XrX.X XoX$XXX%X$X:XQ.:XT q.W.!.!.E.h.W.E./.).).^.).T.!. X X%X/.Z T.;X%X7X6X;X).).).).). X]. X-X&.R XX/.}. X{..X}.D.C.N.N.E.C.A.N.8.7.8.b.5.9.,.w.g.E.A.S.N.A.A.D.S.9.d.4X4XaXP V ).6XrX6X6X6X*X6X%X*X&X%X*XoX%X%X%X).$X7X;X%X X XOX.X+X.XOX%X%X7X;XR./.A.A.A.B.S.F.S.F.D.D.S.(..X}.{.{.}.S.d.D.D.D.}.3XoX3X0X0X3X3X.X}.|.3XwX,.N 4 E XXXX|.3X0X6X3X3X4XJ.K.|.|.|.|.|.XX.X XZ.Z.N.g.g.N.8.N.B.D.NXuXoX,X*XwXlXSXyXyXyXwX*X*X.X6XwX*XrXrXrXrXrXrX*XoXXXoX XE.C.g.%.X 0.1X@XXX%X X&X&X<X1XrXrX%X*X*X.X3X}.wXyXlXBXBXyXnXnXCXVXZXlXeXpXyXGX@.: 6 8 T Y. X&X&X-X-X*X;X<X<XrXkXyXyXrXxXrX&X&X<X$XY.).T..XY. X*X6XrX*XXX X).j.,.&XlXmXhXrXwX%XrXrXxXlXhXzXmXxXBXSXDXDXlXtXrX*X*XrX;XR.V.T.).7XrXAXI f _ _ { ) ' { .. ...",
"%X;X6XhX].$.D H x.:XE.Q.E.!.E./. X X/..X X.X%X*X*Xi.t.T.)._.%X%X6X6XrXwX%X*XwX*XrXrXrX<X1Xs.U y x.Q.E.!.E.].$X X X]./..X.X).)._. X.X%X6X6XtX7XjX.X.X5X%XoX%X.X5X6X%X$XrX,.h.)././. XE././.{./. X/./././.T./. X/.T.V.C.C.j.N.h.V.Y.!.u.x x +X).)..XOX.X.X.X_.{..X.X_..X.X)..X.XoX5XoXE./..X%X%X X!.!.=Xz.a.$X:X$XR.W.$X%X)._.).).T.).).). X_.*X%X).rXrX-X7X;X;XoX X$X$X$X X XrX! -.5X/.{.OX_.(.D.D.C.N.g.C.B.A.C.g.7.u.N.8.#.:.u.f.A././.T.D./.E.D.D.S.J.|.iX| 0 t..X*X6X8X6X6X6XXX*X.X5X{.T.6X6X.X X.X7X;X%X%X%X5X%X%X.X.X;X&X*XoXZ.A.A.A.B.C.S.S.D.D.D.A.{.}.{./.}.}..X/.d.B.S.D.(.|.4X3X3X3X0X0XoX|.|.6X6X) m - I &X XXX4X6X3X3X3XoX}.}.K.|.|.{.|.}.OX)./.A.A.N.N.g.g.S.S.A.eX6X*X*XrXoXkXlXlXlXlXrX,X-XXXoX5X6X7XrXrXrXrXlXjXkXjXtXhXrX7X).,.& / 1X].XX%X*X%X$X<XrX7X-XrXrXwXoX,XrXkXhX<XrXeX%X_.%X;X6X6X*X;XhXrXLX/.< t h 2.].].$X$XXX%X5X%X*XrXrXrXrXjX7XrX7X.X;X6X&X;XT./.rXhX-XrXrXrX<X<XgX%Xk.'  X=X-X&XXX%X%X%X.X$X$X%X$X&X*X-X<X%X%X&XrX-X7X;X;X.X).;X-X;XrXlXIX6.[ | [ ..<.d.1.1...k.",
"%X%X;XrX$X/ F c x.).!.!.!.E.!.]. X{././.(.).%X*X%X{.h.T.)..X.X%X6X*X*X*X6X6XrX,XrX7XrX<X=Xz.U a x.!.E.E.!.). X). XXX). X.X.X).%X.X)..X;X6X7X7X7X5X.X.X.XXX.XoX*X*X%X].jXr.r.T.T.E./.E.(. X.X.X.X)./.^.E.A./.{.!.E.A.C.N.g.C.g.8.a.$X*.2 a +X$X)._.}..X/.}.4X.X/.)..X_..X_..X%X*XOX.X{.).).%X%X).{.].-Xa.r.$X$X!.Y.a.E.).).).!.^.).).).).XXoX.X.XE.;XjX7X7X-X*X%X.X$X X X X XrXX.@..X/.{.}.{.}.{.'.A.A.C.D.{.A.N.N.8.b.n.5.:.,.6.8.V.F./././.A.A.S.S.G.G.|.iXg.q 6.^.XX*X6XwX7XoX*X4X.X.Xt.5.h. X;X7X.X%X*X%X*X6X5X.XF.}..X*X&XrX%XE.g.B.D.g.A.A.S.A.D.A.D.N.{.}.(./.}.{.(.B.B.A.D.D.}..X3X4X3X3X3X3X}.4X4XpX@.M = } %X{.oX3X3X6X3X3XoX}.}.K.K.|.}.}.}.{.{.(.A.C.N.N.N.L.N.A.}.3XD.oXwXrXrXlXlXlXlXlXrX<X%XoX%XoX.X*XrXrXtXtXkXtXjXlXlXlXzXtX/.i., =.<X XXXoX&X*X*X7XrX*XrXrXwX*XwX*XrXcXlXrXrXjXeX5X.X%XoXoXoXrXwXrXCXXXw 9 k 5.&X$X X$X;X*X6X6XrX*X*XrXrXtX7X8X;X%X%X6X7XhX%XE.$XfXrXrXrXhXkXrX-X).h.] !.-X=X.X)._..X%XoX%X%X.X.X).5X7X;X.XXX$X;X-X6X;X X).$X.X*X6XrXlXGX_.;.N.OXpXeX0XpX3XoX{.",
"%X5X;XrX=X! x c w.x.T.E.E.E.E./.]. X/./.)..X%X-XXX!.C.T._..X X*X;X*XrX7XrXwXrXrXwXrX<X<X=Xp.x c c.!.!.W.T.T.). X X.X.X.X.X+X X). X/. X%X%X6X6X7X6X%X.X%XoXoX*X;X%X%X%XhXi.&.h.C.E./.E.{.(.)..X.X.X X/.T.R.'.E.R.Z.R.V.V.C./.C.4.V.!.C 7 s +X).!.D..X.X}..X.X/.(./.(.)._..X.X%X*X/./..X). X/./.E.{. XhXn.q.!.!.T.E.t.V.T.T././.!.).)..X). X%X;X.X/._.tXjX7X-X*X&X%XXXXXOXXXXXrXR X.%X{.{.}.}.}.}.G.{.{.A././.C.V.u.8.b.N.8.;.%.u.f.g.A./.E.T.C.Z.H.S.H.J.}.wXg.N :.;X X%XwXrXrX*XwX3X{.rX-XE.C.T..X*X.X%XoXXXoX3X8XoXC.(..X*X6XrX*Xg.I 8.D.S.D.N...B.D.D.{.B.D.}.}.}.}.}.{.A.A.F.(.{.{.4X|.3X3X0X0X3X|.|.oXeX#.c < T /./..X|.qX0X3X3XoX}.}.{.{.}.}..XXX{.{.{.A.S.B.N.N.d.N.A.3XtXj.{.6XtXeXuXNXlXcXtXrX6XoX*X5X*XXXoXwXrXrXyXyXtXrXlXlXzXjX7X.XT.3 =.=XXX&X;X*X*X*X7X7XrXrXrX<X,X0XwXrXlXtX8X8XyXyXuXoX}..XoX.X4XwXrXZX5Xw < b 2.*X X).$XT.l.#.t.$X<X,XrXrX-X7X7X6X%X%X%X%X X;X;X-X7XhXrXrXjXyXhX-X.Xk.;. X-X-X;X)..X.X.XoX%X%X.X%X.X6X%XC./.%X%X%X*X;X%X%X)..X.X*X6XtXlXGXf./.wX-XoXXX.X3XwXyXyX",
" X.X.X*X$Xe.' F *.*.a.T.E.C.R./.E./. X X X.X.X%XXXE.C././..X.XT./.6X*XrXrX8XwXrX6XrX,X-X=XQ.x a x.$X!.+XE.T.). X.X)._. X.X)..X)./..X.X%X*X;X7X6X6X5X*XoX*XoX*X5X;X-X&X=X0.h.)././..X.XOX.X.X.X%X%X/.E.C.C.E.u.n.!.E.C.g.T.E.E.C.!.X.k q Y $XE././.(..X.X.X X.X_..X^././._..X.X.X).). X/. X{. XE.E. XrXt.p.).!. X X!.).!.)./.T./././..X%X.X%X5X_.^.).;XjXtX*X-X6X%X.X.X.X;X;XhXR R OXJ.}.}.oX}.}.{.{.{.{./.A.V.C.g.N.Z.N.u.%.} :.u.g.V.A.A.A.E.C.N.B.A./.{.8X,.P x k.7X*X%X*X6X6X6XwX.X.X)./.).E./. X.X%XoXoXoX*X*XtX7X%X3X4X6XrXiXA.N.N.A.A.D.A.8.A.S.D.{.{..X{.}.}.{.}.{.C.B.D./.{.}.|.4X3X3X3X|.0X3X3X3XiX,.D * _ .X}.4X3X0X0X3X3X4XoX}.}.|.}.}.}.}.{.G./.D.A.B.L.N.N.B.D.4XwX:.oX6XrXtXcXNXyXuXuX7X6X.X*X%X.X.XoX*X,XrXtXuXyXyXlXlXcXjXtX7X/.t -.-XXX*X*X*X;X7X7X*X&X,XwXwXrXwX,XrXvXvXtXeXtXtXyXtX8X.X.X*X%X7XtXVXA.7 5 b %.$X$X).6Xj.] e * t.<X6X7XrX X%X7X6X7X+XT.T./. X-X-X-X7XrXhXjXtXrX6X).j.:.%X=X-X6X.X_._.%XoX*X%X;X6X;X5XoXf.A.%X%X*X*X*X*X.X%X%X;X6X8XtXrXuX] V. X XE./.S.D.OXXXwX",
"%XoXoX,XQ.r.q.Y i.t.Y.Y.E.R.A.R.E.A.).). XXX.X X/.E.T.E.E. X6X6.f.oX6X6X7XrX7XrXrXrX7X*X=XI.t c x.:X].].!.^.T.)._.OX X_. X). X X X{..X5X*X*X5X6X;X6XwXoX3XwX*XOX;X*X=X!.o.+X%X)..X.X.XoXoX.X*X.X.X_.E.j.9.g.g.T.T.E.C.j.V.A.E.'.$XL D 7 X.+X). X X X.XoX.X.X(..X_.A././..X X.X$X X XE.R. X'. X'.{.$XrX-.Y.).!.$X X).).).).). X/.(.)..X.X.X%X*X*X.X/.).%XrX-X*X*X*X.X5X%X;X;XxXF P OX(.}.|.4X.X}.{.{.}.{.G.A.A.A.B.N.C.C.b.4. . .8.g.N.N.F.D.S.B.B.A.D./.{.wXi.] i ,.6X7XwX*X6X5X6X6X7X).).).).).)..X.X%X*X4X.X*X5XrXjX7XwX6X6X6XcX/.A.A.H.S.A.A.'.A.D.D.D.{.}.{.{.}.}.}.(.D.S.A.{.{.}.}.3X0X3X0X|.0X|.3X0XuXl 5 4 } }.{.|.|.4X3X3XoXoX.XoX{.{.}.{.{.{..X{.A.A.B.S.N.N.N.B.D.6X).P 7XwXwXwXyXrXtXuXtX8X8X*X.X.X.X4X.X4XrXrXyXyXuXuXpXcXlXlXjXtX%Xk #.&X X%X%X*X*X*X*XXX*X*XrXwXrX<XwXjXBXNXpXeXeXeXrXrXrX5XoXoXoXwXrXZX%X2 8 l $.*X%X$X-X6X.Xk.6.).-X;X*XrX6X%X6X.XtXjX).T. X.X].V.%X7XrXjXhXrXrXrX.XB.:.XXgX;XoX.X/.}..X%X&X6X6X*Xj..X;X.X(..X%X6X*X*X*X*X%X*X8X6XyXtX8X.XN Z.]. X{.(.B.A.}.oX3X",
"-X5X*X<XR.=.*.H i.W.E.E.E.E.T.A.j.;.h.)._.%X%X X X!.T./.'. XoX_.{..X*XwX8XwX*XwXrX*X-X&X&XQ.9 H +X!.$X$X X!.).).)._.). X.X X X)..X.X*X*X;X7X6XrX*X8X8X*XwX;X6X5X7X-X-XR.X.;X).XX%X%X*X.X.XoXoXOX}./.A.g.u.g.C.E.T.C.h.C.B.E.E.!.&XU c 7 *.). X)..X.X.X.X.X.X}.}.}./.(./. X). XXX).!.C.E.'.E.'.{.XX%X*X@.a.).).).%X X).).).).)././._..X).%X.X%X*XOX).(..X6X7X6X;X.XoX6XoX*XwXvXI L {./.A.{.oX.X}.|.|.}.J.S.A.S.S.B.B.A.N.N.5. .} f.g.N.C.D.S.| g.A.A.C.A.}.0Xf.#.i c.7X6X*X*X6X*X6X6X5X%X.X.X). X%X.X_..X.X.X.X*XwXrX7XtXrXrX7X6XeX XE.A.A.A.A.A.Z.A.D.D.(.{.{.}.{.}.{.{.{.D.A.D.D.K.{.}.3X3X|.|.3X|.3X|.3XuXb : - -. X}.|.oX3X3X4X4X|.}.3X{.}.}.}.}.{.}.{.A.B.N.N.N.N.S.S.A.7X).P 7X6XrXrXwXtXtXtXtXjX7X8X%X.X.X.X5XoX*XwXyXlXuXuXcXpXjXcXcXjX6Xb } &X$X X%XoX*X,X*XrXrXrXwXwXoXoX*XcXZXNXtXrXtXeXrXrXrX6X*X*XoX4X6XvX%X0 d A 2.XX&X&X&X%X%X*XXX&X-X*X6X*X;X*X*X%X).7X).rXhX;X}.V.$X7XrXjXtXlXrX6X4XC.#.).-X;X%X.X.X.X_..X;X6X6XrXT./..X.X/.).%X;X*X*X,X.X5XwX7XrXlXlX7X^.w u.>XXX/.A.g.A.{.,XXX",
"%X*XrX<XQ.$.X.c i.!.Q.!.E.E.E.).E.,.k./.).%X%X%XXX).A.R.!.{. X.X%X%X5X*X6XwXwX<X-X-X&X7X&XQ.k X.W.!.:X+X$X!.!.).).). X X.X X.X.X.XoX*X5X6X7X7X7X6X8XwX6X*X5X7X;X-X=XfXY.X._.)..X.X%X.X.X.X%XoXoX{. XZ.u.h.A.E.C.T.V.C.C.A./.R.].$XL S i q.T.T.).%X.X%X.X.X.X.X.X X.X X{. X X XXX).T.C.R./././. X.X*X-XE x.).$X+X$X].!.).E.!.{.). X_._.)..X.X5XoX.X X.X.X.X6X6XoX5X.X.X.XoX*XvX@.} /.{.D.}.}.|.}.4X8XD.A.G.A.A.S.S.A.N.N.N.8... .8.g.g.B.A./.8.g.A.B.N.D..XwXg.X.l T.6X&X-X*X6X6XoXoXoXoX X.X.X.X)./..X/..X.X.X8XeXtX7XjXuX7XwXrXtX).A.A.A.A.A.A.A.A.D./.J.{.D.}.}.}.{.(.D.D.D.D.D.(..X.X4XoXoX4X|.3X|.3X3X0XN 6 - r.OX.XoX3X|.3XoXoX3X|.|.}.}.}.{.{.(.}.OX/.A.A.S.C.S.S.S./.rXR.k rXrXwX7XtXeXwXeXtXtXrX6X%X.X.XoXoX.X5X8XrXtXtXtXuXtXpXcXcXjXjXN w t.E.XX.X%X*X*X*X*XwXwX3X6X.XOXwXuXNXNXtXeXeXeXrXrXrX7X6X*X4XoX6XcX(.0 f C 8.].XXoXoX.X.X.X%X6X6X,XwXwX6XoX*X.X`.).7XBXlX6XoX6X;X8XwXeXtXtXrX6X6X/.:.E.-X;X*X.X}..X_.%X.X+X6X7X6X%X%X%X%XoX6XwX6X*XXX.X*X7X6XrXBXjX.Xf.9 y.&X&X.X_.^.N.u.}.oX",
"*X*X-XyXQ.L U c i.~.R.!.E.T.E.). XC.T.).).%X%XXX X!.E.R.!.{. X)..X5XoX6X5X*XoX*X,X*X&X&X].p.x X.).:X).).+X$X).).).).)..X{./..X%X.X.X*X*X6X6X7X6XrX;X*X*X*X*X;X*X=X$XdX0.X.%X/. X.X.X%X.X.X.XXX.X)./.E.E.A.R.).E.V.V./.T.C.T./.!.XXE b i ,.h.R.).%X%X5X%X.X$X X X X/./.). X XE. X/.^.C.C.T.).XX.X X*X*XC T.Q.!.].@X X X XE./.).(./.).(..X{.{.oXoX.X.X.X(..X*X*X%X.X.X.X%X.X-XkX} I /.{.(./.}.}.oXoXeXD.A.{.'.A.A.S.C.C.A.N.u.%.| 8.g.N.B.C.A.D.A.B.B.A.A.{.tXj.,.l h.-X.X%XoX%X6X6X5X X{. X.XOX).)._._..X^..X6XrXrXrXrXeXtXeX6XrXrXC.D.A.A.B.S.A.S.D.A.D.D./.{.{.{.{./.(.D.D.D.D.(.D.|.|.3XoXoX3X3XK.|.3X6X3XP 7 > 5.XXXX|.|.3X3X4X3X3XoX}..X|.|.D.{.D.D.{.E.D.A.A.A.A.S.B./.eXh.t *X6XrXtXtXtXeX8XtX7X6X6X*X.X.X.X5X6X.XoX8XtXiXtXiXtXjXlXbXjXjXc w :./..XXXXX6XoX6X6X5X8X6X6XeX8X8XpXZXuXtXtXrXtXrXrXrXrX6X5XoXoX4XlXV.- d A m.{.'..X.X.X XXXoX*XwX*X*X*X*X8X.X).)./.7XBXlXrXoX5X6X5X6X6X3XwXwXwX4X/.,.E.-X*X*X%X.X.X.X%X%X.X%X6X6X6X%X6X;X*X;X*X;X*X.XoX5X7XrXjXjX7X%X<.8 5.XXXX.X.XOXC. .B.oX",
"5X*X,XkXa.x c N t.h.Y.R.T.!.!.T.R.A.R./.`. X.X X{.{.!./.)./.)..X.X.X5X4XoXwX*XwX&X*X*X&X@X0.9 >.+X). X).).).)..X$X%X_. X.X_..X%X%X%X*X5X6X6XwXrX7XXX;X6X*XXXoX*X&X$X=Xy.#.;X!. X$X*XT./..X.X.X X/././.).^.).)./.t.C././.E.E.E.R.$XE v 8 5.h.T.)..X%X*X;X%X%X%X X X)./.).%X).,.h.).T.h.A.T./. X.X}.,X<XC T. X]. X X$X).)./.).(.).)._._..X.X.X*X%X%X$X.X_..X*X.X5XoX.X%X.X%X&XyXf.Z g.XX}.}.|..X3XA.S.}.{.{.J.A.A.D.C.B.A.N.g.4.%.8.g.N.N.S.C.A.D.6.8.A.S./.wX6.f.l g.%X$X.X*X*X*XoX.X.X.X/. X X X X(.T.^.(.oXwXrXrXeXeXtXtXeXrXtXrX8./.A.D.B.B.B.F.S.D.D.D.{.{.{.J.{.}.}.D.D.}.B. .A.{.|.|.|.4X|.3X|.3XoX3XA.N 9 - y.XXoXoX0X3X0X4X3X3X|.|.|.|.|.{.D.D.D.F.J.K.D.A.C.B.A.D.D.yXi.t ,X,XrXrXtX8XrXrX7X5XwX6X*X.X_.5X*X5X.X.X8X5XrXeXtXtXlXjXcXjXvXc L E. X XOXoX%X6XwX3X3X6X6XwXeX6XeXZXVXuXuXpXjXtXtX8XtXwXwXwX6X5X6XcX/.- 8 E Z./.D.{.D.{.}.{..XXX6X3X5XoX%X*X.X).D.D.oXuXuXeX4X4X4X3X4XD.4X4X0X3XoX}.:.!.hX*X*X.X%X X.X.X%X X%X%X*X.X%X;X*X*X*X*XoX*XoX*X5XrXpXvXtX*X`.$.9 4.{./.C.N.A.{.A.{..X",
"*X*X,XkX=.U b c r.h.h.V.h.C.T.T.E.A.A.T.)._..X X{.E.E.{./.T./._.%X.XOXoXoXoXoX*X;X*X&X-X$X$.> -.c.E.E.Q.!.).). X%X_.%X.X.X.X.X.X%X%X.X*X;X7X*X5X7X5X*X6XwX*XoX*X].Q.&XT -.;X).)..X%X%X.X.X%X.X X X!./././.).)./.T./.).E.E.).E.R.#X/ v < q.!.T.).%X%X*X7X%X.X X X{.). X.X).%XT.T./.C.T.A.`./..X.X.X>X<XN h.%X]. X X/.).). X).(.)._..X_._.%X;X*X*X;X%X%X.X.X%X%XoX5X%X.X5X*X%XlX6.V j.{.OXoXXXoXeXS.d.}.}.{.{.A.A.A.A.A.N.N.N.4.%.u.g.N.N.N.C.A./.B.j.A.A./.6XT.w.q u.%X%X*XoX*XoXXXOX.X{./././././.C.C.E.}.5X6XrXrXrX8XtXuXtXtXjXeX#.(.D.A.A.B.C.S.A.A.D.J.{.{.{.{.}.(.{.{.{.3Xd.A D..X}.oX|.oX|.K.3XoXoXwXZ.z 9 - u.>XoX|.4X4X|.|.oX|.3XoX|.oX|.K.D.D.D.L.K.3X}.A.N.g.S.J.J.uX#.6 .X*XwX7X8X7XtXrX7X*XrX6X.X/.)..XoXoX5X.X|.4X}.eXtXpXpXcXlXcXvXc L !.]..X.X.XoX6X6X3X3XoX3X3X6X6XuXVXcXuXiXuXuXeXeX8X7XrXwX6XoX6XoXcX).= 5 E n.N.A.A.A.A..X{.{.{.oX}.}..XoX}.{.(./.{.XXtXuXiX0XqX3XqX3XK.4XqX0XwX4X.X6.!.rX6X*X.X*X%X.X*X%X%X%X.XoX.X.X*X7X%X5X*X6X*X%X;X5XtXlXjX5X).C.' 0 $. XE.N.| 4.(.}..X.X",
"&XrXyXrXR #.c c u.i.y.u.h.V.V.T.V.A.T.T.).)..X{.{.{.E.E.T.^.(./.)..X.X XoXoXoX*X&X%X$X$X@XT 5 f.C.E.!.)./.).).)._.). X.X.XOX/. X.X%X;X6X6X6X6X8X5X.X6X*X%X&X&X%X&X].$Xv *..X$X$X).*X%X6X%X.X.X5X X/./.C.E.E.).^.). XE.!. X!.R.E. Xe.h 9 q.).)..X%X5X*X6X6X.X.X}..X).). X X).E.E.E.!. X X/._..X.X.XXX,Xz ^.&X$X). X).).). X.X X_._._..X%X5XoX*X5X.X%X.X.X.X.X.X.X5X5X.X.X%X6XlX%._ S.N.{.XX|.}.|..X}.{..X|..X{.D.A.A.D.A.A.N.4...u.N.Z.N.C.N.C.A./.A.D.{./.6Xx.>.a x.%X X.X5X*X.X.X.X}..X{.E./.A.N.V.C.A./..X;X7XwX8XeXtXpXjXtXBX;Xz A.D.S.F.A.A.A.B.A.D.G.J.K.{.}.{.}.}.}.}.|.oXB.{.3X3X3X3X|.}.|.3X3XoXwXu.R i - V.{. XoX|.4X|.|.|.|.|.|.|.|.}.J.{.K.F.B.d.J.J.D.B.A.D.D.J.iX' , ;X%X;X7XtXtX7XrXrXwXrX6X*X/..X%X4X*XoX4X4X3XoXeXtXtXtXlXuXlXNXi Q ].'.!..XOX*X3X*X3XwX.X3XeX6XwXpXVXtXtXeXtXtXeX8XtXtXwX8X6X6X6X6XcXT.; 9 _ u.6.A.B.C.A./.{.{. X}.(.}.}.|.}.(./.D.D.}.tXuXtXtX0XeXeX6X6XwXqXwXeX*X5X5.{.*XoX6X5X.X.X X.X.X%X%X.X.XOX.X.X6X;X6X6X6X6X6X6X6X7XjX7XT.j.T.I < $.-X X.XA.A.OX.X4X.X",
"7X<XkX<XI #.N N t.a.t.t.t.h.h.V.C.T.T./././. X'.'.{.'.'.E.T./.)./..X_.OXoXXX%X%X7X;X$X&XR.v 3 !. XE.E.].!.)./.). X_. X XXX.X)._._..X.X5X*X6X;X7X6X5X6X*X%XXX*XoXXXQ.$XF ,.+X).)..X;X*X5X;XoX%X7X XE./.A.^./.)././.!.!. X X].'.Q.].p.t t h.%X).%XoXoX*X*X*X*X.X/./.!.{..X X X XXX). X.X%X.X.X{..XoX&X<XN >.w.Y. X X). X.X XXX XE.E..X.X.X5X%X*X%X5X.X.X.X}.}./._..X%X%X.XoX7XbX' :.C.g.{.|.}.OX}.oXOX}.}.}.OX{.H.A.A.E.Z.A.N.7.:.g.B.N.A.C.B.C.A././.A.J..XeXt.G G %X.X).*X5X*X.X.X.X)././.^.E.B.B.N.,.h. XoX4X6X.X.X8XtXjXtXtXSX!.t C.D.D.D.S.A.S.B.A.A.D.J.{.{.}.{.}.}..XOX|.{.J.}..X4X3X3X6X3X3X3X|.oXwX6.P k - V.XXXX3X.X|.oX|..X4X|.|.}.{.K.J.D.A./.B.B.S.D.D.S.S.A.J.G.eX@.> *X*X;X7X7X7X7X6XrX<XrX6X6X.X}.}..X4X5X.X5X8XwXeXeXuXeXuXuXuXvXy $.1X X/.oXoX5X*X4X6X*X3X5X5XwXrXNXtXtXtXpXtXtXpX8XtXtXwXwXwX,X*XwXNXj.* 4 } Z.h.E.E.8.j./.{..XoXoX}.}..X}..X/.D.D.{.}.wXrXeX7X6X8XeXwXwXrXrXrXrX*X*X#.E.*X*X;X*X%X.X.X.X.X%X.X.X.X.X.XoXoXoX5X%X5X*X6X7XtXjXtX7XC.:.u.G * @.&XOXoXoXXX}.XX4X.X",
"6XrXMXE.@.-.P N q.a.t.p.t.i.g.h.h.V.V.T.T.).^.!.E.!.E.E.E.A././.).).).{..XOX%X*X%X$X$X&Xy.6 6 x.].R.!. X!.!./.).).)..X X X%X).).)._._..X6X6X6X6X6XoX6X*X*X*X*XoX].Q.R.H q.;X X!..X.X.X;X;X.X;X X).E.E.T.A.E.A.)..X X X X X!.E.E.R.z.h 7 k.%X$X.X.X.X%X%X*X*XXX}.{.R.!.E./.)..XXX&X.XXX.X X.X.X.XoX-X<XZ G p ` ).).)..X X X.X X).).%X.X.X5X%X%X%X*X.X.X X X.X.X.X.X.X%X.X5X8XlX' /./.C.}.|.}.{.}.|..X}.}.(./././.E.A.{.A.A.B.8.7.N.N.C.B.A.B.N.E./.D.D.D.oXpXg.B P ;XXX%X*X*XoXoX.X.X(.C.A.E.A.j.N.A.f.C./.{..X6Xj./.6XeXeXtXtXAX5.7 T.A.A.A.A.S.A.A.D.D.D.D./.(.(.A.{.}.}.A.{.}.D.|.}..X4X3X3X|.oX|.oXoXeX#.M L 4 V.XXOX|.oX3X3X5X3X3X3X3XoX|.|.|.}.{.J.J.D.S.J.D.G.J.D.K.{.rXI > !.*X6X7X7X7X6XwXrXwX,X6X*X.X.X.XOX4X*X*X4X6XwXrXeXtXiXuXtXeXjX6 2.-X X_./.4X*XoX6XoX6X5X6X7X7XtXyXtXiXeXuXuXuXtXtXtX8XeX6XwXwX7X7XVXj.& 3 T ]. X]..XE.V./.{..X.X.XoX5X.X.X_././.D.^..XoXrXjXeXrX8X6XwXrXrX-XwX5X X.X:.T.rX%X5X5X;X%X X.X.X%X%X.X%X.X.X.XXXoX8X*X*X6X6XrXlXjX7X7X7XT.<.F ; ! $XXXoXoXXX|.4X3X|.",
"-X<XkX$._ ,.] N ,.a.a.t.5.6.6.y.t.h.V.C.T.T.E.!.E.R.T.T.^.A.E.^././.)././.)..XXX$X&X&X&X$.y i i.T.A.T.E.!./. X X)..X$X).%X7X^.(._..X)..X;X.X;X6X*X5X6X*X*X*XXXXX@XQ.Y.n q.$X).). X.X*X6X%X.X%XT.T.!.T.C.C.E.T./..X.X.X). X/.E.E.Y.z.~ 6 x.%X). XOX;X%X5X;X*X X.X'.E.{.E./..X_._.%X$XoXwX%X.X.X.XoX&X-XL k.,.h.).%X).%X).).%X.X_.%X_.)..X.X%X).h..X.X.X_.)._..X X X XXX%X*XwXrX' )._..X}.|.K.}.|.}.}.(.}.{./././.A.A.A.E.A.C.g.t.N.A.B.C.C.Z.B.A.D.D./.{.XXpXh.N ' %X X*X*X*X5X*X.XOX/.D.A.D.C.u.h.C.A.E.E./.).6X6X6X6XeXeXtXuXAXQ k /.C.S.A.D.F.A.C.A.A.A.A.D./.{.{.}.|.|.:. .D.|..X4X}.oX3X0X3X|.oX4X.X7X@.Y b > Y.oX}.|.|.3X3XoXoX3X3X3XoX4X.X4X{.|.K.J.J.S.J.S.A.J.J.K.K.uXc * V.oX;X6X6X6X6XwX6XwXwX6XoX%X.X_.;X6X*X5XoX6XwXeXwXtXtXtXtXtXeX1 y.&XXX_.4X.XoXoX6X6X*XwX7XeXrX5X.XrXeXtXrXtXuXuXpXtXeXtXwX,XwXrX8XVXj.* = U Y.&X]. X X/./.).). X)..X.X_..X X/. X(.}.OX*XrXrXrXwX6X6X7X7X*X*X*XoX.X).,.!.$X;X;X6X%X%X.X.XoX5X.X*X%X%X%X%X.XXX*X-X*XwX6XjXjXrXjXrX5X).,.m $ F  X{..X.XoXoXoXoX{.",
"%X<X X@.#.6.@.c @.h.a.a.y.6.:.5.5.i.u.h.h.V.V.E.E.Y.T.T.T.T.E.R.E.R.A.E./.E.).).$X X-X$XT t 8 w.k.C.T.T.E.).). X).$X.X).$XXXT.T././..X%X.X%X%X5XoX5X*X*X%XXX X X!.Q.s.n t.+XW.W. X%X6X5X5X.X5X).).Q.T.V.V.E./. X.X.X X X X XE.E.Y.p.Q 5 i.+X`. X_..X%X;X*X*X X].!.'.!.).(._..X%X%X%XoX5X4X.X.X.X3X*X].k $X$X!.E.).).).$X$XXX%X).%X.X.X.X.X.X.X/..X_. X)./.{./. X X X.X.XoX7XlX4./..X.X|.}.}.|.}.4X{.}.{.(.{.D.A.A.D.D.E.T.C.k.t.C.A.B.C.C.A.A.A.D.D.D.{.3XcXC.N -.*X.X%X*X*X7X*X X)./././.A.f.8.j.C.A.A.E./..X.X5X6XwX8XeXtXlXAX| z .XA.C.A.A.A.B.A.B.A.S.S.F./.{.{.}.}.3XA.B..X|.3X3X3X0X0X3X3X3X4X.XOX;Xs.! c 9 Y.oXXX|.oX3X0X3X|.oXoX.X|.}.oX|.{.{.{.D.J.G.S.J.K.J.J.{.|.tXx . r. X%X*X6X6X6X6X6XoX*XwX5XoX.X.X*X8XoXoX3X3X0XtXeXwXeXrXrXrXeX7 p.;XoX.X.XOX4X4X*X6X3X5XwXtXeX8X5X8XwXtXuXuXuXuXuXuXtXeXeXwXwXwX*XVXC.5 - n n. X XXXXX X X X)..X)..X_..X/. X{. X(..X.XoXwX7X8XwXwXrXrX,XrXwX*X%X;X6Xf.T..X*X7X;X.X%X%X.X%X5X.X.X*X.XOX.XXXoXXX*X,XrX8XeXtXrXtXtX;X/.#.V 4 U {.OX.X.X|.}.}.}.{.",
"<XlXE.t.#.] ,.' } p.i.r.r.y.2.5.5.r.8.u.i.h.V.Y.T.V.C.V.C.V.V.Y.C.C.A.C.A.E./.). X].&XI.D t c i.h.Y.T.`.).). X!. X). XXXXX].E.D.T.E.).)..X.X%X*X5X*X*X*X%X$X$X+X!.z.&.c i.).Q.).%X%X%X5XC.f.%X!.!.E.A.C.V.).XX).XX%XXX X].!.E.T.V.i.*.7 *.T./.). X).%X%X*XoXXX'.{.E.R.E.(.)..X5X*X%X*XoX6XoXOXoX.XoX!.b !.!. X]. X%X.X;X;X)..X.X%X_.%X%X XoX).)..X X.X). X X)..X.X.X%X X/.%XtXg.R.OX.X}.4X}.}.}.}.}..X{.A.(.A.C.N.{.D./.R.T.V.u.N.A.A.C.A.A.D.A.S.K.J.D.4XNXu.C 6.;XXX;XwX,X7XoX.X)./.A.A.C.8.f.j.C.C.E././.)._.oX6X6XwXrXtXlXAX_ N /.A.C.A.C.B.S.A.A.A.A.A.A.A./.{.}.}.oXoXoX3X4X3X3X3X3X0X3X|.3X|.|..XoX-.U a b ]..X}.oX3X4X|.3X3X|.oX.X}.}.3X|.}.{.J.J.F.S.J.J.K.{.J.}.|.*X9 - r.&X.X-X*X6X6X6X6X6X6X6XoXoXOX/..X4X3XXXwX3XwX7XeXrXtXrXrXrX;X< h.XX.X*XoX.X.X.XoX4X6X6XwXeX8XeXeXeXtXtXtXuXjXuXtXiXwXwX8XwXwX<XrXZXj.g 0 n Z.].!.XX X.X.X). X.X.X_..X.X/./.!.{.(./.OXoX8XeXwXwX8X6XwXrX,X*X%X%XXX.Xi.T.;X&X-X;X*X.X;X.X.X.X.X.X5X.X5X.X{..XoX%X*X8X7XjXhXrX8X%X).T.>.m = C XXXXXX.X|.oXoX}.{.",
"hX7Xi.F.k.,.o.*.@.#.q.r.t.s.t.5.5.4.5.6.8.u.h.V.h.Y.C.T.V.V.V.C.V.h.Y.T.T.T.E.E. X*X&X2.S i a q.Y.V.T.T.T.).).).).).).XXXX XR.A././.E.).)..X%X%X*X*X;X%XXX$X$X$X@XP.*.a w.+XR. X$X%X%X%XC.t. X).E.T.C.C.C. XXX X XXX X/.E.E.T.C.V.p.r.k *.).).$X.X.X%X%X;X*X!.C.E.E.T.T./.)._..X.X*X%X.X*X.X.X.X.X&XV.b $X X!.].$X$X%X%X$X$X$X%X_..X%X%X$X X X.X).%X).).).).).)..X+X.XT.j.%X6X5.A.OX.X}..X}.}.{.{.{..X/./.A.A.^.C.D.{.D./.A.N.N.A.C.A.C.A.A.A.D.G.G.J.K.>XcX6.l h.%X%X*X,X,X6X*X.X X/.A.A.N.8.g.g.j.C./././././.(.XX4X6X6XtXjXGX%.c /.A.C.A.C.B.B.A.A.S.A.A.A.D./.{.{.{.{.}.oXoX4X3X0X3X3X0X0X3X3X.X}..X X&.n < W XX.XXX|.|.3X|.3X4XoX|.4X|.|..X|.}.}.(.J.D.F.D.{.J.{.{.|..X.X, & i.%XXX*X*XwX6X6X6X*X*X6X4X5X|.}..X4X4XoXoX6X0X8XwXwXrXwX*X<X).< T. X X;X6X6XXX*XoX6X6X6XwXrX7X7X6X6XtXtXtXiXuXuXpXtX6XwX0X3X6X,XwXGXj.B w 5 M.Q.]. X!.{.!.!.XXXX)..X.X/. X.X).E./.(..X.XrX8X7X6X8XwX6XwXwX*X*X*X.X).h./.;X%X&X*X%X%X%X.X*X%X.XoX5X8Xf.) _ d.{..X%XrXhXlXlXjX7X5X XC.#.M ; f XX[.oXoXoX|.oX|.|.",
"+Xk.`.v.T.`.W.T.h.i.o.~ ~ ~ U T X.X.' | } ,.k.h.t.-.-.,.5.4.6.,.,.t.t.t.V.Y.T.T./.,X-XT h i 2 Y T.Y.T.T.E.T.T.W.`.)./.{.].!.A.A.C.T.T.V.C./._..X.X.X.X X X X!./.R.n.e.i t.E./. X). X$X.X$X$X]./.^.T./.T.A.!.XXoX*X%XXX'.'.!.R.R.E.Z.b.b Y =X). X X)._.%XoX.X).C.E.).`.E.T.).OXOX.X.X5X%X%X%X.X.X XXXi.L $X X).$X%X%X%X%X$X X X X).+X_.).$X X.X).)..X).).).).).).)._._.)./.%XgXw.^..X.XOXXX}.{.{.J./.(.}.{.A.A.D.{.(.{.E.E./.B.N.N.N.A.C.A.C.A.A.D.D.D.{.4XcXi.I /.XX*X;X*X,X*X8X*X.X X/.T.N.8.f.k.g.A.^.F.E.D.{.D.(.3XoX4X8X7XBX/.N E.A.A.B.A.N.j.A.A.B.N.B.B.A.A.A./.C.A.|.3X>X3X3X6X3X|.|.|.oX|..X/./.T.&.x = R oX{.}.4X4X3X3X3X|.4XoX|.4X3X3X.X.X}.}.{.D.D.F.(.{.}.}.{..X).$ - y.XXXXXX*X5X*X5X*X5X6X6X6XoXoX.X.XoX6X3X4X3XwXwX8X*X8XrX*X%XT.6 +X$X$X*X6XwXXXoX6X6X6XwX8X7X.X%X*X7XrXtXtXuXtXuXlXtX6X6X8X6XoXwXwXNXk._ l 0 3.E.].!.!. XE.E. X X X X X.X.X_.). X/..X.X.X7XrX7X6X7XrXwX6X*X6X-X&X.X.Xt.A.*X;X%X*XoX5X.X%X.X.X*X*X8XtX;.m V | B. X&XrXhXlXzXjX7X;X).V.] m = 9 [.XX|.oXoX3X.X4X.X",
"$X+X8X%X%X%X7X<X&X-XhXrX;X=XXX].@X Xi.R.T.%X$XfX$.v =.=.*.&.@.! X.! X.! &.0.! Y @.X.X.J t y : D *.:.t.u.g.y.V.g.h.C.E. X*X&X XZ.g.A.T.T.j.T.)..X.X*X%XXX$X!.E.R.n.n.$.n @.h.E.T.).)..X X.X%X).^.T.T.T.).). X;XwX7X*XoX.XXX$XXXXXXXQ.P.Q T $X!.). X{.).). XXX!.!.E.E.T.T.T. X).oX%X$X.X%X%X X$X$X$X$Xi.! @X@X]. X$X&X$X$X X$X!.!.).]. X;X X X X).).c.h.E.T.E././.A./. X)..X_.$XT. X{..X*XoXXX}.C.A./.T./.{.{.D./.A.D.A.B.N.N.N.N.C.C.E.A.A.D.A.F.D.F./.(.6XjX,.#.%X_.%X6X*X,X6X8X4XoX.X/.C.V.b.g.g.g.h.C.A.T.j.A.F.D.K.{..X.X;XrX%XL u.A.A.E.8.8.j.N.A.N.S.N.N.A.N.C.^.C.{.5X5XwX6X6X3X3X0XXXoX|..X}./.T.V.} t 4 R XX{.}.|.3XoX3X|.K.|.4X3X4X3XoX4XOX}.{.(.K.(.D.{.{.{.|.{.*Xf.X , 2.&X X.X.X*X5XoXoXoX6X6X6XoXoX4X.XoX.XoX.X.X6X6X6X*X6X*X%X%Xs.1 $X=X$X*X*XwX*X6X6X6X3XoX8X5X_.E. X<XiXyXeXeXtXtXtX8X5XwX3XoXoXwXjXbXw.;.Z 0 T [.].!.'.!.R.E./. X)..X.X/..X.X.X.X{.(..X3X4XwXwX6X3X3XwX,XwX,XXX%XoX).t.).%X%XXX%X*X*XOX.X.XXX%X*X6XtXeX).A.A./..X7X7XjXlXBXjX7X%X).V.] f - 3 [.oX|..XOX.X.X.X.X",
";X5X%X%X%X*X;XdX-X%X;X*XwX*X,X<X*X1XXX*X5X-Xr.R.*.z.hXxXkXzXzXmXdXhX-X=X=X<X=X$X&X%X*X-X:X!.Y.y.5.i.-.#.,.6.a.h.t.r.h.q.Y @.6.,.| :.<.u.t.f.j._.%X X%X$X;X$X).!.V.b.=.b c w.Y.Q.!.). X!.).$X).T.T.E.).).)./.XX;XrX<X<X,X;X,X-X-X].Q.R.r.2.Y.+XQ.T.XX.X X;X&XV.R.!.E.E.!.T.].!.XX/.).). X).$X).!.).).r.! $X+X!.@X].$X$X X XE.Y.E. X X X X!.).)./.T.i.r.V.V.E.E.T.R.!.).!.).).E.V.%X*X{.XXoXoX6XA.N.A.E.{.D./.{.}./.A.k.8.4.;.| | 6.B.A.F.F.D.F.D.D.D./.{.5XcXu.t.).%X*X*X*X*XwX*X;X%X.X XC.h.f.u.j.B.h.C.^.A.C.A.C.A.A.F./..X).$X$X_ u.A.C./.f.6.C.N.B.B.N.N.N.A.A.A.A.{.}.6X3XoX3X6XeX6X3X3X3X.XOX}..X/.C.R i 9 %.oX}.}.|.4X3X3X0X|.|.4X.X3X.X|.|..X{.}.{.(.{.{.{.}.OX}.(.rXa.. , @. X.X.X*XoX*X6XoX3XoX6X3X5X4X.X|.oX.X.X|.oX5X*X5X*X.X.X%X.X*.1 -X].].XX%X.X%X6XwX6XoX8X7X_.T.T.).%XoXwXtXrXeXtX5X.X7X5X.X.XXXwXNXrX| ] _ f E ].].]. XE.{.{. X XXX X). X.X.X_._..X.X.X6X3X3X6X3X6X6X6X,XwXwX6X%X.X/.,.T.$XXX X X%X%X7X%X%X%X&X*X*X;X.X.X/.!./..X;XtXlXzXBXhX;X%X).g.} n 3 d [.XXoXoX|.}.|.}.4X",
" XXX X X$X$X%X-X&X6X%X.X*X*XoXoX.X X XXX$X&X@XQ.t.$X%X-X%X1X%X1X<X&X$X X XXXE. X%X*X%X-X&X-X XR. X&X$X).!.{..X;X-XrX7X*.$ l ] #.} } #._ _ _ ' #.-.I _ -.h.t.r.-.#./ J > c a.Q.!.$X$X!.).).;X%XV.t.h./.T.E.C..X;X X%XjXtXrXjXxX<X<X1X&XP.b D ` ' F ' ,.q.:.w.-.*.r.t.a.h.Y.T.).).!.T.E.).!.).).$X!.).r.R $Xx.q.!.;X$X+X$X+X!.Y. X=X$X!.!.T.)._.). XV.i.i.N.Z.E.'.}. X$X%X&X-Xa.t.vXVXrXoXlXrXrXwXoX.X.X{.{.{.XXeXOX/.A.N.u.4.4.;.}  .g.F./.D.D.(.G.D.J.{.eXoX6.Y. X%X;X.X%X6X6X*XwX%X X/.R.C.h.f.g.h.V.C.T.C.B.C.C.A.C.A.E.). X XR.P T.E.A.A.^.C.V.N.g.N.B.C.N.N.A.S.j.S.|.3X}.{.wXwX0X3X4X6X3X4X.X.X.X/.T.I 8 0 %..XOXXXoX4XwXoX|.|.|.4X3X|..X3X|.}.(.}.}.}.{.}.{.|.}.|.{.rX&.X , /  X X&X%X.X5X*XoX6X6X*X6X4X6X%X_..X.X}..X*XOXoX4XXXoX%X X).&.y -X]. X X.X.X.X6XrX;XoXrXrX XE.T.). X*X*XwXrXrXrX).A.5X%X.X XoXnXLXXX) ] P V L !. X X].]. X]. X XXX X$X X%X+X%X.X.X.X*X5X*XoX,X6X6XwX6X6X*X6X-X%X XT.:.W.+X$X].!.$X X%X&X%X&X%X%X X)..XT.T.).)..X6XrXtXlXvXhX;X$X!.i._ l 9 h [.#X>XXX|..X.X|..X",
" X).].].). X%X.X;X7XC./.6X;XoXXX.X_..XXX$X&X XY.t.+X.XoXoX*X*X*X&X;X X X%X.X/.!. XXX%X%X X].!.!.Q.). X!./././..X*XrXkXy.E V.b.a.u.f.u.6.4.6.,.u.u.t.i.k.Y.x.W.a.q.@.L 8 i I #.#.' ' ,.*.t.h.i.:.` ' ,.*.%.| ,.:.P #.t.i.,.,.:.,.,.*.@.L a Y H G Y L H Y M F F c c x c D c ` *.*.,.>.w.T.W.i.q.x.Y.Y.-.c q.,.o.>.w.t.t.q.*.t.i.h.c.T.a.X.-.,.:.@.-.&.} #.:.} #.#.#.$.t.-.*.*.H c O.#.;.#.5.i.s.Y.T.E.7.u.j.V.D.rX X/..X!.C.b.N.N.9.6.A.D.(.F./.(.D.{.}.4X5X<.#.!.$X%X;X.X{.%X6X,X,XoXXX XE.C.C.C.g.A.T.C.C.A.C.C.E.A.i.k.T.).+XQ.i.F h.A.A.E.C.g.h.C.i.6.C.B.N.N.A.A.g.N.oX5X6X3X0XwXwX6X3XoX3X|..X|.{./.R.' 7 ; 5.XX{.|..X6X3X}.OX|.|.oX4X3XoXoX}.|.}./.{.{.{.}.}.|.|.{.K.6X/   + K E.)..X.XoX5XoX*X*X*X*X6X5XoX.XOX.X.X.X.X.X.XOX.XXX.X$XE.Q.! j hX&X&X X%X.X*X6X*X6XtX*X%X).h.Y.W.!.&X%X-XrXrXrXtX7X7X.XE.V.E.rXj.m ` ;.] N z 5.Q. X]. X X).).).). X X X X X.X.X.X%X$XoX*XXX*XwX*XoXwX6XoX%X%X%X%XV.-.T.:X$X X X X).$X%X%X%X-X%X.X).)./.h._.*XrXjXrXrXlXzXrX%X$X!.6.P w 3 3 [.&X>XoXXX}..X}..X",
" X X X]. X.X.XoX.X*XoX*X,X*X*XoX.X_..X%X$X$X).r.#.%X%X&X*X%X%X%X;XXX.X.X.X.X;X.X)..X%XXX X X].).!.!.!.!./.^._..X;XyXKXp.-.&XT.!.E.!.Y.V.V.V.V.E.E.T.E.T.!.:X$X$X@XQ.Q.p.-.$.@.@.N c W.+X!.%X;X*X;X%X). XR.C.V.h.g.f.i.f.g.h.V.T.T.a.Y.x.a.x.Y.Y.Y.h.Y.R.W.~.x.T.Y.U Y >.>.X.s.h.c.T.).!.W.h.q.i.q.T.Y.r.t.>.q.*.>.,.o.;.' ` ] k.<.w.w.w.Q.P.r.$.a.a.a.i.X.P I #.' I @.E v k i a : 7 p 8 t x x c Y N c N P ' ] ;.o.[ ] o.l z z N l V _ ' | #.' B [ ) _ ..<.o.` W.).%X6XoX.X_.6X6XrXoX.X6X X!.E. XE.T.C.k.h.j.6.h.g.<.6.g.h.+X+Xa.*.c u.(.A.A.A.u.C.C.N.g.N.S.N.N.B.C.D.{.}.OX8XtXwXeXiXwX3XwXiXwXiXwX XA.V.} 4 1 P .XXXXXu.V.XXOX{.K.}..XoX4X|.|.|.}.{.(.J.{.|.|.|.{..X{.A.dXj   + x r.].). X*X*X5X%X*X*X.X XoX X.XoXoX X.X$X). X_.5X;X X/.T.x.S T hX X].XX X/.{.5X%X X.Xf.g.h._ [ ;.;.V.).$X&X7X7X;X+X_._.5.5.x.+XH a o.' _ I N T R. X$X]. X X$X).).). X X$X X$X.X.X%X X.X;X$X%X*X*X%X%X%X%X.X%XXX.XT.4.V.E.&X$XT.!.).R./. X%X X&X$X%X)..X_..X7XlXrX*X%XhXzX;XXX XT.5.B w = 3 [.%XoX}.}.{.{./.{.",
"^.). X X.X%X.X*X6X*X*X*X*X*X*XoX.X/.).). XXX Xr.:.%X;X;X;X&X%X*X5X%X5X*X.X XoX%X.X%X). X{.!.{.!./.'. X).).).{..XoXrXSXq.X.%X!.!.].!.E.Q.T.W.T.E.!.E.Q.E.!.!.!.!.].E.R.R.R.Y.n.n.r.~ a.$X X$X*X-X*X*XXXXX.X&X&X].Q.E.T.E.T.!.!.E.Q.Q.R.Y.~.Y.P.~.P.Y.R.Q.!.@X$X=XkXX.G >.w.t.n.T.Y.$X=XR.R.].-X&XT.T.Q.$X$XdX=X!. X X).).).`.c.T.T.T.#.h.xX<X-XxX<X$XhXhX$X X!. XE.R.E.].R. Xn.*.r.!.Q.m.[.<X<X=XrX*X<XrX-XwXyXyXuXpXlXAXh.@.R *.W.h.h.Y.h.h.<.*.w.:.<.8.<.,.o.#.#.6.#.| ;.| ' _ ' ) N N B g V C N Z ) ] ,.>.;.<.,.,.;.#.@.>.h.#.w 5 6.{.(.}.{./.C.^.A.D.F.B.g.S.A.{.}.6X4X/.oXtXpXaXpXbX/._.T.5.-.P P B X.' b k z R.uXNX.X8.wXiX,X0XqXuXuXiXqXeXeXrXoX}.3X|.3XoX.X4X3X}.V.[.+   @ 9 2.E.R.XX.X*XwX6X*X*X%XXX X{. X XXX X).)././.!.oX%X XT.h.V.J &.xXhX,X*X/.E./.wXvX7X*XA.C.6XV.} P B P W.$X=X7X7Xh.:.t.V.V. XrX).G G ,.| ` #.B l i.$X!.@X].$X$X).).).XX$X&XXX X$X X). X X%X.X%X;X%X%X%X X%X$X%X).).E.6.r.V.T.!. XXX%X$X%X-X X!.-XhXrX).).)..X6X7X8X-X%XhXjX).h.T.T.,.M i 9 4 [.*X.X}..X(.(.^.^.",
"h.).). X X.X%X5X.X*X*X6X6X*X*X&X X/./.).}. X Xu.t.-X%X*X*X&X*X%X*X%X6X*X%X%X*X.X.X%XOX X!.). X!.). X X$X).)..X5XoXrXSX@.U >.T.!. X!.!.!.!.T.!.!.E.!.E.!.).).!.!.!.T.E.E.!.P.p.m.i.S 1 +X+X%X;X-XrX7X-X;X-X%X&X X X X].!.E.E.). XE.Y.R.R.Q.Q.Y.Y.T.Q.R.E.W.!.Y.~.1X! M G P x.a.Y.Y. X&X!.R.Y.E.E.E.Y.Y.].].&X&X$X&X&X7X7X*X7X-X=X+X).t.V.rX-XrXhX-XhXlXgX!./. XR.u.E.E.Z.E.].&XE.!.&XE.R.]. XXX XE. X X XXX%XoX*XwX<XkXSXV.#.-.$XrXlXkXhXrX6XrX*X*XrXkXlXrXlXlX*X!.XX&X%X).;X%X!.%X=X;XV. XE.Y.Y. X].i.l.F.F.D._.5X.X/.C.j.t.,.>.P l b P } | #.#.| %.| }  . .} } @.:.4.8.,.| | _ _ _ [ { p B c L L V [ ] G F N 5 f B ' #.} l B Y ! Y P R *.&.-.2.6.,.#.5.g.r.#.a.C.D.eX3XB.b   + + & I V.A./.OX6X}.D.D.}.*X.X)./..X;X X)..X/.T.C.{.6X*X.X).T.E.F 3 ~ ! z.q.>.' *.q.z.~.+X!.Y.5X7X*.R _ $.$X+X).8XSXtXjX8X XV.;Xk.;.) B ;.t.#.P M w F V.$X!. X&X X&X%X X$X-X&X X&X.X/.!..X&X%X6X-X;XoX.X%X.X*X&X$X&X%X;XT.l B ` #.,.t.,.a.a.Y.5.*.a.!.).a.i.i.u.h.h.T.i.T.).;XY.i.t.*.) a 4 3 h [.>XXX{.}././.^.A.",
" X%X%X XOX*X.XoX5X*X.X*X*X6X*X&X'.A.C.(.OX X].t.q.7X;X-X;X6X*XoX%XoX5X%X*X*X%XoX.X.X.X$XXX). X X!.).!.).)..X_..X6XiXSX_ v.+X).).].!. X X!.E.Q.T.W.).!.).).%X X X!.!.Q.R.!.Q.p.z.x.! a ~.%X%X;X7X-X-X-X5X7X<X%XXX%X X X).).].).%X!.R.Y.!.Q.Q.Q.R.R.x.R.T.!.T.T. X-Xy.-.F F Y.T.Q.T.!./.!. Xu.C.!.T.V.V.E.!.).$X%X).%X%X;X;X&X&X&X$X!.a.V.%X6X6XrXjXjXjXrX X).).h.n.).].XX'.E. X&X!.!.E.)..XXX.X).h.V.)._.%X.X.X5X*XrXiXBXh.N ,.%X*X<XhX<X-X1X*XXXXX*X-X*XXXR.*XrX-X1X1XrX%X*X*X<XrXkXnXmXzXrXkXmXLXBX X.X5X5X7X6X6X8XrXhXlXrX-XrX*X&XY.p.p.n.n.r.5.5.%.%. .} A C C b k 7 N ' #.-.h.A./._.).T.V.).!. X.X).g.@.} A B p i 1 * % 1 y 6 6 1 1 t 1 o X 1 L b N ' q.,.t.f.| f V | 5.s.s./ L A | %.;.f.d.| { ] ..:...| | P 6 5 l l N p g V m N B B f p < % . . $ . * $ $ : $ $ $ % $ : : . X $ > i 5 c ) @.X.,.)./.,./.).^.).t.t.k.t.#.b f 0 E R.T.T.!.).%X$XE.T.XX]. X!.E.T.h.h.T.).T.T.^.C.j.T.T.Y.Y.Y.Y.a.W.w.* ; a q q 8 7 G q < c x k b b Y I m L P ' a.#.p.*.' *.o.X.i F a 7 - 4 P.Z.{.{. X(..X/.A.",
"XXXX%XXX%X.XoX5XoX%X5XoX6X6X*XyXXX .<.). X$X/.r.i.7X%X6X6X6XoX*XoX6X*X*X.X%X%X*X%X%X$XXX%XXX X!. X X).)./._._.%X5XlXmXC E.8X%X%X$X X).).).).)./.).).).+X).).).).].!.!.].!.R.Y.~.z.q.!.$X).%X;X%X6X;X;X7X7X*X%X X X.XOX.X X%X/.4.] ,.T.W.R.Q.E.T.h.V.V.T.).E.).$X-X*.X.x ~ W.E.E.E./. X].XX X'.).C.g.Y.V.T.!.E. X%X.X5X6X*X%X*X%X$XR.i.r.oX5X6XrXrX7X6X;X X.X_.). X].).;X&X X X X).).).).%X%X%X%Xh.V.T._..X.X.XoXoXwXrXnXr.l /.;X*XrX-XrXrX,X6XoX*X%X*X%X XE.&X;X%X&X&X X)././. X&X*X*X*X-X-X7XrXVXh.t..X&X%X%X&X&XrX7X7X7X*X,X1X-X].].$X$X$X&X$X X X X&X[.Z.b.M.u.p.L I Y.).-X-XrXrXyXyXtXwX XOX*XyXrX,X1X%X X1X<X<XdX1X&XXXhXxXlXnXyXuXLX<X+ & v  XuXlXlXlXlXhXlX/.7 2  .[.#X'.Z.b.7.4.8.8.C.4.4.d.N.8.g.u.u.Y.q.  , R.].<XrXhXlXrX<X,X*XoX{.'.R.R.~.Q.Y.n.E.].!.!.@X].:X$X!.Q.Y.;XI = b I Y.Q.!.@X].&X%X;X8XrX X!.).).$X-X&X XV.!.].i.u.,.:.6.<.B 5 ) 5.g.h.f.f.<.6.,.#.t.i.u.t.y.h.V.h.h.V.h.a.t.V.R.x.a.a.p.y.p.n.*Xt.R r.r.E.1Xn.u.V.a.a.Z.R.$X=X<X7X=X$X!.!.a.a.,.} T U &.$.i.Z.C.C.C.A.D.",
" X.X.X.X%X5X5X*X5X.X5X*X6XoXoX<XXX_ | (.$X$XQ.r.h.6X%X*X;X6X6XoX.X5XoX*X%XoX*XXX%XoX.X.X X%X X X).)././.). X.X.X5XlXrXN ).7X%X X%X$X$X X X)./.).).). X).$X).)..X)./.].'.Q.E.R.R.a.R W._.).%X%XoXoX*X.X7X6X*X.X X.X%X.X%X X*XXX2.f M ^.).T.E.E.Y.h.k.T.T.).T.).XX7X@.b c *.).!.'.!. X X XXX%X XE.C.V.h.T.V.)..X X*X6X5X;X*X;XwX*X).R.t.-..X%X*X6XwXwX*X%X.X_..X X X XXXXXoX.XXX&X.X).T. X%X.X%X%X).)..X.X.X X.X4X6X*X*XmX,.F .X%X;XrXwXwXwX6X6X6X*XoX%X5X%XoX*X.X.XXXXX). XE.R./. X.X%XoXoX6X7X7XSXY.k.*X$X;XY.!.;X6X-X-X-X-X-X%X%X&XXX$XXX X%X$X&X$X&XXX,XXXR.'.R.E.n r.<X!. X&X*X,X*X,X%X*X!.R.&XrXhX%XXX-X%X&X&X<XrX%X&XoX-X<XyX<XyXrXKXdX= & b R.yXyXrXtXkXjXlXlXXXC.}.OXXX'.'.A.{.'./.XXZ.u.{.oXXX{.XX].!.-X/ o t ].rXyXlXcXlXuXlXcXyXrX,XoX[.[. X].[.R.OX%XoXXXXX,X<XyXyXiXyXLXS.w } %.V. X$X]. X X/. X;X7X XE.).T.!.%XrXkX XkXnXrX!.T.!.T.).,.5 5.&X]. X*X.X).{. Xu.E.XXoX X X%X X/./..X%X).!.!.].].E.R.T.R.].].rXY.r.P.Z.&XkX].'.Y.Y.p.i.a.R.E.!.$X<X$XQ.$X X@X@X].).#X!.!.$X&X%XlX8XN l ",
".X.XoX.X.X%X5X.X.X%X.X_.%X%X6X6X*XA.A._. X$X!.,.t.5X*X*XwX;X*X6XoX.XoX*X.X.X.X*X%XoX.XoX X%X.X).+X).).)._././..X.XhX&Xl 6X6X%X%X*X*X%X%X%X)._.%X).+X X_.+X).).).).).!.!.Q.T.R.Q.h.T T.).).%X.XXXXX%X*XoX.X.XoX.X.X%X%X%X%X%X*XE.6.t.^.^.T.T.T.T.t.k.V.T.T.T.T.).-X5.b c ,.T.!.!.!. X.Xj.6._..X).!.C.C./.C./.}.%X7XrX8X5X6XwX6XoX).R.i.' ).;X.X*XwX,XoXoX.X.X.X.X.XXXXX X.XXX.X*X/./.)..X.X.X.X%X%X*X6X4X.X.X.X.XoX*X*XkXR ,.-X;X-X7XrXeX7X7X6X7X5X*X5X5X.XXX%XOXXX%XXX/./.C.N.C.E.{.{.oXoXXX*XwXCXA.u..X%X*X'.E.oXoXwX*X*X*X%X&X*X%X.X%X X XXX-X&X-X;X*X6X*X X].E.!.h r.<X X.X5X*X.X5X%X.X.XC.j..X6X7X7X;X6X6XoX*X;X*X6X*X.X;X6X7X6X7XrXVXhXO & v !.yXtX/.5XjXjXlXtX8X6X*X&X&XXX X.X X X.X*X%X XXXXXoXXXXXoX].~.! X h #X,XwXrXjXuXyXtXlXrX6XoXoX^././.).E.)./..X X/.E.}.}.oX6X6XwXCXY.l #.} 6./.).V.A./.T..X).%X_.C.)..X6X7XjXlX-X,XBXlX1X-X].].).<.i h.&X#X1X*X;X%X%XR.$.E.%X-X&X&X-X%X%X.XXX-X;X).!.!. XT./.T.!.!.).hXE.a.!.].1XE.Y.-X;XQ.).Q.V.Y.E.Y.).$X).W.W.!.Q.~.R.E.!. X X).XX-XbXGXk.P ",
" XOX.X.X.X*XoX*XoX.X.X/..X.X5X.X.X.X).%X$X XW.q.x.6X;X*X*X-X6X*X&XoX%X%X5X*X*XoXXX%X.X.X%X%X%X_.).).).).). X X.X.XtX).b ;X5X%X%X%X&X%X%X%X%X X%X.X%X%X%X X).).)./.).).).!.E.E.!.x.*.+X). XXX.X%X*X*X5X.XoX.XoX5XoX*X*X6X%X%X%X).T.E.E.E.E.R.).!.I @.h.h.V.j.h.T.*X,.c 9 r.~.W.)./. X*X/.<..X%X).{.V.V.A.T./. X%X-X6X;X6X6XrXwX%X$XT.a.I _.7X-X*XwX*XoX.X.X}.(..X.X.X%X_.)..X)._.(..X.X*X%X.X.XoX4XoX*X;X.X}.{..XoXoX*XrX' x..X%X%X*X7X7X7X6X*X*XoX*XoXoX.X%X.X%X%X X X{.!.A.C.N.S.C.E.}. X.XXX,XAXi.$.wXXX*XwX%XoX*X>X,XwXXX,XoXXXXX*X%X.X%X.XoX*X,X>X%X<X=X=X].].T.k 5.=X$X&X&X%X%X.X%X.X%X.X{..X.X*X6X6X7X*X5X.X6X;X*XoX.X%X6X6X7X8XtXCXxX> > L oXlXuX.X6XjXeXvXjX7XrXrX*X*XXXXXXXXXoX%X.XXX X.XrXXXV.;X-X@X*.! , h -X<XrXtXjXuXyXjXtX*X*XXX}./.E././.T.`./. X XA.(.{.}.oX.XoXoXCXC.8 T.E.E.E.C.u.h.j.C.T./..X/.T./.5X6XrXtXcXBX,X).;.M w.&X&X&X' 5 T.>X*X*X*X*X*X*X*XR.{. X*X%X&X;XwX;X.X%X&X%XXX X X!.R.!.E.E./.!.hXc.0.E.$XT.N L T.7XW.!.!.T.Y.A.E.T./.).).).)./.T.W.R.).!.).%X&X-XdXBXBXk.",
".X.X.X.X5X6X*X*X%X.X.X.X.X5XoX.X.X X).$X&X&X!.#.Y.;X;X*X*X<X6X*X;X%X%X%X*XoX5X6X*X6XoX%X%X%X%X%X%X).).)._. X.X X%XjXE.b %X%X%X%X%X%X%X%X%X_.%X X).). X%X%X).).).(.T./.).!.E.Q.$Xx.q.T.).$X.X*X*X6X*X*X%X5X.X*X*X*X*X*X6X7X%X.X).).).$X)./.E.T./.q.4.h.a.h.h.h.!.hXp.J t 0.W.)././..X.X.X(.oX%XOXOX/.A.E././.).5X5X6X7X6X6XrX*XXX XZ.a.' /.7X6X,XwX5X.X.X.X{. X.X.X.X)..X.X).^.T. X5X5X6X5X.X}.4XoX6X*X6X5XoXg.g.OXoX*X-X! !.;X.X*X5X6XwXrX6XoXoXoX4XoX.XXXOX{. X.X X/.E.C.C.C.j.B.d.B.N.C.E..X&XSXa.N 7X$X&X*XXX%X,X6X6X,X*X6XoX,XoXXX$X%X%XoX*X*X,X*X&X-X&X&X&X XE.I u.&X$X%X.X%X.X X%X%X.X X.X%X.X5X6X6X%XwX6X;X*X6X6X6XoX5X6X6X8X8XiXFXrX> > b E.uXyXlXjXjX7XtXlXrX6XrX6X*XoX*XoX*X*X%XoX X.X%X6XrX%X-X-X$XR.e.& v -X*XrXrXeXuXjXeXeXwX5XoXOX{./.E.E.!./. X X{.^./././.}.|.4XoXCX/.* T.]. X{./.C.V.h.C.C./.).T./..X*X6X8XtXuXtXeX5X(.6.i.&X-XrXY 7 E.&X&X1X%X*XwX*X*X5X X.X*X*X*X*X5X6X%XoX*X%XoX X!.E.E.).).E. XXXjXw.a.].XX;X<.R !.BX$XT.T.!.R.E.E.!.E.).).).E.T.!.!.!.). X X%X%X*X<XlXVX5X",
" X).%X.X*X*X5X*XoX%X%X.X%X%X.XOX.X X%X X%X$XQ.X.h.%X X*X;X6X;X*X-XrXrX;X*XoX%X*X*X*X.X%X%X%X$X$X$X X%X). X)._..X*XlXT.N ,.C.%X%XXX.X$X.X).$X.X)..X%X).%X%X).)./.).!.T.E.).).!. XY.#.W.).XX%XoX.XoXoX.X.X%X%X%X.X6X6X*X*X6X5X%X)..X$X X X X)./.E.T.V.Y.V.V.C.Y.&XhXt.U c W.!.E.].). X.X/.|.XX4X%X).).^././.(.}..X*X5X8XwX7X7X;X.X!.C.u._ E.*X*X6X6X6X)././. X}.XXXX.X.X.XOX/..X.X.X5X5X.X%X.X}..X.XoX4X6XoXwXOXE.OX%XoX$XL !.tX8XwX3XwXeXeXwXqX3X3XoXoX3X3XXXXX|..XOX/./.E.E./.A.C.B.j.f.C.C./.%XjXT.i  X&XXX-X-X*X;X6X6X;XwX*X;X6X X{.oX%X5X5X6X,X,X1X*X;X<X-XrX7X%X#.i.$X$X$XXX X%X%X X.X.X*X%X%X%X;X*X6X.X6X5X5X5X7X6XwXwX6XwX6X6X8XeXKX4X= < k E.yXjXuXpXuXuXtXtXtXrXrX6X6X*X6XoX5X%X.X7X%X.X.X%X6XrX7X-X).].r.X ! rX,X*XrXeXtXtX8XrXwX4X.X.X{.{./.{././.{.}.{./.(.D.A.(.{.}.>XZXrXX t. XE.V./.C.g.C./.^.)./.T./.XX%X8XrXeXeXtXtXrXrXuX7X<XrXjXm 8 ].&X>X*XrXwX6XwX5X.X XOX6X*X,X6X6X*X*X-X*X*X*X.XR.E.E.E.E.E. X;XjXi.Q. X).E.C.$XzXDXgXQ.E.T.Y.C.!.!.!.!.E.E.!.!.!.T.!.).). XXX%X6X*XyXGX).",
" X(..X.XoX*XoX%XoX*X.X5X.X.X.X.X{.{.).XXXX&X].=.i.+X+X;X6X6X6X*X%X-XrX7X%X.X%X%X.X.X.X%X%X.X$X%X%X).%X X).). X$X*XlXi.| ;.t.).).%X).%X X).).). X%X). X%X X). XC.h.%X`.!.!.!.!.$Xh.H T.)._.%X*X*X;X5X%X%X%X%X%X%X5XoX*X6X6X;X).OX%X%XXX)./. X!.R.T.V.V.V.Y.Y./.-X=X#.a c W.T.Y. X).%X X.X.XoX.X.X.X/./._.(.(.}..X6X3XwX6XrXwX&X).R.g.6._ C.7X6X6X6X6X.XD././. X.X.X X.X.X.X.X.X%X.X%X5X.X5XoX.X.X|.|.4X*XoX*X4XoX.X$X+X).Y !.7X6XwX3XeXeXwXeXqX3XwX0XoX0X0XXX0XoX.X}.A.D./.)./.A.C.C.g.N.h.A./..XcXtX' V.;X$X%X-X*X*X5X*X%X%XXX.X%X)./..X.X5X5X6XwX6X,X*X*XwXrX<XrX;Xi.i. X X X%X%X%X/.)..X.X*X*X%X5X6X*X6XrX7X;X7X6X6X8XwXwXrX8X5X6XwXtXPX6X- 5 l Z.iXyXjXuXjXjXyXcXtXtXrX6X6X6X*XoX%X.X_.8X6XoX.X6X7XrX7X7X*X XY.. / ,X*XwXwXtXiXtXwX8X6X6X.X.X.X(.^.D.D.!./. XOX/./.{.(.D./.XX*XNXSX$ q.6Xt.%.C.A.C.C.)./.)./././.{.%X6XwXtXtXrXjXrX7X6X*XrX6X<.; q {.*XoXXX,X<XwXwX5XoXOX6X6X*XwX7X5X*X6X*XoXXXoX.XXX!. X). X X X*XlXc.Q.$X!.T.a.).MXmXhX).T.R.C.E.A.E.E.E.).Q.E.!.E.E.!.!.!.).$X$X5X*XlXAXR.",
"}.}..XOXoX4X*XoX%X5XoX.X5X*X.X6.6.E. X.X X X].#.t.)..X*X*X;X;X*XoX%X7X6X6X%X%X.X.X.X.X%X%X%X.X%X%X%X).)._.)..X.X*XlX4._ 5X).T.).+X%X_.).).).).)..X).$X.X X X.X!.:.T.+X).!. X].1X!.S x.W.).%X;X%X%X5X%X$X5X.X*X%X*X*X5X*X%X7X%X.X%X%X%X).!.!. X!.T.T.C.T.h.:.:.).dXq.c B h.h.g.W. X.X.X.X.X*X*X.X.X}.{.{.{.}.|.3XoXwX6X6X<X;XXX XV.g.r.#.k..X*X6XoX6X.XD.D. X.X.X%X.X)..X(./..X.X.X%X%XOX}.oXXX4X5XoX4XoXoX.X.X*X*X$X X!.r..X*X6X6X3X6XeX0XwXwX3X8X0X,X*XoX6XoXoX3XXX{././.)./.A.A.N.N.j.C.A.(.}.uXtXV ] ;X$X X%X%X5X;X*X*X*XoX.X.X/.(.}..X|..XoX*X*X6X5X*X*X*XrX*X1XZ.V. X X$X%X%X.Xh.(..X*X*X.X%X5X3X*X6X6X7X6XrXrXrXrXeX6XwXwXwX8X6XtXZXoX2 2 f Z.yXyXeXuXuXpXuXuXtXtXrX8X*XoX6X*X4X.X_.%X5X*X%X6XwXrXrXrX;X%XE., *.rX,XwXrXjXuXtXtXeX8X6X6X5X.X_.(.D.{.{.{. X X X.X/.}./.(.}.oXcXAX$ #.&X X!. X!.Z.V.)././././._.OX4X6XwXeXwXeXrXgX7X;X.XeX7X/.r w XX>X,XoX*X6XrXwX*XoX.XoXwX6X7XrX6X6XwX6X3XoXXX{. X.X'./. X{..X*XBXT.E. XT.j.h.W.-XMXlX&X)./.A.A.Z.E.E.!.E.T.E.E.).!.E./. X$X$X&X;X;XrXLXr.",
"}.}..X.X.X%X5XoXoX%X5X*X*X6X6X| Z C._.W. X$X X$.c.).%X%X6XoX%X%X.X*X;X5X;X.X%X X.X.X.XOX%X). X%X X). X X.X/./..XwXmXR 0 `..X)..X.X).T.u.Y.T.^.(.).+X_.+X X X XoXh.E.).+X).).].<XY.F T.Y.).+X5X%X.X%X_.%X%X%X%X%X*X5XoX.X;X5X;X5X%X;X%X.X X X X!.Y.i.j. XE.:.` t.jXq.D P T.T.T./.)..X.X.X.X*X*X%X.X.X/.{.}..X}.5X6X8XwX8X6X&XXX/.h.i.5._ h..X%X6X*X6X}.A.C.)..X.X.X.X.X%X.X_..X)._.5X*X.XoX.X.X.XoX*X%X*X.XoX*X%X%X.X/.h.h.).OX5X6X6X8X7X6XwX3X6XoX3XoXXXoX*XoXoX.X.X(././.T./.T.T.C.f.u.A.!.). XwX*XI B /. XXX$X%X%X.XoXoXoXoX|.}.}.}..X.XoX3X.XXX3X6XoX6X*X*X,X-XrXY.y.=Xh.E.*X.X6X.X_.oX*X%X.X%X6X*X6X6XoX%X7XwX7X8XwXeXwXwXtXeX7X6XrXCXrX8 ; n '.iXrXtXpXtXuXuXtXtXtXtX6X6X6XoXOX.X.XOX.X5X*X*X5XwX*X7XrX*X%XC.. 5.wXwXwXtXuXuXtXtXlXtX7X8X*X.X(.A.C./.{.{.{.{.{./.{.(./.{.{.XXpXLX: L >XXX*X$XT.V.V.E.E.).E.(.)..X6X6XwXrX8XrX8XeXjX*XC.6XrXGX,.l *X&X,XwXrXrXwX6X6X5XoXwX6X8X6X6XwX3XoX6XwX6XoX/.{. X{..X).}..X*XvXT.W. XE.C.Y.T.&XkXzX7X%X/.C.A.E.E./.E.E.E.E.!.T./.E.E.!. X$X.X.XoXrXAXi.",
"/..X.X5X.X%X*X5X5X.X.X6X6X,X*XD.j.^.%X$X$X&X XX.T.+X$X%X;X%X%X%X6X;X*X6X%X;X%X%X%X%X;X.X%X%X.X X+X.X$X).)././.oXXXlXc l _.%X.X X).$XY.Y f.h.' i.T.).).).). X).'.E.W.).).). X$X<X$.l j.T.T.).%X_._.). X+X.X.X.X%X.X*X%X*X6X*X6X7X6X6X.X$X$X X XE.T.g.V.E.XXh.;.t.lXr.i @.!.T.T.E. X X X%XoX5X.X.X.X_..X/.(.}.}.5X7X6X8X7X7X.X).T.Y.h.t._ g..X.X*X4X*X.XC.C._..X.X.X.X%X.X)..X.X.X).}..X.X%XoX*X*X6XoX%X%X%X%X.X5XOX X/.T.h.)..X*X6XrXtXeXeXwXwXwX6X6X,XwX*X5X%X5X*X%X/.E.(.T.C.T.5XOXu.u. X X X XrX7Xh.P V.!.E. X%X.XOXoX%X*XoX.X.X.X.X.X*XoX4X3X.X.X4XwX*XrX,X*X<XlX-Xb.;X).).%X%X.X*X5X*X*X*X;X-X6X7XrX8X6X7X6X6XeXrX6X8XwXtXtX8XeXeXwXCX6Xr 5 V ].,XrXeX8XtXtXeXtXyXuXwXwX6X3XoX{.}..X.X(.oXoXOX*X,XwXwXrX6XlXh.. Y.rXrXyXeXuXtXtXtXjXtXrX6XoX.X.X}.A.D.{.{..XOX/./.}.}..X/.{.oXiXCX, t XXE.*X:.$ i c.E.!. XE.!.).%X6X8X7XeXeXwXwXwXrXwXXX6XwXBX1.V oX<X<XrXrXrXrXwX*X*X5X6XwXwX0XoXwX6XwX6XoXoXoX{..X!.E.'.{.{./.oXnX!.!.XX).Y.A.R..X*XrXSXSX%X/.T.E.!.!./.!././.!.E.E.!.+X X.X%X.XXX;XhXAXY.",
"/. X.X%X%X%X.X.XOX%X%X6X5X6X%X/./.(. X%X&X&X$XX.Y.;X;XoX%X&X%XoX5X4X*X7X6X;X%X%X5X%X%X.X.X X%X.X). X_.).).)._._.*XrXi #..X_.).+X).)..XR.C.T._ <.T./.].!.!././.!.E.T.E.!.). X&X XN 7 x.;XR.t.<.T.%X). X).)..X%X%X.X%X%X6X;X6X7X7X;X%X*X.X%X$X X).#.o.j.h.E.Q.E.$XkXi.t e.!.T.E./.).).%X.X.X%X.X%X.X_..X_._.(.OX5X6XwX6XwX*X.XT.T.t.-.:.I k.%X.X$X.X%X.Xk.C..X.X.X4X.XOX.X.X_..XOX}.(..X.X5X5X%X%X*X.XoXXX.X.X*X*XXX X XV.a.%X%X-X*XrXjXtXtXtXrXrX-X6XwX*X7X;X6X6X;XoX.X)./.T.C.C.).$XW.E.&X$X X XrXjXC.) k.!.E.].-X XXX.X*X%X;X5X.X.X%X$X.X%XoX.X.X5X6X*X6X*X*XrX-XlX&X5..X.X X X;X.X.X.X5X*X6X6X6X-X7XrX,X6X6X7X7X8XrXwXeX7XrX7XtX8XeXeXZX7X< 5 L %X,X,XwXeXeXtXiXtXiXtXtXwXwX6X6X.X.X.X.X}..X.XOX4XwXrX-XrXrXjX.X7 ).7X7XrXeXtXtXtXuXuXtXrX7X6X.X6XrX%X/. X)..X.X X/..X{. X.X).(.8XjX< c }.A.*X!.R #.W.E.!.!.E.T./..X7XrXrXtX7X8X6XwX8XwXtXrXrXVX] l ).7XrXwXiXrX6XwX5X*X6X6X0X3XwXwXwX3XoX3X5X.X X X{././. X(.(.A.XXNX/.g.N.u.V.C.!. X.X7XjXAXjX.XT.^.!.!.!.!.E.R./.!.E.).$X.X).%X.X_.%X7XVX!.",
"A. X%X_._..X4X5X.XoX5X*XwX*X$XXX/./.).XXXX&X].R +X%X$X%X%X*X%X%X.X;X*X%X8X%X%X%X*X*X%X%X%X%X.X). X_.).T.)..X_.OX6XrXw t.5X.X$X%X_.).%X!.T.)./.h.j.A.R.E.R./.). X!.E.E.!.).XX<X].F y c.-X Xr.] ;.v.).$X X%X).).%X_.%X_.%X%X5X7X6X5X%X*X5X X X X].f l u.h.).).E. XhXY.l ,.C.V.8.E./..X.X.X.X X.X.X_..X.X(..X.X4X6X6X3X3X6X%X/.E.E.i.#.-.I i._.%X.X%X%XC._ <.(..X}..X.X5X5X.X.X4X_./.}..X_./._..X.X5X.X%X.X X)..X.X&X%X!.V.n. XoX;X,XrXjXjXtXuXtXrXrXrX6X8X7X6X*X*X5X%X.X_.)./.T.h.k.C./.).%X$X&X X7XjX^.' ,. XY.!. X$X X X.X.XOX%X.X.XOX.X%X.X.X.X/.OX*X*XwXwXwXwXrXvX/.@.;X+X XXX;X.XOXoXoXoX%X7X6X-X7XrXrX7X6X4X8X6XrX6X8X7XtXtXeXuXtXtXZX8X* 0 z  X.X*X6X6XrXtXrXtXyXlXtXwX3X6X*X5X.X.X.X.X_.%X.X*X,XrX,X<XrX7XtXw ).jXrXrX7XbXjXeX7X7X8X6X8X;X.X*X6X.X X.X X_._./..X(.(.).)./.C.6XFX5 l A.Z.!.-X%X].E.).XX X XT./..X8XtXrXeXeX7X6X8X6XwXrXwXrXZX;.P _.wXrXwXyXrXrXwXoXoX*X3X3X6XwX6X6X6X6XoXoX.X.X{..X.X.X{.).|.oXwXZXk...[ Z ,.C.g.E..X7XrXjXvX_.).^.E././.!.E.A.E.E.!.).).%X.X.X.X.X5XwXBX X",
"). X X.X.X}.XX}..X.X%X*X*X%X*X XE.)..XXX XXXp.L $X+X$X%X%X%X*X.X%X5X*X.X;X5X*X%X%X*X6X%X%X).)._. X).+X).%X).).%X8X&Xt j..X XXX.X).+X X).!.'.E.C.A.T.E.E././.{.!.). X'.{. X X,X1XL 2 h.gX&Xy._ Y <. XXX%X%X)..X%X X)..X%X*X%X5X;X%X5X.XoX X).!.).C.h.a.Y.).!.].&XlXE.l a.E.i._ N./..X.X_..X.X.X.X.X.X4X_.|..X4X3XwX6X8X*X X].XX XE.7.@.P t.%X$X$X%X Xk.V _ ^..X.XOX.X.X}..X.X.X{..X.X.X.X{..X.X5X5X%X5X.X).)..XXX X%X.Xh.a. X%X6X7XrXrXjXlXtXjXjXrXeXrX7X8X6XoX;X%X5X+X%X)./.T.g.g.k.T._.%X%X$X).-X6XT.;.#.).R.E.{. X). X X.X.X.X.X.X.X*X.X.X.X}.{.}.oX5X6X8X6X6XrXvXrX:.%X.XXXXX.X4XoX5XoX*X;X6XrX6X*XrXrX7X6X8XrX*X*XeXtX7XtXtXtXtXtXtXcX Xf w z $XXX*X6X4X6XwXtXjXtXtXtXwX6X6XoX6X6XoX.X(.(.OX.X5X*X*X*X<XrXuXjXN .XtXtXtXeXtXuXtX7XeXrX6XwX6X6X%X.X%X.X X X.X).)..X(././.(.}.D.wXPXl b {.N.Z.).E.T. X).%X7X%XT.A.{.6XrX8XrXtX8X6X6X3XwXwXwXrXBX#.Z 8X-X<XwXrXeXeX8X*X6X6XwX6XwX6X6X6X*XoX%XoX.X{.{.{..X X{.OX.X5XrXBXC.1.] V ,.u.} 4..X*X-XjXgX)._.T././././././././.).).!.$X%X.X.X.X;X8XVX X",
" X).). X)..X.XOXoXXX%X.X*X,XXX XW.^.$X X XXX5.' $X`..X%X%X).%X%X%X%X%X.X*X6X*X*X%X5X%X;X%X). X).).%X%X.X_._.T.).rX%Xk +X%X.X&X X)._.$X X X X).T./.E.E./.{.{././.E.!.)./. X&XdX-XX.a *.;X1XR.#.T h.%X X X$X$X).).).).)..X.X5X;X%X%X%X.XXX).).!.).XX X).). X XXX%XxXE.l k.T.W.h.T./..X.X_. X.X.X4X.X.X.X.X.XoX4X6X6X5X.XoX.X{.!.E.n.7.#.I f.&X X X X).).t.A.OX.X.X.X.X.X.X.X.X.X%X.X.X.X%X.X.X.X.X.XoX.X.X^./..X.X!.%X.Xh.6.)..X;X7X7X7XtXjXtXtXuXuXtXeX7XwX3X6X6X;X%X.X.X).!.R.C.h.h.T.).%X%X.X XrXrXc.t.` !.T.E.!.).).). X.X X X). X.X%X.X.X.X{.}.oX6X*X*X6X6XwXwXxXvXT.).%X X.X%XoX*X.XXXoX%X5X6X*X*X*X6X7X7X7X8X5X6XrXtX8XrXuX8XtXtXBXNX/.V.V l &X-X*X8X6X8XrXtXtXeXtXwX6X5X.XoXwX4X3X.X.X/._..X*X6X*X*XwX*X7X7X_ ;XrXrXtXeXuXtXuXuXtXeXrXrX7X6X6X*XoX.X.X.X.X.X.X.X).E./.(..Xj.{.BXf I *X| ,.)./.Y.).$X$X;X8X6XR.{.6XtX7XtX8X6X6X5XwX6X>X<XwXZX| z .XrXrXuXlXrXtXwXwXwX0X6XwX7XwX6XrX6X5X*XoX XOX.X.X.X}..X.XoX4XwXBXT._.i.%.A.{.:.5.E..X;X7X;X7X%X/././././././.T.).).).).). X X X).%XrXBX).",
"{. X X X X X/..X.X X.XoXoXXX&X X/.`.$X XXX&X' X.+XW.$X).*X*X%X;X*X;X;X;X-X7X%X%X*X%X%X%X%X%X%X).%X$X%X_._.%X%X$XkXQ.l 7X.X%X.X*X%X.X.X_.%X$X).).(./.).)./.).).)././.).). X&XzXr.F F O.).$X$X!.!. X$X%X.X).+X+X).+X X X.X.X.X;X%X%XoX.X%Xg.h./.).!.].]. X X X$X&XnX!.Y E.T.T.E.Z.T.)./..X{..X}..X.X.X.X.X.XoX5X6X6X*X*XoX.X/.Q.E.u.r.#.N u.;X XXX).u./..X/..XoXoXoX.X.X.XoXXX.XoX.X XOX.XOX.X.XoX.X.X.X{.D.A./..X7X%X X).i.).)..X%X6XwXtXtXyXuXpXuXtX8XeXrXwX*X*X-X*X;X_.).`.C.V.N.N.A./.%X.XT.$X7X-X`.8XY t.V.Y.E.!.]. X).).)././.(.{.}..X}..X.X}.OX5XoXoX6X3X6XwXrXjX.X).$X X$X.X.X%X.X.XOX.X%X6X6X*X6X;X7X7X7X*X5X7XrX8X7XeXtXeXrXeXBXLXE.B c c <X-X*X6X6X6XwXtXeX7XrX8XoXoXOXoXwX6XoXOX.X).).j.(..X*XoX3X6XlX).| rX7XtXtXtXyXtXjXtXtXtX8XrX7X7X7X8X6X.X.XoX4X.X_..X X{. X.X6X7.C.8Xw :.XXV.V.).).C.h..X X XrX5XN /.7X7X8XrXtX7X5X6X6X*XXXwXwXVX,.m *XrXjXjXjXtXuXeX8XrXrXwXrXeXrX8XwX6X;XwX%X%X%X.X.XOX.X.X%XoX6XiXAXi.*X&X X{.!. XV.E.'.XX;X;X;X6X X!.).E.).T.T.T.E.!. X$X). X/./.).OX7XbX/.",
" X!.{. X.XXXXX_..X.X.X%XXXXXXX].]. X X].&X#Xa O.%X). X X.X%X%X*X%X&XoX%X%X*X&X&X%X%X%X%X X_.).$X+X).).).%X;X%X%XhXW.F 6X%X*X*X*X;X*X%X X)..X).)./.).).T. X!.).!.).E.T.T.).-XrXL M a O.`.!.!.$X X X).). X%X). X+X).).). X.X*X5X%X.X.X X%X:.' ).).!.]. X). X). X-XmXp.k  XT.T.R.'.!. X.X.X.X.X3X.X.X.XOXoX5X4X6X6X6X6X*X6X*X X).E.p.5.@.C h.%X.XXX$X X.X).(..X*X.X.X.X X.XoX%XXX.X.X.X.X.X.X.X.X5XoX.X.X(././.{.k./.*X*X&XV.)..X.X.X*X6XwXtXuXjXuXpXlXtX7X8XwX6X-X*X6X*XOX X/.T.V.N.C.A.{.%X).g.).7XzX$X$X#.%.Y.h.E./. X). X).).)./.D.A.(..X.X.X_..X.X4X*X*X4X*X6X6X6XrX;X).$XXX$X%X.X X.X.X.X.X5X6X;X5X*X*X6XgX8X%X6XtX8X7X7XrXwXrXrX7XrXSX!.N l t =X-X%X6X8X7X7XrXrX6X8X6X{.)..XoX8X6XoX.X.X.X_.e B .X XXX>XwXNX$Xr.6X6XtXuXtXtXtXpXtXtX7X4X4X5X7X8X5X*X.X%X.X.X.X.X(./..X{.oX3X.X8X%X5 :.!.E.).!. X/.Y.T.)._.5Xq.* f.rXwXrX7XeX7X6X6X6X5XwX*X6XNX;.e *XyXyXtX8XrXyXeXtXeXeXrXrX7X8X8X7X6XoXoX*X%X%X5X.X_..X.X.X6XwXiXAXh.XX$X X X).!.E.E..X X&X7X7X%X X).).)././.T.E.!.E.!.).).)././.).).uXvXW.",
"E.E.).!.). X X(.)..X%X X X X X X X].].@X=X:Xx *.%X).].$X$X$XXX%X%X%X%X%X&X&X;X%X%X%X%X%X).).%X%X%X).).).%X*X&X;XkXa.U 8X5X%X;X%X$X;X X%X+X).).).).).).!. X!. X].!./.T.T.).jX Xl G a O.`.W.!.!.+X X!.!.R.!.E.E.W./.T./..X_..X%X_.).).).$X!.C.).T.C.R.E.!./.). X%XlXs.n +XE.E.E.Z.E.{.XX/.{..X.X.X{.OXXX4X6X;X6X*XwX6X5X*X.X.X XT.n.r.,.C f.XXXX.XOX X_..X_.}.5X.XoX.XOX.XOX.X.X.X.X.X_.{..X.X.XOX.X.X%X)./.5XtXB.A.%X*X-XV.T.)././..X;X8XtXjXjXlXjXuXjXuX7X7X7X-XwX;X.X X)./.T.C.V.V.C.E. X%X X;X7XzXt.f.:.*.T.n.V.!.).).)._.)._..X(.S.D..X.X.X.XOX.X4XXXoXoX*X5XwX,XnX<X).%X%X%X%XXX.X)..X)..X5X6X6X6X6X5X6X5X7X6XtX6X%XeXeXrXrXtXrXwXrXVX!.@.N i  X%X*X*X6X6XrXrX7XrXrX8X(./.OX4X6XwX*X&X.X.X6X.._  XXX|.oX,XBX*XV.*X6XtXiXtXeXeXtXeXeXeX5X.X4X6X6X.X.X.X.X.X.X}..X(./..X.X}.XX|.tX).: i.].!.].].XX.X X).^.).).XXY.$XrX,X6XrXrX5X5X*XwX*X*X*XrXbX] r  XrXrXjXtXtXtXtXtXwX8XeXrXwX8X6X6X6X6X.X.X.X.X.X.X_.)..X4X3XwXtXAXT.=X$X X!. X!.).).).). X;XhX7X X.X/.T.T.T.T.).E.E.E.).T.a.T././..XlXrXC.",
"E.T.!.!.E./.E.!./.). X!.!.!.!.].!.].].!.~.a.D #.+X).].!.$X X X X&X.X&X X X%X%X$X_.+X+X).).$X).%X$X.X).%X.X%X*X*XzXa.G %X%X%XXX%X.X X). X XT.). X$X). X). X!. X].E.).(.(./.tX&Xt.w.p H c.W.!. X!.]. X X X).).!.).E.T././.)..X.X%X).).). X).!.)./.T.T.E.`.T.).). XxXr.x $XE.R.A.E.E.{. X)..X.X.X.X.X.X.X.X*XwX*X5XoX5XoX%X%X%X).T.u.5.r.V g.%XXX%X.X.X.X{.}..XoX*X.X.X*XoX.XOX3X.X4X.X.X/..X.X%X.XOX.X.X.X{.OXoXD.E.XXXX%XY.T.)././..X.X7X7XtXjXtXlXtXjXjXeXtX7X*X*X;X.X.X X/.E.C.C.C.C.R.).$XXX&XtXSX).v.#.I C.n.V.C.^.A.E.)./././.}.}.(.}./.5X.X.X*X*X*X5X*X.X6X5X*XlX7XR.W.^./.!./.E.(.).(._.6X6X;X%X.X*XoX%X%X7X7X7X4XeXtXrXwXrXrX6XrXcX!.#.X.8 ).&X*X6X*X*X6X.XoX8X.Xg.T._. XoX*X*X*X.X.X.X8X6.| C..XoXXX3XmX,Xt..X*X6XtXtXrXrXrXeXwX6X4X4X*XwX3Xd.^.}..XoX.X.X/. X{. XOX X}..XeXr.6 +XE.!.]. X.X$X X.X X.X_..X6X-X7X*X*XrXrX*X6X8XwX*X*X6XrXNX#.5 ].rXkXeXtXyXtXtX8X8XrXrXwXrXwXwX6X6X6X5X.X.X.X.X.X%X.XOX3X6X6XwXVXV.%X X X X X].).!.).).).%X-XrX&X%X).T.T.r.T.).E.R./..XT.i.T.E./.&XvX XE.",
"V.!.T.E.!.).!.'.R.R.C.Y.Q.'.E.!.E.E.j.;.F.4X9.B ;.T.%X;X$X X!. X X X$X.X%X_.).$XY.C.T.E.!.). X X). X).$X_.+X%X=XMX=.N %X%XE.$X;X%X&X&X X X!.!.]. X$X]. X X X X].)./.C.C.h..X).i.t.B M G :.!.!.].$X].$X X+X).!. X].).)./.).%X%X). X!. X X!.E.!.).).T.T.E.).).%X%X1Xq.b $XR.E.E.T.E./././..X.XoX.X.X.X_..X5X*X%X.X{..X%X*X%X.X).E.V.5.5.k V.*X.X%XXX.XOX.X*X).)..X.X%X%X.X.XoX.X.X.X(..X/..X.X.X%X%X_..X_././.A.C.C././.).T.T.)./.!./.)..X%XeXlXyXrXyXjXjXrXtX7X%X.X.XoXXX X!.E.T.C.C.C.T.{.}.XXXXrXVXq.5Xh.N t.V.u.b.C.V.V.C.T.V.A.C. X/./.{.{./..X.X.X.X.X.X_..X.X*XhX7XT.$X/././. XT.T.T.T./.).%X X)..X/.^.(./..X*XwX8X8XwX7X%X%XrX-X-XrX XN ) l R.XX&X*X*X6X.X6.g.eX(.;.C.C.T./..X.X X).).{..XC.g.A.{..X.X3XVXrXu..X X4XwXrX8X8XrX8X8X6X).%X5XuX7XF.^.)..X X{. X X X{..X.X.X%X%X5XP U ;X!.'.).%X+X.XXX%X*X.X.X%X*X*XwX*X*X6X6X*X6XrX8X6X*XrXrXBXk.p E.$XrXeXrXrXeX8X6XeXuXeXtXeX7X6X6X7X6X%X.X.X.X.X.X%X.X5XoX3XrXuXFXu.T.!.).!. X!.!.!.!./. X X%X*X*X%X).!.^.).).E.!.R.T.)..X/.E.{. X%XVXT.).",
"*.p.a.a.h.i.u.i.u.6.,.y.5.u.r.t.i.a.Z V [ d.4X..N G q.x.h.Y.Y.Y.T.!.E.T.).).%XrX!.t.x.E.T.!.;X&XW.!.$X7X%X+X7X-XDX*.` %X_. X&X.X%X%X%X!.!.R.E. X$X XE. X$X].).).*X;XT.h.T.R.%XT.h.I N c p t.+X!.!.@X].:X!.Q.T.T./.T.T.T.`.).).).Q.E.!.!.!.E.!.!.!.Y.V.V.T.)..X;XnXe.n  XV.V.T.T.C.^.)..X/. X.X%XOX.X(.^.5X5X/.N./..X5X*X%X.X X!.n.y.r.w h.;X%X%X.XoX.XOXOX.X)..XXXoX.X.X.X.XoX.X.X)..X(./.).)..X.X)./.{.{././.C.T././.*XT.i././.E.T././..XrXrXtXtXrXtXtXrX7X6X5X*X5X%X.X{.E.E.T.V.V.C.E. X{.}.oXjXAX` i.T.] #.Y.u.u.V.V.V.C.T.A.E./.}.)._./.}.{._..X.X)..X.X X X*X;X-X-Xx.;X%X+XXXoX.X.XOX_..X.X*X6XoX.X.X{..XOX.X%X6XrXrX7X7XtX7XjXrX*XjXlX#.l f ].XX X%XoXoX6X X.XrX8X.X.X X{.C.F..X).{./.!./.N.C.!. X/..X6XZX7X6.).(..XwXtX6X7XrXrX7X6X_.%X%X6X%X/./..X.X X.X.X.X/./.{.!.!.). X%Xb T  XQ.!.).).%X.XoX*X*XoX*X.XoX%XwX*XXX*X6XoX5X6X5X6XwX7XrXVX<.0 E.1X7XeXtXrXrX8X7X.X6XtXtXrX6X6X6X6X%X.X.X.X.X X.X.X%X.XoX>XeXaXFX6.).!.!.!.).).).E.!.{. X XXX%X%X%X).).)..X).T.Q.E.T.^.x.T.A. XXX,XlX$X$X",
") ' o.` ' I I P Y ' } _ N P z P -.p.o.P { l.S.| m q a G p i N N M H G G ` Y O.N B x N Y Y Y ] Y G F H G H B ` Y ' v M O.f.j.j.j.T./.`.g.g.i.Y.). X].Y. X$X$X).).7XtX/.T.E.T.oXcXT.P Y c p q.c.!.!.@X@X@X].R.T.T.T.T.T.T.T.T.E.Q.T.R.Y.R.E.R.Q.Y.!.R.u.i.T.!.'. XKX2.k !.E.C.h.T.C.T.).). X X XXXoX.X^.i.).%X%X/.{.%X.X.X*X.X).E.n.p.a.8 h.%X-X&X$XXXoX.X.X.X). X.X.X%X.XOX.X).T..X%X).(.(.)..X.X%X X{..X!.!. XT.T./..X;Xh.-.V.C.E.E./.^._.5XwXrXrXrXeXrXrX6X6X6X*X.X.X X)./.E.C.T.C.A.E./.). X.XjXGXY t.T.,.#.Y.n.u.i.V.V.T.E.A.A././. X.X.X|..X_.4X.X)..X X.X%XoX&XrX-XT.$X%X%XXX%X%XXX X X_.*XwXwX*X.X.X.X.X5X5X*XrXrXrXrX7XtXrXjXrXrXlXbX] V k &X].XX*X*X*X%X%X8X*X{.{..XOX.Xg.g./.^./.T.C.B.V.C./.{./. X6XVX%Xo.)./. XXXtX7XrX7X6X;X%X.X%X%X%X%X_..X%X%X_..X/.).T././.V.).).%X).t r.].E.!.{..X.X.XoXoX*XoX4X5XoXoXwX,X6X6X*X6XoXoX5XrXrX7XjXbXu.q ].<X<XtXeXtXtX7XpXwX4XrX.X6XwXwX6X5X*X.X.X.X.X X/..X%X*X*X*XwXcXGXh.%X!. X!.).!.).).).).!. X). X&X$X).).%X).T.T.E.T./.).6.C./.].XXhXvX).).",
"E.Y.Y.Y.)./._././.E.Y.a.p.a.5.r.h.T.E./.(.4X5X X=.y.s.x.i.s.Y.x.x.x.Y.x.c.W.v.i.,.>.&.*.,.,.t.:.,.r.*.O.o.*.o.@.*.t.i.,.,.<.#.B #.) G ' ' ) ] o.] ' _ #.' <.w.<.k.h.i.g.h.T./..Xu._ U a a *.w.t.V.Y.~.!.a.t.i.i.k.h.j.t.t.j.x.h.h.p.Y.Y.Y.T.h.V.!.!.6.4.h.E.].XXDXy.k &XR.h.C.c.C.T.T.W.T.!. X X$X X.XC.E..X7XrX%X.X*X.X X/.!.!.V.n.a.8 C.*X&X%X.X/. X.X.X%X X%X.X)..X.X/. XC.u.).%X_./././.XX$X X{.E.!./.).)././.(.6X*Xt.' t.T.C.j.T.^.)..X;X6X7XrX7X*XwX6X6X*X%X.X_._.).!.E.A.V.V.C.A./. X.X.XjXAX@.l.k.k.#.t.n.y.y.u.C.T.A.R.T.R././. X_..X.X.X.X.X). X X X X.X%X7X7X).!.+X$X_.). X X).+X)..X.X*X.XOX X/.XXoX*X*X7X7XrXhX8X7X7XrXtXhXzXHX{ e z ].'.XX4X5X%XOX.X.X5X.X/.OX5X.XD.A././.T.C.C.f.g.C.E./.{.XX6XCX%X' _.!./..X6X6X8X.X)..X)._.)..X%X X).)._._.).).)./.E.!.).!.!.!.%Xo.8 ~.Q.R.R. X). XXX*XoXoX.X5X.X.XwX5XoX6X6X*X*XXX*X,XrXrXhX7XVX).q Z.-XrX7XtXtXtXtXtXwX6X8X.XoX6X6X6X*XoX.X.X_. X/./..XOXoX6XwX8XvXvXg.$XE.].$X$X!.E.!.!.!.).)./.!. X).!.).$X).h.h.T.T.T.).C.C./. XoXlXbX_.+X",
"XX].'.'.{.OXXXXX{.E.E.Q.'.n.u.u.i.u.N.V.C.A.,X<X].1X-X1X1X1X&X&X X&X&X%X*X<X,XwX<X&X&X&X X&X-X&X<X<X<X-XXX$X X X&X&X*X,XXXlX{.L 2.q.,.5.:.>.,.,.5.r.#.%.,.#.#.:.f.r.r.t.t.f.z.Y.Y.P.a.r.=.*.,.$.,.X.p c i.~.~.Y.~.R.Y.a.a.P.Y.t.i.t.k.q.s.t.t.@.*.X.F F Y :.-.q.E.F > 0.t.q.t.a.k.T.;X%XV.a.C.+X$X$X$X).T.E.;X7X*X$X;X.Xh.5.%.5.R.].E.w h.*X&X;X.X.X.X)..X XXX}./. X.XOX/.C.'.E.E.E.E.E.A.).*X%XE.g.u.T.E.E.!.E.E..XkXMXr.F V g.h.V.C.T.E.).%X5X6X8X6X-X;X$X%X&X X%X).).)./.T.Y.V.j.N.V.A.R./..XrXAX$.#.f.B M <.h.a.i.6.V.V.T.T.E.E.E.{.{. X.X X.X)._. X X]./.E.).XX;XOXR. X X)..X X.X).)./.E.). X X).!.T.!. X XoX%X;X6X*XrX6X;X7X7XrXxXxXGX..* P n.V.!.OX*X%X*X.XT.j.A.A.5XwX}.E.A./.A.B.g.f.6.u.j.A.T./.XX;XNX8X,.V.E.E.!. X%X/.6.,.g./.T.T. X X X). X!.$X$X+X).V.Q.!.!.). X^.k.c L !.Y.Y.Y.!./.)..XrXrX*XoXoX.X%X8XwX*X7X7X*X.X*X,XwXrXrXhXtXbXW.w a.&X,XrXtXrXtXuXuXuXrXtX6XoX4X*X5X.X X X/././././.OX.X.XoX6XwXAXtXh.%X].].!.).!.E.E.!.E.).).!.E.Q.].E.T.`.T.W.u.h.T.T.T.).).C.!.XXlXlX X%X",
"OX{.[. X[. X XXX].].{.'.Z.Z.b.p.b.u.C.N.B.C./.V. X&XXX&XXXXX&XXX X X XXX X.X.X X{. X X!.!.T.i.i.$X-X1X].].E.E.R.a.Z./.{.XXaX,X2.n.n.P.P.Y.Y.x.!.$X].Z.'.[.Y.T.). X]. X).!.!.!.:X].].Q.Q.!.V.Q.].!.T.x Y ;X$X X$X&X-X1X<X&X&X<X7XrX7X&X-XrX$X$XT.!.@X!.!.h.i.T.).].R.z.a.Y.r.q.! Y 6. X].p.5.:.k.`.).).Y.V.h.).5X6X;X).).E.P.n.u.Q.&Xa.b w.%X*X6X;X.X/.)./..X.X).T.T.^.h.f.g.V.V.u.g.g.6.u._..X%XrXa.6./.%X%X).].XX%XnXBX=.B l ;.h.T.T.h.C.E.).)..X%X;X5X.X X$XXX X).).).E.!.T.C.C.h.j.V.N.Z.^..XhXAX5.,.;.- B #.r.a.g.6.i.V.Y.R.T.T.R.R.E.!.!.{.)./.).).!.E.V.C./.).7XT.T.$X X%X$X$X-X$X.X X/. XXX%X.X$X%X$X+X$X;X.X.X%X;X&X*X6X;XhXrXrXhXGX_ $ I y.y.g./..X%XoX;X.XC.C.D.OXOX^.C.C.A.j.g.u.8.6.6.,.h.C.E./.5XaX6X<.:.Y.!./.)..XoXoXoXrXlXjX).).).%X;X$X$X=X;X-XW.T.).).).T.h.t.>.F X.n.m.V.V.T.T.^.XX-XrXrX*X*XoX.X*XrXrX-X6X%X.X%X;X-X<X*X7X7XbXvXG ,.-X*X7XrXyXtXtXyXuXtXrXwX3X6XoXOX/././.E./././. X.X.X.X.X6XwXGXtXg.XX XE.T.!./.!./.h.k.T.^.!.!.!.].!.!.).T.^.C.T.T.T.!.).%X).{.%XvXxX$X&X",
".X}. X{.{..X.X.X{.'.{.!.E.Z.b.b.u.N.N.B.C.R.T.a. X$X$XXX%X%XXX X X_..X/.XX X/.XXXX). X!.c.>.o.<.).6X&X X X].!.T.i.T.(.^.OXcX_.r.!.Y.R.E.R.Q.Y.Q.R.Q.E.]..X]. X X$X-X$X$X$X:X+X+X).!.R.R.E.Q.R.R.].E.6 x W.x.!.). X X].]. X'.E.{.oXXXXX&XXX X X!.&X1X&X$X!.R.$XrXkXlXyX<X-X@X$Xs.@.A. X'.n.u.:.#.q.t.<.6.,.5.h.Y.T.T.Y.Y.i.x.Y.R.Z.p.F 7 H T W F b 8 7 x 8 i i p ] t.t.o.' j.T.V.y.f.8.%.| ;.#.] a.!.'.5.L R X.] | ;.u.E.f.Z e ] h.V.C.V.C.C./.T.!.%X+X.X.X X X!.!.).).).E.T.T.V.g.f.u.8.f.j.C.(.-XBXC.u.l.Z o.X.*.i.y.y.u.V.V.E.Y.Y.E.C.Z.R.R.E.T.T.T.V.V.C.u.V.C.).rX&Xa.$X%X7X7XjXrX<XrXrXtXeXoXoXXX.XXX;X-X-XjXjX%X7XrXhX6X6XwXuXuXBXAXGXB.r | u.6.g.A./. X*XoX,XXX X{./..X.X/.R.E.C.N.i.y.8.| ;.r.u.V.!.5XwXk.l.o.#.X.X.#.k.6.C.C.V.t.-.r.5.-.t.q.,.q.W.z.Y.q.>.t.k.<.w.t.i.>.F @.V.V.R.V.h.C.OX8X.XrXrXrXlXlX;X*XrX*X6X%X*X7X;XoXrXrXhX7X5XrXVX[ 5.1X1X*X6XtXyXiXtXtXtXrX6XoX*XXX'./.C.V.C./.T./.).)..X.XoX*X6XGX%Xi.OXJ.{.Q.R.T.h.h.h.V.V.W.Y.!.!.!.E.R.T.T.T.T.T.T.E.E.]. X X X;XxX7X).%X",
"{.{.{.A.{.OX/./.!.E.R.A.Z.Z.b.n.b.N.N.j.N.A.%X!.). X.X&XoX%X.X%X.X X{.!. X/.u.E._..X).R.Y.T.)./.%X*X-X X].'.C.V.j./.C.C..XuXi.:.!.Q.Q.E.E.Q.E.R.E.R.'.XX&X%X&X&X-X-X$X$X$X+X:X+X)./.E.!.].'.!.!.].R.7 a c.W.W./.!.'.]. X X!.R.{..XXX*X*XXX.X{.R.{. X!.E.V.V.Z. X&X>X*X X X$X].=.2.<X*X].E.Z.V.b.h.y.i.i.i.Z.E.T.E.Y.x.Q.$XT.u.p.].E.a.a.,.e.$.@.X.U S F n i < i <.h.T./.T. X XXX.X*XOX{.{._..X/./.XX&X<XT.t.,.,.g.h.g.k.D.g.6.c R u.Z.(.E.T.W.E.).!.).).!.].E.Y.E.`.).).E.T.C.V.i.t.6.u.f.<.w.C.*XnXoXA.K.^.C.<.T #.r.a.i.a.Y.Y.V.V.C.Z.C.Z.V.V.C.T.T.t.i.g.g.y.i.V.).8X' G @.<.#.o.k.h.#.o.-.` F B H G ] _ #.r.,.' _ w.t.#.` ....| ;.) _ V ] 4 N #.| 8.g.g./.%XrXrX6X.X).C.j.k.C.A.E.V.t.| _ I ;.I ;.5.4.y.h.k.+.<.j.q.*.#.,.w.<.) t.^.h.C..X`.w.a.i.).!.Y.q.,.T.k.w.k.>.l.w.k.k.%.F L T T q.#.%.%.5.#.5.i.,.h.j.;.6.k.j.C.h.k.C.j.g.T.).%X+XT.).%Xm q.-X].1XrXrXtXrXyXtXtXeXeX8X/. X X{.C.j.V.T.T.E.).). X.X|.oX3XNX}.f.(.J.XXrX).T.h.i.V.Q.Y.V.Y.E.R.R.E.V.Y.C.x.Y.Y.R.R.Q.E.E.).XX7XvX$X).).",
"{.{.D./.{.{.}./.E.E.A.R.E.C.b.b.N.V.C.B.A.A.E.A.!. X X.XoXXXoX.X.X.X.X^.T./.C.).). X!.R.Y.T.).%X-X,XoXXX'.E.Z.g.h.T.^.T..XyXh.a. X].!.!.!.!.!.!.!.).).%X;X*X*X%X*XrX-X%X%XXX$X$X X).).XX X). X X&XQ.8 Y x.c.T.R.!.{. X). X{. X/.}..XOX*XoXXX).(./.).!.T.V.Z.R./. X.X X X%X XR.*.V. X{.[.'.Z.C.g.2.u.b.u.u.V.T.(.).A.T./.T.V.j.V.'.XX,XXX X>X<XwX,X,X>XXXXXyXQ $.y.i.V.C.Z.A.D.D./.{.{.'.E.{.}..X.X}. XrXBXrX!./.6X;X.X6X6X*XwXZ.b.'.b.} 5.t.5.t.t.i.W.W.).+Xx.,.t.t.f.k.g.t.i.y.4.%.#.%.>.1.u./.rX.Xd.j.9X_.F.^.i.,.O.:.,.q.r.r.a.V.5.6.u.h.i.:.<.w.h.,._ ,.4.%.u.:.r.T.g.} :.u.#.1.j.#.q p r D 0.*.*.*.q.' :.#.,.,.*.-.i.r.w.h.i.6.,.X.R H ' L C I I P I Z :.| B F M M M { M s p c c i 6 U %.%./._ #.:.} :.] 1.k.y.h.C.g.T.^.F._.A.4X(.k.k.v.w.H ' #.h./.E.u.k.`.%X.X%X)./.).XX$X%X].y.P.z.w.* k P.Q.E.$XgXr r M s M ) V ) +._ { B ` ) B o.O.' %.o.q @.a.$X<XrXrXtXtXrXjXjX8X7X.X).].XX%X!.i.C.E.Y.Y.E.Q.].!./.C.{.cX^.B ;.k.j.T.*.t.r.@.#.r.,.*.a.a.a.n.n.V.Y.Y.W.!.!.E.E.). X!.]. XrXSX).i.h.",
"{.(.{./././.(./.A.C.C.A.E.Z.N.N.C.C.A.A.Z.'.Z.u.).XXXX.XXX.XOX X X X%X).C.T.).XX XE.E.E.A./..X7X7X-X.XE.'.E.Z.b.V.V.(.D..XNX!.n. X).E.!.).).+XW./. X)..X;X6X;X,X*XwX,X*XoXXXXXoXOX.X.X.X.X.X%X X,X X5 ,.).V.Y.T.R.!.{.{.}.^.}.}.}.oX6X*X%X.X.X X!. X X).A.C.B./.}.).6.T.$X).V.t.;X.X{.}.{.E.A.8.} 8.g.N.C.N.C.A.D.T.A.A.D.A.B.A.E.{.G.{.K.{.{.{.J.OX{.G.XX[.f 5.N.b.j.N.A.C.A.D.J.H.G.D.{./. X X.X X{.OX%XoX{.}.{..X6.I g..X}.XX>XuXtXy.' @.#.` *.w.x.8X7X5X.XE.T.g.h.h.h.p.y.u.i.y.-.' I Y @.q.).k.<.l.j.^.j.6.C._.r.t.h.a.,.#.V.XXE.{.oX{..X{./.%X6XrX*XrXkXlXBX%X/.*XiXuXZXBXwXwXpX6XC.6.:.u.1X&X&X=X;XXXXX.X&XlX-X&XrX<XkXkXyXMXkXMXMXMXyX,X,XyX<XkXkXkXUXSXV.k.^.5X.XpXtXjX&X;X&X1X-XXX*XwXrXXX,X>XoX X{.{.{..XE.%X;X6X,XwXrXtXGXtX_.%X:.X.-.$.&.,.r.t.V.R. X%X7X-X-XrX6XrX<X%X<XwXkXmX7Xi.5.-XrXuXBXIX) r 1.5XS.j.f..X).j.#.;.C..X`.T.T.$X.XC.V.h.,.*.@.O.*.*.Y *.*.q.i.q.r.q.q.O.R Y 7 z ! L @.*.R $.-.*.H ! 5.t.r.a.Y.h.T.w.h.r.,.X.F F F S i n F H X.' ' <.#.| } ] g.x.$X$XdXmXIX_.#.j.",
"{./.(././.D. X XC.A.E./.E.Z.N.u.h.A.E.J.G.J.n.,. X{.OX%X$XXX X X X X)..X)./. X X/.E.R.A.(._..X7XrX&X].E.OXZ.A.C.j.g.^.E.}.cXXXR.).E.E.!.+X).`.).).).).%X5X*X6X*X*X,XwX*X*XoX*X*XoX.X.X%XoX%XXX'.1X).$ &.).V.C.E././.).}./.{..X{..XOXoX6X%X%X.X X{..X X X/.7.| C.(.{.T./.+X).T.6.*X,XoX{.D.D.A.A.Z.u.8.A.C.N.A.C.A.^.T.^.A.A.A.D.{.{.}.{.(./.(.{.{.{.OXD.0X7.9 M.y.j.V.N.N.B.A.A.D.D.S.J./.{.'..X{.{.{..XOX.X}.}.}.XXi.f < #.E.{.OXXXlXSX&X,._ ] q.t.x.xX;X).jXlXBXlXlXlXxXdXxXhXrX<X-X&XR.p.i.t.T.v.W.T. X;X7X^.T.).Y.p.t.a.r.V. X'.XXXXXX.X/.8.6.oX0X6X4XwXwX8X8X.X/..X3XeXpXcX,XXX.XtX1.8.1.u.&X$X&X$X X$X$X=X-XhXrX&X&XhXrX;X,XrXrXrXrX<X$X.XXXXX*X*X,XrXBXrXt. XiXtXoX3X(.3X*X>X,X,X,X,X>X,X,XXXXX.XE.Z.S.Z.G./.(.{.{.OX|.XX0XqXFX4Xl._.`.s.i.w.0.q.,.t. XXX&X.X&X7X6XwX7X*X*X6X%X%XoX-XrXkX1XXX,XrXyXLX..5 :.rX%Xk.h.*X&X-X&XrX-XXX*X X X-X-X1XnXnXlX7XT.>.w.).i.t.;XrXjXxXjXxXSXzX>.i ; U Q./ Y.-X=X$X;XfX=X<XkXhXzXBXkX<XrXzXlXkXzXlXkXmXxXkXkX&X$X!.V.t.t.j.w r l 4 2 7 i c P :.,.t.g.,.",
"{./.D.E./././.E.6.j.E.C.A.E.C.8.C.A./.{.J.XX$.I  X X.X XXXoXXX X X/./.).^.). X XE.T.T./.)..X_.7X7XXX{..XXX'.R.C.b.j./.D.OXcX&XE.!./.E.Q.).).). X%X X%X%XoX*XoX*X6X*X*X6XoX*XoX.X.XoX5X*X;X%X%X-XrX;X$ '  XY.V.E.C./.).{.)././.}.}.}.oX*X.X.X.X X X/. X XoXN...d.D.}..X.X X).).5.{.lXwX{.{.D.Z.Z.C.N.8.N.C.B.B.A.C.T.^.A.C.C.A.D.D.{.J.{./.}.{.{.{.{.}.OXnXW 0 b.8.g.V.N.B.A.B.B.S.A.A.D./.A./.}.{.{.{.{.}./.{.{.{.}..X%XV.V.E.{.{..X-XnXSXV._ P G F $X-X6X6X7XrXrX6X;X;X X%X-X6X X X X XE.Q.Q.E.E.T.E.T.E..X;XT.V.rXmXmXjXY.V.E.R.C.Z.'.Z.C.C.N.C.OXoXoX.X.X5XtXjXOX{.}.|.3XtXcXuXtXwXpX4.;.' g.$X$X$X&X$X&X&X;X;X7XhXdX-XmXrX=X-XrX*X-X-XXX{.!.{.XX%X.X XXXjX$Xy.Q. X{.D.|.4X6XwXXXOX}.>X0X,X*X6XoX}.Z.N.N.Z.A.A.A.A.{.{.}.{.}.|.|.PXF.{ `.^.Y.z.z.t.,.5.R.wX;X;X*X;X.X*X6XwX6XoX.X.X4XoX%X%X%X*X*X*X3XtXGX<.4 P.mX-Xy.h.&X%X$X&X$X$X$X$X$X!.%X7XrXhXhXmXSXBXkX&XBXlX;XrXlXmXSXxXxXDXIXSX:.I -.Q.$.q. X=X;X&X-X-XXX-X*XrXzXrX*X-XhXrX<X<X<X%X-X*X,XrX%X;X%X$XE.).7X:.0 B Y N w c T } f.:.t.T.V.",
"{.E.A.{.R.A.E.h.u.A.T.C.C.E.V.} j.D.{.{. X*XT @.%X.XoX.X%X%X.X X XV.6././. X X XE.C.C./..X*X,XrX7X_. X X X XE.T.N.j.A.A.}.pX XY.!.E.W./.W.).). X.X%X.X.X*X*XoX;X*X5XoX6XoXoX6XoX%X*X*XOX*X6X;XwXdX&X4 X.E.V.V.C.T.E./././.)..X/._.OX*X*X.XoX.X X).)..X%X*X.X/.E.A.OXOX.X.XOX*X} z 5./.C.A.G.A.A.A.C.y. .B.A.N.A.D./.A.A.D.D.B.D.{.(.D./.{.{.{.{.{.}.}.>XiX9 C i.8.u.N.C.A.B.C.A.B.C.A.D.D.A.A./.E./.{.{.{.}.}.{.{.OX/.OX.X{.{.{.{..XoXwXAX/._ #.P c .X;X7X7X8XrXrX6X;X.XOX;XrX7X.X/.).!.).!.!.].].R.R.C.:.i.C.C.V./.-XrXBXV.h.E.A.C.N.Z.S.g.9.B..X}.{.}.5X8X4XrXjX{./.}.oX3X3XqXuXaXaXFX7.P P t.=X%X%X*X%XoX*X*X*X7XhXhXhXlXmXrX7X6X;X6X.X X{././. X%X_.).).7X+X/.wX6X}..X3X6XqXeXwX6X3XwX3X3X3XwXoX{.B.9.g.A.A.B.A.A.A.J.{.{.4X}.|.PXK.1.8Xj.W.z.z.q.q.u.}.*X7X5X6XoXE.*X.XOX5X5XoX.XOX.X*X.X.XoX3XoX.X8XFXl.: z.UXDXa.t.R. X@X X$X).).$X+X).+X%X;X6XrXrXhXkXrXrXmXmXkX<X<XhXlXzXhXhXzXIX`.#.X.P.y.=.Q.$X%X&X&X&X.X%X7X-XrXrX-X&X-X7X7XjX7X6X%X*X%X,X<X-X-X$X$X$XjXq.v ].=Xn.3.M.[.XXiXlXyXyXyX",
"D.{.E.A.A.A.V.V./.A.A.^.A.R.V.t.C.A./.{.{.*XI #.%X X/./..X.X%XXX.XE.C./.)./.!./.E.C.^.T.XXrXrXrX%X.X.X.XXX XE.R.V.h.j.B.{.tXV.h.).T./.T.)./. X.X.X%X%X*XoX5X*X4X6X4XOX%X.X*X6X5X5X*X5X*X%X*X%XXXlX&X4 #.!.C.V.E.T.T./.).).)..X X.X.X X.XoX%X.X X X(..X.X.XOX.X/.E.XX%X.X^./.6X5.7 2 #.).A.E.E.A.A.A.A.N.B.A.A.Z.D.E.E.F.A.D.A.F.{.{.{.{.(.{.D.J.K.{.XXaXV.* R N.4.g.N.C.S.A.A.A.8.6.A./.(.D.J.E./.A././.{.{.{.(.}..X.X.X}.{.}.{.{.{.}.3XiXoXb ] H F XXXX6XrXrX7X*X%XOX.X.X*XwXwX%X/./.E.!.). X].E.R.C./.V.g.C.C.A./..X6XBX6.C.A.C.C.Z.A.A.A.d.4./.{.D.(.|..XoXrXrX{.D..XoX4X3X4X|.wXiXZX Xe c h.&X%X%X;X*X*XXXXX-X*X-XrXhXhXlXhXjX7X6X.X.X X)././.).%X).)./. XV.V..XoX|.|.oX0XoX3X3X3X0XeX3XoXoXqX3X}./.A.S.A.S.S.A.A.D.D.A.(.}.K.0XZX4Xf.j.6.Y.~.x.i.t.{.*X%X%X*X6X*X5X5X8XoXoX6X%X.X.X X X%XOX.X.X3XwXwXGX_.X 0.xX-X Xh.!.!.].].$X%X%X X.X)..X%X*XwXrX7X7XhX$X-XSXSXmXjX7XgXjXxXxXhXhXxXc.' #.x.a.,.p.$X$X;X&X%XXX X6X7X-X7X7X6X7X;X7XrX7X6X).%X*X,X<X<XrX-X-X-XbXX.-.].1XXXu.m.Z.H.G.{.{.{.XX",
"{.{.D.D.C.N.C.T.A.A.A.C.Z.C.C.A.A.D./.E.{.,XE :.%X).R./..X.X.XXX X]. X'.!./.).).T.T.)./.%XrXtXrX%X.X.XXXXX X/.E.E.C.B.B./.<XV.h.T.T.T.)././. X.X.X). X%X*X*X*XoX5XoX.X*X6X5X6X;X;X*XoX.X.XoX*XXXyX<XW 5.E.Y.Z.C.C.T.T./.).)..X.X%XV.C.%X%X.X.X.X.X X}.OXoX.X.XOX}.oX|.A.g.d.g.V.z 2 z /./.A.T.R.A.A.A.C.C.A.D.A./.A.A.D.D.D.D.D.{.}.}.A.A.(.A.A.D.D.oXNX$.- $.N.8.N.j.C.C.F.A.A.N.g.A.A.E.A.J./.{.E./.{.{.J.J.(._.OX}.}.}.}.}.}.}.{.{.|.wXyXI L H P )..X7XrXrX-X6X.X.X4X3X8XwX7X5XV.g.E.!. X!./.E.A.C.A.A.E./.A.D.^.{.*XBX4.C.C.N.C./.E.C.N.A.J./.{.{.{.(.}..XyXwXA.J.OX3X3X3X3X|.3X4XaX3Xw p E.$X X%X*X%X*X%X*XoX*XrXhXhXhXjXxXxXlX7X X).%X).).).).).)./.T./.T././.OX.X|.oX|.oX3X|.3X0X0X3XoX3XwX3X|.A.S.A.A.J.J.A.{.N.| A.}.{.}.|.sX{.j.k.#.x.R.a.b.Z.XX,X6X6X5X*X6X*XoX6XoXoX6XoX{..X.X X.X.X|..XXXwX0XPX;Xo z.1X$X$X$X X].].XX&X&X%X&X%X*X%X;X6X*X6X7XjXtX;X;XlXLXLXrX%X7XeXhXhXhXhXbXi.H ,.T.a.5.*.!.$X$X%XXX X$X;X7X6X6X;X%X6X6X7X<XrX%X X.X5X7X7XrX<X<X*X-X6XX.b.E.E.].Z.A.A.A.J.J.{.{.(.",
"A.A.A.A.C.N.C.C.C.C.C.T.C.C.N.A.A.A././.'.&XE #.5X%X X.X.X XXX X{.{.!.E.!.)./.V./.)._._.6X7XrX*X XXX.X.X%X X).E.R.C.B.A. X<XV.h.T.T.)././.)./..X%X.X.X.X.X.XoX5X%X.X.XoX6X6X*X*X6X6X.X(..X5X6XrXlXrXN r.E.V.h.Z.V.C.C././.)..X%X8X.XE.%X*XoX*X*XOX.X}..X%X5X%X.XoXwX0X{.A.6.6.4.N w i 6.C.C.A.A.A.A.Z.Z.A.A.D.A.A.D./.A.D.D.S.F.{.|.{./.A.E./.D.J.}.eXnXW - ,.V.u.N.C.C.C.h.C.A.A./.A.A.J./.{.{./.{.E.{.}.J.(.(.}.{.}.{.{.{.{.{.{.}.{.K.0XlXT L F L %X6X7X7X7X6X5XOXoX.XOX8X7X6X5XD.<.^.T.A.E.{./.T.E.E.T.A.T.A././. XoXNX .h.C.g.V.E.A.C.C.A.D.A./.{.{.}.|..XwXyXoX(.|.|.3X4X3X4X|.3XiXeXf l !.&X.X%XOX*XXXoX*X%X*XlX#.&.7XjXhXrXjXjX%X%X%X.X).).).).). X).E.C.E.OX.X|.|.|.|.3X4X3X3X3XoXoX|.|.wXwX0XA.N.A.'.{./.A.}.8._ A.J.{.K.0XCXD.;.k.p.Y.R.a.V.R.%X*X7XrXrX5X6X8X6XwXoX5X6XoX.X.X/._. X_..X.X3XeX0XGX;X. p.&X X&X$X X$X XXX%X&X-X&X-X*X*X6XwX6XwXtXtXtXjXjXhXlXSXrX$X%X;XrXlXhXxXzX+XN &.!.Y.p.-.a.). X X!.).).%X;X;X<XXXT.*X*X;XrXrX*X6X5X.X%X7X7XrXrXrXrX;X#.!.E.V.V.N.m.N.A.D.{.{.{.D.",
"D.{.G.'.Z.g.8.N.C.C.A.T.C.g.S.A.A.D.D.'.{.XXb O.8X$X$X{. X.XXX.X].{.'.!.'.!.i.:.^.)._._.7XyXlX&XXX.X.X.X%X$X).E.E.R.C.A./.;Xn.a.Y.c.T.T.E.)..X). X.X.X.X.X.X.X_._.%X_..X%X6X5X*X6X6X4X.XoX4X6XrXlXrXb ,./.R.V.V.C.Z.N.C.'.{.{.OX.X%X X.X*X.X%X.X.X_..X}..X*X.XoX4XuXlXwXXXC.u.,.i t f %.A.C.A.A.A.A.Z.A.A.A.D.D.D.D./.{.G.A.S.F.}.}./.{.C.^.D.D.J.|.yX1X8 4 g.g.j.N.N.C.C.h.C.A.A.A.D.A.Z.{.{.{./.D.{.{.{.{.{.}.{.{.{.}.}.(.{.J.{.{.|.{.}.NX$.E U b 6X6X7X7X7X8X5XoXoX.X*X8XwX6X8X*X{. XA.A.E././.^.^.E.E.A.C.A././..XoXNX} N.C.g.Y.R.A.A.A.A.D.A.{.{.{.}.}..X4XwXoX{..X3X3X3X|.}.|.3XiXqXl q .XXX X X.X;XoX%X%X;X7Xv.$ o O.wXrX7X7X7X7X$X%X).).)..X).x./. X X X{..X|.|.oX|.|.3X|.|.|.3X3X3X{.K.eXeX0XD.N.A.{.{./.E.J.{.D.{.D.{.4X3XZXoX] f.a.Y.Y.T.!..X%X;X;X8XwX5X8X7XeXwXwX5XoXoX.X XOX_._..X.X.X.XoX0XPX:XX n.&XXX$X X$X$X X%X%X%X&X;X%X%X;X7X7XrXrXtXeXtXjXlXlXlXcXBXjX-X6XrXlXlXkXvX7XY X.].Y.a.5.,.V.`._.`./.). X%X-X,X*X%X*X*XwX<XyX<XwXoXXXOX6X7X7X7XrX7X%X| g.N.N.g.L.N.N.R./.{.{./.(.",
"{./.'.{.'.A. .;.V.C.C.C.A.C.C.A.E./.{.{.[.&Xv H 9X%XoX]. X!. X].].!.].!.R.A.N.i./._._..X7XtXrXXX X.X.X.X)..X).E.!.E.A.R.'.*Xm.a.Y.C.C.T.T./.{. X X X X.X)./.).(.%X4X%X5X;X5X*XoXoXoX3XwXoX*X6X6XlXrXV u.E.R.Y.h.Z.Z.N.N.A././..X.X%X X.X.XoX.X.X.X.X/.}..X.X.X.XoXyXBXkXrX].p.-.b b 4 P /.C.A.A.E.A.A.Z.A.A.D.D.D.D.D.A.A.A.S.A.}.{.A./.C.E.F.D.J.|.NX].= 5 t.y.N.N.N.N.C.C.C.A.A.A.D.A.A.J.J.{.{.{.{.{.{.J.|.}.K.{.{.|.}.{.{.(.{.{.K.OX|.ZXy.b C b ;X7X7X6X6X6X4XoXXX{.oX6X7X6X.X.X.X.X'./.A.A./.E./.T.E.^.T.(./.{.oX*XZX%.u.t.N 5.C.C.A.C.B./.D././.{.{.}.}..XoX3X(.}.3X3X3X3XK.}.|.qX0Xg w !.;X X)..X%X*XoX5X5X7XfX@.; x !.;X-X-XrXgX%Xw.W.).)..X).T.). X XoX{.}..X3X3XoX3X3X3X|.4X3X3X|.XX}.3X8XwX.Xg.A.{.{.J.J.E./.D.(.{.{.}.0XNX8X1.| i.Y.!./. X.X%X*X*X*X8X7XoX7X7XwX*X6X4X*X5X.X.X%X+X X.X_.}.5XwXGX*.$ R.]..X$X!.)..X X.X;X%X%X.X.X.X6X6X7X6XrXrX8XeXuXcXlXvXvXSXvXtXjXjXlXlXlXvX7X` Y Q.Y.V.r.,.u.E.).E.Y.!. X&XoX-X*X6XwXrXrXyXrXrXwX5XoX*X6X8XrXrXwXrXrXt.,.| g.N.N.N.b.V./..X|.}.{.",
"/./.{.{.{.Z.b.y.N.C.A.N.C.B.C.A.A.A.{.'.'.XXb X.8X%XXX).).T.i.C.E..X$XE.E.R.R././.}. X_.eXtX*X.X.XOX.X{. X).!.)./.^./.E.].&Xn.V.V.Y.h.T./.T.E.{._.)._. X)..X.X.X.X.X.X5X4X5XoX*X*X3XoXXXoX;X;X*XrX=Xk i.E.Q.Z.R.C.Z.C.C.E././. X)..X.X.XoXoX.X.X%X.X(..X.X.X.X.X5XtXcXlXrX).z.t.E T b b T.V.C.A.E.A.A.A.C.A./.D.A.{.{.A.A.A.A.A.XXD.A.A.A.D.D.F.K.3XNXy.4 k 5.r.8.u.g.g.B.L.j.B.A.A.F.D.J.{.K.J.{.}.{.{.}.{.}.}.{.}.}.{.}.}.{.{.}.{.K.{.}.NX{.w N l -X7XtX7X;X*XoXoX.XoX*X6X6X%X X.X_..X.X/./././.E./.A.E.T.T./.(.}.XX3XZX4.C.E.%.5.V.C.C.A.A.A.J.E./.{.{.{.{.|.3X3XF.B.3X.X4X3X|.}.4XqXiX5 8  X%X).%X X.X%X).OXwXrXxXdXx.t.h./.&X7XhXgXgXx.c././..X.X). X).%X*X{..X.X.X3X3X|.|.oX|.3X3X3X4X3X{.}.5XcXC.V j.OX{.J.{.{.J.(.{.{.{.{.|.pX5X;.o.h.W.!.].XX%X5X6X6XwX6X6X8X%X.X8X6X7X6X;X.X5X%X.X.X_.(./..X5X3XLXH . Q.&X].$X+X X.X%X.X.X.X X%X.X*X6X6X7X6XrX6X%XrXrX7XuXvXcXvXVXvXjXzXbXlXrXVXbX[ c Q.R.V.i.6.8.n.Y.E.!.]. X XXX%X-X7X7XrXrXlXrXtXrX8X*XwX*XrXrXrXXX.XlXV.{.N.N.Z.Z.N.N.N.A.N.N.{.}.",
"A.}.D.'.'.E.u.8.N.C.C.C.N.N.N.B.A.A.A.G.H.XXv X.5X$X X!.^.E.h.g.^.). X). XE.E./././..X5XtX6X.X.X.X.X.X{.).h.h././.E.C.R.E.&XV.Y.T.C.u.u.^././.{././. X(._..X X/.(.}.}..X.X4XoX5XoX.X*X*XoX*X.X$XhX Xf i.).E.R.C.C.C.V.E.T././._.).XX X.X.X.X.X.X.X.X.X.X.X5X.X.X%X5XtXjXrXXX X-Xr.0.i.Y g.C.C.A.{.D.A.E.A.A././.D./.D.G.A.J.A.A.}.{.A.D.E.D.A.S.F.0XuXb.=.k -.V.u.8.8.g.j.g.g.d.B.j.S.A.D.D.J.J.{.J.G.{.{.D.{.{.{.{.{.{.{.{.D.{.{.J.}.K.|.uXoXC N k ;X7X7X;X%X.X*X*X.XwX7X7X8X.X.X.X.X.X.X{./././.C.T.T.A.T.C.F./.|..X4XuX .N.{.C.N.V.B.B.A.B.A.A.J.J.{.{.}.}.4X3X4X|.{.3X4X3X5XK.}.K.0XpX4 i %X_.$X.X.X%X X(..X7XhXlXlX$XT.u.g..X5X7X-X-X.X).).{./.(..X X X*X5X}.oX|.3X.X|.3X3X}.K.|.3X3X3X4X|.}.|.8X_ X | *X|.{.{./.D.D.{.{.{.K.{.5X.Xu.w.a.!. X).XXoX5X*X*X8X6X6XtX.XC.6X6X6X7X6X%X%X%X.X X X.X.X.X.X8XLXx + ].&X X%X%X)..X.X%XXX%X%X.X%X%X%X%X*X6X6X6X8X8XtX8XuXcXBXBXVXAXvXjXjXlXjXNXvX#.b !.Q.V.g.8.u.b.V.].&X X7X/. XrX.X-XrXlXrXrXrXrXeX7X6XrXrXtXlXuXwX.XvX,.9.C.C.N.Z.S.N.L.A.9.%.E.}.",
"D.{.A.J.A.E.u.4.u.N.B.B.N.B.N.C.B.A.Z.A.H.{.k ! 7XXX'.E.).!.!.(.)._. X]. X/./. X/..X.X5X6XOX.XoXoXoX X X Xg.,.T.).E.C.R.!.$Xp.h.T.^.i.u.^./.E.^.^./././././.)./././.}..X}..X.XOX.X%X X%X.X.X%XXXhX Xl h.R.E.R.!.E.E.A.F.^.)._.).XX X/..X.X.X.X.X}.3X.X.X.X}..X.X*XoX6XeXrX1XyXBXp.=.a.I C.V.C.E.D.G.A.{.A.A.A./.{./.D.{.{.D.A.A.{.{.A.J./.A.A.D.D.eXrX4.n.v $.4.8.b.N.n.Z.N.N.C.F.A.A.F.A.A.D.D.D.G.G.J.D.J.A.(.(.{.(.(./.A.{.D.D.J.J.K.|.iXiX} N l E._..X.X.X.X.XOX.X3XwXwXwX*X.X*XoX%X.X/././.E.A.E.T.T.T.^.(.}.5XoX3XuX| C.D.Z.b.C.N.g.F.B.S.G.J.G.{.{.}.}.}.4X|..X4X3X3X.X4X}.{.|.0XtX1 1 ;X.X).%X%X%X.X/.5XrXjXmXBXrX$XC.C.A.).%X7X-X%X X.X}.A./..X.X.X%X.X/.4X}..X|.|.3X}.J.J.K.4X}.K.|.}.}.(.8XT.* P ;XOX(.{.D././.{.{.{.}.}.XX-X' -.R.:X X$X$XoX;X6X.X6X6X6XrX6X.X5X4X6X6X5X5X*X%X.X_..X.X_.5X6XeXLXJ O I.&X$X%X.XT./.oX*X*XoX.X.XoX.XoXoXoX6X6X7X7X8X8XjXuXcXcXNXVXVXBX8XjXvXuXcXBX) c Q.R.Y.h.y.u.b.C.E.XX;XT.s q $.;X%XwXrX*X-XrX7X8X6X6X,XrXjXuXiXtXtXGX{ B C.N.N.N.C.B.g.D./.D.{.{.",
"{.{.{.E.Z.E.5.f 6.C.N.S.N.g.g.N.A.A.E.Z.Z.Q.x H %X X]. XE.C.E.)..XXX X X X X X)._. X.X6X5X*XoX*X*X.X X%X XQ.V.E./.T.C.E.).7X,.h.W.T.g.g.A.E.E.^.^.T.E.E./././.(.A.(././.(..X_..X X/._.%X). X{..X,Xx.t i.T.R.T.E. X/.A.T././. X.X.X).).OX.X%X%X%X.X.X.X}.4XoX.X.XoXoX6X6X6X*XyXmX].-.Y D C.V.A.A.A.E.Z.E.E.A.C././.D.(.{./././././.E.A.E./.Z.A.A.(.eXwX!. XL h.@.N -.V.V.Z.C.C.A.A.A.A.D.J.D.J.{.{.{.'.Z.{.J.{.A.D.{.D./././.D.D.A.(.A.{.{.6X6XI L l T.T.)..X X XoXoX8X5XrXwX6X6X5XoXOX.X.X.X X/././.T.E.E.T././.}..X.X8XvX| A.A.C.C.C.N.C.B.B.A.A.G.G.{.{.(.}.4X3X3X|..XoX4X3X4XF.K..X3XpX< y 5X X X.X.X%X%XOX5XeXhXlXvXlX=X).T.j.^..X%X%X*X.X.X.X.X/..X%X%X%X.X/..X|.4X4X|.|.|.}.}.K.}.4X4X}.}.}.{.}.wXg.R.oXOX{.J.B.A.{.G.'.{.}.}.XXwXb *.W.!. XoX%X*X6X6X6X8X6X6X7X8X6X*XoXwX*X*X6X5X.X_._..X.X.X%X5X8XLX$.> !.&X X.X*XV._.%X%X%X*X*X*X%X%X%X%X*X*XwX7X8XtXuXcXtXuXcXNXBXBXAXVXtXeXlXlXVX) l R.Y.V.V.f.g.V.T.!.{.5Xo.2 : $ 0.-X;X7XrX,XrX7X6XwX6X7XrXtXtXtXyXcXJX[ ] A.g.N.N.B.A.S.C.A.A./.OX",
"{.(./.A.A.A.b.| f.N.N.N.N.g.N.Z.C.Z.S.Z.N.V.b P %X). X X)././..X.X.X X X X X.X_..X.X*X7X%X). X;X%X X%X.X X{.T.V.E.A.V.V. X7Xq.W.Y.Y.T.T.C.A.E.^.E.A.E./.E.{.E.A.C.N.N.B.C.A.T.T.^.T./. X/.E.!.{.*Xp.k x.T.V.V.R.E.!.!.'.!./. X).).(._..X%XoXoX;X5X6XOXT.OXoXoX*X5X5X6X5X4X*X6XyXBXa.t x C.V.A.A.A.E.E.E./.D.F.A.D./.A./.A././.E.E.C.A./././.A.g.A.wX^.f.g.5.V.i.L %.b.N.C.n.V.C.C./.A.D./.{././.{.{.(.{.{.{.A.{./.{.(././.).{.'.J.{.{.}..XuX{.z ' b ).W.T.!. X.XoXoX6X7XeX7X7X6X6XoX.X%X.X.X).).T./.E.h.C.A././..X4XoXrXlX;.B.A.B.C.C.g.N.A.B.B.B.S.D.{.}.}.{.}.4X|..X}.oX4X.X4XD.4X}.oXcXy D 5X XXX.X.X%X%X*X*X8XjXlXlXjX7X X/./.A./._._._..X%X.X%X%X.X%X XOX.X{.}.}.oXoX3X.X}.{.}.}.{.|.(.D.}.}.{.{.XXoXoX{.{.}.{.A.{.}.'.G.'.{.OX|.rX#.X.!.).XX&X*XwX6X6X6X;X7XtXrX6X.X5X5X6X5X6X5X.X_..X.X.X.X.X%X6X7XIX#., !.$X X$X%X X X%X.X*X*X%X6X;X*X%X%X%X*X6XwX8XtXjXjXuXuXlXcXlXBXSXLXSX7XtXjXSX>.i z.P.a.u.u.g.h.T.E. X6X).i < . D =X&X6X<XwXwXrXrXwX8X8X7XeXrXrXlXVXPXP _ N.N.N.N.N.B.S.S.A.Z./.(.",
"{.{./.'.Z.N.b.7.N.N.V.N.N.8.b.N.Z.Z.n.N.Z.n.L G %X). X X{. X)..X XoX.XXX.X X.X_..X.X*X6X%X)..X5X/.).*X%X&X X!.C.N.E.h.h.T.+X&.+XT.T.R.E.C.C.E./.D.A.F.E./.{. XC.f.6.d.d.f.f.f.g.C./.C.C.R.V.A.E.-X-.i T.T.C.V.C.T.E.E.E.E.!.).)./.T..X;XoX6X3XoX.X*X5XOX5XoX6X5X6X*XoX5X5X*X*XhXvX:.1 R Y.Z.A.A.D.E.A.A.A././.D.A.D.{./.{.A./.E.F././.E./.(.A.g.D.eX/.;.;.5.4.n.b.8.8.N.N.Z.C.C.h.C.A.E.A./.{.{.{./.}. X/.{./.{.{.{././. X/.E.G.{.'.'.{.{.pXOXI #.b q.=X*X'.XX%X;X8X7XeX8XrXeX6X;X*X5X%X.X X X/./././.C.A././.}.XX*X-XrXlXN.D.A.B.N.B.N.f.N.N.C.N.B.A.D.{.{.{.{.(.}.4X}.4X4X|.{..X(.}.|.uXk F 5X XXX.XoX*X5X%X%X6XtXjXjXjX7X$X/./././.)._..X*X;X*X;X%X%X%X&XXX.X/.}.oXoXoXoX3X4X|.D.(.(.{.}.{.{.}.|..XoX*X%X{./.{.}.}.{.{.{.D.'.{.{.XX*Xi.$. X+X%X%X*X*X;X7X;X;X5X7X7X5X*X*X6X6X;X6X%X.X_.%X+X.X.X*X5X4X7XLXh.x W.$X$X X X$X XXXXXoX.XoXoX%X.X.X%X&X*X*X6X8X8XuXjXeX8XjXjXjXvXvXBXBXvX7XjXAXq.p a.Y.y.u.6.8.g.C.E.].$XrXh.S , / &X*X5XwX,XwXtXrX6X6X8X7XtXrXtXpXbXJXs 5 %.N.C.A.C.B.B.L.{.{.}.N.",
".X.X'.'.Z.Z.b.:.N.C.g.N.g.8.N.A.N.Z.n.n.u.p.I _ ).). X).). X)..X.X.XXX*X%XoX$X.X.X%X;XoXoX.X XoXoX.XXXXX%XXX/.V.V./.C.i.R.%XL x.T.T.!.E.T.C.C.E.D./.F.T.^./.).g.,.:.<.6.l.6.f.u.d.V.C.h.Y.h.h.V.&XY i ).R.C.V.V.T.T.^.).!.).E./././..X%X%X5XoX.XoXoX*X*X6X6X*X*X5XoX*X.X5X*X*XyXyX-.0 p.E.E.A.C.A.E.E.A./.A.{.{.A.{.{./.{.A.{.{./.{././.{.(.A.C.A.8X.Xl.8X9.%.u.b.u.N.7.8.8.:.N.N.C.T.F././././.{.{.E.{.{.}./.{.{.{.{.(.{././.A.A.{.J.{.}.uX6X%.X.b i.AXUX$XXX&X7X8XrX8XwXrXrX6X*X*X%X.X.X.X X).).E.T.T.E././.{..X.X%XlXAXT./.A.B.N.S.F.g.8.S.N.g.B.A.{.{.}.{.}.{.|..X3X4X|.}.4X(.(.}.{.lXn c ;X.XXX X%X%X*X*XwX6XrXrXlXrXrX.X).(./.T./.). X.X$X$X&X X].].).).).A./..XoX*XoX3X}.}.F.(.{.(.{.|.}.|.|..X.X3X6X}./.{.{.F.D.D.{.A././.{.|.tXi.C ).$X$X$X.X*X5X6X*X.X6X7X8X7X6X;X*X;X6X*XoX%X X.X%XoX%X*X4X{.j.pXj.N t.R.XX$X XXX X X.X.X X.X).%X.X). XoX*X*X4XwXrX7XjXtXrXjXcXlXvXcXvXvXjX7XrXVXv.t p.Y.p.u.8.d.g.V.R.R.E.].].R.p.E. X*X6X*XrXrXrXwX8X6XwXeXtXtXtXiXVXHXs ; V 8.N.Z.C.C.D.B.A.A.{.*X",
"/.{.{.'.{.Z.N.8.u.N.N.N.u.N.N.E.C.N.u.N.y.5.P I ).).].!.).).)._.OX.X%X%X*X&X%X%X%X5X5XoX.X X.X.X{. X X.XXX X!.E.Y.!.R.V.C.$XX.h.T.T.E.Q.T.T.j.C.C.C.C.V.C./.!.h.i.5.6.6.f.N.g.u.u.i.h.t.*.#.Y *.).T N T.V.Y.T.C.T.T.E.!.W.E.E.E.A./..X%X%X.X XoX4XoX6X6X*X6XoX*X*X*XoX5X5X*X*X<XMX-.9 T.!.R.T.A.T.E.G.G.'.G.G.'.'.J.{.{././.{.J.{.{.{.}.}.{.(.F./.5X}.4XcXN.u.u.b.Z.S.4.5.g.:.u.:.j.A.A.A./.J.{.{.{.{.{.}.|.D.N.A.{.{.J./.D./.D.A./.{.{.}.iXoX:.' l Q.rXzX<XoX5X7XrXwXrX8X8XwX*XoX*X*X.X.XXX X{./.^.^./.^.A././.OX.X*XtXVXA.D.A.B.N.N.B.N.N.b.u.N.B.B.{.{.}.{.{.}..X.X.X.X}.}.{.}.{.}.{.rXy D -X XXX%X$X%XXXoX*X4XrX8XrXrX*X.X.X/././.^./././.).!.). XR.Y.!.).E./.|.}.OX4XoX.X}.oXJ.D.D.D./.{.J.{.}.4X4X3XwX}.{.4X}.{.(.{.{.D.D.{.{.OXpXV.b +X+X$X%X*X*X6XoXoX5X6X7X;X6X;X4X*XoXoX*X*XXX X%X X.XoX;X3X| ] 5Xk.L V.R.].].!.{.{.{..X_.).).).)..X).).{.}..X6X6XtX8X7XrXtXtXtXjXlXcXvXlXcXvXjXbX^.S r.n.u.u.u.6.u.N.A.C.!.!.E.R.R.'. XXX&XrX<X,XrX6X6XwX6X6X8XeXiXyXVXGXs 4 V u.Z.N.C.j.C.B.A.(.{.4X",
"D./././.{.A.A.u.u.g.N.N.g.B.N.C.N.N.M.7.8.3.C C h.T.!. X XE.h./._._.XX;X%X%X.X.X%X%X%X.X.X.X{.{./.{.XX.X.XXX).!.T.!.E.Q.Y.R.*.R.E.Q.E.!.E.T.T.V.C.C.C.V./.;X XY.g.i.y.u.u.V.V.h.a.V.y.r.r.-.Y X.i.c c Y.Y.V.V.h.T.T.h.T.T././././._.%X*X.X.X.X3XoX5X3X6X*XoX6XoX5X.X.X.X.X.XXX*XkX5.l !.E.R.V.f.h././.A.D./.J.{.{.{.{.J.D.D./.{.{.}.(.{.}.{.{.{./..X7XC.k.,.h.g.N.Z.D.C.Z.Z.N.;.V f.D.D.D.D./.{.{.}.{.}.{.}.}.{.E.}.D.A.D.D.D./.D.{.{.}.}.uXoX .U i W.-XQ.$X6XrX7XrXeX8X7XwXwX6X*X5XoXOX X(./.{./.E./.T.E.D.T./.}.3XwXrXVXA.A.D.C.B.g.N.L.N.Z. .8.N.N.F.J.{.}.}.}.}.}.oX4X}.(.{.{.{.{.{.rXk Y ;X). X X.X). X X)._.%XC.g.wX6X.X.X.X/././.)././. X.X.X{. XXX%X%XT.A..XXX}.(..X3X|.XX}.D.A.D./.D.J.{.{.{.|.wX4XN.{..X.X}.{.(.J.D.D.A.{./.eXOXY +X%X%X&X%X*X*X6XwX8XwXrX7X6X6X*X.X*X%XOXoX X.X;X X XXXrX8Xj.N.cX).U ). X]. X]. X X.X.X$X X%X X). X%X).(.(.oX*X6XeXwXjXtXlXlXtXlXlXlXvXvXcXvXjXbX`.c r.i.p.b.u.u.i.u.V.R.!.R.E.T.Z.E. XXX*X*X6X*X,X6X6XwX3X6X7XeXiXiXVXLXp 5 %.E.Z.A.F.A.C.C./.A.J.OX",
"D.{.{.{.{.E.A.g.6.N.g.8.8.u.d.8.8.8.7.4.4.$.L b W.R.T.).!. X!././..X.X+X%X%X).!.T.(..X/.{.E.A.E././..X{./.).).!.Y.C.).!.!.T.X.W.!.E.R.Y.Y.T.Y.h.j.T.T.T.V.T.t.%.#.} ;.u.h.V.V.T.R.T.V.Y.E.I.R.p./ t Y x.V.C.#.u.h.C.h.V.T.A.A.A.E._._..X.XoX6X5XoXoXoX6X3X3XwX6XoX%X.X).'. X.X.X&X5.#.).Q.!.E.T.T././././.D.A.{.'.{.{.A.A.D.A./.{.{._.{././.A.A.D.5XpX6.T.i.N.N.N.L.N.A.C.C.C.j.N.A.A.^.^.{.D.{.{.A.(.}.{.{.{.Z.8.A./.D.D.A.A.J.D.{.{.(.(.pX}.V p i W.).#.1..X6X7XrXtXrXwX6X6X6X6XOX.X.X}./.}.)././.E.C.E./.B./..X3X3XeXZXOXA.A.C.N.B.d.8.N.A...g.B.B.S.J.{.K.}.|.{.}.oX|.(./.D./.{.A.Z.oXk -.8X;X%X%X%X6XOXf.g..X7X6X)..X7X;XOX_.).).^.).E./.)..X[.[.}. X%X/.C.8.oX|.oX}.XXoXoXoX|.{.D.A.D.D.D.{.}.|.oX3X.Xd._..X.XOX{.{.{.D.A.A./.(.4XoX,. XE.%X*X;X5X7X7XrXrXrX6XrX6X%X%X*X5X5X*X%X%X6X7X6X*X6XrXrXoX>XAX$Xa $X).XX X X X.X X).).%X%X%X_.).).).)..X6X5X5X7X8XtXtXjXcXlXuXtXrXlXvXvXcXbXGX8XP u.u.r.y.y.u.g.h.h.Y.A.C.C.C.C.A.{.XXoX6XwXwX7X6X4X4X3XwX7XeXeXtXFXHXp X.V.R.C.A.A.F.A.D.{.A.D.}.",
"A.{.{.{.{.E.{.V.u.N.N.L.8.u.8.g.8.8.7.7.3.$.W b i.g.T.!./.!. XE./.). X X.X X.XT.j.V.^.{.!.C.5.4.f.}./././.E.^.E.T./.). X].!.X.i.).!.T.C.R.V.c.T.C.T.).).V.5.@.G i M ;.h.N.V.V.T.R.R.E.V.V.a.p.0.! y ` !.V.E.i.b.V.V.V.h.j.T.T.E.T.(. X%X.X.X*X5XoX*XoX3X6X6XoXD.}.%X.X.X).E.E.A.!.] t.T.E.E.W.E.D.C.A.A.A.A.A.{.D.A.{.{.J.E./.)./._..X}./.C.A.A.(.}.cX{.b.8.u.N.N.N.B.N.A.C.A.A.C.A.A.{.{.{.J.J.D.{././././.{.D.4.A.A.B.D.A.A.E././.K.}.J.pXA.) F i !.$XC.#..X6X8XrX7X7XtX6X5X5X*X%X.X.X_.{. X!./.C.A.T.A.E.A.(..X4XwXeXZX}.D.D.S.B.B.N.9.g.A.A.A.A.C.C.D./.{.{.{..XOXoXOX{.D.D.A.{.A.'.A.5 *.;X%X;X*X%X;X-XE.A.OX7X7X%X).%X;X.X X/.E././.^./.). X/.!./.).).!.u.8.oXXX>X4XoX3XoX3X|.|.}.d.A.{.D.}.}.|.oX3X3X4X4X.X.X.X{.{.'.A.A.A.D.D..XeXr.$XQ..X*X7X6X6X7X7X7X7X7X7X6X;X%X*X6XoX4XoX.X6X7X7XtXwX8X6X.X*XZXbXD &X]..X X X{.). X X X%X$X}..X/.{.)..X.X;X6X5X8X3X3X8XuXtXuXuXeXtXcXcXcXlXbXAXbX] C.7.2.9.y.u.y.u.i.V.C.V.C.A.C.^./..XXX*X*XwX6X5X.X^.oX3XwXwXeXpXFXpXB u.'.A.E.A.B.D.C.A.D./.A.{.",
"E.G.{.{.{.{.{.V.b.8.b.b.9.b.L.8.8.7.7.2.4.} Z z ;.i.V.T.!./.).!.E.E./.).)..X%X&XE.V.h.T./.)./.{.C.A./././.)./.h.T.).)..X X&XI w *.>.X.@.[ o.[ ` w.t.r.r.r.t.,.-.L c #.r.,.5.r.a.Y.T.V.Y.Y.s.e.0.U 7 X.).Y.V.V.n.V.V.a.u.h.h.C.T././..X%X5X*X*XoX4X6X*X6XwX3X*X}..X.X X XE.E.E.R./.| y.T.E.E.R.A.A.A.B.A.J.A.J.{.{.A.D.J.E.J.E.{.(./.(..X(.A.C.A./.}.tXBXu. .N.g.N.B.C.C.S.Z.A.A.N.N.A.D.D.{.D.{.J.{.{.{.{.J.(.D.A.d.N.A.D.J.G.E.{.D.(.{.}.tX4.' H k W.$XT.:./.6XwXtXtXtXeX7X7X*X6X%XOX.X}.). XC.6.;.,.C./.C./..X.XOX5XeXZX}./.D.A.S.N.d.4.L.N.A.C.Z.A.A.A./.{.}.}.}..XXX.X/.A.A.E.{.{.Z.A.9 q.XX.X%X%X%X.X7XrX6X6X*X6X%X)..X.X X)././.T.T.A./. X X/.R.E.E.E./.,.u.*XOXoX3X0XwX0XoX}.oX3X} g.D.D.{.}.3X6X3X.X}.oXoX4XoX}.{.D.A.A.S.D.D.%X6X-.;X$X$X;X6X6X7X6X8XjXtX7X7X7XwX6X%X%X*XoXoX5X6X7XrX7XwX6X8X5XoXBXjXF 1X]. X X X X).).XX X X X X/.E.(._.)..X5X6X3X6X3X4X7XtXeX8XtXtXtXwXtXpXlXmXHXpX] b.y.u.=.,.9.5.u.b.g.h.C.C.T.C.E./. XOX.X*X5X5X5X}.{..X4XwX6X3XuXHXaX .A.E.A.D.A.A./.D.(.{.{.J.{.",
"A.C.C.R.!.E.V.V.V.-.5.-.$.4.5.4.4.%.%.$.$.I V w P t.x.R.!.).!././.).k.#.<.V.*XhX XT.i.W.V.E.&XrX6X)./.T.T.u.<.#.;.w.T.T.$X*XL N ' Y U P c P B B v.k.<.t.t.k.^.C.h.g.] P ) ' B P ` ` Y ' R q.X.T D 7 ` T.h.i.a.Y.Y.V.b.n.h.g.h.V.T.^.). X*X*X;XoX6X6XwX6XwX*XoX%XXX$X X!.!.!.!.R.V.@.p.V.E.{.A.A.D.S.A.D./.D.J.}.{.A.N.{.A.A.{.J.E.{.{.A.8.f.C.g.D.(.8XcX).:.u.j.B.N.B.N.Z.Z.A.A. ._ N.J.A.{.J.{.J.{.{.{.{.{./.{.oX9.8.D././.J.D.D.J.J.}.}.6X-.&.S b p.).$X5.E.*X8XrXeXeX8X8XrX7X6X6X.X.X X)..X/.<.%.| h.C.A./.{..X.X4XeXNX{.}.D.A.S.N.8.9.g.N.S.B.A.C.A.A.D.(.OXoX.XOX.XD./.E.A.D.D./.G.{.k h..X X*X;X.X.X%X%X*X%X5X%X.X.X%X%X%X)./.T.V.h.C././.E.C.R.E.W.E.h.:.9.'.OXXXwXwXeXoXoX}.(.oXD.B.B.B.{.{.4X4X3X.X{.oX.X.XOX{.(.A.C.C.S.A.A.OXOX' &X-X*X;X7X;X7X7X7X7X7X*X%X7XtXrX-X*X*XoX.X;X7X-X6X6X6X5X5X.XXXcXcXI  X].)._.%X)./.). X&X]. X{.'.E./.^./.%X%XoX6XwX6X4X6X8XwX8XtXtXtXiXuXtXuXuXFXVX1.5.y.y.4.} %.5.u.u.u.i.N.C.C.C.A././..XOXoX*X6X.X.X5X|..X3X6X6XeXcXGXD.{.}.G.{.D.{.D.D.D.D.{.{.}.",
"g.N.C.g.g.V.u.6.t.-.i P i.r.r.2.*.@.-.@.@.L I W N I ' ) ' _ I ' _ ` I c M H ` P p 2 q a q i H P ' ] o.;.<.#.:.| ;.u.6.6.y.5.%.i.%.5.h.i.#.:.%.| ;.j.u.1.;.' N [ j..XA.,.<.F.f.o.<.<.t.g.h.<.' L l i X.%X!.Q.Q.!.P.R.R.u.i.i.i.h.T.E.).%X X).). X%X%X6XrX6X*XoXXX XXX X X!.!.R.R.r.T b.Z.A.Z.Z.C.N.S.D.A.D.A.E.{.{.'.G.{.A.A.{././.OXE.6.f.T./.A.(.}.3XNXXXf.u.g.V.N.S.A.C.Z.A.{.8...N.{.'.A.{.D.{.{.J.J.{.{.{.{.|.{.A.J./.A.D.D.(.{.{.}.|.wX-.R *.' W.a.T.a. X7X*XwXrX7X7XtX7X7X6X%X.X{./.T./..X).E.T.C.j.A./.(.}.4X4XeXZXF.D./.C.N.N.%.:.8.S.A.S.N.C.C.A.D./..XoX.X1.6.D.T.F.C.A.A./.{.E.} t. X X.XOX_..X/..Xj./.5XOX.X{. XXX%X-X).C.j.C.j.C.T.V.u.V.R.E.E.h.' I oX X>X3XoX3X|.|.}.(.(.D.D.g.C.A.{.}.|.3X.X}.}.oX5XOX{./.A.A.C.B.N.A.}.6X%.$X&X*X6X6X-X7X7XjX7X6X;X%X7XeXrXrXrX,X*X%X7X7X6X5X%X%X5X*X6XwXrXGX:.).).).%X_.).E.T.!.$X X{.{.!.E.{././. XOX5X*X*X3X*X6X7XeXeX8XtXtXeXuXtXyXlXVXFXf.u.u.y.8.%.}  .5.h.V.g.u.C.N.A.R./.).)._.}..X%XoX.X.X|.4X4X.X3X3XuXFXJ.{.{.{.{.{.D.(.{.{.D.J.J.}.",
"*X6X6X*X*X,XwXrXnXkX9 P V. XOX].XXXXwXoXXX-X1X[.I.'.'.n.R.%XY.C.E.].XXXXXX-XxXY.y X.*.0.r.a.T.E..X*X6X*X,X,X,X'.A.oXXXwX*X[.oX'.'.].[.XXXXXXwXwXyXKXn.C ) M #.f.F..X.X{.}.oX X6.T.^.).).T.k.,.! ! T 6 D H U ! 0.&.*.s.&.w.t.*.,.6.h.T.;XT.C.g.C._.;XrXrX*X.X.XXX X X%X X!.Q.!.:X=.L V. X{. XXX/.6.j.A.S.A.J.A.A.S.A.A./.A.Z.A.Z.A.R.{.E.E.A.'.N.A..X4XbX}.5.V.n.b.N.S.Z.C.A.A.E.Z.'./.E.'././.J.{.{.D.{.{.D.{.J.G.{.'.{.D.D.D.A.D.{.|.J.3XwX' F U R ;X!.W.).$X&X*XrX6X6XwXwX;X6X;X.X X{./.C.T. X$X X$X/.E.A.(.{.}.4X3XeXPX,.k.OXA.S.N.;.:.8.C.Z.S.S.S.N.C.A.A.}.oXwXj.u.A.C.E./.A.Z.{./. X9.I XX X!.!./.E.'.XXE.C.{.oXXX%X).;X;XrX*XT.C.j.h.f.i.h.Y.R.V.Y.V.6.P 0 j.XXoX3X6X3X|.oX}.D.^.A.S.B.A.A.{.}.|.|.4XJ./.{..X{.D.D.A.A.C.A.N.A.{.*X7.OX;X-X*XrX7XrX;X;X6X%X.X;X6X7X7X7X<XrX;X6X*X6X*X.X*X*X%X*X7X.Xu.;X>.T.).E. X).!.!.!.h.`.). X].E.E.E.R. XoX%X;X X$X%X*X6X6X6X6XrXeXeXeXtXrXiXcXVXeX:.V.V.u.y.7.:.} %.t.h.h.V.V.V.A.R./.).)./..X.X.X.X.X.X.X.X}..X}.8XpXFX{.A.D.{.}.}.{.{.}.{.{.{.{.}.",
"&X&X&X&X&XXXXX&X1XdXd L :.j.N.S.G.A.J.'.A.'.'.Z.n.Z.R.R.E.'.'.H.].XX].E.XX*X,XE.Q %X&X*XXXXX*X,XXXXXXXoX,XOX'.[.OX X}..XXX'.Z.n.Z.E.Z.E.{.{.}.|.>XKXe.= ; a ;X7XoX.X%X%X*X%XrX*X%X.X.X%X.X%X XY.].~.0.=.=.O.Y D c D c : i w.1.o.#.>.<.t.6.t.6.<.) ] ,.h.V.,.r.t.t.x.j.c.t.x.!.Y.-.P F #._ ] ` [ | <.A.C.C.C.V.D.F.A.{./.XXOXoXA.C.C.C./.E.(.}.A.D.|.|.aXlXn.V.r.y.Z.b.C.Z.C.A.A.A.A.A.E.G./.A.A./.D.A.D.A.A.{.J.{.{.{.A.A.A.N.A.E.{.{.OXeX{.#.I 8 k Q.+X!.$X$X$X7X6X4X6X;X*X*X%X%X.X X XT.g.a.E. X$X). XA.C././.}..X3X8XCX] %..XC.N.8. .%.8.N.A.Z.Z.L.N.g.d.A./..X*X.XA.C.C.C.C.Z.S.A.A.XXA.5 y. Xq.t.h.h.f.u.h.i.u.k.>.w.k.h.T. Xh.6.g.k.5.N.h.g.a.a.u.i.6.] b 0 C &XXXoX3XoX3XoX}.}.{.A.N.A.A.N.A.}.oX3X3X}.}..X.X(.{.A.A.C.N.S.H.A.{.wX,.^.7X*X*X-X-X7X7X6X.XT..X.X5X;X.X.X*X,X<X%X;X&XoXoXOXXX*X*XrX-XrXnX*.V.E.{. X X X$X XE.c.T.{.E.!.E.E.C. X&X&X%X;X X%X;X6X*XoX5X7X8X*XeXtXrXrXuXLX`.P Y.V.b.i.y.5.:.%.9.i.h.V.C.C.| :.V.).^.)..X X.X.X.X(..X X.X.XoX5XuXcXg.B.A.|.XX}.}.{./.(.K.{.D.K.",
"&X;X&X7X*X.XoXXX<X<Xd W ..d.N.L.N.B.A.A.E.'.A.Z.H.A.C.g.A.C.C.Z.'./.'.R.A.E. Xy.%.E.!.'.Z.Z.%XOXE.C.{.XXOXOX}.}.XX{..X{.OX/.R.C.A.T.N.C.A.D.D.|.>XaX[.+ $ q.XX!.).). X X%X$X&X%X%X%X;X X%X&X&X$X-X@X&XfXxXhX X$X=X$X!.7 U W.Q.V.h.h.x.T.C. XXX).T.$XY.a.a.a.h.q.t.a.i.h.w.h.!.a.,.} n i i p p r 8 e w 7 c l M B B I ` Y #.*.i.,.6.f.i.h.)././.5X4X4X3XpXPXu.t.,.r.C.'.E.E.D.{././. X/.E.{.D.{.{.}./.E./.J.J.S.D..X{.G.E.E.C.A.{.(.}.}.oXtXk.*.G x c i.).+X;X;X-X%X%X6X;X%XXX'. X-X6X%X!.E.4.%.u.].).)._.E.E.). X.X.X6XeXZX} #.8X/.S.N.4.8.N.E.{.}.H.A.G.A.C.A.T.{.*XXX{.C.C.C.V.g.N.S.S.oX).$ l G X % 2 < ; w l V l M p B G { A #.u./.] 5 5 w Z l w ' ,.<.s P | 8 0 V.*X*XoXoXoX|.}.OX{./.A.A.B.B.C.}.4XoX|.}.XX5X.X/./.A.N.N.N.H.S.A.{.cX} Y hXrXxXjXjXjXjXjX6X;X.X X7XuXrX5X7X7XeX6XrXrX8X3X8X5X5X4X5X).bXzXU h.!. X).). X$X&X&XE.T.).{./.E.!.E.XX&X&X.X.X).)._.%XoX*X*X6X6X5XwXrXyXrXtXGX_.#.E.p.M.y.y.y.5.:.-.r.i.h.h./.g.-.T. X X X XXX%X%X.X.X$X_..X(.OX.XpXZX..9.A.6XuX{.{.{.J.D.D.|.J.}.",
"6X*X*X6X%XXXoXoX<XMXh A { 9.g.g.j.A.A.D.{.E.A.N.Z.G.C.C.R.C.C.C.(..XOX/.A.A.R.5.V.!.C.T.;.#.T.h.C.A.{.XX.X}.{.}.{.{.{..X.X{.A.A.A.E.N.d.A.D.{.}.0XMX:X, a ).E.Y.W.T.E.).). X). X X!. X!.!. XE.Y.E.]. X$X X X].!.$X$X=Xy.Y W.R.T.T.!.T.T.W./.). X&X<X].$X$X$X-X&X7X&XrXhXxXrXrXrX X].Y.p.Q.Y.V.y.,.a.Y 6 c c p i 7 < : < 7 < 1 y 7 5 7 e m M M ) ) [ [ d..X_ P _ B L _ ' } ' :.:.:.6.6.6.u.6.g.6.6.9.6.u.g.d.:.7.V.C.g.u.j.8.f.C.u.j.A.D.h.6.] F n i ! t.i.t.x.j.c.).k.r.V. Xi.i. X;X XV.V.8.} ,.h.T.V.E.T.h./..X/.D..XiXCX_ Z g.,. . .| | | :.:.4.,.7.u.:.' ] :.t.n.5.7.5.5.g.6.g.8.;.6.C.u.P 5.i.i.h.E.V.Z.Z.{.E..X&XwXrX,X4X|.3XcXcXh.l ) l C ] ' ) :.1.; m <.l ; 5..X>XwX>XwX6XoXXX.X}.{.{./.A./.OXoX|.|.oX*XoX.X X/.'.N.8.4.7.L.g.D.cX#.$ _ 5.r.r.k.w.w.,.w.k.;.,.8.f.g.f.;.o.o.<.,.-.1...] B Z B B H F % 3 0.Q.!.E./.).Y.).rX@XR./.!.E.C.C.).$X$XXX{.'./.E.).$X.X.X%X.X6X7XwXwXrXrXtXGX8X,.V.n.n.u.u.f.r.r.5.5.u.g.h.E.a.V.!.!.'.!.{. XXX X).).).).(./. X6XpXpX[ ..D.3XiXXXJ.{.A.B.A.(.J.{.",
"&X*X*X*X*XXX%X*X<XMXn z _ :.d.N.B.C.A.A./.E.N.N.A.D.A.V.B.C.B.A.A.{.}.{.A.Z.N.4.V.Y.u.m.Q R ,.V./.)./.}.{.{.D.D.{.{.{.{./.{.A.'.E.{.} l j.F.^.K.>XiX[.- U 5XT.V.Y.!.E.E.)./.).!.]. X!.).).E./.Y.h.$X&X;X$X$XXX X$X$X-X$Xc h.!.T.E.Q.!.).E.^./.).).$X!.$X%X). X X X.X%X;X;X6X*X6X*X,X<X<X<X1X1X<XyXlXXX#.$.T L t 1 : , 0.#X].&X[.a.V.p.r.5.-.$.@.@.' #.w.h.T.5.-.,.@.L F L z N M N M I l ) #.6.#.| _ <.<.,.6.:.#.} :.#.} %.} %.:.} :.r.u.T.C.-.$.U K U X.Y Y ` *.j.).C.t.,.M M ) G B #.] e X.R R R @.*.=.*.c ' *.' G ,.^.%X<._ ' N S H N N F D i a x 7 & , o . X.E.'.'.'.E. XrX{.wX}.Z.XXiX{.A.A.{.>X>X>XOXH.{.A.J.N.N.J..X{.D.D.}.3XiXZX .C 0 z a.4.C Z f.#.] <.) $ } V.{.*X%XwX5X X.X/.A.C.F.g.d.u.g.d.k.d.1.;.1.] ] $.r.-.2.3.} _  . .u.8.4.%.#.%.%.%.t.i.g.6.u.6.6.:.:.9.g.8.u.t.P z _ #.] [ ) 1...d.d.f.a S :XY.V.C.T.E.C.R.$X$XQ.!.T.T.C.a.R.E.E.!. XE.V.T.h.E.!.!. X/._.%XoX%X*X*X7XvX5X| ,.y.r.i.y.i.y.y.r.r.a.h.T.T.h.h.T.E.E.E./.!.E./._.E.i.C.'.!.A.oXHXF.B ;.8.N.N.{.A./..X}.}..XoXoX",
";X6X%X*X*X*X,X%X<XMXW 9 A :.g.g.N.C.A.A.T.A.B.C.{.A.A.A.A.C.A.N.A.{.{.}.}.'.b.4.E.!.Y.E. X{.C.E./. X}./.{.{.{.{.{.{.{.{.{.E.'.E.'.'.u.:.A.A.A.D.>XKX1XO U %X^.W.T.E.E. X).E.).].!.).).). X).T.h.h.). X;X5X+X$X%X$X&X=X=X! p.).).).!.E.!.T.).).).). X X X).).!.).). X.X%X*X5X5X*X*X&X&X*X-X*X*X*X1XmXrXb.5.-.&.D y 3 6 Y.<X1X<X1X[.1X&X&X&X&X&X&X&X%XjXjX*X%X&X X].&X1X-X'.].1X#X&XrXY.h. X&X1XyXiXoXrX<XrX-X X&X&X&XXX&X*X=X<X<X-X-XhXlXrX$X!.:XQ.Y.R.Y.a.x.$X;X&X<XlXKXlX8 M ` G ` >.#.k !.=X!.].Q.!.Q.W.W.!.).).%X%X*XrXnXmXSXBXMXkXMXMXDXkXkXMXKXjXO + , + p.'.A.E.R.A.E.}.C.{.D.{.wX6XA.u.8.N.J.A.{.S.D.A.A.{.4.A :.F.F.K.F.J.K.4XFX .9.V.R.R.].Z.2.V.$X!.C.7.P 4.6.u.u.i.i.6.:.@.Y T C b i i k z n _ :.M s p e P P  X XOX'.{.Z.'.E.{.'.OX'.E.'.Z.'. X[.oX{.H.A.A.A.G.A.Z.{.{.A.u.:.[ :.:.....9.F.B.d.<.N R dX&X%X5XrX;X.X X;X;X+X$X$X$X%XW.V.!.$X$X).W.`.).T.C. X X/.T.T./.E.{. X X_.vXq.N #.' } =.r.r.5.4.4.5.a.a.h.a.k.a.6.d.h.C. Xj.T..X%X.Xh.C.%X*X.X5XbXB ; $ $ X . 6 < i H M ] 6.f.| ",
";X&X%X*XoX%X-X-XkXDXW - m #.N.L.N.A.A./.A.C.C.C.A.A.A.S.A.S.C.B.A./.{.{.XXOXC.2.Z.R.E.E.-. .E.T.{.].{./.{.D.{.{.D.{.{.{.{.'.{.A.'.Z.A.C.^.g.9.D.OXiX2X- ~ +XC.V.V.!.E.!.!.Q.'.].).T./.T.!.!.T.Y.C.T.`.j.j.)..X%X&X&X-XkX].y.!.!.T.).E.!.!.).).).!.)._.)./.T.^./.E. X X$X%X%X*X;X-X*X%X*X6X*X*X&X;XvXtX,.6.q.*.U t 7 t !.*X*X1X&X$X$X!.].]. X].!. X&XrX7X*X%X X].[.XXXX].'.#X1XkXmXmX$.E.%X].XXXXXXoXoXoX-XrXrX-X1X].E.]. XE.].&X$X X%XXXE.].=X!.Q.Q.T.Q.R.Q.+X%XoXXXrXCXNXg ] ] *.i.#.F b ].E.].'.E.E.Q.E.].].XXoX*X6XrXtXlXyXyXyXXX XXX1XrX<XkXkXyXKXy.  + , n.A.A.A.A.A.A.A.B.{.3X}.}.D.S.N.N.B.{./.A.A.A.A.C.E.N. ._ 8.B.F.F.F.S.K.sX{ 9.XX,X>X1XyX].E.$X,XrX{.[.].XX*X%X.X_.7XuXrX*XwX&XXXoXrXuXyXyXKXCXA.6Xh.+.,.#. X].'.'.{.'..X XC.Z.'.OX{.[.H.'.'.XXXXOX{.XX}.wXOX/.{.{.XX.X/.k.1.f.<.] 1...1.K.C.<.e 1 J ~ ~ O.Y q.X.Y O.~ H ~ Y Y ~ M H ~ X.! U U ! R ' X.q.o.Y Y B ) N B _ @.' ,.X.Y @./ @.$.r.#.=.5.q.*.r.t.a.x.t.a.B.j...B ;.B [ ' #.t.;.] o.o...1.B * 2 y 3 1 , : : % % o 2 G ` ; ",
"oX*XoX*X*X.XoX,X<XDXT < #.g.N.N.N.C.A.A.E.F.C.A.D.E.Z.V.C.A.B.A.A.D.{.}.{.XXE.7.b.'.Z. XN z F.(./.{././.E.D.D.{./.G.{.{.{.{.(.{.{.A.A.A.A.j.9.J.J.iX2X3 S ;XE.V.h.T.T.E.E.E.E.Q.!.!.T.).W./.E.T.T.T.T.Y r ] ).%X&X&X&X=X$Xn. X!.E.E.)./.!.).]. X X$X$X X).).E.E.j.T.)..X*X%X.X6X6X;X6X;X6X;X6X6X6XlX-X:.,.,.-.L 6 : F %X*X;X;X&X&X X].]. X%X&X X$X&X-X-X%XXX'.E././.[.{.'..XoX*XmXxXF  X%XXX%XoX5X)./.;X7XrXrX6X*X). X%XXXR. X X).). X X$X%X;X X X XT.a.T.)..X.X.XoX6XBXNXN t.#._ ;.6.z k &XQ.].Q.].].].E.E.{. X XoX*X*XrXrXtX6X.XA.C.].XX*XrXyXkXlXDXDX3 + + P.S.B.A.A.B.A.D.B.D.{..X{.{.J.A.A.{.J./.J.D.B.C.A.Z.A.C.g.f.N.A.C.F.F.}.aXA g.oX|.{.{. X X!.A..XXX'.E.'.{..XOX}.}.}.|.|.{.OXOX{.|.>X|.>XiXZXaXA./.) ` ] ' $X].'.{.}.}.|.XXA.{.}.{.}.{.{.'.OXoX|.oXoX}.}.|..X.X|.XXXX.X)./.F.4Xl.| F.g...k.g.t.' D x a a y 1 > , , , 1 , , % % : : : $ + . o o X     X o   # 7 <.6.j.N.E..XrX;X-X'.&XE.XX&X,XXX,X&X%XXXE.C.R.XX$XA.{.ZXf.* 2 2 * 2 p c 7 i 7 7 B ' +.#.@.-.r.r.a.-.-.2.r.s.p.r.h.!.",
"oX%XoX%X*X*X.X4X,XmX/ 4 V.Z.n.V.N.Z.A.Z.A.C.4.N.A.A.A.A.C.C.N.C.C.D.{.{.{.{.OXb.N.E.R.R.V.g.j.E.!.'.E.{.{.A./.}.{.}.{.{.{.{.}.{.D.{./.A.D./.D.J.}.iX2X= x +XT.Y.T.T.T.T.!.E.E.E.!.E.^.E.E.C.R.Y.E.!. X!.r.,.T..X%X%X;X=X=XV. X]. X X).).!. X). X X%X$X X X)./.)./.)..X.X%XoX*X6X7X;X*X*X;X*X*X8XwXrX1Xt.#._ L n 7 < q.rX%X&X*X%X%X XXX.X%XoXXX X XoX-X*X*X%X X X{.!./.{.{.{.XX1XmX X4 $X%X%X.X X%X.X.X*X7X7X7X*XOX).).*X%XZ.!./. X X X X.X)..X;X%X%X XT.).T./.(..X.X6XpXNXE Z B B _ ,.e F $X].].E.].!.{.!.!.{./._..X*X*X*XrXwXrXV.:.A.^.(.(..XeXuXcXlXIX( # , Y.Z.A.D.D.A./.A.A.D.D.D.{.{.{.{.{.{.G.{.A.D.S.Z.A.S.N.B.j.g.g.N.N.D.D.K.sX_ S.3XoXG.A.{.{..X(.4X.X{.D.(.{.{.{.J.{.{.{.D.D.D.{.J.J.J.{.|.0XNXtX_.w.) <.' @.$XXX{.{.{..X|.}.}.OX5X.X{.{.{.{.|.3X3XeX3X}.3X}.|.}.OX>X*XwXE.^._.j.t.>.g.Y.R.Q.E.].E.&X1X1XkXMX1Xn.m.n.R.[.#XH.e.e.m.m.e.e.I.I.I.U.I.I.I.[.U.#XK 3 OXH.OX6X6XOX.X.X.XOX{./.'.}.oX|.XXoX.XoXOXA.E.}.oXK.K.aX1.* y 5 v R.1X<X>X2XrXyXlXlXNXMX<XyXnXyXnXnXdX<XnXyXmXMXnXmX",
"oX&X%XoXoX*X5X.XrXMX/ - V.Z.n.a.n.V.n.N.Z.Z.8.B.C.A.A.T.Y.Z.Z.C.B.A.D.J.'.{.XXZ.u.V.V.u.u.:.7.A.{.'.E.'.A.A.A.D.{.{.(.{.{.{.{.{.{.A.D./.D.J.D.K.|.iX#X= a ).C.V.V.V.V.T.T.E.T.T.T.W.E.T.T.E.C.C.T.Q.].Q.Y.V.C.(.).%X%X7X-XV. X/.'. XXX).T.).$X X.X.X+X_._.)._.).). X%XOX.X5X6X6X*X&X%X*X*X6X6X6XrXlXrX:.l b F x y 1 W.7X%X;X&X%X%X%X%X*X%XoXXX.XXX*XXX*X1X%XXXXX/././.Z.E.^.}.*XmX@Xt ]. X X.X.XoX;XoXwX7X6X6X5X.X/..X8X*X!.E.{.{.{. X.X.X.X)._..X.X/. X/./.).(..X.X6XNXNXQ b _ ] #.` 1 Y $X!.!. X].].).{. X.X_._.%X5X6XrXwX*X*XoX{./.{.OX.XOX8XeXyXcXLX:X  O Y.J.B.A.D./.D.A.D.D.D.D.K.}.{.D.{./.{.D.{.D.A.A.Z.Z.A.C.C.N.C.C.B.F.S.J.iXA 8.wXJ.S.S.D.{.}.}.J.4X|.(.{.{.}.J.{.{.{.{.{.(.D.{.{.{.D.D.}.oX3XtXcX4X(.;X] } *X X{.{.[.{.oX.X}.OX}.|.{.{.{.{.oX6X3X6X3XtXNXoXoX.XoXoXoXwX5XE._.4XC.T.@X X$X].].$X&XXX%X<XyXmXMXOX.X/.[.[.&X XZ.Z.'.Z.n.5.u.H.H.[.>X>X1X1XDXIXQ., >XG./.OXOX}.|.}.}.}.OXOXD.{.}.|.|.}..X}.}.{.}..X|.|.|.sX| - 7 T Q.[.#X[.&X&X<X*X<XyXyXyXyXyXyXyXyXtXyXiXyX8XiXrXrXrX",
"XXXX*X%X*X5X5X.XXXDX=.> h.V.n.Y.V.V.b.b.N.A.A.N.N.C.C.C.A.A.V.C.B.A.A.J.{.{.XXb.N.n.i.b.y.6.8.C.'.A.{.E.Z.C./.{.{.{.}.}.{.}.{.{./.{.J././.D.(.K.>X,X2X= i $XA.Z.E.T.j.T.T.h.R.E.T.T.T.E.E.T.C.T.^. X X].!.C.T./._.%X;XrX7Xa.R.E.!. X$X!.)..X.X)..X).$X$X).).).). X.X.X.X*X6X8XwX-XrXrX*X6X*X6X6XrXkXrXi.%.' T S 6 x +X7X%X-XXX*X%X%X%X5X*X.X{..XOX*X*X*X*X*X*X.X/.!.!.T.E.A. X%XlXkXT  X.X).g.).%X*XwX6X*X7X7X.X}.%X.XrX6X X X)..X XXX X.X.X%X.X.X.X(..X)..X.X.X.X}.4XcXBX5.b _ t.T.F * O.;X:X@X XXX X/. X X)..X.X5X%X6X7XrX*X.X.XwX X/.}.|.OX5XtXiXuXAXUXu . E.J.Z.A.{.D.A.D.D.D.J.J.(.K.{.{.J.A.{.E.J.{.A.A.A.Z.A.A.A.C.B.B.C.A.S.D.uXZ 5.{.A.L.N.S.{.{.{.{.|.3X|.{.J.{.{.D.}.OXJ.D.A.D.J.K.k.B.G.{.{.}.oXVX8X5X).' ] %X X{.'.{.}.}.|.A.|.(.}.{.{.}.}.3X3X4XwXeXeXNXoXOXoXoXoXXXoXwX4X8X`.T.$X&X=X$X.X$XXX%X*XrXrXrXSXAX%X7X6XXX-X].).!.E.R.V.A.g.i.N.b.A.A.G.OXOXrXLX~.3 .XXX{.}.D.B.}.}.{.}.OX}.D.C.{.|.}.|.|.}.}.{.{.OXOX|.4XpX{ ; n m.@XR.]. X*X*XoX*XwXwXrX-X7XyXuXiXtXyXuXyXtXtXtXtXeXrX",
"XX$XXX&XoX.X%X.XXXDX=.= a.T.Y.V.Y.V.Z.C.A.S.B.7.g.B.C.A.V.C.A.C./.8.8.{.{.'.,XH.V.R.V.Y.V.A.E.A.A.A.A.A./.N.A.A.Z.{.(./.(.{.{.{.{./.D.{.D.A.A.{.|.yX#XO y $X!.'.g.,.i.T.E.h.V.'.E.C.C.V.T.A.C.E.!.). X$X XT.T.T. X.X.X;X*Xn.E.!. XXXXX X$X$XXX%X.X.X). X).E.)./.)..X.X%X6X6XrXrXwXrX*XrXrX5X5X6X6XrXrXt.,.#.} v 9 X.$X$X%X%X&X%X*X*X*X%X*X.XT..X XoXoXoX*X*X*X;X X).).E./.E. X%XhXrXI  X/./.i. X-X*X*X6X7X7X7X%X.XoX*XrX7X.X.X.X X X.X$X X_.OX_..X_./.)..X}.}.}.}.{.5XaXCXg.V Z [ u.l & &.fX!.$X]. X X{./..X)._.%X5X;X6X6X6X%X5X7X5X.X X.XoXXXoXrXiXuXNXIXK   !.{.{.'.G.D.A.A.D.A.J./.J.{.}.{.A.A.{.{.J.{.A.A./.A.A.A.A.N.C.B.A.A.A.{.pXl %. XA.N.N.B.{.J.D.{..X.X3X4XJ.J.{.{.K.K.J.S.D.S.J.4Xd.9.B.A.'.{.{.tX_.`.;.Y '  XXX{./.{.J.{.XX}.4X.X}.{.{.{.}.oX4X6XwXeXwXrX3X4X3X0X3X0XoX5X^.^.).$X;X&X&XXX%X&X*X*X<XrXrXkXvXlX-XrX7X*X,X.X.X X!.!.E.C.g.N.g.C.Z.S.A.{.|.6XGX+X, &X{.}.}.F.B.}.}.(.{..X|.}.A.(.}..XS.(.}.(.(.J.K.|.G.}.HXm e Y.<XQ. X.XoXoXXXoX*X6X6X8XrXeXrXyXuXtXtXtXiXuXyXeXrXeXwX",
".X%X.X.X%X*XXX.XOXMXY.= V.!.C.A.A.C.C.A.A.C.C.N.N.C.A.A.A.E.A.A.A.A.A.D.'.{.rXN.$.).h.i.a.V.E.A.Z.C.C.C.A.A.A.A.E.E./.}.{.{.{.{.(./.A.D./.A.A.K.|.iXM.@ O '.).E.V.#.u.E.R.R.A.V.E.A.!.A.R.V.C.V.T.T.T.).E.E.C.T.)..X).;X7XV.).).). X XXX). X.X%X.X$XXX X).T./.).(./..X%X6X6X6X6X6XwX6X6XwX,X*X4X6XrX;X-.] L Y v 4 a.;X%X%X%XoX*X*X*X5X*X.X.X)._. X.X%X.XXX-X*X&X$X X!.E.).(. XXXhX-XL -X).). X X.XXX6X6X7X*X5X.X.XoX6XrX8XoX X XOXOX.X%X.X%X.X.X X.X.X/..X.X|..X4X4XqXNXKX*Xg _ | f.c & $.;X!. X X X XXX.X.X.X.X}.j.}.5X6X;X*X;X7X7X%X.X.X.X3XoX8XrXyXlXIX~.o Q.XX{.{.{.}.'.A.D.D.J./././.}.{./.{.{.{.A.A.A.D.D.D.A.A.A.S.A.A.C.S.D.{.NX ._ D.A.A.A.A.(.}.A.(.XXoXoX>X|.}.{.{.(.{.J.{.D.G.}.4X1.{ d.S.J.{.{.wXF.j.<...I !. X X{.D./.{.}.5X3X|..X.X/.}.(.|.oX3XeXeXiXoXeX6X3X3X3X4XoX3Xh.,.$X%X$X$XXX.XXXoX*X*XwXuXcXNXuX7XtXjXrXrX<X*X*X&X%X)./.A.C.V.V.N.C.N.A.A.{.0XLXW.> ;XOX}.}..X|.{.}.J.}.}..X}.(.{.|.>XK.{.'./.{.K.{.|.|.4XFXs s  XrX%X).%X.X.X%X*X*X*X6X6XwXwXwXeXtXtXtXtXtXuXuXtXeXtXrX",
".X.X.X%XoX XXXOXXXMX].4 !./.E.A.C.A.A.A.A.B.C.A.A.A.Z.A.A.A.A.N.A.D.D.{.{.{.wXA._ E.6.y.t.Z.'.E.A.A.C.A.C.R.E.E.E./.}.(.{.}.}.{.}./.{./.J.(.F.}.|.MXM.O , n.).T.Y.T.W.E.R.Z.E.R.!.E.'.!.E.E.R.R.E.E.).E.T.C.V.V.T.C.T.).+Xq.+X).+X)..X).).).XX$X X%X%X$X).T.)./.T.E..X%X.X*X.X XoX5X*X6X*X*X*X6X6XyXrX#.L c R c i +X$X+X%X6X%X*X5XoX*X.X.X(..X/..X.X%X%X%X-X*X*X%X$X X).).).).XXrXrXb h.)./..XV.A.oXoX6XwX8X*XoXoX5X6XrX*X%X.X.X.X.X.X%X%X.X.XOX X X.X.X.XA.F..X4X3X6XpXCXmXC _ Z k.B & &.;X)./.!.XX$X$X$X&X5X7X..B ..4X;X7X6X8X7X6X.X.X_..XoX5X;X7XjXyXSXzX% z.XX}.OX}.}.{.{.{.{.A.{.{.{.{./.{.{.J.{.J.{.G.A./.D.A.F.S.A.S.A.S.S.D.}.pX .I V.8.A.{.D./.}.}.{.{.|.|.|.OX}.J.D.F./.G.D.D.J.{.}.4XA.B.A.A.E./.8XD.^.l.:.Z ].{. X!.(.(.{.{.|..X}.}.(.}.}.4X4X0X3XeXwXrXwXwX6X3X4X3X|.|.3X/.i.&X$XXX%X.XoXXX*X6XwXtXcXcXcXlXtXcXjX8XrXrXrXwX6X%X_./.A.!.h.C.C.C.A.B.A.{.oXPX).7 .X{.(.{.}.}.{.D.J.|.oX4X.X}.{.4X|.>XOX}.}.}.}.}.OX>XeXsXe V E.*X;XXX%X%X$X%X%X.X6XwX*X*X6XeX7XeXtXtXtXyXpXjXjXeXeX6X",
".X%X.X%X X X%X.X%XkX%X8 T./.E.A.A.Z.V.C.C.A.A.A.S.A.A.A.A.E.A.A.A.J././.{.G.>XZ.' ).V.g.h.j./. X'.E.E.E.C.Z.R.E.{.{.}.}.|..X.X{..X}.}.{.{.{.{.{.|.MXM.@ & r.).T.g.N.h.V.Y.Y.T.R.E.!.E././.E.A.E. X X$X X].!.).`.T.)..X;X$Xq.Q.$X X$X).+X). X.X). X%X).%X).).T.T.T.)..X.X.X5X%X X.X;X%X%X*X*X*X*XwXlXrX-.*.U ! i Y 7X%X_.%X;X*X*X*X8X5X.X%X.X.X X.X.X.X8X*X%X%X%X%X X{. X).(.!. XhXlXk p W._..X/..X*X*X6X6X6X4XoX3X5XwX7X*X*X.X.X.X.X_..X5X.X%X.X/..X}..X5X/..X.X|.K.3XiXZXSX$.B [ 1.b O q.-X!.!.).$X%X X%X.X4X6Xd.{ 1..XoX*X6X-X7X7X5X X}..X.X7X;X8XrXlXmXKXu P.|.XXoX}.{.[.}. X{.{.{.}.{.}.{.J.{./.}.{.A.{./.A.D.D.A.A.S.S.S.A.F.D.K.NXT I XXy.N.N.A.B.A.(.(.{.D.D.D.D.D.S.B.A.C.A.B.B.A.S.C.g.V.B.L.g.B.C.3X4Xl.....N $XE./..X{.{./.{.}.oX}.{.{.|.{.{.3XoX3X3X3XeXeXiXeX6X4XwX3X.XwXh.6.&X&X-X%X*XoX,X<XrXtXjXbXvXtXcXtXtXpXeXrX7XrXwX,X*X%X.X/.E.T.C.V.E.A.C.D.{.3XFX/.7  X{.}.}.OX}.{.G.J.OX|.|.3XD.J.oX3XoXXX|.}.}.}.{.{.OXpXqXe P Z.&X*XXXXX%X*X*X*X*X6X;X%X.X%X7XhXtXtXuXjXjXjXjXtXtXtXrX",
"). X.X X XXX.X.X&X1X Xz h./.G.Z.A.A.A.C.C.A.A.A.A.A.A.A.D.A.B.A.A.A.{.{.'.G.>X8.P .XV.h.g.u.E./.{.'.{.E.u.A.D./.{.{.{..X}.}.|.}.}.}.{.{.{.D.D.K.OXaX3.@ O q.W.h.i.i.a.h.Y.E.E.T.T.).E.T.^.T.T.E.!. XXX$X$X X).). X XXX*XhXi.E. X).). X)..X.X.X.X%X%X%X_.).).T.Y.T.)..X.X.X.X*XrX6X6X;X*X%XoX*X.X6XNX-X' s.X.Y 4 q.7X).%X%X.X6X*X.X.X.X.X). X(..X%X.X*X6X*X*X*XXXXXXX X!.).).).XX7XhX! Y ). XXX.XoX*X*X6X6X*X.X*X3X*X7XrX7X5XoXOX.X.X.X5X.X.X%X.X}.{..X.X.X*X%X*X.XD.|.iXMXSXY.V d.k.i & -.*X!.E.!.)..X.X%XoXoX3X{.8.D.oX*X*X6X6X-X5X5X.X.XoX4X5X6X7XtXrXzXUXu P.oX|..X}.}.}. X{.}.{.{.}.{.{.{.{.{.{.{.E./.{.(.(.D.A.{.D.A.A.S.D.D.D.D.NXT P jXA.B.A.S.C.D.D.(.K.(.D.S.A.A.F.A.A.N.B.N.A.B.A.j.d.6.9.9.8.8.g.N.j.j.d.] L XXZ.Z././.!.(.{.{.{.}.}.}.|.}.|.4XoX3X3X0XiXiXuXeXwXoXwX3XXX*X4.6.-X&X%X*XXXoXrXrXtXlXtXbXvXpXjXuX8XeXtXtXjXrXrXrX*X%XXX)./.T./.T.A.E./.D.{.oXPXi.1 .X'.}.}..X}.}.{.A.}..X|.OXA.}.oX3XoX}.}.}.{.{.OX}.oXpX^.* _ {. X1X-X%X&X*X*X5X6XwX6X.Xt.C.tXjX8XeXuXuXcXjXjXrXtXuXhX",
"/.(.)..X.X.X). X%X1XV.P V.{.A.Z.E.A.A.E.E.C.A.C.A.A.A.A.A.A.S.Z.A.A.D./.'.G.>X7.B  XE.Y.y.,.u.T.E.E.E.A.C.C.C.D.A.F.D.}.}.(.{.(./.J.{.D.D.D.D.F.XXyXQ O , *.).T.V.V.V.h.Y.T.T.V.T.h.T.C.T./././.).).%X_.;X X).`.).)..X=XxXr.W.$XXX+X].).)./.OX.X%X%XXX X XE.T.h.T.%X%X%X.X%XoX6XoX;X6X6X.X.X_. X;XcX-XU &.q.D i W.+X+X%X%X.X%X%X.X5X.X.X_._./..X.X.X.X5X5XXX%X%X.X%X$X X+X).).T.;X:Xq.$XE.]..XXXoXoX6X4X6XoXOX.XoX5X7XrX6X;X*X.X.X4X5X.X.X5X.X X XOX.X.XOX.XoX3X4X4XqXeXNXKX3XZ ..<.c & s.;X XE.).). X%X X%X.X.XXX{. XoX;XwX*XoX*X.X.X.XOX.X5X5X6X7XrXtXMXAXx P.3XoX4X|.}.{..X.X{.}.{.{.}.{.}.XX{.{.(.{..X/./..X/.D.A.D.J.A.A.J./.D.K.nXT v *XE.A.{.D.{.J.}.|.|.|.4X}.}.}.}.|.(.D.D.D.|.4Xk.g.F.d.8.8.g.g.A.OXN.v.j.1.Y !.'.H.!.A.'.J.{.{.{.{.{.|.}.}.}.|.3X3X3X4XqXiXiXeX6X4X3X3X.X.X| u.%X&X%X*X*XwXwXrXwXtXyX8XcXlXcXcXtXeXtXjXgX7XrXwX6X.X.X).{.!.A./.A././.A.{.4XLXc., %XJ.{.|.|.}.{.A.E.}..XOXOX}.XXoXoXoX}.{.{.A.{..X.X|.pX8X$ P  X!.&X&X*X*X;X6X6X*X6XrX6X X.XrXrXrXyXuXtXlXjXcXrXeXeX7X",
")..X)..X)..X/..X%XyX&Xb u.{.E.Z.Z.E.A.A.A.8.C.A.S.A.A.A.Z.S.S.C.B.S.A.D.J.G.,Xy.M ).A.Z.u. .1.6.C.Z.A.A.C.N.B.C.D.{.{.}.}.}.{./.A.{.D.D.D.{.(.K.3XnXJ , 7 ' ).!.E.V.h.V.T.Y.T.T.T.C.h.T.T.T.R.E.E.E.). X).).^.T./.)._.$XgX&.Y.;X$X$X$X XE.(..X.X.X X X).E.E.C.V./.).)._.%X*X5XoX6X6X6X5X%X).^.T.6XlX&XX.*.&.a T +X!. X.X.X.X.X.X.X.X.X.X.X)._..X.X_._..XoXoX.X.X%X;X_.).).$X).Y.:XY.0.$X!. XOXoXoXoXoX,XoXoX5X*X*X;X7X6X6X*X4XoX.X.X.X.X.X%X.X)._..X.X.XoX5X3XoXoX3X6XeXaXKX{.e  .| D * s.$X X). X X)..X X$X X.X X.X)..X*X*X*X*X6X.XC.). X.X*X6X*X6X-XrXrXLX/ z.|.oX4XXX.X}.{.}.{.OX{.{..X{.}.{.}.}.}.}.}.OX(././.A.A.A.{.A.A.A.A.J.J.uXI v oXE.A.{.{.{.{.{.{.3XoX4X}..X|.}..X|.}.}.|.4Xd.e g 8.j.8.B.N.N.G.yXT.t.d.| I E.].'.'.G.A.G.{.{.{.{.{.{.{.(.{.}.4X3X0X|.J.eXqXqXeXwXXX3X|./._ -. X%X*X*XXX6X4X4X4X8XNXcXuXcXjXjXtXpXtX8X7X7X8XrX6X5X.X/.(./.A.E.A.A.A.D.{.3XLXk.> XXOXG.}.|.}.E.A.{.{.}..XoX|.|.3X3XoXOX/.Z.9.E.oX|.|.iX4X$ P  X!.$X&X&X%X*X6X6X6X6X6XwXrXrXtXtXtXtXuXjXlXvXjX7X7XrX6X",
"E.).).).).).).).XX1XkXh a.{.{.Z.A.E.E.A.A.N.A.A.A.C.A.D.A.A.A.A.A.A./.D.H.'.>Xy.w /.{.'.A.5.:.8.N.A.A.A.B.N.B.A.D.{.{.}.}..X}.{.{.{.(.{.{.}.}.}.3XwXS : 2 Y ).T.!.R.V.h.V.T.T.T.^.T.T.`.W.).E.E.E.!.). X!.).W.C.T.^.).$XhX*.Y.;X@X$X$X$X).)._.;X%X$X X!.A.A.N.C.T./.).). X6X6X6X6X6X*X5XoX.X/.^.%XlX$XU >.o.t $. X X XXX.X.X.X.X X.X.X.X.X.X.X)..X)..X.X.X.X.X%X.X.X X X X). X!.!.x.r. X X%X%X%X*X*XoXoXoXoX*X*X6X5X5X8XwXoX4X.X}.oX.X.X%X%X.X_._. X}.|.}.oX4X3X|.4X3XeXuXNXuXl ] ,.N 6 r.).!.+X). X.X%X%X%X%X%X/..X)..X%X;X-X7XwX1.) k.5XoX*X*X5XrXrXrXhXUXK p.|.oXoX3XoX|.}.|.}.}.}..X}.(.{.}.OX}..X.X}..X.X/./.{.Z.A.A.A.G.A.D.D./.uX! x %X'.A.{.{.J.D.(.{.|.|.{.|.|.}.}.}.|.|.|.4XpXd.; 0 ..N.8.A.A.A.{.lX6Xt.v.%.b Q.!.'.A.A.A.{.G.'.{.{.}.{.{.{.{.|.3X0XwX3X{.3XeXqX6X.X4X4X.X{.%.#.h./.%XoX.XoX4X4X6XtXtXcXjXcXlXjXuXeXeX7X7X7X7X8X*XoX.X}.D.E././.A.C.S.A.K.oXGXw.> .XH.J.}.|./.D.A.J.{.}.oXoX|.|.0X3X3X(.d.D.A.{.XX|.OXpX9XX U @X'.]. X X&X*X,X6X6XwXrX*XrXwXrXeXyXtXtXeXjXvXtX%X7X7XwX",
"T.E./.(.T.).E.). X&XkXT p.{.D.A./.u.N.A.B.B.A./.D./.A.A.'.A.A.A.A.A.D.D.G.G.&Xu.7 T.}.OX'.C.8.,.8.N.C.N.N.C.A.D./.{.}.oX.X.XOX}.{.{.{.{.}.{.}.|.>X<Xk , 1 ` W.V.R.E.Y.V.h.V.A.T.T.Y.W./.)./.!.!. X X X).).)./.).h.,./.+X7X/ r.$X$X].@X).T.!.).+X$X$X X].E.C.g.N.E.).%X%X%X6XwX6X6XwX6X6X8X%X/.^.).rX+XU q.*.7 *.&X].$XXX%X%X.X.X.X*X.X%X.X.X.X%X.X_..X)..X.XXX.X X.X.X X).!.!.). Xz.r..X%X%X.X.XoX6XoX5X.X/..X*X;X6X6X6X6X*X.XOX.X.XOX.X.X.X.X.X(..X.X}.}..X3X6XoX4X4X4XeXNXlXz l I P 8 z.$X$X$X X).)..X.X%X%X.X.X_.)./. X6X6XtXtX[ V j.%X.X5X6X8X7X*XrXgXGXD a.0X|.3X3X|.oXoXXX}.}.}.{.(.}.(.}..X}.}.}.}._./..X{.{.A.A.G.'.'.A.A.B.{.cXU t XXA.H.{.{.{.A.(.{.(.(.(.{.|.OX}.}..X.X}.|.iXiX .%.Z.Z.Z.N.A.{.{.7X8Xh.c.;.c T.R.!.'.{.A.D.A.{.{.S.N.J.{.J.J.}.4X3X3X3X}.4X3XeX(.9.S..XOX{.:.:.h.).XX.XoX6XoX6X8XpXuXuXjXpXjXjXtXeXwX5X5X6X6XwX5X.X.X(./.E.A.E.E.A.C.A.J.*XIX,.9 OX'.{.oXoX{.A.D.A.}.}.oX|.|.|.|.|.8XB._ B.(.oX3X}.OXaX9X$ k Q.E. X]. XXX6XoX;X7X6X6X7XrXrXwXeXrXtXuXuXlXcX8X.X7X8X5X",
"T.).E.).T./.).).!.].<X=.a.{.A././.:.9.E.A.C.A.A.D././.A.A.G.A.A.D./.{.G.A.H.XXr.7 T..X[.[.R.V.5.4.f.L.b.N.N.B.A.A.(..X.X4XoXOX.X{.}.{.A.(.J.{.|.,X1Xd , 1 G `.Y.R.Y.V.V.V.V.g.V.T.W.T.).E.Z.!.{. X). X).$X X X%X{.Y. X XhX@.-.;X!.]. X).!./.)..X%X$X XE.R.N.V.j.^. X$X%X%X;X6X6X;X7X8X7X;X6XD.C.(.7X&Xt.*.X.9 q.$X$X&X&X;X%X.X%X%X.X.X X X.X.X.X.X X.X.X.X.X X.X.X X.X.X X!.).!.$Xi.,..X X$X%X*X5X(. X5X.X).%X6X5X.X6X6X*X*X*X.X.X.X/.A..X{..X.X}..X(.{..XXX6X6X0X4Xd.9.K.NXlXz 8 I L 9 p.%X!.). X).).)..X.X.X)..X).).(.%X.X%X6XuX{.Z.XXoX%X5X7X*X7X6XrXrXAXD a.eX|.4X|.|.}.OX|..X{.}./.{.}.}.}.{.{..X(.OX_.(..X{.D.D./.D.D.E.D.A.A.J.lXn 8  X'.J.E.{.}.D./.(.{./.(.}..X}.}..XoX}./.{.|.0XoXoX X'.A.C.A.'.A.wXjXf.o.X.l R.Q.E.{.{.A.A.A./..XA.N.D.D.{.K.4X|.oXwX3X{.3X6XeX8.| L..XXX/.#.#.E. X X.X*XoXoXrXiXuXuXuXjXtXjXtXtX7X5X.X*X%X5X6X5X%X5X X/./.A.T.T.A.B.A.G.5XGXc t [.H.G.oX4X(.A.A.G.{..X3XoXoX3XoXoX|.}.A.{.A.}.oX3XJ.pX9X$ r !.!./.E.E.{.oX;X*XwX-X;X6X7XrX8XwXwXeXlXcXcXtX.XOX*X8X7X",
"E.T.T./.T.W.T./.).].&X-.y.!.E.{./.V.j.A.E.A.A.D.D./.G.{.A.A.D.A.N.A.A.A.{.H.XX5.7 T..X X{.'.E.u.6.8.8.u.g.8.g.A.A.(.(.OX}..X.XOX}.{.{./.A.D.{.|.iX2X3 3 : H x.h.Y.Y.E.Y.n.g.g.V.W.T.Y.T.E.!.!.!.). X.X X). X.X X X XXX].hXX.X.=X&X$X$X X XE.).).T.^.C.V.V.V.V.T.).). X.X.X.X;X6X6X7X7X6X6X6X XF.D.;X&Xt.T D 9 s.$X$X$X$X%X%X%X%X%X.X)./..X).)./. X.X.X)..X+X.X).%X). X X X].].+X:X-.q..X%X.X%X%X%X)./.%X5X*XoX4XoXoX.X.X4XoX*XoX.X4X{.D.{. XOX}.3Xg._ k.4XoXoX5XeX0Xd...(.NXBXk f C k 4 P.%X]. X X$X$X.XOX.X.X.X).).+X%X%X!.).;X*X<X*X>X*X*X-X*X-XrXrXwXxXAXy r.rX.X.X.X.XOX{.{.{.{.{.{.{.}.{.{./.(..X}..X.X X/.{.(.(.A.S.D.{.A.D.A.(.lX3 t A.E.{.G.(.D./.^././.(.|.OX.X}.{.}.OX|.(.{.|.{./.'.{.XXXXE.D.{.{.8X8Xl.>.>.L Y.V.Z.'./.A.D.A./.{.}.D.D.{.}.}.|.4X0XeX3X{.4X0XtX}.OX{.XX}.C.| | V. X*X*XoXoXwXyXuXuXuXjXuXbXtX8X7X5X4X.X.X4X.XOX*X*XoX.X/.D././.D.A.B.A.A.5XVX% x [.S.J.{.A.{.D.A.{.}.XXoX|.3X3X6XoX.X.X}.D.(.}.|.|.J.eX4Xs 0 M.Z.E.E.A./.}.oX6X;XwXrX7X7X7XeXtXtXeXbXHXbX5X4X.X4XoX.X",
"T.T.V.R.V.A.R.R.T.E.!.2.V.R.A.{.A.N.A./.D.A.{.{.A.D.E.Z.A.B.A.A.N.A.D./.{.H.XXy.< C.XX]. X X].A.V.7.8.N.g.N.C.B.F.D.}..XOX{.}..X}.'././.A.D.J.|.yX[.3 3 : c i.p.h.V.T.E.Y.V.V.T.Y.V.R.E.E.!.!./.). X X X)..X)./.]. X X$XxXY H +X@X$X$X X$X/./.f.B [ f.k.C.V.h.^.).).`.(.(.5X5X8X8X;X*X%X5X*X.X X).6X).r.! t x ~.$X$X+X$X%X%X*X6X6X%X.XXX X(.}..X.X.X}..X X%X)..X)./.). X X!.$X+X;Xa.t.%X.X.X6X*X*X%XoX4X.X.X.X|.oX.X3X.X.X5X.X.XoX.X(.{..XOX.X.X6XD...F.{.{..X6XiXiXOX(.8XNXSXl t Y i > W.<X$X]. X%X X.X%X.X)..X.X).).%X$X;X*X$X*X7X;X6X,X*XrX7X7XrXrXrXzXzX. 0.yXoXoX|.4X.X}.{.{./.{.{.{.OX.X^.A.(.(.}..X.X(./.{.(.{.(.A.G.}.C.A.D.A.NX3 8 N.'.{.XX%.} }.{./.(.E. X{..X}.}.}.}.}.}.}.}.{.D.{.'.}.}.{.{.{.{.oX5Xv.v.,.I V.V.A.V.A./.{.{.D.D.{.(.A.D.{.}.0XiXpX6X/.}..X6XeX3XoX|.XX}.E. .) i.E.oX*XwX*XrXiXuXuXlXcXtX8XtX8X8X}..X.X_.OX.X.X%X%XoX_.).T.E.A./.C.C.B.A.eX;XX h A.H.}.oXA.A.D.A.A.{.}.oXoX|.3X3X3X.X|.(.A.D.|.0X|.0X8XF.9.z y.E.A.E.A.E.(.}.6XoX*XrX8XrX8XeXtXtXjXVXvXtX_..X.X6X,XOX",
"Y.V.V.R.V.V.C.C.Y.Y.R.&.r./.E./.Z.A.A.A.(.D./.{.{.{.E.A.A.A.A.A.C.A.E./.'.'.XXi.2 t.).'.{.].{.E.R.u.u.B.d.g.j.S.D.{.(./.}..X}.(.{.(.A.C.B.A.G.>XaXm.O @ , x r.u.u.i.V.h.R.~.R.E.T.Y.!.E.!.E.!.). X!.). X X/.). X). X$X$XY.k P $X].]..X%X;X*X).#.q B f.u.h.g.h.E.).j.<.F.(..X6X;X%X%X.XoX*X*X.XXX.XrXQ.-.U 6 &.$X!.@X$X)..X%X%X7X6X5X*X%X.XOX X}.{./.{..X).).).). X)./. X X!.).).$Xa.-.%X%X*X.XoXoXoXoXXX.XoX.X.X4X4X.X.X}.5X.X.X.X.X.X_.)..X_..X6X.X/..XOX(..X6X,X,X4X4X3XaXBXU L X.t : Q.-X$X$X).%X$XXX.X)./.).).(././. X%X6X6X6X-X;X6X7XrX-XrXrXrXrX<XBXdX  0.lXoX4X.X}.(..X4X{.A.(.{./.}./.C.B.}.4X.X}.|.XX}.{.{.{.{.G.'. XA.A./.{.BX6 9 '.'.{.rX:.q D.}.{.A.f t..X.X}.{.{.}.}.{.}./.E.{./.'.{.}.}.(.}.}.wX.Xj.F.] N V.V.A.A.A.{./.D././.{.{.D.{.J.|.3XuXeX5XA.}.3X3X3X3X|.>XoXOX/.;.N 4.C. X*XiXyXyXcXuXpXcXcXpXiXeX6X.XOX.X}.(._.OX.X*X%X*X.X/.^.T.C.^.C.6.g.G.bX>.# W Z.S.{.}.{.D.A.g.C./.}.}.|.0X|.4X|..X.X/.D.S.}.3X3X>XiX4Xd.N y.].E.!.E.C./.}.*X*X*X,XwXrXeXeXeXtXlXVXbX5X(..X.X%X5X*X",
"Y.h.a.h.V.V.Z.A.V.n.Y.#.:.).E.!.E.E.A.D./././.{./.{.{.!.T.C.A.C.A.A.E.D.E.H.].i.1 :. X)..X'.'.'.].Z.b.Z.Z.A.S.N.Z.D./.{.}.}./.{. X'./.A.C.N.S.4XiXM.@ + , a s.i.t.i.V.z.R.+X].].Y.Y.E.R.!.).!.). X].]. XXX%X X!.).$X$X[.=.5 c :X).$X%X%X&XrX;XT.5.f.t.h.h.h.V.E. XC.f.^./..X.X;X%XoX%X*X%X%X%X X$XrXR.X.x : q.$X$X$X).)..X%X%X6X;X*X*XoX.X X X). X/.). X_. X.X).^.g./.). X]. X!.;Xa.-.%X.X*XoXoX4XXXoXXX|..X.X|.4X.X5X.X.X5X.XA.)..X)..X_._. XOX*XOX X{..X/..XOXoX4X4X.XwXuXCX} T X.x < @XrX&X%X X%XXX%X.X).)./.(.A.N.j.j.6.;.t.%X5X+X%X%X;X*X7XrXrX,XrXSX~.  =.<XoX4XoX}.{.{.}.}.(./.(.{.{.B.j.A./..XoX}.OX.XOX}.{.{.{.'.{.{././.A.{.cXy 6 T.a.Y.;X;XC..X/.g.C.A 8.{.{.{.|.{.}.}.|.A.V.A.{./.{.{.{.{.K.(.{..XC.f.(.j.I u.p.Z.N.A./.{./.D./.(./.D.D.}.oX4XeXtX%XC..X4X3X3X3X4X|.OX}.D.:.z 9./.XXXXrXtXyXcXcXcXcXNXuXeXwX4X5X4X X/.A./._.*X%X*X*X.XT.T.C.E./.f.C 9.'.jXy o L R.S.OXXX}./.A.N.N.A./.}.oX0X3X|.|..X|.{.D.S.D.|.4XeXpX8X1.e a.$X!.).).T./..X.X*X*XrXwX*XeXeX7XtXcXbXeX_._.)..X%X*X6X",
"a.,.,.h.g.g.h.V.V.V.h.I t.).!. XE./.A.{.{.{./.A.)./.XX XR.T.C.E.E.E.{.!.'.E.].M.4 #.;X/. X{. X}.XX'.'.R..X'.Z.C.D.{././.}..X/././.'.{.{.A.D.{.wXKX3.+ u u a z.Y.u.b.V.n.Y.Y.T.Q.V.a.Y.R.Q.!. X). X XXX%X X X$X$X].:X@X$X&X$.x ).).)._.%X;X-X*X!.V.i.h.V.V.V.T.!.$X{.{././..X$X%X%X*XoXoX%X%X$X%X$XdX!.U 7 i P. Xz.F a X.+X%X*X6X6X6X*X*X%XXX X).).)._. X).).).).E.h.{.).!.). X X-Xr.*.6X%X%XoX.X.XoX|.XX4X.X}..X(..X.X.X.X.X.X/._..X.X.X X).)._.%X*X}.C.f.(._.OXoX}.(.}.XXyXZX@.' ' a 6 x.hX&X&X%X). X$X%X X X!.).E.N.i.1.] [ ` >.x.$X). X*X*X8X8XrX,X<XSX!   q.rXoXoX|.4X}.{.}.(./.(./.{./.B.C.D.(.}..X}.oX.XOX X{.}.{.{.{.(./.{.{.OXlX> * i.Y _ T.C.C.(.oX%.| N.N.(.{.}.{.J.{.{.XXA.g.A.E.{.{.J.J.A.G.}.{.{././.cXV.} n.b.h.N.N.B.A.{.{.{././.{./.oX0X3XeXtX{.F.}.oX.XoX3X|..X.X{./.:.f %.].*X*XtXuXlXpXpXcXbXVXcX8X5X*X.XoX{./.E.^./..XXX.X.X_./.T.A.C.E.C.%.h.XXxX> o U '.S.J.|.K.J.D.A.B.B./.}.oX3XoXXX}..X4X}.D.D.K.{.|.>XaX(.s l R. X].!.).E.T..XXX%X-XrX7X6X7X8XtXvXZXNX;X(..X/..X.X6X;X",
"5 4 8 i l P P N N U 9 - h..X%X/./.(.{.}./.XX{.7.!./.,.P #.f.C./.C./.3XXXXX'.XXn.k H j.4./.5X6X*X). X X$XT.a.#.t.j.h.h.j.V.i.h.h.f.t.C.k.A.C.j.(.rX$.u , : y >. XE.$Xr.X.w.w.X.X.w.h.V.$XE.E.!. X X X X%X$XXX).!.!.].!.=XdX3.y !.!.!.$X$X*X-X=X!.V.V.R.V.Y.Y.!.!.]. X X!./.)..X%X&X%X%X&X).i.h.).].&XI.x 1 c !.Q.a.&.T i.)..X;X6X6X*X%X%X.X X).!.).).).).)..X).)././.!./.E./. X XhXy.$.%X%X*X6X*X.X.XOX.X{.{..X/.(._._..X.X_..X.X.X.X.X_./. X_. X.X.X.X/.E..X%XoX.X.X(.}.|.8XBX#.P ` a 5 r.-X-X*X$X).).). X XE.!.!.T.V.V.A.R.Q.E.h.a./.).oX6XrXwXwXwX<XyXhXu & *.yXXXoX3X4X|.}.{./.A.}.}.}.D.A.D.OX_.OX.XoX3XoX}.{.OX}.{./.D.{.{.{.}.XXjX, - =.!.y.N.Z.N.A.oX}.b.N.d.S.OX}.}.{.A.D.D.{././.{.{.D.{.{.J.{.J./..X XT.8Xh.}  X@XV.u.g.d.B.{.{.(././.}.XXwX,XwX6X8X{./.{.OX.XoX|..X4X{.E.E.7.w  .E.].,XyXNXcXcXuXpXcXcXuX7X8X5XoX}.{.(.E./.A.C.!. X X).E.C.C.C.V.C.Z.C.>XkX, O T '.N.S.K.J.{.J.D.A.B.{.}.oX0X{.{.}.|..X|.{.D.D.(.}.|.sXk.* z $X].]. X{.!.C.E.$X&X-X7X7X-XgXrXrXcXVXbX X/.{. X X%X*X*X",
"a.a.a.z.I.Y.Q.Q.m.Q U b I ;.;.' :.%.%.| ' | _ C C R C l B _ #.} 8 5 } ] F L L b 5 2 7 ; l l p p 2 q < 7 7 2 7 a a r 2 q q e p p c F B l s a e B 5.=./ j u 6 1 b L H 5 < 4 2 ; $ ; y i L q.T.g.a./.!.).)..X).).%X$X+Xz.z.0.1 , W.!.$X]. X&X=X=X!.V.Y.Z.Q.R.Y.Q. X!.R. X).+X).).+X XXX$X X6.w #.W. X1XY.t > T ].Y.y.R.$X$X).%X5X-X;X6X6X%X$X/.!.E.T./.T./.).).).).T.E.T.E.E.!.'.!.jXi.X.;X%X*X5X%X*X.XOX}.}.{./.{.!././. X)..X.X X_. X).)._._.).).%X*XOX{.{..X;X%X.X.X(.}.(..XlX5.L H 7 6 r.-X-X-X%X;X X]. X$X]. XE.T.T.T.R.E.E.R.Y.T.).$X*X6X*XwXrXwXrXBX!.: 1 v %X4XoX3X3X|.oX}././.}.}..X{.D.}.OX.X.X.X3X5X.XOX}.}.|.{.D.{.{.(.(.oX3XlX, & 5.V.j.A.A.A.S.oX6XOXN.4.g.OX}.|.}.D.D.{.D.{.}.D.{.{.{.{.{.G.J.D.OX%Xx.j.<.' &XrX].Z.h.N.S.A.{.{.(..X.X6XoXoXeX}.6./. X{.}.}.3X.X|..XOX.XE.u.f Q ].XX,XyXnXcXuXpXjXcXuXtX8X%X.X.X}./.T.T.A.A.C.A.}.j.k.C.h.V.V.N.j.B.A.XXhX& , T [.S.J.A.J.J.D.D.A.B.{.oXeXwX}.}.}.}.|..X4X8.A.}.|.|.aXB.; I @X!.]. X XXX].].%X-X-X-XrX7XrXhXjXvXvXlX).].!..XXX%X%XoX",
"-X@XdX<X1X=XdXxX<X[.R.b.#.:.,.,.t.V.V.h.a.h.c.Y.n.].E.R.b.y.5.$.! *.E : 1 X.0.&.$.=.I P B F N F F x i F v c b i a a x p c p c i F c a i 7 i M G ,.-X&X#XU.].P.r.y.p.n.n.n.y.y.5.3.$.] R | #.#.} | | ;.8.h.,.) ,.Y a 1 : , $ : W.W.]. X!.:X$X@X].Y.j.R.!.Y.Y.Y.T.!.E.E.!.).!.T.). X). X!.a.r.Y. X&XdXR.y & =. Xa.a.~.$X&XXXXX;X6X7X7X6X;X.X).).E.T.Y.T.T.).T.T.V.T.T.C.T.T.E.). XjXp.*.-X%X;X%X*X.X.X(.(.)././././.A./.)./.).).)..X).).E./.{././.XX X{./.).%X%X%X_./.(./.^./.*Xt.k L t 7 &.R.$X-X-X$XW.T.).+X X].!.!.!.!.).).].].!.!.$X;X-X*XrX-X6X;XyXwXb 6 y i  XoX.XoXoXoXoX{.{..X{.{..XOX.X.X.X}.OX}.oX3XoXoX.X{.}.{.{.}.}.{.{.XX0XNX, > $.B.j.B.D.A.B.] | f._  .G.J.{.(.}.}.(.{.}.{.{.{./.A.A.D.J.J.J.J.{..Xc.9X#.I &X&XyX XC.C.C.A.{./.(..X}.OX.X8XeX_.V./..XXXOXoXoX|.oXXX.X{.R.T.f L R.&XrXkXBXlXeXlXtXuXtXbXtX%X(././.{.8.| N.Z.E..Xg.e s <.g.g.g.u.g.y.j.7X5X% O K '.H.A.A.J.{.D.A.S.N.J.OXeX.X(.{.{.{..X}.4X{.D.(.OX.XaX4Xr _ ].E.). X XXX X].XX.X*X6XrXrX,XrXlXjXjX7XV.). X.X X X%X$X",
"`.Y.&X&X-X*X$X&X&X].R.Z.n.a.C.T.!.'.].E.!.!.!.$X X].].].E.E.E.R.R.Q.I.v G Y.@X@X#X].[.&X&X&X=X2X&X$X@X].E.Z.u.y.W.~.V.R.Y.t.r.5.t.r.-.r.-.q.i.n :.;X X{.[.].XX].].].].XXXX[.[.XX'.XXXX{.E./.A.C.u.8.9.7.T.F x ` Y O.O.! v t t -.x.h.h.Y.~.Y.z.x.i.q.i.h.q.t.a.a.a.V.V.Y.!.T.x.h.R.W.].$X$X X XE.$XhXP.b 4 P V.V.R.).$X$X$XXXoX6X;X6X7X%X.XT.T.A.C.C.T.V.Y.V.h.h.T.h.C.C.c.h.!.!.zXz.R -X%X%X*XwX.X(.{.E./.^./.C.A.C.A././.). X).)././.E././.R./././.(.E./.).).)./././././.T..Xh.n L k l ' r.,.,.:.F a r ' E.!.]. X$X+X X&X$X X]. X$XE.*XrX-XrX7X-X-XnX X& c w 5  XoXoX*X3XwX3X.X{.}..XOX.X.X.X.X.X X4XoXoX3X3XoXOX{.{.}.{.{.{./.{.|.rXyXO > } Z.4X|.oXeX6X| r ; 5 ..{.J.}.}.|..XOX}.XX}.{.{./.u.d.J.}.{.G.E./.6X/.(...q ).,X-XrX.XZ.Z.A.{.{.}..X.X(./..X}.)./..XXXXXXXoXoXwX}.wXcX XE.i.= L !.'.kXBXNXrXcXcX8XwXtX8X8X%X/./.!.}.g.| N.E./.5X^.Z Z ,.g.i.h.u.u.u.C.gX0.o O v '.H.E.A.'.{.{.D.A.N.D.OXoX{.{.}.(.{.}.|.{.}.{.}.}.4XaX8Xg A ].'.].).). X]. XXXXX%X/..X*X*XrXjX7XtX%XE. X X X X). X%X",
"+Xh.).%X;X;X-X6X;X&X[.].!.R.!.+X$X$X$X@X!.~.!. X$X$X&X&X%X&X].@X].#X@Xv $.V.R.R.E.!. X X&X&X-X-X-X-X-X*X-X1X,X-X-X&X&X&X].Q.!. X!. X&X-XhX&X[.W ,..X/./.{.A.Z./.A.A.A.J.'.G.A.A.Z.A.'.'.{.OX{.'.G.G.A.G.rX7.-.a.Y.R.I.y.2.$.Q } } o.,.a.T.R.h.W.fX$Xa.h.Y.~.Y.W.~.$X!.t.<.h.T.E.a.Y.Y.&.*.o.#.:.,.t.$.c 5 L i.E.!.E.!. X$X%X%X;X%X5X%X_./.h.h.j.h.i.k.y.i.V.t.t.t.,.q.i.h.,.V.).zXa.F %X*X;X.XoX.X.X XT.T././.N.j.B.j.B.C.E././.).T.C.C.C.C.D.A.T.(.E.(./.).).E.T.j.i.6.f.N.E.t.9 t T } C _ 7 5 F X.H B 7 t.!.).].%X;X<X7X$X). X%X$X X7XrX7XrX7X7X7XhX! & S h & r.rXXX*X4XoX3X6X.X}.OX.XOX.X}..X.X/..X4X.X3X}.oX}.{.{.(.(.{.{.E.4X|.iX-X  X 6 k V M O.<.C. X X:.C u.C.g.g.F.`.T.T..X.X.XoX5XrXtX3XoX3X|..X{.oXtX/.;._ z %.T.i.A.{.XX*X.X{..XXX/.*X.X/..XC.A.V.V.A.f.j.g.<.f.f.6.j.T.g.o.9 z -X-XkXAXyXeXvXuX7XtX6X/.6X%XD./././.C.V.j.N.C.R. X!.Z.i.h.u.u.u.g.u.C.%XD $ X h m.Z.C.A.A.Z.J.{.A.N.A.}..X/.{.}.{./.(.{.}.oX}.}.}.}.pXB.g I [.'.!.!.E.T.).).E.!.{./.!.OX*XrX7X7XjX;XT.T.!. X X XXX X",
"W.i.T.%X*X%X&X6X*X&XXXXX).W.).$X$X&X$X$XW.W.!.;X&X=X&X&X&X&X$X$X#X=X@Xv i.a.T.T.Q.). X.X;X=X7X7X-X&X*X;X-X-X-X-X&X-X&X$X].T.R.E.@X!.:X$XdX=X#X/ =. XD./.{.{.E.J.A.A.E.{.A.A.Z.A.A.A.{.{.}.}.}..X{.{.D.|.yXXX4.a.Y.z.m.y.5.5.-.-.%.%.5.p.T.T.h.!.<X<X/.;X$X!.$XhX-X=X&XW.u.V.!.'.Q.*XW.o . 1 p X._ #.,.S t t i } t.i.g.j.C.(.)./.)./.C.C.i.,.6.5.5.#.5.t.t.6.5.,.>.*.*.,.g.i.V.E.jXi.7 k..X.X5X.X.X.X/.h.j.j.h.j.6.8.g.V.E./.)._.).E./.E.V.N.h.j.(.A./.)._._. X/.%X).h.u.6.g.h.F $ 6 0.5.C f < 4 S T.r.$.q l i.h.V.k.A.*X$XC.,.q.C.).E.).rXrXrX8XzXx.1 . 6 v y X ! wX.XXX}.XX6X3X3X|..X.X4X.XOXoX}.(.{.}.4XoX}.{.{./.E.E./.A.Z.C.{./.*Xa.O , 3 , y 6 y , 1 : 6 6 O X X X o . . o $ : : 2 i c B _ m V 8.f.u.h././.F.#.B | Z B P F _ ..f.#.;.t.,.<.t.<.u.k.' o.%.' ) B [ [ B ] f.l.] ,.j.,.C k  XhXvXvX8X4X.X;X6XjX8X(.OX(.T.E.E.E.V.k.g.u.V.C.C.Z.V.h.g.u.6.t.6.8.C./.t.U O h b.7.A.D.B.S.'.}.A.N./.}.{./.{.J.A.J.{.}.3XwX|.J.}.}.tXd.e @.].Q.E.T.T.).T.E.T.T.A.j.(./..X;X&X7XtX;X/.i.V.]. XE.oX%X",
"c.a.T.;X%X$X;X;X*X*X&X X X).+X$X&X-X%X!.).). X&X&X-X&X%X*X-X&X&X$XfXI.T W.R.W.T.!. X X;X;X5X;XwX6X*X;X*X*XwX*X-X<X-X&X$X X!.V.T. X!.W.W.;X&X=Xe.4. X/./.{.D.{.A.A.D.(.E.E.E.E.J./.D.(./..X{.}..XOX.X{.3XuX*Xu.V.Y.x.h.a.i.7.4.4.2.%.4.t.h.h.h.T.E./.T.T.i.V.).-X$X].!.!.R.C.g.g.E. X#X, D L t.rX-X$X1X!.P.R.P.y.r.t.,.6.k.f.' | f.T.t.a.a.r.,.t.t.#.%.r.t.*.@.%.' Y Y Y ;.q.t.x.fXs.* u._.).%X)./.^.f.6.;._ ' ;.P I #.,.] ) ' ` ) 6.<.F c b m l B P ] ;.,.:.:.#.,.#.' #.:.} u.L , , c o.X.5.%.2.T #.w.o.N c Y ] ) I ) X.*.X.F a i x k B G c p s a > . + + + +   ~ 7X(./.}. X8X*XjX.XC.A.A./.V.j./.A.A./.{.C.k.A.C.C.V.h.h.f.h.V./.V. X$X2XdX1X<XxXdXKXdXdXj   3 u u j j j ( e.0.0.0.=.! K S F D c v F T U -.i.t.T.h.x.!.P.*.-.-.} } ,.#.l G ' ,.<.] f.C.>.] _ *.:.i.-.t.,.#.#.1.] P } #.A N i.tXjX8X5X6.f.%XgXvXcXwXoX{././.).T.h.j.i.N.N.A.N.u.N.g.g.9.4.4.5.y.V.J.C.;.< n n.} A.A.A.S.A.}.(.V.R. X/.{.{.(.A././.0XiXtXOXC.d.g.PX,.> T !.R.R.Q.!.T.C.V.k.u.h.g./.%X5X5XrX8X X-X7X-X-XrXlXjXrXrX",
"W.i.h..XXX%X%X%X*X;X;X.X X X). X%X*X.X X X X$X$X%X-X-X&X-X-X-X&X$X=Xz.T W.W.!.).).).%XOX*X4XoXoX*X6XwX*X*X,X-X%X%X-X&X$X XE.V.V.).).W.W.!.$XdXy.7.{.E.{./././.{.A.A./.D.{./.'.A./.{./.{.{.{.OX.X|..X|.3XuXA.r.T.~.x.Y.V.N.n.y.%.6.4.8.u.N.V.C.V.k.C.T.C.j./.T..X).!.T.T.T.A.j.B.C.E.rX$.@.c p.&X&X&X&X>XXX&X=X$X X!.T.R.*X).V.E.%X%X*XrX-X1X&X=X;X).).).).!.!.R.P.p.J x q.Y.n.R.$XR.=.t.a.t.x.V.h.c.i.u.y.5.5.=.' ] | #.#.X.Y ' Y #.7 : x.R.E.'./.)./.V.A.A.C.V.C.u.g.N.E.A.V.Y.m.y.a.Y.Z.u.4.%.C.t.u.u.@.&.-.r.r.h.T.!.=X7X7X$X$XE.,.f.h.a.s.z.Q.Q.z.0.~ j u , y t.:.,.6.1._ _ ,.#.6.8.8.V.V.h.C.V.E./. XA.A.). X%X$X).E.E.[. XXX%X-X<X<XkX<X1X<X<X<XmX1X+   / #XdXdXdXdXdXdXdX1XdX<X1XMXdXMXdXdX<X<XhX&XhX$X+XW.~.@X[.#X#XMXdX<X1XkX-X@.' w.k.T.V.g.g.C.h.u.V.!.&XE.'.!.y.u.n.Y.r.-._ N i w N H M ' 6.o.[ v.v.c.W.h.h.g.C.).W.h.C.W.:X!.A.R.A.E.Z.C.Z.7.u.u.V.!.6X<.) 4 k  X'.{.}.{.{.D.)..XC.j.(./.E./.E.V.A.A.*XrXtX.X.XF.B.lX].S ! 0.P.].].E.!.).V.h.T.E.T.` ` O.` } | ,.1.] Y ` F ` >.o.<.",
"h.t.i.W.%X$X%X&X*X*X;X%X). X X X.X%X%X%X X XXX;X%X&X X;X;X;X-X=X$X=Xz.! !.!. X+X).).%X XoX.X5X.X*X5X*X6X*XrX;X%X*X&X=X%X X!.h.g.V.T.T.V.W. XfXy.7.'.E.{.A.{./.D.A.'.E./.C.A.E.E.C.V.A.{.{..X.XOXoXoX3XoXpXrXy.V.T.Y.T.Y.n.Y.V.r.N.g.g.g.N.N.V.B.B.C.C./.C.C.T./..X.Xh.u.^.E.C.T.C.E.1Xr.b 4 Y.=X&X&X-X%X X X&X&X!.E.!. X*X;XoX*X*X-X-X*X*X1X&X-X&X$X).).$X;X&X$X,X<XY.Y.<XhX&X<XhXkXzXkX&X$X;X;XrX-X<XrXrX-X&X-XdXlX1X-X1XxXMXDXAX].& T BX>X>XiXwXuXuXoX3XoX{.oX*XXXoX}.XX3X}.XX>X-X*XXXXX{.XX.XoXoXuXwX-.s.p.h.a.a.h.Y.).;XXX X%X$X).`. X%XrXdXmXmXMX<XdX#XI.p.=.$.#.%.5.V.C./.7 Y ;X!./.E./.{./. XOX%X X;X&X.X.XXX%X X).]. XXX X%X%X*X*X*X7XrXyXiXyXrX:X,   ( I.[.&X&XU.2X#X].Q. X%X&X<X-X$X%X.X.X&X&X;XrX-XW.!.Y.i.Q.@X$XdX&X&X&X1XkXm.b x.W.*X,X>XXX X X&X%X*XXX X X,X,X>X1X<XyXrX*XXX!. X!.!. XE.|.^.] ] $ % % . . $ , 1 u 1 7 a s H p c F H F F E N P L F X.O.; 2 < > #.%.w.,.;.:.;.#.X.*.g.T.W.V.T.].XXE.V.1X). X)./. X6XrXSXLXBX<XlXBXnXlXmXlX-X7XtXnXLXo.o $ - f } %. . .} ' P N C N l ",
"x.h.h.T.).).%X;X;X6X*X.XXX X_.%X%X$X+X_.%X.X.X.X%X$X!.+X%X+X%X&X#XxXs.0.$X+X). X%X.X%XOX.X*X*X%X;X6X7X-X7X7X).h. X-X;X%X X].V.6.u.x.^.T.c.!.#Xn.m.'.E.{././.{././.'.E.{.P :.D./.g.:./.(..X}.}./..X(./.oXNXrXi.E.E.Q.E.E.Y.V.V.h.h.C.h.h.Y.V.C.C.C.h.A.A.A.V.!. X$X.X/.E. X/.T.E.E.!.$X=.i 7 a.;X&X-X-X;X$X).h.W.T.E.). X%X6X.X XXX*X*X*X*X,X*X%X%X%X X X X). XE.Z.i.r.&X-X-X-X7X7XrX<XkX-X,X*X*XXXXXoXXX X X!.!.).%X%X{.*XrXrXrXDXp.X -.rX{.|.|.{.oX4X{.D.F.S.K.{.D.D.J.{.{.|.[.{.{.{.(.A.A.{.|.oX3XaX{.u.!.Y.Y.V.V.T.T.`. X)./.)./.$X).T. X;XrXjXvX7X!.!.R.V.n.N.h.C.h.g.!.%XSX&.T -X]. X!. X/./..X_.)..X%X%X.X X(.%X%X.X$X%X.X$X%X.XoX*X*X6XrXyXrXrXyXUX^ # ( 1X XXX%X2X#X&X X!.XX*X&X*X%X).E.oX*XoX;X.X;XxX$Xx.;Xi.x. X&X*X,XE.%.n.xXQ.P $X!..XXX{./.{./.E.A.A.E.A.{.{. X/.{..XOX{.}.}.oXXX.X0X>X0XiXFXtXq.. ^ P.z.( ~ ~ S t y t a a t x t x j x v W v D S ~ ~ ! U c J T v v b x 8 7 7 < $ 2.$XR.!.].).XX<XrXrX<X&X Xj.V. X6XwXwXrXuXtXtXrXlXjXhXrXrX5X6XwXFX5X  + 3 K '.Z.'.'. XXX'.J.[.XXXX",
"w.h.t.C.T.).+X;X;X7X6X%X.X).).%X%X.X X).).).%X;X7X-X!.W.).W.$X$X&X-Xs.a.!.:X). X%X$X%X.X.X.X5X%X5X6X;X6X7XrXV.5. X*X&X&X].[.Z.4.8.g.V.c.T.W.=XQ.Z.].!./.E.{.{.{.{.'.'.OXZ.u.A.(.A.A..X X}.|.|.(..X/.C..XpX{.u.Z.E.R.E.R.R.R.V.Y.h.T.C.C.C.C.R.C.V.A.Z.E.E.C.!. X XXX X)..X X X'.'.'.].=.y 1 i.5X%X;X&X%X%X XC q ` W.).).%X6X%X.X*XwX*X6X6X,X*XoX%X%X.XXX X). X X&X6.#.6X*X-X-X*X7XhXrXxX<X<X*X*X*XXXoXXX X X).).)._._._.*X-XrX7XmXz.o >.%XOX|.oX{.|.3X.X{.D.D.F.D.D.D.D.D.{.{.{.{.{.D./.A./.D.{.}.3XtX{.u. X!.R.E.E.T.T./.).)..X).%X X_./.%X%X5XrXeX_.T.T.T.h.V.b.a.h.h.f.f.A.BXs.X.-X$X.X X X).).)..X_.)..X%X*X%X.X*XoX.X.X.X%X.X%X.X%XoXwX*XwXrXwXeXyXIXs.# p.=X X.X%X6X.X.X%X)..X.X%X*X*X.X.X%X$XoX;X6X6X7XW.y p &.W.).&X-X*X*X].].-X!.U !./.XX*X.X/.(..X(..X}.(.D.{.OX)././.}.}.{./.}..X}./.{.|.3X0XaXFX`.- E [.dX1X2X<X2X#XR.#X&X[.#X@X&X2X&X1XQ.XX2X'.].1XkXzX<X&XM.[.MXBXMXmXlXT c t = M.#XE.].'.E.{.{.;XrX%X*X).g.V.XXiXtX6X8XeX8XrXeXeX8XeX6X6X4XeXwXGXgXo + 3 E U.H.[.]. X}.D.E.D.'.E.",
"w.k.f.h.T.).+X%X-X7X7X;X%X.X$X).).).+X).).)..X*XxXq.p >.v.W.W.:X$X=Xs.i.i.!.+X).%X.X X_.).)..X%X.X*X*X-X-XrX&X.X*X%X*X1X&X'.V.4.;.8.h.C.W.Y.!.r.h. XE./.(.{.}.J.{.G.G.OXG.S.C.C.E.].oXOX}..X.X}..X}.F.(.uXoXC.R.!.E.!.E.!.E.T.V.T.T.C.T.E.E.E.A.A.E.R.E.Z.N.!. X X.X.X X/..XXX'.'.E.Q.&.x 1 w.+X%X*X;X%X%X<X%XT.T.!.).).&X<X*X*X*X*X5X*X5X*X*X*X*XXX.X X X.X$X$XrXY.k.7X-X*X7XrX7XrXrXjXrX6X7X<X*X*XXXXX X)._.)./.)..X;X6X;X*X-XMXp.. r..X}.3XoX}.|.3X.X}.K.B.g.S.D.A.A.{.J.D.(.D././.A.A.F.K.K.}.3XNX6Xu.&X!.n.R.E.!.T.T./.). X.X%X.X(.(. X.X/._.%X%X).E.T.V.b.N.V.C.g.8.6.u.rXX.' 7X+X).).)./.(./.).(.)..X.X*X%X*X5X.X.XXX.X_.OX.XoX4X5XoXoXwXwX3XoXwXAXP.# z.&Xi._.5X6X;X%X5X;X;X%X%X%X%X%X%X&X%X*X*X;X-X;X;X~.&.&.!.i.;XrX*X*X-X-X<X$X!  X X{.OX.X(.}.OX}.|.}.{.{.(.(.OX{.(./.}.OX.X/.}.}.(.D.K.3X3XaXaX5X< L -.Z. X[.<X<XkX<X1X<X<X<X=X&X&X<X-X,X<XOXy.'.<XrXkXwX.XZ.H.yXnXyXyXNX| z w 4 r.].!.!././.E.E..XrX%X$X-XhX%XyXlXwXwXeXeXeX8XeXeX6XwX6X4X6X6XeXFXjX. + 3 Q G.G.OX.XXX{.{./.{.}.'.",
">.x.t.k.T.).+X%X%X5X6X*X%X%X.X).).).).).).^. X=X0.3 % 1 ~ w.x.!.$X$Xr.r.W.!.). X)..X).).^.E.%X%X.X%X*X6X*X6X*X7XrX%X*X*XXX].Y.u.4.:.u.V.Y.W.x.#.V././.{.{.{.{.{.'.{.J.OX{.V.C.A.A. XXXOXoX.X.XoX3XoX{.OXaXXXZ.E.!./.R./.).E.h.C.R.!.V.T.C.E.E.A.A.T.E.E.R.A.E./. XoX%X X.X X.X X].!.].e.D 7 ` c. X%X%X%XXX-X&X&X).Y.T._..X*X*X*X*X.X.X*XoX*X5X*XoX.X.X).)..X$X XtXi.i.7X7X7XhXrXrXrXrX7XrX6X7X7X7X*X*X.X$X).).(./.).). X5X%X*X-XxXP.3 r.^.3X4X3XXX.X|.}.(.D.d.N.D.D.A.G.H.{.J.(.D.{./.D./.D.D.{.K.3XuXwXT.XX!.-.h.T.h.h.,.<.T._.).!.OX.X.X)./..X{./..X X/./.A.Z.C.V.N.N.B.u.8.).X.Y 7X$XXX).'. X).^.A./._.}..X%X.X.X*X.X.X.X.XOX.X.X.X3X6X0X3X3X6X0X5X6XSX0.# P.=X X%X.X5X%X.X;X;X;X$X%X.X$X%X&X&X%XoX;X%X*X;XXX;X-X<X&XE.&X7X-XrX*X-XhX&X#.$X X/.}..X}./..X|..XXX{.{.D./.{.}.A./.{..XOX}.}.{.|.{.}.4X|.NXGX4Xr b _ 4.{.XXrXrXrXyX<X*X;X*X.XoX%X.X6X7XlX*XR.OX6XrX8XwXoXeXwXiXtXuXZX3X] P i 4 p.Q.).XX). X'./..X;X.X/._.jX'.,XcX8X6X7XeXtXtXwXwXwX0XeX6X7XeXqXVXcX- O h Q [.OX'.XXXX{.{.{.{.}..X",
"' x.5.i.h.W.)._..X*X;X%X*X5X%X).).).).).).).XX&Xp.j , 1 % ~ w.W.!.+Xa.q.E.).$X%X;X%X%X X/.T..X%X_..X*X*X;X6X6X6X-X*X<X,X&XXXV.h.:.] ,.i.t.r.*.P /./.u.B./.D.{.{.{.{.{.OXOX/.C.A.A.R.{.}.|.}.|.3X|.4X|.oXNXoXi.!.).).E.).).!.A.E.E.E.T.T././.E./.E./.!.).E./.^./. X X.X.X.X%X$XXX].'.$X=.t 6 H j.).).XX%X%X%XoX X).:.j..X%X.X%X%X*X*X5X*X*X.XoX%XoXXX%X X X$X%XXXrXY.k.%X;X7X7X7XrX7X7X8X7X7X7X6X6X6X;X%X%X$X X/.E.E.^./..X*X;X*XhXR.4 A.}.}.oXoXwX0X|..X{.D.N.B.A.D.D.D.A.A.J.A.D.{.(.D.D.(.D.J.}.oXcXY.T. X X!.!.E.^././.V./.)..X.X.X5X.X(..X.X.X%X%X.X%X].!.V.V.Z.C.C.u.g.6.T.v ! rX X$X X).)..XC.u.^..X.X.X.X.X*X*X*X;X.X(.{..X}.}.oXoX4X6X6X6XwXrX-XAXz.# z.<X*X5X*X6X*X;X%X%X$X_.%X%X%XoX%X%X%X.X%X5X*X*XoX;X,X*X-X<X<XrX-X*X1X&X-X].$.%X X.X}..X.X/.}.|.}.oX{.{.{.D.B.J.{.{./..X(.E./.{.}.4X}.4X4XpXbXl.* 5 } %.N..X*XwXrXeXoX4X4X.X/.{.}.}..X5X.X.XoX6X3X*X6X*X6XwXwXyXvXuXZX(.B P p < P.$X].$X.X XXX.XoX4X.XOX5XwX.XoXOX}.6X8XeXeXrX8X6XeXrX8XeXeXeX3XaXvX: O t Q >XOX .:..X}.{.{.}.}.}.",
"Y a.r.t.h.T.!.!.T.%X%X%X;X6X.X.X).).).).). X$X&X#X/ h + O v o.i.x.~.s.h.!.XX%X&X&X%X.X;X%X)._.%X.X%XeX;X*X%X6X;X6X7XhX-X-X XY.V.5.#.6.y.5.2.L P OX/._ 9.(.E.{.{.{.J.A.{..X{.C.A.A.A.D.{..X}.}.}.|.|.oX|.lXwXA. X!. X)..X XE.E./.E.!./././.!.!.E././.E././.A.T././.)..X.X.X%X).)./.!.].-.h > H T.).).).%X*X*XXX%X%X^.)..X%X.X.X5X%X.X*X5X*X%X.X.X.X.X.X X).%X X X-XT.Y.).*X6X7X7X7X6X6X7X6X-X7X7X7X6X%X.X.X.X{.{./.E./.)._.%X;X;XrXR.= A.(.}.|.oX8XeX3X{.D.B.D.{.F.A.D.D.D.A.B.A.(.D.A.D./.D.J.}..X.XpXh.E.$X X X$X$X X X.X X.X.X.XoX*X.X6X5X%X6X*X*X;XoX%X X].E.R.C.Z.T.5.#.5.h.i ! ;X XXX$X).). X).(.)..X_..X*X*X%X5X.XF.l.A./././..XoXoX3X6X6XwX,XwXXXAXz.  z.-X%X*X6X*X6X6X%X).)..X%X6X%XoXoX*XoX%X.XoX*X;X%X*X*X*XwXrX7X-X*X-X7X-XfX!.4.,XXX.X}.OX.X}..X|.{.}.{.{.'.XXB.A.}./.{.{.}./.D.(.{.|.}.|.3XpXsX^.< * $.b.N.!..X;X6XtX*X.X}.}.(.{.(.{.OX.X.X.XoX4X6XwX8X4X6X6X4XrXNXcXVXf.{ ` l 4 Y.&X&XoXXXoXXXXX6XoX6XoXoX6XwXeX_.}..X8XwXeXeX6X5XrXiXeXeX8XeXeXcXAX, O d 3.,X0X| ;.OX.X/.{. X{.{.",
"H W.a.r.g.V.).).T..X$X%X%X%X.X.X_. X).).).).XX-XdXdXU.K T @.o.i.z.i.-.W. X%X-X%X.X%X$X X.X)..X%X_.%X5X.X*X5X7X6X7X7XrX7X7X%X XZ.y.4.r.r.5.%.b _ .X%XV.T./.C.A.A.{.J.{.{.{.A.A.A.A.A.(.{.}.}.XX}.}.}.|..XiX>XE.!.). X X.XXX!. X X X/.{.). X X X'.E.C.T./.E.j.^./.(.). X_..X).).).E.!.$Xa.T 7 H W.).).%X%X*X%X%X.X X.XXX%X5X.X.X.X.X5X.X.X.X.X4X.X.XOX.X.X X.X X X%XV.W.+X;X7X7X6X7X6X7X7X7X6X7X7X7X6X7X%X%X.X X.X/.E.T.^.).)..X%XhX X0 R..X|.|.0X0X3X|.{.A.d.D.{./.D././.D.A.A.D.A./.(.D.J./.J.}.|.oXcXg. X.X$X$XXX%X%X.X X X$X%X%X;X6X7X7XrX7X*X%X5X6X5X%XXXXX[.E.Y.Y.E.4.,.t.j.8 R &X X$X.X%X). X(.)._._._..X.XoX*X8X/.] V C./.}..X.X.XoX6X6X6XwX,XrX*XCXn.o ~.-XXX;X6X6X;X;X%X X). X.X*X.X*X*X%X%X.X*X6X6X*X*X7X7X6X;X;X6X*X6XgX-XgX7XC.2.,XXXoX}.}.|..XD.d.|.oX|.{.{.{.D.}.(.B.{./.(.{.J./.{.{.}.|.3XaXaX<.M b !.XXZ.A.{..XOXuX7X_..X.X(./.(.{.{._..XoXoXoXwX6XwX6X6XwX6XyXpXNXLXj.) G i = R.].&X*XoXoXoXoX6X6X6X8X8X8XwXwX8X*X6X6X6XrXtXeXrXtXeXeXeXeX8XeXcXIXy O d } ,XeXoX{..X{./. X X.X/.",
"x i.p.y.t.h.T./..X X%X.X.X/..X%X X).).).)._.%X6X1XMXdXU.y.2.-.i.Y.0.*.).%X;X%X$X%X$X$X_.)._.+X.X.X)..X*X%X;X6X6X7X7X7X8XrXrX&X].R.n.b.y.-.@.c o./.)./.!.R.C././.A.J.{.{.{.{.{.A.D.F.(.{.{.}.}.}.}.}.}.|.pX,XR.).).).).%X.X!.!.{.OX). X_. X'.!.!./.E.^././.T.T.(._.).).).)..XT.T.E.!. Xn.n t X.$X). X.X*X.X&X*X*X%XXX.X%X.X.XOX}.4X.X}.OX.X.X.X|.}. X(.OX}..X.X$X;XY.!.$X;X6XrX7X7X6X8X7X6X;X6X6X7X8X7X%X_. X).{./.T.T.^.^.).).%XrX$X0 V.OX}.3XeX6X|..X}.A.N.{.{.{.(.D.D.D./.A.A./.A.N.A.D.A.D.K.}.3XNX-.E.$X$XXX X%X%X%X.X%XoX-X%X*X7X7XrXrXrX-X6X7X5X%X-X%XXXXXE.T.V.V.a.h.i.i.x X.%X X$X$X%X).!./././.(. X)..XoX%XrXwXj.8./. X.X{..X}.oX*X*XwX6XtX4Xf.jX$.$ Q.*X%X;X6X7X%X).E.).)..X.X.X%X5X%X.X5X%XoX6X6X*X*X*X*X6X*X*XwX5X6X5X7X7XrX).5.XXXX|.|.(.{.3XS.g D.oX}.}.}.(.A.{.D.N.}.{./.E.{.J.{.(.}.|.3XpXpX] l a.<X8.8.).E. X/.T.T.)././.^./././. X.X.XoX5X6XwXwX6X6X6X8XwXeXlXcXAXVX) B 8 < '.XXXXXXoXoXXX*XwX,XwX6XwX8X7XeX7X6X7X*XwXrXwXrXrXeXeXeXeXtXeXiXpXGXp O d 3.>X|.0XoX|..X|.}./.{./.",
"a X.t.t.t.h.C.Y.).). X%X).E.%X%X.X.X X X.X).%XrXaXyX1X[.p.e.y.P.Q.U &.$X$X&X&X%X XXX%X%X).T.).).)..X.X X.X%X5X6X7X6X7XtX8XwX-XXX].Y.n.5.$._ c | /.E./.!./.D.D.D.A.{.A.{.{.'.'.A.A.(.(./.}.}..X}..X}..X.XyX%XV. X X X.X.X%X)./.).).). X X.X X{.{.!./././.T.^.).).)..X)..X X).T.^.^.E.[.P.c 7 #.-XXX&X%X%X&X.X%X.X%X.X.X X_._..X.XOX.X4X.X.X|.}..X.X/./.).(.}..X.X%Xw.+X$X;X*X-X-X;X6X6X*X6X8X/.%X7X7X5X.X.X%X_./.(./.T.T.^.T.).%X7X$Xf (..X.XoXeX3X.X|.}.J.A.J.|.{.D.D.{.{.J.G.A.{.j.4.A.D.(.D.K.|.3XlXR !.$XXX XXX.X%X_..X*X*X6X*X6X8X7XrXjXtXtXrX7X7X8X%X<X*X*XXX/.R.T.R.V.V.g.q X.$X X X XXX%X^.d.(././..X.X.XoX*X*X8X.X)..X.X.X.X.X*X*XXX*X6XwX8X#.m %Xo.& Q.*X&X7X7X7X%X).,.).).$X%X5X%X.X.X*XoX*XoX5X%X*X*X7X*X6X6X*X6X%X*X=X-X-X-X%Xy.oXoXoX|.}.{.|.0Xd.d.}.oXXXoX}.D./.{.}.}.{.{.{.{.{.{.{.}.4X3X8XpX1.B h.,Xb.i.+X(.C.j./.^.C.6.j.A.A.). X.X.XOXoX5X6X6X8XwX8XrXwX6XtXtXlXlXAXk.e 7 9 Q.1X%X.X;X6X*XwX6XwXwXwX6X6XeX8X7X6XrXrXrXwX7X8XwXtXtXuXuXtXeXeXpXLXH . h 2.OXXX3X5X|.{. X}.}.{.J.",
"i #.i.t.t.t.g.c.`.).).). X%X-X;X&X%XXX XXX.XoX,X1X<X&XR.p.y.a.P.Q.v *.$X&X&X;X*X$X X%X.X).T.h.T.)._. X).%X%X6X7X7X7X7XrXtXrX7X%X X!.R.p.@.W f } C.V.!.E.Z.D.D.D./././.A.D.{.E.A././.{.{.{.{..X}..X}.{.}.rX>XV. X).).).). X.X).).).).). X.X X X)./././. XR./.T.)./.).).)._.).!.).(.!.Q.I.T < >.-XXXXX%X*X*XXX.X.X.X)._./._./..X_..X.X(..X}..X}.}..X.X.X_..X.X.X*X7X' h.k.h.$X6X*X;X*X*X*X3XwX3X7X8X7X$X)..X.X.X_.).T./.^.T./.!.E.=X&XN .X|.|.3X3X3X4X}.{./.D.{.}.{.{.J.{.{./.A.D.J.A.Z.A.N.A./.J.|.oXtXL $X&X$X X X.X%X.X.X.X*X6XwX7XrXtXuXuXtXtXtXrXjX8X*X7XrXrX.X X/.E.R.V.h.t.q ' ;X].$X$X%X5X.XV.).OX.X/..XOX.X%X5X*X*X*X*X*X.X.XoX6X;X.X*X6XrXkX$XQ.vXY.3 Q.&X&X-XwX6X.X XE.).oX%X%X*X.X%X%X*X*X*X.X%X;X5X;X;X;X6X5X;X5X.X%X;X5X;X;X%Xy..X}.oX|..X}.(.}.3XD.{.N.(..XoXD.D.(.}.}.(.(.{.G.J.{.(.}.iXg.r { +.P R.&X%XoX*X%X5X.X X*X.XN.V.C.6.i. X X.X%X.X*X6X8XwXwXwX6XwX6XwXrXuXyXZXIX>.; 5 V.&X&X*X6X8X,XwXwXwXwXeX6X6X6XeX5X7XeX8XwXrXwX8X8XeXuXuXtXtXtXeXtXIX+.$ y 2.>XOX>X4XoX}.}.}.{.|.A.",
"a q.!.y.r.r.h.j.T.).).).).$X*X%X%X%XXX X X.X.X*X<X<X$XE.T.Q.Y.x.x.i q.;X%X&X;X*X;X.X+X).).).T.C./.)._..X.X%X;X7X6X-XrXtXjXrXrX-X X!.R.p.$.C k } T.V.A.G.A.A.A.E./.D./.D.A.{.'.A.D././.D.{.}.}.}.}.}.{.}.eXXXV. X$X.X.X X X%X)./.).T.)..X/.)..X)./.)./.!.E.).E.).)./.).(.).T.E.).).Q.Q.z.U 1 i.7X$X%X%X*X%X)..X.X.X.X)././.(.}./..X.X.X.X.X{. X.X.X.X.X X.XoX%XhX-Xt >.>.] <..X*X*XoX*X5XoX5X6XwX7XrX%X+X%X;X%X).)./.T.T.T.T.T.h.+X&Xf E.|.|.3X3X4X}.}.{.{.A.{.}.{.{.{.{..X/.^.(.'.G.H.{.d.g./.{.OXoXlXU  X%X%X%X)..X*X.X.X%X6X5XwXrX7XtXtXtXtXtXtXtXrX7XrXrXtX7XT.T. X!.R.Z.i.t.w I $X X&X%X.X%X X). X.XOX.X_. XOX.XoX6X6X*X*XoX%X.X%X5X*X4X6XoXXXrXrX<XmX!.* ).6X;X;X*X;X%X_./..X.X.XOX_..X_..X*X.X.X.X XXXXX.X.X.X%XoX%X.X%X.XoX*X6X-X.X6.).A.|.oXoX|.{.{.}.}.|.g.S.}.}.{.D.{.}.}.}.K.F./.D.{.{..X8X(.e g [ I $X].%X%X.X*X.X%X$X$X$X%X)./.6.6.{..XoX*X6X6XwXrXtXrXrXwXwX6X6XwXrXyXVXGX1.% < p.1XXXoX6X6XwXrXeXtXwX8XwXwXeXeX6XwXrXwXwXiXtXwXeX8XtXuXuXtXiXuXpXIX>.X i 7.>X>XXXoX|.|.|.}.{.}.{.",
"i w.Q.i.r.t.y.6.k.).`.).).$X.X%X%X%XXXXX.X%X*X%X1X1X Xu.N M q.x.x.F >.$X$X%X%X6X6XXX/./.).E.E.V.C.).+X+X+X%X%X5X7X7XrXrXjXtX-X&X&XE.V.y.$.C w | A.C.N.Z.Z.A.A.C.^./.D.A.A.{.A.D.A.A./.{.{.{.OX}.{.{.{.}.iXoXg.).).%X*X*X X%X`.T././. X)..X.X.X).)./.E.E./././.)./././.T.).T.E.!.!.Q.P.P.~ : s.%X$X%X%X%X.X(.)..X_._. X/./././._..X.X.X.X_. X)..X.X.X.X XOX*X&XBXr.> x.:.] | C.5XoX6X*X5X6X5X8XrX7XgX7X7X%X%X%X X).E.T.A.E.T.T.T..X;Xw C.}.|.>X>X3X|.}.}.(.A.{.{.{.{.A.d.D..Xk.B.D.A.{.J.D.A.D.D.{.6XzXT $X X$XXX X).%X.X.XoX6X%X6X7XeX7X5XtXjXuXrXtXrXrXjX7XtXjX).!.XX'.!.C.h.5.w %.;X XXX.XoX.X.X). XXXOX^.C..XOX.X.XoXoX5X6X4X*X X.X.X6X*X4X6X3XoXrX7XlX&X4 h.). X;X%X$X X X%X). X.X X.X_._.%X%XXX). X).E.).XX.X). X/.T././..X%X;X%X%XT.i.*XXX3X>X6X.X(.}.}.}.}.S.B.}.{.J.{.J.(.(.{.^.(.{.D.D.}.4X4XcX}...Z I  X&X*X*X%X&X%X;X$X&X$XXX X(./.). X.X&X6X;X6XrXtXyXrXiXrX;X*X6X%X8XgX8Xw.p ; 4 n.&X,X,XwXwXwXeXrXwXeXwX8X8X6XwXwX6XrX7XwXeXtXwXwX8XwXwXuXpXtXpXtXGXw.o w b.,X|.>XXX|.|.|.}.|.}.{.",
"c s.!.z.2.y.y.] ` T./.).). X_.%X%X$X.X.XOX.X%X&X1X%XXXi.t & U x.q.D *.+X$X%X.X%XC.<.t.T.$X XT.n.h.T.!.+X_..X%X6X7X7XrXrXjXrX-X*X&X'.n.2.$.C w %./.A.A.Z.A.E.E.A.A.A./.A./.A././.A.{.A./.{.{..X}.{.{.{.{.wX{.N..X.X$X%X%X&X*XR.T.T.}.T.^..X.X.X.X/.)./.E.E.E.T.)./.W.T.T.).).). X!.E.Y.z.U : x.;XXX%X%X.Xd.<.(.(././././.A././..X.X(..X.X}..X.X.X*X%XOX/.{.*X<XBXa a $Xa.:.| C.5X.XoX5X.XoX5X6XtXjX7X<X6X5X%X%XoX).!.!.A.A./.(.`.%X).P OX}.|.>X|.3X3X}.}.K.D.{.}.{.{.{.7.C.}.F.A.D.A.A.{.D.D.{.B.A.tX5XI &X X.X$X.X).%X%X5X6X*X*X6XrXjX8X7XjXjXlXjX7XrX8X7X8XhX8XrX-X$X].E.T.g.6.9 #.6XXX%XoXoX*X%X X.X.X.XC.C..X.X.X.X*X6XoX*X*XoX.XOX*X*X*X*XoXoX6X6X6XjXrX8 E.oX*X;X$X%XXX&X%X.XXX%X.X.X%X%X*X*X;X%X%X X$XXX%X.X*X.X.X.X).(._.%X6X7X4Xt.6..XoX3XoX.XOX}.OX}.}.}.D.D.}.{.J.}.K.{./.D.D.(./.(./.{.|.3X0XFXeX_ P $X&X*X*X%X*X%X.X%X.XXXXX).T./.)..X%X;X*X6XwXrXyXtXtXtXrX-X-X7X8Xk.{ r p F < 8 Q.XXXX*X6XwXwX8XwXeXtXeXwXwX6X3X6XwX6X6X7X7XeXtXwX6X8X6XeXtXtXjXjXLXi.$ k 7.XX>XoXoXoXoXXX}.oX}.{.",
"a s.!.m.2.r.u.<.,.C.E.).).T._.). X$X.X.X+X.X%X%X XXX X#XP.-.e.p.0.c ~ ;X;X$X5X+XP N B f._. XR.h.h.j.T.E. X.X5X.X+X5XrX8XrXrXrX<X&X].Y.y.$.C q :.OXZ.Z.E.C.A./.A.C.A.R./.(.E.A.A././.{.{./.{..X/.{.(./. X.XA.h..X+X%X&X%X%X X]..XC.R.{./.%XXXXXXX/.).)./.).E.E.T.E.C.C./.). X X].].!.P.p.D 1 W.%X%X%X%X6X/.A./.).).^./.E.A.A./.}.}..X.X_./.(..X.X.XT.T.)._.oX,XwX, O.rX&X X/. XoX5XoXoX.X.X5XwXwX7XrXhX*X5X*X5X%X X)./.E.A.C.T.E. XE.,..X/..X|..X.X|.}.(./.J.(.}.{.'.{.G.S.D.{./.D.C.B.D.{./._./.(.eX%X' %X.X)._..X%X;X.X%X%XoX6XrXjXuXuXjXuXjXjXlXjX7XtXtXhX8XjX7X7X;X%X!.T.i.,.1 Y ;X$X%X6XoX*X%X.XOX.X.X.X.X{.)..X.X5XoX5X*X,X3X,XoX*XoX.X*X*X*X6X*X*XeXlXz  XrX*X<X-X%X*X.X%X*X*X5X%XoX*X%X%X%X;X%X%X%X*X.X*XoXXX X.X X/.{. X&XrXjXOX| | ^.OXoXXX|..X.X|.}.}.{.}.{.{.{.K.J.{.}.J.D.J.D.D.{.|.}.}.|..XNXeXV #.&XXX.X*XoXXXoXoX.X.XXX X/.A./.{.XX*X5X%X*X8XeXeXwX7XjX7X;XgXhXlXlX!.Y S D O t ].&X*X6X7X7XwXwXeXrXrXrXwX3X3X*XrX,XoXoX*XwXwXeX6X8XeXtX8X7XuXpXuXGX`.; g 4.oXoX>X0X3XoXoXoX|.{.}.",
"a q.$XI.y.5.5.u.h.V.T.E.).).).T.T.).).)._.)..X).).$X$X$XR.m.p.s.r.F p +X;X$X-XrX,.l e ] /. X XT.h.v.T.^./.(.^.A.^.(._.).;XNXrX1X&X].n.y.$.b 8 6.{.Z.{.{.A.A.D.A./.A.N.C.A.A.D.A.A.{./.A./.{.{./.{./.E./..XC.i.%X).XX%X%X&X.X[. XN./..XXX&X.X%X.X X{. X X/.E.E.Y.T.A././. X X$X X@X!.Q.p.x y ).XX$X%X;X*X.XOX.X X).(.A.E.A.E.(./..X.XOX X/.OX}.{..X/.).).E.;XwXn.: h.!.$X-X$XXXoXoXoXXX4X3X4X3X6X8XtX7X;X%X.X.X;X X)./.E.R.E.E.!.$X!.} T. X}.{.3X4X.X(.(./.{.C.D.(./.{./.A.D.D.D.B.B.A.A.D./.(.^.(.uXT.P E.x.E. X).]. X$XoXXXXX*X*XeXyXtXuXuXjXjXjXjXtX8XjXjXjX7X8X6X%X.X/.E.g.%.5 F 7X$X%X;X.XoX.X.X%XOX}..X.X.X}..XOX.X*XoXoX6X*XoX6XoX.X.XoX5X%X6X6XoXrX8XN /.rX,X-X-X%X&X%X%X.X.XoX.X.X*X*X*X*X*X%X*X5X;X*X&X&X.X X.X X XXXoXrXeXcXB._ :.{.}..X|..X}.4X|.}.(.{.{.{.{.{.(.{.D.{.{.A.A.A.A.D.{.F.(.}.4XpXrXZ | &X XOX.X%X*X*XoX.X XXX X^.C.T.{. X.X.X.XOX6XwXeXwX8XeX/..XeX<XkXdXmXDXSX=X3 9 #X1X-X6X7X8XrX6XrXrXrXrXrXwX6X3X6X6X4XoX}.oXwX6X6XwXwX6XoX5XwXtXiXPX`.; f 7.wXoXoX*XoXXX}..X|.}.(.",
"t *.+XR.y.2.<.t.h.h.V.!.Q.E.(.t.i.W.).).). X X!. X$X$X X~.P.s.y.0.x i +X$X$X&X-X&Xa.r.V.T.].XXg.f.j.g.C.j.j.C.^./.^.^.^.T..XhX1X2X Xn.2.$.C 8 y. XA.G.D./.D.{.D./.D.N.6.C.A.D.C.S.Z.{.E.(.{./././././.'./.6.,.)..X%X%XoX%XOX}..X).)..X*X*X%X*XXX X X`.).).).T.T.V.!. X!. X.XXX X!.].[.z.i k $X;X$X%X<X*X;X*XXX.X X/.C.A.E././. X_.%X%X$X)./..X XOX)..X.X{.rXmXP * c.!. XXX$X%X*X5XoX.X%X5X5X6XrXrXtXwX5X6X%X%X%X;X.X X XR./.).!.$XT.b ^.{.{.}.|./.OX}./.(. XC.A.A.'.{.A.A./.F.E.N.Z.E./.J.^./.D.D.uXy.@. XV.$X&X X). XoXoX X*X*X6XrXlXcXtX8X8XjXbX%X5XbXcXlXjXrXrXrX%XE.).Y.i.%.5 S ;XXX&X;X%X%XoXoXoXoXXX}.OX.X}..X.X.XoX4X5X5X5X5X6X6X6X4X.XoX.X*X*X%XrXlXI {.7X-XrX7X%X&X6X*X%X.X6X%X%X*X6X;X6X6X6X5X*X6X*X*X*X%XXX.X/._.%X;XwXrXuXj._ 6.{.}.}..X|.3X|.oXoX/.{.|.{.{.}.{.D./././.A.S.A.A.D.(.D.{.{.|.tXeX| I ].$XXX%X&X%X%X%X%X X X)./.j.C. X X$XoXOX.X6XwXwXwXtXrX.X6X7XrXjXrX<XhXmXIX$.4 '.&X%X6X6XwXrXwXwXrXwXwXrX7XOX}.5X5XoX_.OXoXwXwXtXtXrX8X6X8XwXiXpXLX(.; f b.,X>XoX}.oXoX.XOX.X.X.X",
"x q.;XQ.p.2.t.5.i.j.V.E.!.E.W.h.a.h.).{.E.E./.T.!.$X$X!.R.P.y.-.-.x 7 f.&X$X]. X&X1X$X XE.E.E.=.V.C.6.f.j.N.C.A.E./..X/.^.f.V.%X%X!.n.2.-.Q f 5./.R.A.A.D././.D.(./.A.D./.A.E.g.g.E.Z././././..X.X/./././.h.,.).)..X.X*X.X.X X{. X X%X%X%X%XXXXX X X)././.T.T.E.E.!./. X XXXXXXX].E.I.z.8 N %XXX.X%X6X6X6X4X*X.X.X/.A.C.A.A.^.).OX%X;XOX!.'. X.X.X_./..X.XtXkXb 5 ).$X$X%X X%X5X6X6X.X%X%X%X6X7X7XtX7X%X%X%X%X%X.X.X X%X).T.T.E. Xp.$.E.A.'.{.}.}..X}. X{.{.A.D./.A.A.C.A.D.F.A.N.N.A.{.D./.D.(.(.tX6.5.;X X%X%X X%X.XXX.X XOX;XwXrXjXvXuX7XtXpXtX^..XtXtXjXlXlXkXrX7X$X XE.u. .4 F *X X*X*X.X.X%X%XoXXX.X.X.X.X{.}./..X.X5X5X.X.XoX5XoX*X*X%X/. X*X*X%X7XcX_ .X7X*X-X6X.X%X;X.X%X.X.X*X.X5X5X.X*X%X*X*XoXoX6X*X.X%X.XV.C.). X;XrXuX8X6.P C.XX|.|..X.X|..X.XoX{.oX|.}.K.J.{.}.{./.D.A.A.S.B.A.{.{./.(.|.uX6X,.r.].&X%X.X.XXX%X&X$X$X X).(.V.C./.XXoXXXoXoX6XeX6X8XrXwXrX7XrXrXjXrXkXrXdXdXY.W E.-X&X&X*X*XrXwXrXiXrXrXwX6X*X.X3X4X.X/..X5XtXuXtXeX6XeXeXtXtXuXpXGXF.$ 8 M.>X>X3X}.0XoXOX.X%X.X.X",
"S ~ +X+XR.=.#.} :.h.T.^.E.).!.W.Y.t.%.a.h.j.T.h.).$X$XT.x.P.m.y.2.F y o.gXE.R V.%X X!.Q.T.T.T.T. XR.a.V.-XT.V.T.T./. X;X^.C.6.t.R.E.a.3.=.I k i.{.Z.A.{./.D./.D.A.C.S.{././.E.A.B.B.A./.A.A.E.oXoX{.E.A.!.g.$.).).+X/.oX5X6X*X X X%X%X$XXX%X%X.X X).).E.T.T.^./.T.!.{. X*XoXXX*XXXE.m.e.i ' %X%X.X*X7X6X%X*X.X%X.X.X/.C.A.E.R.E.)..X*X X/./.R./..X.X.X_..XrXlXL 5 h.$X$X*X*X*X.X.X%X.X%X.X%X%X7X6X7XrX;X$X%X%X.X X.X X.X`.E.T.T.).u.A. X'.{.{.{.|.}.XX}.{.{.A.A.{.{.A.Z.D.A./.C.j.F./.D.E.G.D.{.{.rX9.V.*X*X X$X$X.X%XC.C..X.X6XrX6XjXeXrXrXtXuXlXuXtXtXtXuXuXtXuXjXrX7XXXE.u.#.w x 5X%X.X;X6X X.X*X5X%X4X.XXX X.X.X}..X4X6XN.;./..X.X%X;X*X*X.X.XoX*XoX8X8XZ  X6X7X7XwX%X%X%X%X*X5X.X.X*X5X%X%X.X*X%X%X%X6X;X5X%X.X.XT.T.%X X;XyXBX6X:.z C.XXoXD.9.J.|.3X3X|.4X|.|.|.K.K.|.|.{.}.E.A.A.N.A.A.A./.D.{.3X8XB.F.V.].].*X*X%X$X%X X X$X). X).A.N.A./..X.XoX*XwXwX6X6X3X6X6X8XwXrXrXrXkXjX%X+Xx.' E.&X&X1X*X6X7XrXrX8XtXwX6X5X6XoXOX.X(..X.X6XtXtXtXwX8X6XrXuXuXuXuXCX5Xr d p.,X>X|.|.oXqX|.{.}.OX}.",
"H 6 a ~ ! b k l l F Y Y Y G ` ' X.Y c p H F F ' i.w.h.i.,.p.a.r.r.Y r H gX-X$X X&X&X X!.T.T.x.!.$X-X!.E.hX-X!.A.A./..X).T.Y.5.] 9.u.V.y.%.L k 8.E.E.A.A./.A.A.D.A.S.B.A.J.A.G.'.A.A.D.D.A.A.A.{.!.Z.Z.C.E.-.g.%X).)./.%X*X*X*X%XoX;X$X%X%X%X&X%X X!.E.T.E.^.E.T./..X.X*X&X%X%X&X$XQ.m.2.i r.&X&X6X;X*X*X%X$XXX). X.XOXR.u.A.T./.)..X*X/.{. XC./..X.X).$X.X*XmXR ; j.%X$X*X*XrX*X.X.X).). X_..X6X6X6X*XOX X%X_.%X).).).).).).T.)./.6.R.{.{.{..XOX}.}.OX}.{.D.B.A.G.'.E.{./././.C.D.^.C.A.{.E.E.A.A.yX%.C.-X%X;X%X X%X%X(.A._..X5XrX.X.X5X6XrXyXlXlXlXlXlXuXtXjXtXrXjXhX-XXX!.u.#.7 x -X%X;X&X5XoX6X5X*X.X.XoX.X.X.X.XXX.X*XrX/.g./..X.X5X6X6X.X*XoXoX5X6XtX7XA ).5X;X6X;X%X%X.X_.%X*X%XoXoX6X*X%X5X;X%XoX%X*X5X%X%X). X).). X.X XrXzXtX,.P A.oX3X}.8.K.4X4X3X3X3X3X3X{.F.G.{.{.D.{.{.A.A.A.Z.B.A.D.D.F.wX4Xg.F.C.&X&XXX*XXXoX%XXX). X+X).).E.C.C./.OXoX*X6X8XrX8XwX6X6X6XwXrX8XeXrXhXrXc.T.j.@.V.XX*X,X*XwX6X7XeXtXtXeXeX3XoX5X.X{.}.OX5X7XeXuXuXeX8X4XeXpXcXtXtXVXJ.e 9 b.<XoX|.oX4XoXoXD.g..XoX",
"/ ~ H O.@.@.=./ L b b I F P T ! L $.e.q.q.s.r.W.Q.4 y ' L R L n h 4 $ : ).-X=X&X-X&X-X%X!.).;XgXhXrX=X$XrXBXBX X/..X).!.E.R.t.:.,.u.V.u.} b k f.G.E.Z.A.A.A.A.J.A.S.N.A.{.D.A.A.A.A././.A.Z.A.E.Y.V.Z.V.i.] h.).). XXX$X*X*X;X*X*X*X&X%X&X7X&X;X X).).T.T.T.).).XXXXXX*X%XXX%X$X$XE.x.*.i !.=X$X6X;X*X;X;X{.].h.E.&X$X).V.C.T.^._.).%X^.E..X/..X.X X). XOX*XlXq.i T. X.X;X*X6X;X;X.X). X X)._.5X3XoX.X X X.X).).).).).`.).!.E.E.E.t./.(././.}.}.|.|.OX{.{./.N.A.J.Z.{.E.{./.E.C.D.^.B.C.A.D.A.A.E.wXr.!.-XXX$X). X%X.X%X.X%X5X;XtX7X)..X*X8XuXyXlXlXlXyXlXrXjXuXtXjXrXrX%X!.a.%.7 p $X).$X%X*X5X%X.X*X.XXXXX.X{..X.X.X.XoX*X,XXXoXoX%X;X%X.XoXoX%XoXoX5XeXtX] C. X&X*X-X;X5X%X%X%X.X.X%X*X5X6X6X6X%X;X*X.X%X6XE.T.%X_.).).%X.XXX;XjXrXa._ A.oX.X(.{.4X3XoX6X4X3X8X4X(.A.{.J.{.J.(.D.A.A.A.S.D.{.L.{ d.wX.Xd.6.V.1X%XXX%X$XoXXX%X)./. X X).).V.Z.!. X*X6X6XrXwX8X8X6X6X6X7X7X6X7X7XhXjX7X$Xh.:.E. X*X*XoX5XwXrX8XtXjXtXrX3X4X.X.X_..XoX3X8X6XeX8X8X8X5X6XlXcXpXeXZX(.e 8 R.rX>XoX3X6X5X3X}.B..X5X",
"R.&X$XQ.].[.XX[.].XX1X&X&X<X&X$XQ.].&X&X$X,XiXkXmXT p.=X&X[.].].P.m.~ t X.Y.Y.Y.T.h.x.h.Y.i.s.q.Y.Y.i.i.h.x.f.#.-.w.x.a.h.t.-.#.' @.2.$.C l w 8.E.A.E.A.A./.E.D.A.N.N.B.A.A./.E.A.A.A.Z.A.A.C.E.V.Y.V.b.5.) u.).).). XoX*X*X6X*X%X;XXX.X;X-X-X%X$X).E.V.T.).). X.X%X*X;X;X.X&X%XXXQ.a.@.k !.&X&X7X&X.X$X&XE.V.).).]. X XV.V.C./.).).T.u./.)..X X)..X). X.X.X<XT.l T. X$X%X;X6X6X%X_.).)..X(./..X;X*X%X X)..X.X).)..X).).).!.).!.T.,./.{./.}.{.{.}..X.X{././.N.S.A.C.A.A.E./.D.A.A.D.%. .A.F.A.A.{.wXi.].&XXX X%X%X).%X X.X%X;X5XjX8X%X%X%X6XtXlXlXlXlXlXtXrXjXtXhXrXrX-XXX!.V.:.< y ;X$X X.X%X%X)..X*X.X$X.X X X)..X.X.X.X.X*X%X%X5X%XOX.X.X*X6X*X;X*X;X8XuXh.C.E..X-XwX5X*X.X_..X;X XOX.X*X;X%X X*X*X%X%X%X*X).). X.X).).).). X*XhX XT.,.g..X}.J.}.|.|.oX4XoX3X6X3XK./.{.{.{.A./.D.A.B.d.S.d. .B.{ d.3X(.6.} E.-X&X;X*X*XXXV. X XE././. X).T.C./..X*XrXwXrXrX7XeXwX6X8XtXeX7X7XrXrX7X7X%Xh.#.!.&X*X.X*X6X6X6X7XjX8XrXwXwX5X}.|.OX.X3X*X8XwXeXeX6X3X.X6XlXuXtXpXbXv.; d '.iX,XoX3X3X3XoXXX4XOXOX",
"E./.[.E.'.'.'.'.'.A.G.E.A.Z.Z.S.C.C.C.A.A.A.A.Z.&Xn.n.XXXXXXXXXXXX#XH.I.u.n.V.u.V.6.t.u.N.r.#.h.a.y.5.y.g.j.5.6.i.C.u.%.,.l -.h.5.2.3.2./ E W #.r.,.5.t.h.h.p.h.N.t.,.g.h.g.b.V.V.N.h.8.f.C.V.f.t.u.n.7.$.C ,. X(.R./. X5XoX%X7X6X%X.X.X7X*X.X%X X X$X!.!./.). X).;X%X%X5X%X).).).E.r.X.F +X=X;X-X&X;X*X).).T.E.E. X X XE.V.N.E./.).).C.^.).).).).).). X).!.XXXXY h.). X$X&X;X*X%X.X).). XC.j..X%X%X.X)._..X X!./.&X.X). X+X$X$Xi.#././././.OX{..XOXoX{.{.!.A.A.A.C.B.C.D.A.A.B.A.'.Z.b.V.C.N.A.OXrX%.y. XXX$X$X.X%X_.).).$X7X7XjX8X%X%X.X6XgXlXlXlXjXjXjXrXtXrXrXrXrX1X].E.n.%.t t ;X!. X&X-X7XT./.*X%X.X X X.X)..X)._. X X.X X.X%X*X/.T.oX5X*X*X*X5X*X*XyXZ. X X X5X;X;XoX5XT.).%X X.X.X6X;X7X;X%X%X.X.X5X6X*X%X.X5Xj.W.).).%X%X8X;X).h.t..X}.OX4X3XoX3XoX3X.X3X|.D.D.A./.A.D.S.C.g.g.N.B.L.A d.A.}.N.l.1.A ].&X&X-X6X7XeXC.!.XX.X!./.(./.).T.T. X*X,XrXrXrXwXrX6XOXwX7XrXeXjX7X7X6X6X%XC.) Y. X-X%X;XwX/.%XwXwXrX6X6XrXoX}./.4X5X5X6X7XeXrX8X6XoX.XOX.X8XyXjXVX^.* l H.yX,X0XoX3X6X.X|..X|.|.",
"N.A./.D.A.D.D.{.{.A.A.A.C.C.N.B.N.N.N.N.L.g.g.C.A.%.8.{.{.{.{.{./.!.'.'.E.{.E.n.R.R.E.A.'.{.{.{..XoXOX|.XXoXwX>X0XNX<X1X'.Q  X*X<X,X>X>X2X1X1XQ.R.E.E.!.T.T.E. XXX$XXX).W.R.R.].E.!.y.I C Z l V i.E.&XrXa.$.@.@.] ] ] ' o.,.>.>.f.l.6.f.^.6.,.E.g.h.j.T.h.h.C.)..X6X$X7X7X;X%X.X XT.#.:.Y q.+X). X).!.j.u.6.w.1.6.h./. X X!.C.R.E.^.T././.!.T.E.Q.E./.E.T./.!.&Xh.5.T.$X`.W.).%X%XrX%X.X%Xj.u.T.^.%X%X_.%X.XC.f.C./.). X$X$X$XhXi.,.%XE././..X.X5X.XoXXX}.{.].'.'.A.E.C.A.Z.S.B.A.E.'.'.V.g.8.u.oXyX5.i.!.rX&X%X*X;X%X X).%X.X;X;X%X).&X;X6X7XjXlXxXjXtXjXrX7X7XrX-X-X-X;X!.V.} 7 8 $XV.E.$XXX-X;X$XXX$X X X). X%Xw.#.C.!. XXX.XXXoX%X.X.X X!.{..XXXoX*XoXcX/.T.rX;XxXbX5XE.7X X;XfX+X/.%X7XgX5X6X+X%X.X.XA.k.h.^._.;Xi.t.`.T.j.l.>.%XT.%.N.'.{.OX.X3XoXoX.X|.(.D.(.B.N.A.J.A.D.S.B.d.d.8.d.L...L.D.(.:.[ ] } ].&X%X&X-X6X;X%X%X;X*X.XA.A.!.).T.j. X*X*XwXrXwXrXwX6X*X7X-XrXhXlXrX7X&X%X5Xf.F Y.!. Xg./.6XoX5XwX8XtXlXwX-X*X}.}.oXrX7X7X6X7X6X6X6X*XoX*XOXwXrXrXbX`.* W [.yXwX,X3XoX|..X}.}..X.X",
"B.C.D.D.A.B.A.{.{.A.S.A.S.N.N.g.N.L.g.g.g.8.b.C.R.:.6.{.E.'.E.{././././.R.E.'.A.R.{.E.A.A.A.A.Z.Z.A.A.D.D.{.{.J.D.3XyXnXn.2.&XoXXX.X X[.].&X].E.E.].E. XE.!.].$X].&X$X$X]. X]. X&X1XXX].R.5._ l t.&XdXUXrXR.p.5.#.I B B N F M F G B B ) ] ] #.,.#.*.-.,.#.' #.o.;.o.` H O.o.` ' f.g.#.' 2 : D H o.,.k.k.6.;.w.,.>.G I t.,.w.#.>.t.i.t.a.j./.T.).^.T.T.h.i.{.Y.$X*.1 H o.X.) ;.#.,.w.#.:.w.;.' I :.T.T.w.G H l i q N m M o.,.,.w.L } .XC././.)..X.X.X}.{.E.E.'.{.A.B.C.C.D.A.A.C.{.E./.A.A.C.g.6.oXvX| X.t.W./. X_.%X!.).C.t.f.).;X). X X$X5XjXvXlXbXzXxXlXzX7X7X8XjX7X).T.t.:._ 7 < !.a.!.).&X5X7X7X;X%X X).j.E.8X.XV.).). X'.!. X X%XrX^.A.{..XeX8X8XeXtX8X] q H s s s p 2 a H s s a M G B s s p q p s q 2 ; < 2 2 r 1 . $ $ % 2 % : $ y h.A.'.}..X}.}.}._..X(.A.B.j.B.B.B.S.S.N.g.g.L.8.9.9...N.tX9.s s < Q 1X#X&X.X;X&X%X+X_..X,X;XoXR.T.!.).T.].XX*XrXrXrX*X6XwXrX7X6X-XrXrXrXrX<X;X7XX.8 $XXX X .C.oXrXwXrXrXuXBXyXrX6X{.{..X5X6X6X%X*X*X*X*X4X6XoX8XyXrXrXbX`.; n [.yX,XwX0XoXoX}.{.}.4X|.",
"N.B.A.A.A.B.A.D.G.A.A.A.A.N.N.N.N.d.g.8.g.b.8.u.C.%.9. XJ.'.{./.D./.E./.E.{.'.E.E.E.C.C.A.N.A.S.A.N.S.g.D.D.D.(.D.(.oXlXV.4.5X XOX.XXX X{.'.!.!.!.'.R.!.'.E.].].&X&X X X]. X X X-XrX1X!.1X!._ m :.&X<XkX<X2.Z.].V.$.} @.#.' Y B B ) #.r.5.6.h.k.T.E.].].E.x.x.h.*.$ a >.*.:.o.] t./.a.,.,.r.t.t.j.W.T.W.;X_.!.).+XT.w.a.!.W.r.,.*.q.w.>.N l B ) ] #.#.#._ #.#.5.X.v H Y ] #.| #.<.t.t.C.E.T.!.C.V.R.*XT.< : ; 2 < o.:.@.#.#.*.@.L _ V.N.A.C.j.A.(.).R./.R.V.i.u.%.f.f.8.u.8.6.t.f.j.j.g.B.u.T./.6XvX' q q 2 a r 2 a a s s p a { <.f.>.] >.[ o.[ l.c.k.k.k.w.>.w.f.q.H 1 @.-.X.U 6 1 Y X.i.t.t.t.g.V.f.f.k.I F #.r.#.,.w.6.i.5.%.4.a.'.XXA.;.] ] 1.<.] B m e $ $ $ ; 1 : % : 7 2 ; ; 2 5 2 2 2 2 2 2 a i q q p 8 : 1 y a y 6 u 1 1 a 1 + y ,.4.N.D.^.u.6.A.D.F.B.8.:.9.1.6.9.;.d.7.L.g...:... . .8.cX] r y , *.=X@X$X X$X%X).).).%X;X-X<X!.Y.).).T. X%X*XwX6X,X*X*X7X7X7X7X7X8XjXtXrX7XjXc.> t =X$X&X[.}.oX*X6X7X8X7X7X-X*XoX}.{..X6X7X7X6X%X5X.X%X6X.X.XrXkXrXrXVXk.- z Z.iXwX6X5X4X|.}.|..X.X|.",
"N.C.A.A.A.A.D.A.G.'.A.Z.Z.N.C.N.B.N.g.u.8.u.u.8.N.#.u././.{.{.D.A.D./.{.{.E.G.E.A.'.A.A.C.A.A.A.N.A.g.:.d.D.D.D.D.F.(.rXr._ %X.X X X X X{.{.E.!.T././.^./.E.]. X X$X X$X.X).{. XXX.XXX].<X&XW l ;.5XjXtX*X!.&X&X@Xp.2.r.5.-./ b b | a.h.2.u.V.R.]. X].&X Xn.R.&XY.> i.=X&X&X%X-X.X). X-X<X<X,X&X-X;X$X-XxXmX].$X-X<X&X<XmXdX&XQ.Y.Y.Y.W.q.a 2 ,. X). Xb.8.V.!.].].[.[. X&X&X'.[.{.[.OXXXXX.XXXE.'.}.0XuXL c t 9 h V.E.Q.@X].].].R.g.u.N.C.g.k.C.T.E. X%X%X].!./.i.,.f.b.u.7.6.u.6.%.-.| | B B #.<.#.G k H F Y X.X.0.s.s.*.&.r.*.r.h.t.a.h.h.w.#.t.`.h.!.!.h.V.!.gX&.. i.V. X[.'.=X$XQ.a.h.E.V.5.2.u.g.g.V.T.R. Xt.l ,.C.T.E.{./..XOXwXNXyXq ; ; 6 i l B Y I T e.y.m.e.7.o./ $.$.=.:.2.3.e.7.3.7.-.r.M.7.b.m.Q.#X$.> J 2X#X[.[.#X#XQ.[.R.R.[.[.E./.{.{.C./..X.X{.{.XXXX{.oX>X{.{.XXyX5X* r 5 ; 8 N @.w x a : ! @X&X].$X-X X).).).%X&XhXxX%Xu.,..XE.T.%XrX,X*X*XrX*XrX7X5X;XjXjXjXtXlXjXf.a $ v #X X X X.XoX;XrXjX8X7XtX7X.XlXoXoX*X6XtXzXtX X7X6X7X.X.X5XjXjXhX6X8X` ; z 7.,XwX3X3X3X5XoX4X.X|..X",
"B.A.S.A.A.B.D.D.A.E.A.A.Z.C.Z.Z.N.N.N.b.g.b.u.a.r.L f.^.D.{./.!.!./.E.{.{.D./.E.A.D.E.A.A.B.N.B.Z.A.Z.N.N.C./.D.C.E.A.6Xt.) %X X X.X X X]. X/.!.E.E.C.C.T.E.'.{.XXXXXX%X XXX X X/.). X X&X&X$.6.).^.;XrXhX<X&X-X&XR.n.n.m.r.4.-.a.R.!.T.Y.R.E.!.].].XX%X XY. X=XP.1 i.!.E.T.R.E.E.E.!.E.R.Q.). X X!.!.).oX;XT.%X&XrX&X&XkX=X@XE.!.).!.!. XN < r.tXoX{.'.R.E.Z.'.'.E.E.R.E.'.'.A.Z.A.{.{.}.}.{.A./.}.OXJ.g.$.I w w E.E.E.E.'.E.E.E.E.E.E.'.!.!.]. X%X=X-X<X*X%X7X%XE. X&XXX[.XX&X&X X].V.%.#.#.t.B N t.*.=.r.h.Q.].&X&X=X@X$X$X].@X].@X$X&X<X-X-X<XxXkXlXxXkXhXrXSXz.+ :Xu.R.'.{.XXXX*XoX{. X.X.X X!.E./.V.Z.{.{.E.N.V.A.E.E.{.D.D.J.3XNXCX,.-.V.N.H.Z.'.{.'.n.'.2XXX[.[.%X&XXX[.*XXXXX-X1X1X>XXXH.N.8.5.Z.[.>XmX1X- n E.]. X].].XX[.OX[.XX&X-X-X,X*X*X;X*X*X,XwXwXiXyXwXwX<XiX<XwXyXAXN l L N L y.r.p.m.p.a.e.r.t.-.*.,.o.] #.| #.,.,.*.t.w.' t.h.,.i.k.x.h.t.h.k.T..X/.C.j.).h.#.[ o.7 2 X 9 ].$X X_.%X.X_.%X).).T.j.t.,.*.) ) | #.o.1.<.;.) 1.;.[ ] G G m P :.<.` w f 3.>XtXeXwX6XwXoX.X}.}._.",
"A.C.A.Z.A.A.{././.D.{.A.Z.A.Z.C.Z.N.u.b.b.N.7.y.t.I u./.D.{.A./.{. X/./.{./.{./.A./.A.C.A.A.V.V.N.A.g.A 4.A.N.A.G.A.{.7X,.I %XXX X[. X X X)./.T.A.C.C.C.T./.{. X X X.X.X X.X.X.X/.). X).).V.Y.*X-X&XrXrXrXhX-X-XrX&XR.Y.a.i.y.r.C.E.T.E.E.E.R.E.). X$X%X X-X-X&XP.S Y.W.T.E.E.E.A.T.R.A.E.E.E./.).).T.T.V.).%X7X6X7X;X.XhX-X&X$X X). X-XQ.7 : ' 7X,.@.C.Z.Z.E.E.].E.A./.E.{.{.!.E.{.{.}.}.{./.A./.}.oX{.4X .#.i l  X X!.E.].R.E.!.'. X X]. X].). X%X1X*X<X%X.X;XT. X&XXX*X&X%X%X-X&X%XE.5.V.R.V.P $.].m.P.R.R.E.!.E.].@X'.!.E.!. X$X).). X%X%X;X7X7X<XrX<X*X-X$XxX&.. W.u.N.Z.D.{.{.OX8X}./.{..X X).!.{.A.C.S.E.A.E.A.E.E.C./.D.D.K.4XaXZX4.u.wX'.H.A.Z.A.Z.8.$.V. XE.{..X'.{.}.OX/..X3X*XrXyX*X XN.8.N.Z.E..XyXyX5 b !.]. XXX}..X.X X/.XX%X*XwXrXrX&X6X%X%X*X*XwXrX*X/.*XwX,XeXwXtXLX_ l B L f L E.MXkX<X<X1X*X-X&X$X&XY.r.r.$.X.' ' U Y G G B ' w.#.X.X.O.>.M 5 B ;.<.#.` #.#.#.T :.#.G v d  .-.#._ ' ` { B s G c p p p 2 2 2 q G N m g.!.-.V.XX*X,X1XhX!.u.b.g.V.L 9 Z 7.,.A.C.k.V.D.{./.}..X",
"E.A.E.Z.A.A.A./.^.A.!.!.A.A.C.C.V.b.u.N.8.u.7.y.r.@.u.E.C.A././.{./.{.{.{.E./././.E.A.C.A.C.V.N.N.A.E.7.N.Z.N.A.{.Z. X7X:.X.%XoX*XoX%XXX%X X).E.C.C.j.C.A.E.!.). X X.X.X%X.X X.X%X&X X).^.5.h.rX&X<X<XrXrXrXrX1X1X%X!.T.R.Y.V.V.R.T.R.E.!./.T.V./.). XXX*X&X-X1XQ.*.~.E.T.T.E.R.R.E.E.!./.E.E./. X)./.E.E.{. X.X6X;X X%X7XrX-X%X%X$X$X=XQ.t = T zX@.$.C.T.E./.{.{.E.N./.{././.E.!.{..X{.{./.(.D.}.wXwXwXeXz Z w N &X X). X!.!.E.!.E.!./. X).).)..X%X-X*X<X.X.X.X X).XX*X%X&X*X*X%X,X-X$XQ.).6X#.z i.-X@X].].!. X).!.].!.E.E.!.). X$X%X X%X%X%X%X&X7X7X7X*X-X&X).-X! , gX{.b.A./.{..X}.oX.X/.{.OXOX X{.{.E.B.N.A.A.A.A.A./.C.A.J.D.K.|.aXKX5.i.iXwXH.H.{.A.N.Z.N.V.C.E.{.{..X.X.XoX*X4XoXoXoX6XlXnX&Xy.A.'.}.XXwXNXq C ].[.XX.X X.X.X.X XoX.X*XrX<XrXtX7X6X&XwXrXtXyXtXoXrXtXyXrXtXyXLXr.z I B 8 k !.1X1X1X&X&X%X1X<X<X<XdX].].#X].Q.].Q.T.t.-.%.u.R.1XhX X XjXjX,.R.6XlXBXVXlXlXmXmXkX1X<X&XI.Q.].%X<XrX*XzX-X&XSXkX!.-XSX X#.I ,.f.%.} ,XyXn.R.].XXXX<X,X'.,X,X,X*X$XC.4.%.} A.T.#.A ;.j.C.k.h.",
"C.R.A.A.A.A.C.(.D./.A./.Z.A.E.N.N.b.u.b.u.u.y.7.i.} t./.g.A./././././.(.{.{.'.A.E.'.Z.V./. XV.C.C.C.Z.A.E.A.A.A.A.C.E.wX%.#. X X*X*X*XoX.X X!.E.E.V.V.C.E.E.E./.). X XXX%X%X-X7X*X&X+X$X$Xt.h.$X%X*XrXrXrXrXrX-X-X X!. X!.V.n.E.E.T.). X$X).,.| w.^./. X%X*X1X<X].r.!.W.E.V.T.!.T./.T././././.!. X).)./.{..XoX5X7X;X%X%X;XtX6X%X%X$X$X=X).U < U lX-X'.Z.A.A.D.{.E.E.Z.{.J.D.D.E.{./.A.{.D.A.D./.OXeXrXiXaX .z 4 b XX X!. X)./. X/./.).^.)._.).%X%X&X;X*XwX.X X.X.XoX$XoX%X%X7X;X;X-X7X%X X XrX2.8 x.@X:X@X X]. X!.].&X!.V.V.R.XX%X*X*X%X.X%X6X8X6XrXrX7X-XrX*XXX6X~ O -XiXN.A.D.{.{.}.oX.X{.}..X.X}.(.{./.A.S.A.S.A.B.C.C.A.A.{.{.D.K.aXFX_.A.XXXX X)./.Z.'.A.Z.b.A.'..XXX.X}.XX3X3XoXoXoX5X.XwXNX*X7.C.}.}.*XrXCXi i  X[.XXXX)..X%X%X X.X%X6XwXrXrXrX8X6X*X,XrXyXjXtXlXtXjXlXtXtXtXLXC.l _ M 5 k n.-X-X-X-XXXXX-X1XrXrX6X*X-X-X1X].[.&X'.R.n.Z.Z.Q.&XDX>XR.&XBXu.5.%XlXnXlX7X*X6XwX-XXX X$X!. X&X1X<XMXkXkX2X&X<XMX,X[.BXnX6.{ <.l.6._ E.XX X.X.X.X(.OX6XOX.X}.wX,X&XoX.XA.{.iX6XwXwX3XoX*XXX).",
"Z.V.C.T.A.E.T.^./.A.A.A.Z.C.Z.Z.N.N.b.b.b.g.y.y.y.P t./.C././././. X.X{.}.}.{.'.A.{.E.A.T.{.A.A.N.C.C.C.T.C.A.A./.E.A.wX#.} ).XX&X-X%X%X X].).R.C.V.V.C.A.E./././.XX%X X).c.-.Y i.T.v.i.s.r.c.$X X.X%X-X7X*X7X*X&X$XXXoX&XT.a.). X).).). X_.T.N ' ^.).).*X*X,XrX$X=.+XQ.).T.T.E.).).).)..X).). X X X).). X.X*X;X6X6X*X.X5X;X;X.XXX-X X;XR.L 4 k -X%XXXE.A.D.A.A.G.D.'.G.E.D.{.(.J.{.{.{.{.A.A.{.XXiXeXiXiX9.b 4 U *X X X X)././.)./.!.).).).)._.%X5X7X6X%X.X*X6X.XoX.XXXXXXX6X7X8X7X7X*X X X<Xi.n W.$X!.+X).).$X!. XXX X].E.!..X;X;X;X*X%X;X;XrX6XrXrXrX-X7X-X%X7XD & E.iXZ.S././.}.XX3X4XoX4X|..X}.{.{./.D.A.A.A.A.N.A.A.A.{.{.K.D.{.aXcX6.j.{.{.OX.X).'.Z.Z.S.N.G.'. XXX{.XX>XoX>X0XoXoX3XXX.X-X%XC.C.D.{.oXeXCXa 2 XX X@XXX_. X_. X.X.X%X5X7XwX*XwXrXrXwXrXrXrXyXtXrXtXjXrXtXrXeXGX%Xw Z l 5 8 n.<X*XwX*X%X-X<XrX<XrXrX;X-X,X-X*X%X&X].E.E.V.R.E.$XrX&X$XXXnXE.5.XXlXBXtX7XC.h.). X$X$X X X X X X%X<X6XrX;X.X*XrXnX<XSXGXv.) ..<.6.4.oXV.V.OX.X/.(.5X4XoX{.}.XXoXoX/.N.L.b.XX|.oX3XoXoX*XoX*X",
"R.C.A.C.A.C.A.A./.A.{.A.A.C.V.V.V.N.b.u.N.u.7.p.5.w u.).{.(./..X.X)./.}.{.{.E.{.'.A.E./.A.C.B.A.A.A.C.V.N.C.A.E./.E.E.&XQ ) ^.!.&X%X%XXXXX{./.E.V.V.Z.V.C.R.R.!..XT.#.M c y u y 1 1 1 y 7 5 c.;XXXXX X%X;X,X6XwX6X%X*X;X*X;XXX X.X_.)..X)./.%Xg.T. X)..X&X*X<XkX&XS +XT.).)./.).).).T.).).%X%X). X%X$X X X*X*X*X%X;X%X*X%X%X.X.X%X%X%X-Xa.H x i !.*X.X XE.E.E.A.S.D.J.A.D./.{.{.E.{.}.{.D.D.D.}.3XwXwXiXiX .l 8 '  X!.N.!.'.!. X/.E.).E.).j.h..X%X5X6X6X5XoX6XyXwXoX XoXXXoX6X7XrX6X7X6X;XXX-X5.x +X+X!.).$X%X$X X&X&XXXXX*X;X&X-X6X8XwX5X7X7XtXrXrXrXrXrX-X-X<X-X1 3 .XyX>XA.J.{./.{.6X}.(.|.|.}.{././.{.A.A.A.G./.A.C.A.A.{.A.D.D.}.pX6X_ V. X'.{.}.E.Z.A.E.C.g.A.J.}.}..XoX>X0X,XqXoX3X3X*XoXXX).E.R.A.{.oX3XPXF : @X X$X X.X_./. X.X.X.XoX6XeX7X6XrXeX7X*XrXtXtXtXrXtXrXrX6X7XrXvXbX8 z M e 0 p.1X*X*XoX*X*XrXrXhXhXrX7XrX*XXXXX%X&XXX].!.!.!.!./.)..X%X.XtX6XT.rXlXrX*XeXj.:.)..X%XXX).).)./._..X X.X5X%X*X*XwXyXyXNXLXv.) ] f.| N.wXg.#.E..X.X}.}.{.{./.}.}.oX.XA.{.XXOX'.XX>XXX.XOX.X X{.",
"C.A.E.E.T.A.C.A.A.A.D./.A.A.V.V.Z.n.b.L.8.7.M.y.3.b g.E.!././.{. X).{.{././.A.E.{.A.Z.C.A.C.A.B.A.N.C.Z.C.C./.{.A.Z.'.XX} Y ^.).XX$XXX.X}. X{./.Z.V.V.V.E.A.E./.5.l y a t t 3 3 u , u 1 a 7 t.;X-X%X$X_.*XoX*X*X%X%X*X*X,X*X*X*X%X.X).). X(.T.E. X/.;X%X%X,X*XlX-X7 x.E.T.).).)._.).T.).).%X).).).%X.X.X.X.X.XoX*X.X.X5X.X%X%X.X;X%X%X6X!.U i i 6X;X.X{.R.A.A.A.N.A.D.D.A.A.G.A.J.{.(.(.(.D.D.}.6X6XoXqXNX .i i ' OX/.8.A. X'.'.!.(.)././.T.T.).%X%X%X6X6X5XwXtXtX5X.X.X.X4X6X7XtXrXwX;X%X{.%Xh.P $X!.$X XXX$X$X$XXX&X%X*X*X*X%X;X*X-X7X7X7X7X7XeXwXrXrXrXrXrXlX!.. 6 .X,XiX{.A.{..X}.4X{.F.}.|.}.{.{.{.{.{.D.G.{.D./.D.D.A.A.D.D.S.3XaX*X] V.{.'.{.{./.E./.*X.XL.S.J.{.}.|.XXoX>XwX0XoX3X3XXXoXoXXX XA.A.{.8.| VXT 3 ;X$X X.X)./..X{..XoX%X.X5X7X7X8XrXrXrXoX6XwX8XrXrX8XrXtX8X6X8XbXGXl 8 M 7 = r.<XoXoXoXoX3X,XrXrXrXjXrX*X6X*XoXoXXX X X/.!.{.'.). X$X X%XrX6X%XeXrXrX-X-X*X%XoX$X X$X X_./.{. X/. X.X.X%X*XrXrXtXtXcXGXc.` ] | ,.C.*Xd.} 6.5XOXXX.X{.E.(.{.{.{.C.A. X,XyXoXoXoX3X6X_.(.{.{.",
"A.E./.C.C.C.C.A.Z.A.E.A.H./.C.N.N.N.b.5.| 4.7.9.%.I V./.E././.{..X{..X{.G.E.'.{.G.A.G.A.A.A.A.C.A.Z.V.Z.Z.Z.A.E././.E.*X} } ). X%X$X&X%X.X'./.R.V.T.R.E.C.T.E.)._ L F v t t y j u u u u y 2 >.).$X X/./.*X4X*X.XoX*X*X*X6X*X*X*X%X X/.)./.C.T././. X%X.X%X,X*XlXrX, c.).E.).).!. X$X).)..X_. X X_..X.X_._.5X.X5X%X.X*X;X5X.X.X).%X%X%X;X$XY < a -X*XXX{.^.D.A.Z.A.N.D.D.C.A././.E.D.D.D.J.{.{.4X3X3X3X0XZX7.9 6 @.).%XE.!.{.{. X/./. X).).T./.).%X.XoX6X*X3XwXwXrXwX%X$X.XOX5X*XwXrXrX%X&X$X%Xh.F Y.R.!.).$X).$X%X%X%X%X%X;X6X6X6X6X;X6X6X7X7XrXrX8XrXrXrXrX7XlXa.o a  XoXiX{.A.}.}.|.|.oXXX|..X.X{.{.{.{.}.{./.E.A.E./.A.E./.A.A.A.oXZX.XV V.XXA.A././.E.D././.C.A.'.J.XXoXoX3XoXwX0XoXoX}.oX3XOXoX}.(./.{.N.| cX~ , ;X$X!. X).(.{. X.X.X*X5X%X6X5X7X7XrXrXrXrXrXwX6X*X6XeXeXeX6X3XjXLX' ; c 7 & =.1XoX.X6X6X6XrXwXrXtXtXrXwX*X,X*X*X*X.X). X).)./.{. X).%X5XuXj. XrXrXrX*X&XXX&X%X*XoX X.X^. X)..X/.)..X*X*X,X*XwXrXiXnXLX8X+.w.} $.E.XXg.| ..XXXXXXXX(.(..XXX.XoXd.g.{.wX,XXXOXoXyXlX.X.X/.}.",
"C.A.E.A.C./.A.E.'./.A.A.'.A.C.C.V.V.Z.Z.4.8.L.5.4.C 6.A.D.A./.{./.}.}. X{.{.J.G.G.'.'.E.A.A.B.C.Z.N.S.Z.Z.Z.Z.E.A.{. XXXL 4. X X&X%X&X X{.!.R.V.V.C./.R.A.R.E.XXn.$.I b h x v v j 3 , u y a t.+X).%XE.T.OX.X.XoX*X*XwXwX6X*X5X6X%X X)./.E.V.E.^. X X X.XoXoXrXrX%X. i. X/.).).!.). X.X).).$X X.X.X5X%X)..X5X%X%X%XoX5X*X%X;X.X.X%X%X;X=X-XR < a ).6X}./.^.E.C.V.V.4.f.T.A.A.A.D.D.A.A.D.D.D.{.oX3X3X0X>XZXu.4 7 w.).).). X XXX].). X).).T.E./..X X*X6XwX6X3X5X6X6X6X,XoX.X.XoX6X6X6XrX,X%X).$Xa.U Y.~.Y.T.E.`.)..X%X%XoX*X6X*X6X;X-X7X6X6X;X7X7XwX6XrX6XrXwX,XBXV.  x *XoX0XOX{.{.}.}.3X4XoXOX}.}./.D.{./.{.{./.A.A.A.A.A.E.A./.A.D.}.cXV.< !.].E.D.D./.A.(.{.^.A.A.G.G.|.|.}.oXoX6XoXoXoXoX.X|..X.X}.{.{.}.3XXXNX0., &X:X X X.X}.).{.OX.X.X;X%X6X7X7X7X8XrXtXeXeXeX8X6X6XrXeXrXwXwXtXAX' ; B w * ( &X.X*X6X6X6XrXwXeXwXrXtXwX8X*XoX*X.X%X X). X X). X X_.OX8XvX5. XrXwX,X,X*X%X%X*X%XXX.X X{.{. X.X X X.XOX;X*X,XwXrXtXlXPX8X] w.#.J @XhX$X5.| S.oXoX4X/.D.OXoXoX3XD.9.A.*X,X>XXXoX*XwX*XOX/./.",
"V.A./.T.E././.A.A.A.'.E.A.A.A.A.V.N.g.b.b.M.b.i.,.P t.E.A.{./.J.{.}.}.{.}.'.{.E.A.G.A.J.A.A.E.Z.Z.Z.S.N.A.Z.Z.G.'.'.'.R.T u. X XoX X%X X XE.Y.g.V.R.{./.E.E./..XXXa.-.2.~ T U U J h 3 3 u 1 x.+X!. X.X_..X X.XoXoXoXoX5X6X6XwX;X%X%X).C.A.A.C.A.A.A./..X*X/.A.k.>.X *.).T.).).). X$X.X%X.X%X%X%X%X.X.X%X5X%X%X%X%X%X;X.X.X%X X.X.X*X;X$X:X2.8 < Y.XX X X/.A.C.C.E.V.h.T.T.A.C.A.A.A.A.A.D.J.}.|.4X0X3X0XZXE.= 8 h.).E./.). X X X/.(.).).).^.^. X.X.X6X*X6X*X*X5X6X6X6XoX%X5X6X8X6X7X;X*X X%X$X*.t.=X$X$X$X+X).%X%X.X%X*X6X*X.X;X5X6X7X6X6X;X6X6X*XwX6XrX*XrXrXlX).X x %X|.|.|.{.'.}.{.k.4X.XOX.X{.E.A.(.{.).{.A.S.A.A.8.B.S.A.S.A.K.OXVXh.< )./.Z.A.A.A.N.D.{.A.C.N.Z.{./..X}.}.3X3X3X3X3XoXoXoX.X.X}.}.|.XXXX>XCXz.u XX!. X X_..X.X)..X.X%XoX*XoXwX7X6X6XrX8XrXrX7XrX7XrX7X8XwX8X6XtXGXj.* p < 9 Q XXoX6XrX<XrXeXeXeXeXeXeXwXwX*XOX.X.X)._..X).).)..X_..XoX8XBXrXXX*X6X6X6XoX4XoXoXoX.X.X).^./.)..X/. X)..X%X6XoXwXwXrXlXGX8X{ o.i.x @XkXSXE.g.Z.OXXXoXOX(.OX.XXX4X{.d.J.0XXXoX0X*XoX6XyXXX.X{.",
"C.E.A.E./.A./.E.A.E.J.A.A.Z.C.R.C.V.V.u.7.y.p.r.r._ g./.'.A.{././.OX{.}.{.{.J.E.G.E.A.E.E.E.Z.C.A.N.C.Z.A.C.A.A.G.'.A.A.L g.XX%XXX$X-XXX'.E.V.Z.V.E. X X/././..X6XXXY.Y.r.0.*.r.$.K y 3 1 : z.+XQ. X).). X.X X.X.X6X*X6X*X*XwX*X%X(.h.8.A.T.A.A.j.N.(..X.X/.C.V.,.X O.+XC.T.^.).). X)._.).).%X%X%X%X5X%X.X%X.X%X X.X.X%X.X_.).%X;X%X%X$X&Xp.d > h.*XXX)./././.D.C.A.E.A.A.C.g.F.A.B.S.A.D.D.}.|.|.3X3XwXZX>X= t W.).E.R./././.)./.T.)._.)./.{..X%X%X*X5X*X*X*X8X8X6X3X.X5X6X6X6X7X7X*X6X$X+X$X@.q.$X!.$X$X).).$X%X$X*X*XoX6X5X*X*X6X;X6X7X6X7X7X;X6X*X,X*X*X1XrX<X+ x &XoXoX|.{.G.oXK...4X8XOX{.{.{.J.D.{.{.OXA.A.{.H...N.C.A.A.D.{..XVXR.< ).!.A.A.N.N.N.A.{.D.C.C.A.{.}..X}.{.oXoXoX0XoXB.|..X|.OX/.{.}.{.|.oXCXQ.y $X].).).$X.X X X).OXoX.XXX.XoX5X8X8XrX7XrXrX7X7X6X8X6X;X5X.X6XwXZXtX< i 4 9 Q ].,X*XwXrXrXtXtXrXtXeXrXwX6X.XOX%X.X X.X_..X)..X/..X*XoX6XlXBX*X6X*X.XoXoX3X*X*X*X*X6X).).T./. X X/.)..X.X5X6X6XrXrXlXLX8X) ] O.x P.s.7XjX6X{..XXXoX.X.X.X5X3XoX}.S.S.{.|.oXoX6X3XoXwXwX*XXX",
"'.A.A.E.A.A.A.{.{.E./.A.A.A.A.Z.V.V.h.u.u.u.u.y.4.P g.!.{.E././.(. X{.OX_./.{.J.A.C.E.E.^.E.A./.A.N.V.A.A.A.A.A.A.A.V.h.G T.%X X.XoX<X%X XE.V.C.T.(.).).T.).).%X-X6X-X&X!.R.V.P.e.$.Q j h , r.$X!.].].). X). X X.X6X6X7X*X*XwXwX6XXX9.g./. XR.V.j.B.A.(.*X/.G.'.y.X ~ +XT.^.).).)..X X_.%X)._..XoX%X.X%X.X5X.X.X.X.X.X.X%X.X%X;X-X;X%X&X&XQ.T - 2.rXZ.b.E././.A.V.C.C.A.A.A.C.C.9.8.C./.A.{.{..X|.oX6X0XaXyX> t ~.!.{.A.D..Xg.#.c.T.)._. X). X.X.X%X;X6X6X*X6X6X6X6XoXoX3X8X6X8X6X;X,X*X X].].2.p.$X@X X).$X XXXXX.X%X*X%X*X*X6X*X5X;X6X6X;X*XoX*X%X*X*X5X6X&X-XhX+ D &X.X|.|.}.J.|.|.F..X8X.XE.J.}.{.J.{.K.{.G.G.{.'.H.A.G.A.A.}.{.}.ZX6XV V./.'.A.Z.S.C.B.{.A.A./.D.{.}.{.{.D.}.oX6X4XoX4.C.|..X.Xj.D.(.{.|.0XZXR.y @X!.!.$X X). X).}.{..X.X X.X6X5X.X6X*XwXwXwXwXwX6XwXwX6X5XoX8XrXzXBX5 5 > 8 Q  XXX6XwXiXrXiXrXrXtXwXwXwX6X5XoX.X.X.X.X.X.X_./.(.}..XoX6XtXjX;X.X.X%X.X5X5XoX6X*XoX*X.X/.C.A.!. XE.{. X.X6X7X7X-XrXjXAX5X{ ` a S $XE.;XtX6XoX3X4XoXoX|.|.3X3XoXoX{.A.N.A.oX>X>X0X6XXXoXwX%X",
"'.E.G.A.A././.G.{.{.A.E.Z.A.R.C.h.u.h.n.L.u.u.p.2.I <./.{.E.A.{.{././.OX{./.{.{.A.A./.E.A./.E.D.A.C.C.A.Z.A.A.A.{.E.T.t.Y +X+X).%X;X%XXX].Y.C.E.).).). X^.).)._.%X&X%X$X$X$X].Y.[.Q.R.R.M.b *.+XE. X X).)././. X).;X6X7X8X6XwX,X*X<X'.C.V.Z.u.g.g.B.B.(.*XoX{.*Xz.. x +XT.E.E.).%X_..X%X.X%X_..X%XoX.X*X.X*X5X.X%X.X%X.X.X X.X*X&X-X-X&XXX#XI.4 } %Xg.%.T.{./.E.C.g.C.A.C.A.F.D. .:.C.A.A.(.{.|.|.}.3X|.aX%X= t Y.V.E.E./.%XC.#.T.E.). X/. X/..X.X%X.X*X5XoX6X;X4X6X4XXX3X6X6X7X7X7X*X%X$X X!.*.z.+X X].). X X.X%X&X%X&XoX*XoX6X6X6XoX*X*X6X5X;X6XwX*X*X;X;X-XxXxX. U &X|.}.(.{..XOX.X(.^..X.X{.{.|.}.{.OX{.{.A.{.{.J.{.G.A./.{.{.}.oXuXeXP u.{.A.Z.Z.C.N.C.A.A./.{.{.E.(.(.|.{.{.oXoX.X4X{.A.}.}.}.D.D.}.{.}.oXZX).1 $X].].]. X$X X.X X}..X_. X$X;X%X5X;X*X*X6X6X*X8X;X6X6X3XoX3X4X7XjXSXl 9 < n Q &X*XwXwXrXrXtXtXtX7X6XwX6X5X*X*X.X.X.X.X.XT.C.)..X.XoX4XwXtXvX7X4X*X%X.X.X.X*X5X5X*X*X*X XA.C.j.)./.T. X.X4X6XrXrXrXyXAX`.o.` t ! 1X X4X.XoXoXoXoXoXoX.XoXoX3X3XoX}.J.A.J.XXoXoX4X.X{.oXnX*X",
"A.{.'.G.{.{.J.E.G.'.E.D.R.E.Z.N.V.V.Z.4.8.g.u.M.u.$.%.!.E./.{.{.{.{./.A.{.{.J.D.A.A./.E.A.A.A.A.A.A.Z.N.Z.A.A.E.'.Z.Y.-.I ;X$X$X;X%X;X.X!.R.T.T./.). X).).).)..X X X X].!. X$X!. Xa.Z.E.n.Y L Y.Q.).).). X/././. X%X;X5X,X*X6X*XwX7X.XR.R.C.6.g.g.k.B.D..XoXwXMX:X. x ;X!.Q.E. X).).).%X;X.X).)..X.X5X*X4X*X.X.X_.)..X.X.X.X*X%X%X.X&X%X$X].n.n T rX*XV.A.E.E.E.Z.N.N.Z.Z.A.A.^.A.j.A.A.A.{.{.|..X4X3X3XaX&X> 7 ).E.).!. X X XY.E./. X X/.{.}. X.X.X.XoXoXoX5X6X8X{./..X*X6X*X6X7X7X7X X).).E.$.Y.!.E.T.).+X X%X*X%X%X*X5X*X.X*X*X*X*X;X%X6X6X6X*X6X,X;XoX*X&X-X=XX ~ 7X|.}.(.}.}..X.X}.D.(.{.{.{.{.{.}.{././.D.{.{.{.D.A.D.{.{.}.OX5XpXtX_ 6.E.G.A.A.S.C.N.C.A.N.A.{.(.{.D./.{.{.}.}.OXXX}.{.{.{..XS.9.D.}.}.oXtX#.y +XQ.].]. X XXXXX.X.X.X(..X%X.X.X.X%X%XoX6X6XoX6X6X;X8X6X.XoX6X7XtXSX` = 4 t Q XX-X6XwX8XwXwXtXeXeX6XwX5XOX%X.X%X.X.X.X5X/.C./.OXOXXX6X.X/.tX.X.X.X.X.X.X%X*X6X6X6X*X.X.X/.C.j.C.C./.)..X.X*XrXwXrXiXCXvX<.O.6 =.&XXX.XoXoXoXoXoX5XoX|..XoXoX3XoX|.{.{.{.XXXXoXoX4X{.OXwXrX",
"D.A.D.G.A.A.G.{.J././.T.A.A.C.V.N.V.Z.r.y.7.u.b.b.@.%.%X XA.!.{./..X XZ.(.{.{.A.A.C././.T.C.A.A./.E.Z.C.C./.D.A.'.E.n.} @.-X.X$X X%X;X X^./.)./.). X X)./. X X).%X X X XE.!.!.7Xf.C h.Q.].T 4 @.E.!.{././. X!./. X.X*X6X*X*X*X*X%X.X/./.C.E.V.i.d.L.j.A.(..X6XmX:X. y +X%X/.!._._.). X X%X X%X.X%X.X5XoX5X;X%X.X.X/.(.). X X5X.XT./..X%X$X$X!.N Z 7X6XXX'.E.A.V.Z.V.V.A.A.A.A.C.C.A.A.C.C.D.{.|.|.3X3X4XyXlX6 9 )./.A.!./.!.).!.T.R. X/././.(._. X.X4X3X.XoX5X6X7X XF.OX*X6XwXwX7X6X%X.X$X!.!.=.x.+Xa.t.).!.).%X*XXX*XoXoX%X&X%X*X*X%X.X.X;X;X%XXX-X*XoX*X*X&X<X!.  &.*X{.{./.{.}.}.}.}.{.D.D.J.{.E.(.{.G.C.E.{.(.{.D.A.A./.J.}.}..XOXiXeX' ,.E.Z.S.A.A.N.A.S.N.B.A.A./.{./.D.{.}.{.}.{.{.}.}.{.|..XOXB.A.}..X3XeXy y $X].&X].XX&X%X%XoX!./.XX%X5X%X/..XoX*X*X6X3X6XoX*X7X*X5XoX6XwXtXjXAXw., 6 h Q XXrXeX6XwX6X6XrXeXeX6X8X8X4XoXoX.X.X.X.X.X4X)..X%X5X3X8X7XtX5XW..X%X.X%X4X.X.X,X*X*X*X.XOXE./.C._ ;.!.).).%X%XrXwXrXrXBXVX;.M , m.&X XXXoXoXoXoXoXoXoXoX4X|.}..XoX|.{.}.}.}.}.XX|.OX.X{..XoX",
"D.A./.J.J.A.{.J.E.E.E.A.A.V.C.C.b.u.n.u.y.u.u.C.V.} 4. X*XwXR.D.{. X.X.X{.{.{.A.C.A.E.A.A.C.T./././.E.A.C.A.A.T.A.R.b.I #.%X+X$X%X%X%X).).E.T.). X)..X/.)./.)..X X).).).E.!.'.XXE.i.R.E.'.E i 5.Q.E.).!.E.!.E./. XOX%X5X%X,X;X3X XE./. XA.E.C.6.6.f.C.N.D.}.oXmXU.& y c.).!.E.^._..X.X X X.X.X*X5X%X5XoX*X%X%X X)..X.X_. X.X.X%X X X%X$X$X$X&XI V %X5XoXXXE.E.A.V.C.N.A.C.T.T.C.N.C.A.C.A.(./.}.}.|.4X3X,XCXS < _.E.T.E.T.).E.W.!.E.!.C.!.{./.).(..X}.|.4X5X*X*X*X}./.oX*XwX6X7X7X7X). X X].!.*.r.T.a.i.).). XXXXXXX*XXXoX&X%X%XoX&X-X*X;X*X6X7X-XrX7X-XwX*X<XhX~.  ! XX{. X/.E.{.'.A.{.(.E.D.{.{.{.{.{..Xd.g.A.A.A.C.A.A./.'.'.{.}./.4XeXl :.A.Z.Z.A.A.C.N.S.A.B.N.A.D.E.{.D.{.}.(.{.{.{.{.(.{.(./.}.D.A./.|.3XCX! 3 &X$X&X&X&X*X.X.X5X%X.XXX%X*X*X5X*X*X*X*XwX6X3XoX*X7X7X6X*X*X6XrXtXFXR., 3 8 Q OXrX6XrXrX8X8XwX8XwX3X3X(.}..X}.{..X/..X.X.X.X.XoXoX6XwXeXVX*XY.;X.X.X%X%X%X%X,X*XoXXX*XXX/./..X6.5.!.!. XOXoX*X*X*XyXNXNX6.G 8 Y.XX{.OXXXoX|.XX.XoXXX4X.X{.{.oX4XoX|.XXoX{.}..X.XOX}.}.(..X",
"E.{././././.E.E.E.E.R.C.Z.S.C.C.N.n.b.b.6.r.n.Z.R.-.5.C.{.rXeX/.E.{.OX X/.(.E.T.A./.A.C.A.E.A.E./.{.G.Z.C.A.C.A.A.V.u.U t.%X).%X.X%X.X/. Xg.T.)..X/. X)./././. X).).^.T.E./.E.{. X$X].].#X@.R !.T.T.!. X!.E.E././.)..X%X*X,X6XoX X/./.{.R.V.V.6.6.g.Z.N.A.{.oXlXI.O 1 x.).!.E.)._.)..X XXXXXoX%X5X%X.XoXoX%X;X.X.X_./. X.XXX.X.X%X X X;X*X=X<X%.l .X%XOX.X).{./.R.A.Z.A.A.A.A.C.N.C.A.A.A./.{.}.}.|.3X>X>XZX=.3 /.T.E.T.T.E.^.!./.E. XC.E./.(..X.X.XOXoX6X4X*X%X5X.X}..XoX5X7X6X7X*X.XXXXX].$Xe.z.Q.Q.!.!.$X$X$X%X%X*X%X*X%X&X%X%X*X-X6X*X-X-X*X7XrXrXrXrX*X-X<Xr.# ! oX/./././.{.OX{.{.{.{.).{. X X{./..XB.g.A.{.{./.{.E.E.'.{.{.).{.6X5X| %.C.Z.Z.A.A.S.A.C.C.B.C.A.A.(././.{.{.A.C.D./.{.{.D.A.(./.D.D.{.}.0XFXH u $X X XXX.X4X.X*X%X%X).%X/./..X.X.X*X*X6X6X*XoX.X{..X6X*X%X*X6XrXyXSX;X: 4 d %.,X*X6XrXeXrXtXeXeX7X8X8XC.F..XOX}._.).(..X.X.X*X5X*XwXwX8XAXT.5.6XXX.X.X.X.X*X*X,X*X*X*X%X XE.E.!.!./. X X}.oXoXoXoXwXcXGX1.e k n.'.'.{.|.OX}.XX}.|.|..X}.|.}..X.X.XoX3XoX.X}.3X.X4X.X}.{./.",
"{.'.'././././.'.!.E.T.V.Z.C.C.N.Z.u.u.u.8.i.n.Q.!.N.u.C.A.}.tX*X{..X.X X/././.C.T.C.N.C.C.E.E.E./.{.{.G.A.A.A.V.Y.V.u.C i.%X X%X*X%X XE..X XE./. X/./.)./.)./.).)./.^.E.Q.)./.!.'. X$X:X$X! &.!.R.Q.!./.R.E.E./.).).)..X*X*X*X). X.X).).u.8.N.u.u.h.N.Z.A./.oXmXP.+ 1 W.$XT.E./.k.E..X X%X%X;X%X%X*X.XoX%X$X%X.X.X_.)._.oXXX%X%XoX XoX;X-X=XrX2.f )._..X.X X!.E.{.'.A.A./.A.C.V.j.B.A.A.A.{.(.}.|.}.}.4XoXnX!.3 V.T.T./.T.).^.T.).!. X!./.{.(. X X.X.X3X4X*X%X5XoXOXOXoXoX3X7X7X6X.X$XXX].].$Xr.~.Q.!. X$X$X$X%X%X%X*X*X*X.X$X%X;X6X-X5X6X*X-X*X6X7XrX6X-XrX7XdXe.# R ,X{.).E.!.{.OX{.'.{. X X XXX X.X[..X{.Z.E.Z.E.A.Z.A.Z.E.E.!./.E.*X5XA. .u.N.Z.S.Z.A.S.C.C.N.A.D.F.D.D.(.{.D.8.8.A./.(././.A./.D.F.D.(.{.|.PXJ 1 =X&X$X%X%XOXoX*X*X;X X*X%X/.*X*XoX*X,X6X6X*XoX4X X/.%X%X.X-X*XyXrXmX&X3 4 h 4.,XwX7XeX7XtXtXrXeX7X7X3X}.F.}..X.X.X/.(.OX.X.X5X6XwXwXwXrXVX%.-.$X X.X X.X%XoXoX%X*X*X*X*X XT.E.'. X/.(.oXoXoXoXoXoXyXlXAX<.e f R.].[.{.}..X|.}.}.}.}.}.(.K.}..X.X.X|..X.X}.{.}.OX.X}.}.(.D.",
"{.{.{.A./.E.E.E.!.E.u.N.V.C.a.5.y.u.u.u.u.b.Z.V.!.XXu.g.C.A.E./.{.XX{..XXX{./.E.V.h.h.C.C.Z.A.A.E.{.{.'.E.A.V.V.h.u.4.L h.;X%X.XXXXX X/.%XXX).!.{.{./././././.T.T.A.h.V./.^.!.E.T.!.!.!.@X! s.!.!.!.T.T.T.A.T.T.(././..XXXrXrXXX X X!.!.V.n.C.V.h.a.V.C.C.A..XmXp.% 1 :X).E./.).R./. X). X.X.X%X.X%X*X5X*XoXoX.X.X_..X.XXX X*X*X*X*X*X*X*X1XmXr.e /. X X{./.E./.E././.D.D.A.B.B.N.j.A.j.A.D./.{.(.{.}.}.XXwX-Xx R.E.T.).E.E.).E.^.E././.E./. X.X.X.X*XoX*X.XoX3X5X.X*X,X*X*XrXwX*X%X*X.XXX X$X*.x.Y.!.!.).+X)..X%X%X%X*X%X$X X$X.X;X6X;X*X;X6X7XrX7XrXrXrXrX<X-X0.  / *X'. X X XOXOX.X'.{.E.!.].XX%X.X.X.X[.'.H.'.G.G.G.A.A.E./.{.{.E.)..X|.9.8.N.g.N.A.S.N.N.B.A.B.D.A.A.B.D.{.D.g.j.B.A.A.E.A.C.A.D.D.D./.{.|.AXT u -X$X$X$X%X*X.X*XoX*X*X*X*X%X%X*X*XXXXX*X*X*X*X%XoX X.X*XoX*XrXyXrXBXrX< 6 W 5.>XrXtXtXeXtXeXeXeX8X5X.X}..X(./.).).(. X.X.XoXoXwX6XwXwX8XvXP 5.$X{. X X.XOXoX*XoX*X,X*XXX/.E.).). X/.R..XXXoX*XoX*XtXcXGXc.8 W 1X#X.X}.XXoX|.|.|.|.OX}.D.{.}.}.|.}./.}.}.}.{.}.}..X{.(.A.D.",
"}.{.E.A.'.Z.{.E.E.Q.n.7.u.N.y.%.5.u.u.u.h.g.h.!.*X2.R C.C.V.C.V.A.{.*X*XrXA.A.R.V.V.a.V.C.E.A.A.A.A.E./.E.N.N.V.N.u.$.N i.*X X$XoX X X X X X X!.E.!.E.T.E.F./.F.V.k.t.g.A.C.T.T.E.).!.Q.!.X.r.).!.!.R.T.E.C.T.T.T.^.)..X%X*X7X$X).!.W.E.E.E.V.a.u.a.V.V.^.A. XhX=.: t :X+X).$X). X X X)..X.X.X.X.X%X*X.X%X%X.X%X.X.X.X.X.X%X*X*XwX*X*X*X*X<XBXn.q j..XA./.{.A./.D.{.{.D.{.A.A.C.B.j.g.j.N.C./.(.{.}.}.{.|.XXyXQ Y.E.W.E.R.R.h.h.E.{..X!.E.!.). X X.X.X*XOX.X.X.X.X.X5X*X*XwX,XoX*XoX*XoXXX*XT.Y Y.!.].E.Q.).$X). X%X%X%X*X%X X XXX%X6X%X%X%X6X7X7X7XrXrXrX-X*X=XT   U XX{.{./.A.OX.X3X}.{.A.{.%XW.' ,..X%X).].'.G.A.J.A.A.A.A.A.'.{.T. X}.wX8.8.u.:.%.g.A.N.B.C.A.B.A.A.A.A.A.A.A.N.B.B.C.N.V.C.V.E.D.A.D.D.{.oXVXD 6 ].@X=X$X;X;XoX*X*X,X%X*X*X,X*X*X*X*X*XwX;XrX*X*XoXXX.X5X*X5XrXyXrXnXvX7 > z M.>X<XrXuXeXtXiXtXiX0X4X}.(. X.X/.^././.}..XoXoXoX*X6X6X3X7X8X7 r. X]. X{.). X_..X.X.X*X*XoX!./.%X.X^.C.E.%X.X*X.X5X8XrXlXGXk.5 T &X].XXOXXX|.|.|.4X3X|.|.oX.X.XOX}.}..X.XOXOX}.{..X(./././.(.",
"XX X{. X{..X*XXXXXA.N.u.T.b.V.E.A.i.t.h./..X^.%Xq.; P v./.A.(./.^.C.(.(.<.;.^.T.h.V.T.C.C.V.C.A.{.A.(././.C.N.C.u.u.-.C V.;X%X X%XXX.XXX X$X X).E.E.R.A.T.V.T.R.u.y.u.Z.h.V.Y.T.T.T.E.Q.Q.Y #.!.!.!.!.Y.C.h.g.j.C.T./..X$X;X X).).).!.E.T.T.V.a.u.i.V.V.T.A.).MX( . x W.W.!.).!. X X XXX%X.X.X.X_..X%X;X;X%X%X.X.X X.X X.X.XoX*X*X*X,X,X,X1XlXT.B <.).A././.D.G.J.{.{.{.{.{.A.B.N.N.g.u.6.N.C./.(.}..X}.{.}.*X$.R.E.Y.i.h.A.j.a.C.!.E. X!.{. X X.X.X*X.X.X.X.X.X.X.X6X6XrX*XwX*XoX}..X%X%X;Xi.Y !.Q.!.Q.T.!.).)..X*X5X.X%X.XXX$X$X6X%X.X%X%X5X;X6XrXrXrXrX%X;X-XU o T %XC./.^.D.}..X{.}.D.{.{..Xk.Z ;./.).$X].'.'.G.D.D.B.6.N./.{.!.B..X/.5XC.u.g.y.4.8.A.C.V.A.C.B.F.C.Z.A.G.A.B.B.N.N.N.B.N.N.C.C.C.A.D.D.J.4XcX1 6 P.$X$X&X-X*X&X*X*X,X*XoX*XwXrXwX6X-X*X7X6X6X6X5XoX.X%X.X*X6XrXtXrXtXvXy 6 L H.,X<XiXtXuXtXtXiX8X8X5X/.A./.(..X/./._..X|..XoXoX/.OX3X6X7X`.% e.$X!. X].!. X)./..X%X*X%X.X{.5Xw.e r 2 #. X%X$X X*XrXtXyXGX1.0 2.[.XX.XoX|..X.X|.|.XX3X.X}.}.}.}.|.oX.X.X(.{.}.{.OX/././././.",
"T.t.t.*.#.,.,.,.>.w b L _ N l N U B l e c B F ` < = a p p c p m M m M B e m >.>.I ) X.#.] _ P | ;.;.t.t.6.6.%.%.@.} i w T.%X%X$X X X%X%X$X*XXX XE.A.T.T.T.Y.T.R.y.8.h.g.V.V.V.Y.T.E.R.!.].Y 0.E.].'.!.T.T.C.| u.C.C.T./.oX XT.).!.!.!.T.E.V.Y.a.a.i.a.h.T./. XBXp.. D :X!.!.E.!.). X)..X.X X.X.X*X%X&X%X*X%X$X$X). X.X XXX X X&X%XXX*X*X6X<XlXY.L ] T.V.A.E.E.A.D.{.{.{.{.{.{.A.A.S.j.| ' ' 6.A.A.J.}.}.{.{.,Xi.V.E.V.-.i.C.T.E.E.E./././.{. X X.XXX%X.X/.{.5XoX.X.X6X5X6X6X3X3X.X.X.X;XXX7X,.Y W.E.E.E.!.!.E. X.X.X.XoX.X%X*X$X.X;X%X.X.X%X*X;X;XrXrX<X;X.X X-XL X v ].A.E.D.A./.}.}.{.D.D.(.D.A.C.A.R.). X[.{.{.{./..XB.| 8.D./.A.h. X;.B.A.g.b.b.7.u.N.A.A.E.8.C.A.A.A.A.A.{.S.g.N.g.j.g.g.L.N.V.C.C.S.D.}.8X6X$ t V.&X&X-X-X-X-X*X<X*X6X6XwX*X*X<X;X;X*X7X6X6X5X*X5X5X.X5X*X5XwXrXrXtXGX7 > E XX<XyXtXeXuXiXeX8XeX6X|.F.C.A././.A././..X.X.X4X6X.X{.OX.X5X,.$ s.$X!.'. X!.).)././..XoX.X5X/.7Xw.q 2 = =.&X%X X XwXtXjXjXVXh.5 7.*XOX|.|.4XoX|.4X4X|.|.}..X}.}.}.XX3XoX.X(.}.{./..X{.(.{./.J.",
"P X.#.X.#.#.8 q ' b q.r.a.e.e.$./ E U L L P $.0.Q ~ T F P S k b F P Y I Y ' ,.@.U F S Y ' b N _ _ P ' ) ' T C L L t 4 5 o.t.j.j.k.f.C.E.T.T.T.V.N.t.t.,.;.#.>.,.,.:.:.5.t.f.a.h.h.h.h.V.a.F o.T.T.T.V.T.T.T.a.a.V.h.C.j./.)././.). X!.).Y.R.Y.a.a.h.h.h.T.!.XXMXz.. ~ $XW./.W.!.).).).). X%X%X%XoX*X%X X%XXX$X$X).!. X!.). XXX-X*X.XoX%X;X<XzXT.#.T k.u.N.A.F.D./.{.{.{.{./.{.A.Z.Z.N.%.Z Z :.F.D.(.{.{.{.{.*Xn.n.C.u.g.V.y.V.E.R.R.)././. XXX.X X.X%X.X X(..X.X.X.X.X7X6X;XoXoX5X.X6X&X.X;XG ~ +XQ.!.].{.!.E.].XX%X&X%X$X&X%X X).%X.X*X).).7XOX$XrXhX=XoX.X$X-XE . k '.J.{.{.}..X.X.X/./.(.{.{.A.{./.E.{.{.}.}./.{./.|.|.S.S.E.'.C.V.6Xd.j.C.g.n.b.8.8.N.g.C.E.N.A.A./.S.A.A.{.D.g.8.d.7.8.g.g.8.N.B.S.S.D.OXyXtX: i $.].%X&X&X1X-X,X<XrX6X7X-X-XrXrX*X;XrX7X6X6X;X%X.X.X.X}././.XX,XrXrXVXc < L XXwXyXjXuXpX7X3XeXwX6XoXA.j.B.A.A.C.D.(.^./.}..X4X5X.X_._.c.F * r.].).!.)./.)..X X X XXX X.X).(.%X).i.u.].*XXX'.oXwXrXjXlXvXv.5 8.<XOXXX3X|.oX|..X.X.X}.}.}.(.}.}.}.}..X|.|.}.}.}.(.J.D.{.D./.",
"5.t.%XmXdXKX( d *.$XhX1XQ.I.$X<XkXkXI.M.Y.].[.[.R.m.R.].@X].@X[.@X&X&X#X1X2XdX<X$.,.#.%.E.XXXX,X,X&XP.Y. XXX#X[.2Xm.n.R.C.R././..X{. X{.A.E./.E.R.y.S U r.a.i.-.r.r.r.s.s.s.s.i.r.r.t.t.-.] Y X.*.O.*.-.-.o.' ' P P G G [ o.>.>.>.t.k.h.i.a.r.h.i.h.h.T./. X*XSXy.> R +XY.Y.T.Q.W.).!.).$X+X).).XX X%X).). X).!.).!.T.T.)._. X$X*XoX.X X%X-XvX6.f.[ ;.%.4.N.A.A.D.D.{..X/./.{./.D./.A.E.N.C.B./.(.}.|.oX>XXX<Xy.Y.n.u.u.i.5.t.Y.V.T.).).].!. X{.!.T.!.)./.)..X(. X.X/..X.X.X_..X6X%X.X X;X+X% O.+XW.!.Q.!./. X X X$X$X$X$X X%X).).+X%X)./.h.h. X`.;X X&X$X X!.=XT X x !.{.D.B.D.{.J./.(.{.}..X/.A.{.{.G.{.{.9X5X/.B.F.B..X(./.(..XT.C.cXg.F.g.6.V.V.a.u.u.u.j.A.A.B.A.{.D.E.{.}.(.C.g.8.9.8.4.8.g.d.S.H.A.A.{.nX X. 9 C $.T..X$X*X;X*X*X*X*XrX*X7X-X;X.X&X7X*X;X6X;X%X)./.^.j.g.N.R.oXoXwXbXp : C A.rXlXkXlXcX.XN.5X3X.XXX.X/.B.h.S.B.A./.^.{.(.}.*X%X.X.XC.#.p : 2. XE.!.!.).T.C.T.)././.)./..X).Z.b.{.XX{.!..X XoXrXrXrXhXjXk.w 5.&X[.oX}.D.}.}.}.}.OX{.}.}./.'./.{.}.}..X}.}.}.{.(.{.{.D.D.A.",
"a.a.XX7X<XDXm.4 Y $X;X&X].!. X-XxXMX#Xn.T.R.Q.R.Y.Q.Q.R.].Q.E.Y.V.V.Q.].&X1XdX1XE ' ' ;.C.A.H.{.<XE.$.8.E.H.H.H.OXZ.H.H.{..XoX*XrX,XrXwXoX*X,X[.&XR.X.X.$XXX[.R.Q.!.$X=X<XdXdX=X=X=X&X1X&X-X!.$X+X$XxX$X$X$X!.p.r.r.t.k.p.i.t.t.o.O.O.M ` M a x F ) G ` o.#._ x.U > i w.T./.E././././..X.X).)..X;X.X).V.T./.T.W.!.E.c.T.h.).%X$X*X*X{.E.%XhXVX;.1.{ [ #.' u.A.D.D./.}._.)././. X).OX/./.'.C./.|.oX.X4X_.T.T.-.#. X'.E.Z.V.h.V.T.V.T.!. XXX X!.!.Z.T.T.E.).)./.{..X_._..X^./..X.XXX X!. XDXz.# &.!.R.T.!.!.R.E.]. X).).). X!. X!.^.).). X XY.a.;X-X$X X X X XQ.-XT . 6 i.S.d.9...1...d.^.}.8XeX.X.X*XS.A.E.1.B M m B V s m m G G G I g.8X1.F.| ' t.p.t.8.6.6.8.C.A.C.C./.{.{.E.{.OXA.N.7.4. . .9.8.g.N.B.S.D.|.cXC X y c Y u.).$X*X;X*X*X*X-X-X7X=X.X$XXX%X;X-XXX*X6X;X.X/.T.C.h.f.C..X5XtXSXy > L !.rXjXkXlXcXAXtX5XOX.X{.}.}.A.g.k.k.j.D./.{.}..XoXXX.X}.<.F p < q.!.n.C.{. XN.g.E.).E./././.%X%X{.E.{.oX%X).{.OXwXwXwXrXfX8Xw.8 $.'.>XeX|.S.9.J.{.{.}.}././././.D.{.}.|..X.X|.{.D.A./.A.A.A.D.",
"h.h.).-XkXMX( 3 T +X$X&X$X$X;XgXxXxX-XQ.P.i.h.W.P.E.E.E.!.W.~.h.i.g.h.T.].-XlXhXn N j.C.h.C.T./.XX.X,.6.A.S.S.S.N.S.S.N.A./.}.oXoX0XwXwX*X,X>X>X&Xh.F T !.Q.R.Z.u.i.h.E.&X&X&X!.$X].XXXX[.[.].].E. X%XXX X&X].n.V.n.].hXhXkXMXKX$Xh.^.+.>.i.q.&.&.&.F l G M c &.~ a 6 a ` #.;.5.4.6.d.d.<.1.k.t.o.` >.h.i.g.i.V.h.h.T.V.,.f.T.V.E.^.5.6.j.T._.f.+.5 ) o._ :.#._ | ;.| ..' o.;.o.o.[ ) G B e l l r 5 2 < $ . o 7 w.t.i.r.i.6.T.C.6.W.%X%X*X%X;X%XT.E.%XT./.W.E.).OX.X.X).h.T..X.X5Xv.t.!.SX^   &.;XT.).).!.!. X$X X XXX X X X X).E..X7X-X;X-X%X X-X].;X$X].E.R.=XK   X t ) l r 2 r e a s { 1.<.1.6.t.,.:.,.<.o.` ` ) m q 7 q p 7 * ; F P ] j.k.g.,.:.:.i.6.,.,.u.6.6.g.N.A.N.N.C.E.A.u.9.%.| | 8.6.B.S.J.{.D.g.a.< . 6 c Y 5.!. X X&X%X%X*X&X;X%X=X%X%XXX X X X XXX-X-X-X&XT.c.h.i.A..X5XBX7X, , ! ;XrXmXnXnXCXFXuX3X}.K.F.{.{.C.g.N.L.B.D././..XOX.XXX.X^.<.m i t 5.].R.Z.E.XXXX(././._./.).C.!.%X%XXXXX%X5X.XXX*X,XrXrX*X<XjX*.7 Z.'.OXlXwX{.9.8./././.(.E./.T.E.{.{.{.}.}.|.{.K.D.A.D.A.B.C.C.",
"V.g.T. X-XMX=.9 *.). X$X$X$X;X-X-X-X1X-X!.T.Y.R.V.Y.T.!.!.:X$XY.y.,.t.h.E..XjX=Xx *. XV.C.C.V.C.'.}.].A.C.C.N.g.g.B.g.f.C.A./.{.|.oX0XwXoX3X,X&XXXi.c X.T.V.Y.C.V.t.w.h.;X%X+XT.).!.!. XXX X X].E.).!.R.!.!. X!.E.!.!. X X@X&XvXV.| k.o.>.7X&X-X<X=X].Q. X$X$X X#X:XR.a.r.r.h.p.5.-.6.%.} } 5.P k -.t.h.n.u.Z.A.T.R. Xh.$.,.a.E.a.r.h.u.i.i.h.C.A.6.Y.r.2.-.] I ;.;.B B B M B M G c p c c N H I X.%.0.*.0.&.O.U B I I I } } X.o.B ' <.u.,.>.<.,.o.` O.` ` _ #.>.>.;.#.;.' ) G ) o.o.M c D , . U x.z.h.T.x.j.h.T.T.c.T.h.V.a.T.g.w.t.h.t.g.W.:.X.k.x.r.Y.).!.Q.[.=.^ ~ J E U L K x t a y 1 1 < 2 B ) [ | k.{.C.V.u.8...| ) ' Y L Y -.p.h.E.j.i.^.T.C.E.E.oXE.D.{.OX{.XX{.XXn.u.Z.Z. XXX9.N N P | ;.:.1.| ' ) l 5 y h 8 E @.@.t.$X-X)..X%X%X6X%X.X;X7X). X$X X). X&X%X-XzXbXT.a.t.V./.%X%XT.q > , T )..X6X*X6X5X;X_.g.k.k.8.j.d.u.6.1.6.d.6.u.C./.T.).T.k.,.#.o.N w =.E. X&X XoX.X X.X.X X X.X). X%X*X6X*X6X6X.X*XoX*X*X*XrX*X7X>.N E.S.H.*X/.{.N.4.B.E./.{.D./.A.R.E.!.}.{.{.}.{.{.(.B.D.A.A.B.A."
};
