/* XPM */
static char *_c8d28408a2a4968c3ca15864fadcb0bruwlF74cMECqblKd[] = {
/* columns rows colors chars-per-pixel */
"32 64 29 1 ",
"  c None",
". c black",
"X c #1C1A1A",
"o c #201E1E",
"O c #2C3532",
"+ c #353030",
"@ c #303936",
"# c #323C39",
"$ c #353D3A",
"% c #3D4542",
"& c #AC3232",
"* c #864A2E",
"= c #8E5235",
"- c #8F563B",
"; c #CE9251",
": c #D9A066",
"> c #E3AD7A",
", c #DBB48F",
"< c #DBB998",
"1 c #E7B88C",
"2 c #EBBC8F",
"3 c #E3BA94",
"4 c #EBBF96",
"5 c #EEC39A",
"6 c #F3C69B",
"7 c #9FAECE",
"8 c #ABBCDF",
"9 c #CBDBFC",
"0 c white",
/* pixels */
"                                ",
"   8                            ",
"   8                            ",
"   8                            ",
"   8                            ",
"   8                            ",
"   8                            ",
"   8                            ",
"   8                            ",
"   8                            ",
"   8                            ",
"   8                            ",
"   8                            ",
"   8           +                ",
"   7          oo+               ",
"   ;         oooo+              ",
"   ;        oooooo+             ",
"   ;       ooXXXXoo+            ",
"   ;      ooXXXXXXoo+           ",
"   ;     oXXXXXXXXXoo+          ",
"   ;     :9950.40.699:          ",
"   ;      :955524469:           ",
"   ;      9:3555546:9           ",
"   ;      99:55<<1:9            ",
"   ;       9,:111:,             ",
"   ;      ##9,:::,,%%%          ",
"   ;    #####9>,,,9$$$%         ",
"   ;   ######&9,,9#$$$$%        ",
"   ;  ##&&&###&&9$$$&$$%        ",
"   ; ##&&&&######$#$&&$$%       ",
"   ; #&&& &########$&&&$$%      ",
"   ;#&&&  &@#######$&&&&$%%     ",
"   ;&&&   &@########& &&$$%     ",
"  *-&&    &@@#######&  &$$%     ",
"  *--     O@@#######%  &$$%     ",
"  *-      O@@@@#####%  &$$%     ",
"   ;      O@@@@#####% &&$%      ",
"   ;      O@@@@@####% -$$%      ",
"   ;      O@@@@@#####=-#$%      ",
"   ;      O@@@@@#####=--$       ",
"   ;      O@@@@@@####=-         ",
"   ;      &#@@@@@###&           ",
"   ;      :::::::::::           ",
"   ;      :::::::::::           ",
"   ;      O@@##$$#$$%           ",
"   ;      O@@@###$$$$%          ",
"   ;      O@@@@##$$$#%          ",
"   ;      O@@#@###$#$%          ",
"   ;     OO@@&@@##&$$$%         ",
"   ;     O@@@&@@##&#$$%         ",
"   ;     O@@@&@@@#&@@@%         ",
"   ;     O@@@ @@@@&##$$         ",
"   ;     &&&& @@@@ &&&&         ",
"   ;     &&&&      &&&&         ",
"   ;     &&&&      &&&&         ",
"   ;     &&&&      &&&&         ",
"   ;     &&&&       &&&         ",
"   ;     &&&&       &&&         ",
"   ;     O@@$       $$$         ",
"   ;     O@@        #$$         ",
"   ;     O@@        $$$$        ",
"   ;    O@-@        $$$$        ",
"   ;    &-&-        &&&&-&      ",
"   ;    ----        ------      "
};
