/* XPM */
static char *stone_wall_11751977855[] = {
/* columns rows colors chars-per-pixel */
"480 480 256 2 ",
"   c #3A3835",
".  c #32261D",
"X  c #473B35",
"o  c #633B35",
"O  c #48433C",
"+  c #57483C",
"@  c #5D513E",
"#  c #78563C",
"$  c #694E3B",
"%  c #7D613E",
"&  c #4C4C4B",
"*  c #494845",
"=  c #534D4B",
"-  c #574B45",
";  c #54524D",
":  c #5B534C",
">  c #5B5347",
",  c #4D4D52",
"<  c #544E53",
"1  c #4E5255",
"2  c #545453",
"3  c #5B5553",
"4  c #5C5A55",
"5  c #54555A",
"6  c #5A565A",
"7  c #5C5B5B",
"8  c #565959",
"9  c #4E514C",
"0  c #684C47",
"q  c #63544C",
"w  c #6C5B4C",
"e  c #675649",
"r  c #775A48",
"t  c #635553",
"y  c #645B54",
"u  c #6B5C53",
"i  c #635C5B",
"p  c #6B5D5B",
"a  c #685557",
"s  c #735C54",
"d  c #775B57",
"f  c #6C4D4E",
"g  c #5E605C",
"h  c #7A624C",
"j  c #6D6154",
"k  c #64615D",
"l  c #6C635C",
"z  c #686459",
"x  c #746354",
"c  c #7B6454",
"v  c #74645B",
"b  c #7B645B",
"n  c #75695D",
"m  c #7C6B5C",
"M  c #7B6A55",
"N  c #766955",
"B  c #5C5D62",
"V  c #575A63",
"C  c #4E5661",
"Z  c #625D62",
"A  c #6A5C63",
"S  c #755D64",
"D  c #5E6164",
"F  c #646363",
"G  c #6B6463",
"H  c #6C6B6B",
"J  c #696768",
"K  c #736563",
"L  c #746B64",
"P  c #7B6C63",
"I  c #746C6B",
"U  c #7B6D6B",
"Y  c #796565",
"T  c #7D7164",
"R  c #7C726C",
"E  c #75726C",
"W  c #766D72",
"Q  c #7C7473",
"!  c #797777",
"~  c #6D6D72",
"^  c #423F40",
"/  c #825D4B",
"(  c #83644C",
")  c #87684B",
"_  c #846B54",
"`  c #8B6C53",
"'  c #836C5C",
"]  c #8B6D5B",
"[  c #846556",
"{  c #936D56",
"}  c #84715C",
"|  c #8C735C",
" . c #8C7255",
".. c #93745C",
"X. c #987659",
"o. c #926E4D",
"O. c #A47B5B",
"+. c #A56D52",
"@. c #836D63",
"#. c #866B67",
"$. c #847364",
"%. c #8B7464",
"&. c #83746B",
"*. c #8B756B",
"=. c #8C7B6C",
"-. c #887969",
";. c #937563",
":. c #947A64",
">. c #9B7C64",
",. c #937C6C",
"<. c #9B7D6B",
"1. c #95756A",
"2. c #837573",
"3. c #847A74",
"4. c #8C7C73",
"5. c #8B7D7A",
"6. c #867978",
"7. c #937D73",
"8. c #977B76",
"9. c #8C6D6D",
"0. c #A37D66",
"q. c #A37D75",
"w. c #845D65",
"e. c #825D3D",
"r. c #9C826C",
"t. c #97826A",
"y. c #8C827C",
"u. c #8A8278",
"i. c #948374",
"p. c #9B8474",
"a. c #94847B",
"s. c #9B857B",
"d. c #9C8B7C",
"f. c #988979",
"g. c #948974",
"h. c #A3846C",
"j. c #A98668",
"k. c #B38B6A",
"l. c #A38473",
"z. c #AB8C74",
"x. c #A38C7C",
"c. c #AB8C7B",
"v. c #A58777",
"b. c #B38D76",
"n. c #AC927C",
"m. c #A6927B",
"M. c #B3947B",
"N. c #B99678",
"B. c #B6916D",
"V. c #A9835F",
"C. c #C39B7A",
"Z. c #C09270",
"A. c #C6A17D",
"S. c #7D7D82",
"D. c #8C7D82",
"F. c #A47E81",
"G. c #7E8184",
"H. c #8A8686",
"J. c #938582",
"K. c #948A83",
"L. c #9B8C83",
"P. c #988B89",
"I. c #9C928B",
"U. c #9A9288",
"Y. c #999696",
"T. c #928E92",
"R. c #A38C83",
"E. c #A88B86",
"W. c #B38D85",
"Q. c #A49384",
"!. c #AB9484",
"~. c #A4948B",
"^. c #AB958B",
"/. c #AC9B8C",
"(. c #A99988",
"). c #B39483",
"_. c #B49A84",
"`. c #BB9C83",
"'. c #B39C8C",
"]. c #BB9C8B",
"[. c #B69589",
"{. c #A49A93",
"}. c #AC9C93",
"|. c #A79997",
" X c #B39D93",
".X c #B89A95",
"XX c #A98D92",
"oX c #B9A28B",
"OX c #ADA29B",
"+X c #AAA297",
"@X c #B4A394",
"#X c #BBA494",
"$X c #B4A49B",
"%X c #BBA59B",
"&X c #BCAB9C",
"*X c #B8A998",
"=X c #B5A893",
"-X c #AD9DA2",
";X c #AAA6A5",
":X c #B5AAA3",
">X c #BBACA3",
",X c #B7AAA7",
"<X c #BDB2AB",
"1X c #BBB1A7",
"2X c #BAB5B4",
"3X c #B3AEB1",
"4X c #9D9EA1",
"5X c #C29D87",
"6X c #C39D95",
"7X c #D49F87",
"8X c #C3A48B",
"9X c #C8A689",
"0X c #C3A493",
"qX c #CBAB94",
"wX c #C3AC9C",
"eX c #CBAC9B",
"rX c #C6A698",
"tX c #D3AC98",
"yX c #C9B29C",
"uX c #D5B49B",
"iX c #D3AB8B",
"pX c #C3ADA3",
"aX c #C9ABA5",
"sX c #D3ADA4",
"dX c #C4B2A4",
"fX c #CBB4A4",
"gX c #C3B4AB",
"hX c #CBB5AB",
"jX c #CCBAAC",
"kX c #C8B9A9",
"lX c #D3BCAC",
"zX c #D7B8A6",
"xX c #CBBCB3",
"cX c #C6B9B5",
"vX c #D6BBB4",
"bX c #CAADB2",
"nX c #E2BCA6",
"mX c #E2BDB4",
"MX c #E2B89B",
"NX c #D8C2AB",
"BX c #CCC2B9",
"VX c #D4C3B4",
"CX c #D3C4BB",
"ZX c #DBC7B8",
"AX c #D0C3AD",
"SX c #E5C4AB",
"DX c #E5C9B7",
"FX c #EDD1B9",
"GX c #E4C4A1",
"HX c #D8CAC4",
"JX c #D5CDC8",
"KX c #E6D5C7",
"LX c #E8D4CD",
"PX c #F2E4DA",
"IX c #CABEC1",
"UX c #7E817D",
/* pixels */
"l l z l L 3.I.BXHXcX<XxX,X$XR.P.L.L.K.a.L.d.L.=.u.4.-.@.P U m J.4.4.4.u.5.a.U.|.|.{.U.P.L.U.U.I.I.I.{.$X<XBXJXcX,X,XIXHXcX-X;XHXIXLXHXvXbXhXjXfX%XfXzXbXaXdXxXjXgX>X$XcXCXxXhXcXxXlXHXZXvXZXvXZXHXxXHXHXJXLXJXJXJXHXxXcXgXxXcXcXIXIXHXHXIXvXvXHXHXHXCXIXHXcXHXHXHXHXJXJXHXHXKXHXJXLXLXPX4X, ! ! J I G @.7.0XvXzXrX0X[.M.6XrXtXuXyXtXeXqX`.`.`.8XqX0XsXzXlXZXvXDXDXCXZXZXZXvXvXzXsXzXNXzXfXNXDXDXHXLX6.& S.T.G.T.D ! R P =.=.P m T =.i.a.i.u.i.u.=.4.4.=.4.a.a.a.u.=.4.=.=.$.%.@.<.i.-.=.,.=.=.=.=.i.7.i.d.@X*X1XkX1X{.$XK.2.v L L m T m U $.U x x x x x u u u 4.P Y U R &.3.y.{.{.P.K.a.y.J.y.y.3.3.3.-.f.OXcX+XR 2.gX<X-XF Q 2XcXPXvXxX.X`.8X9Xz.`.rXaXpXdXCXxX|.u.4.$X<X@X@XkXlXvXSXzXuXzXyXfXNXfXAXfXjXCXxX<XCXCX&XR.;.v.v.| ( _ _ ' _ _ _ _ [ @.P @.P @.m ' ' b @.' @.m @.M ' ' s.>X7.t U U G b b [ %.l.!.n.v.v.l.l.M.).5X8X`.].oX_.M.b.c.M.0X0X6XrXfXfXzXzXlXzXlXvXNXvXsXaXeXfXzXwX#XfXzXhXlXvXy.G ~ H.H.T.! ! 4.&.i.i.&.T &.u.a.d.y.u.y.u.i.4.4.4.7.a.a.f.y.i.i.i.i.*.7.,.d.s.,.7.,.=.=.*.",
"H G i G I R u.J.{.{.{.OX~.J.a.J.K.d.a.f.a.a.a.&.&.-.m P @.P 7.a.&.6.4.y.a.a.a.U.U.L.K.L.J.K.K.L.I.~.I.}.,XcXcXcXcX,X2XJXbX4X2XxXLXLXIXbXvXvXlXsXlXvXhX&X X X+X%X&X}.$X%X>XhXgXgXgXxXhXgXgXgXxXxX<XgX<X<XcXcXcX2XcXxXcXhXgXbXgXhXcXcXxXxXIXcXxXcXcXHXvXCXCXvXgXcXvXxXcXcXHXHXHXKXJXLXLXPX4XC H.S.! I 3.m %XwXeXfX`.[.].5XiXtXzXtXtXeXeX8X9XqXiXqXqXqXyXqXuXfXzXzXlXNXlXlXvXlXhXvXlXlXzXaXZXDXDXHXvXLXT.^ S.G.T.T.J ! P &.&.$.m T 4.u.u.u.f.u.u.4.u.4.=.3.=.-.i.a.p.a.7.7.=.@.-.c =.=.i.7.=.7.-.f.d.4.-.=.f.a.y.u.3.-.T y.4.T L P T $.$.m v P n u j x w x d w &.*.v U $.&.3.-.4.y.a.a.4.y.4.u.4.4.u.u.3.&.u.Y.H.:XI.I H.JXT.Z H.gXLXKX6XW.rXtXtX6XeXNXfX#Xp.7.i.,.$.} %.,.*.x.m.x.R. X#X(.!.U.>X*XQ.U.a.d.R.L.L.a.&XpXeXaX[.q.c.0.q.` [ [ ` _ _ c b [ [ b [ m m ' ' @.#.[ [ #.[ ' [ ' L.>Xa.u 3.R L U &.c x.x.x.W.<.r.v.b.`.6XrX8X6X8X].).).`.`.8X0X9X8XoXeXwXfXyXaXlXlXfXzXjXhXlXhXeXwX0XaXfXhXlXaXHX|.7 ~ S.T.H.! H.R 4.4.-.-.3.i.a.f.y.y.g.u.u.u.=.4.=.4.=.i.a.a.a.a.8.7.-.=.$.i.i.s.i.i.i.-.i.",
"G i 3 3 y p l P 2.u.u.y.y.y.J.a.K.a.a.f.f.y.3.4.&.&.=.&.&.@.a.=.*.4.4.8.i.a.a.a.P.a.a.L.a.f.a.a.L.Q.L.L.:X<X,X1X,X$XbXHX;X-XJXHXLXHXZXvXvXHXDXZXZXhX&X X}././..X^.#X#X#X#XpXpX%X X$X>X$X:X}. X,X<X.X}..X.X%X,XdXvXgXbXlXHXxXcXvXxXvXxXxXcXhXhXcXxXcXhXxXvXxXHXxXxXxXxXHXCXCXvXHXHXLXIXLX|.D.T.! S.H.T.&.$X#XR.v.c.E.[.eXzXmXnXzXtXuXqX5XtXqX9XqX9X8XiX0X8X8X8X9XtXyXrXrXfXeXaXeXzXzXNXSXDXNXDXDXmXJXP.< S.T.T.Y.H.2.R R &.m P 3.u.7.4.a.a.y.6.6.7.=.7.,.%.,.7.7.a.i.5.1.7.a.y.P 3.&.a.4.&.2.L 2.3.n p t p l n l n L T R R P T $.&.$.$.$.$.x p v s x U x x b =.U P #.&.*.%.3.4.4.y.u.4.a.4.4.4.4.u.=.$.} -.i.&.4.5.U J.2XH G 2XHXLXmXeXeXtXzXuXNXDX#Xc.=.%.$.[ _ [ ..] ....l.p...[ ..1.#.} ' $.p.'.9.[ ] ] #.1..XhXR.rXjXlXfXrXrXeX[.0.` [ _ [ [ b [ ' [ [ b b b b ' @.] 1.{ [ ] ' @.R. X5.&.4.P R &.4.P s.d.7.,.<.<.v.6XqXsXsXtX8X8X6X5XqX9X8XqXrX5X9X8X].9X`.8XqXqXrX0XeXwXwXeXyXrXfXrXsXzXlXlXvXVXP.J S.H.T.H.H.3.R 3.4.T $.4.a.a.a.a.a.u.4.4.7.,.7.7.$.,.7.i.p.i.s.s.s.L.L.&.4.4.L.4.2.=.Y 4.",
"i i a q a v L P T P L P &.&.=.u.4.i.y.f.a.3.4.3.a.R.4.4.*.4.4.4.a.7.a.a.u.u.a.a.a.d.a.s.a.s.d.d.x.d.d.d.(.=X$X*X,X,X,X,X|.;XHXJXLXLXKXHXZXZXHXVXdX%X$X/.'.'..Xx.^.aXwXpXfXpX%X&X%X%XbX%X$X X:X>X.X%X%XaXwXhXjXjXvXgX>XxXhXhXvXCXZXCXvXxXxXxXxXxXxXvXxXxXcXxXxXvXHXxXxXvXxXbXIXcXHXHXIXHXIX2XI D.S.H.I.H.J.dXn.!.v.[.eXzXzXzXsXzX0X].eX0X0XeXsXtXrX6X`.M.`.`.`.5XqXrX8X0XeXeXzXuXzXzXzXlXzXzXzXaXjXcXH.5 D G.4XY.H.3.s.&.$.-.=.4.4.4.4.a.i.u.4.-.=.4.=.4.u.3.f.d.f.K.K.u.R 2.Y v p u l l l v u u a l s a v v T m T T n n T $.T m m &.$.&.-.P n b &.L.@.-.P *.$.$.=.-.*.4.=.3.3.=.4.i.4.7.4.u.i.=.=.-.$.$.-.%.} -.=.U y.u.; ! 2XHXPXKXvXNXsXkXDXjXm.$.%._ _ [ _ [ :.c.h.h.z.z.>.:...1.z.;.` _ ] M.>.b.).v.c.#XeXyXwXdX$X X/.%XrXeXtXrX].h.[ [ [ b [ [ [ [ [ _ ' [ ' ] ] ;.[.[.v.0.1.] R.^.^.L.L &.2.&.u.&.*.!.1.7.,.E.0XaXaXeXeXsX.X`.qX0X0XeXtXtX0X8X8X].].`.`.9XqXrXoX0XqXeXyXeXuXeXqXyXuXfXwXwXfX<XH.Z D S.Y.T.T.3.L.2.&.=.4.i.y.4.i.i.a.u.4.*.=.u.=.4.i.3.f.L.K.K.K.y.3.5.3.L K L P K L L n L ",
"p G z q q j x x c x x x T T T m T &.u.&.3.3.&.&.U.a.4.3.&.=.3.=.i.f.f.y.a.a.i.a.a.i.a.i.f.s.L.d.L.Q.R.d.x./.=X$X>X>XOXOXI.,XJXPXLXJXJXLXKXJXBX>X X X X[.^.!.'.'. XfX%XpXaX X%XaXaX$X X X%X#X.XwX@X&XlXhXaXhX#X%X%X.XhXxXbXjXvXvXVXZXvXCXxXbXxXxXxXbXcXhXcXvXHXxXvXCXCXxXxXxXxXcXIXvXJXHXLXY.7 4X3XG.T.W Q /.p.7.8.^.#X#X%XfXfX[.v.q.<.q.[.).'.[.].].5X0XM.).`.).c.rXeXeX#X#XhXlXeXNXzXhXfXfXeX X,X.Xu.2 H S.S.H.! K.&.&.*.=.&.4.u.4.i.7.7.=.t.-.4.&.a.L.&.y v K v j z > > q w n v v x x b w m x x M x w r x m m M x w x &.T T m n R u.&.R T -.n L.y.3.&.=.&.3.=.3.-.-.u.3.=.3.=.3.=.u.=.u.4.7.i.,.=.-.%.$. . .} =.$.L l & J.cXLXJXxXJXKXZXKXlXf.@.] ] [ [ [ _ %.z.n.x.h.<.1.<.v.v.;.[ [ 1.{ X.z.>.c.tX0X.X`.q.<.v.l.#X^..X_.[._.).`.6X5X{ [ @.[ [ [ [ [ [ [ [ [ #...v.M.b.5X5XiX`.>.E.^.%X4.p 5.P.Q 6.Y @.8.%...<.].#X'.oXqXwX(.v.v.l.q.W.).].[.6X8X6X`.).oX`.).).rXeXrX.XoXfXzXwXzXwXaXyXwX.X'.$X}.K.G J ! S.H.6.J.&.6.4.i.4.i.i.7.4.7.7.=.7.-.4.&.s.K.&.u K L l n z q : u j P m $.P m @.x ' m ",
"z j w w w w x v x x x x } n T T R &.Q R u.u.y.g.2.&.y.&.4.4.u.u.u.y.y.y.a.K.a.a.f.K.K.a.a.f.a.i.4.a.U.Q.d.Q./.$X+XI.OX{.T.,XJXJXgX:X,XcXBXgX@X X^.^.^.^.(./.(.Q.Q.(.%X X$X X.X$XwX$X XaXlXfXwXrX[.].wXzXvXzXwXeX>XpXlXhXlXjXVXCXCXCXvXCXvXcXxXxXxXxXvXxXvXxXvXCXBXBXvXvXvXHXbXcXcXcXHXcXJXQ F H.4XT.H.T.U s [ ] l.p.,.] ,.7.%.i.1.;.>.;.0.v.1.] 1.l.v.c.v.>.<.0.M.`.W.8.1.,.1.<.l.z.M.).z.l.q.).aXR.a 3 5 ~ H.H.R I.Y U &.-.-.-.=.=.4.i.i.4.$.=.m ^.d.$.d s s s d c w s m P @.m n m P m m m m x h x w h N h M M c N j j T N T T R &.3.T T =.3.u.&.3.4.3.4.4.3.u.-.u.-.u.3.4.&.&.&.4.u.=.,.,.u.=.-.-.-.=.| m } -.m L l 6 2 Y.PX2X|.5.K.OX1X+Xi.-.' [ [ ) [ [ M _ -.x.s.@.[ $.1.8.r.] [ k.7X5XC.B.0.0.b.rXsXiXb.W.[.c.wX X!./.=XyXtXuXqXtX6X[ [ [ [ [ [ c [ [ ] [ ` b.9X8X6X5X].].b.`.6X'. XP K 2.J.5.2.7.@.[ ` <.v.v.1.:.r.s.<.r.1.<.<.;.h.v.v.:.<.l.c.M.M.l.q.v.c.].!.v.p.8.r.8.v.z.M.).).v.v.'.aX'.U U J ! H.H.E I.P &.-.*.=.=.u.=.u.7.i.=.%.=.@.~.d.&.d s d r s c s x @.$.$.P P -.&.$.&.$.$.m ",
"K v x n x x n N N x N m m n T $.&.&.T $.-.=.3.T P 3.R R 3.u.y.i.y.y.3.u.3.3.Q R 5.y.3.&.3.4.4.&.&.&.d.L.d.d.y.+X|.P.H.H.T.cXJXcX|.I.XX$X+X/. X@X X(.v.x.).x.x.'.x.7.J.^.}.(.{./.'.^.@XyXvXfXfXeXzXDXsXeXzXzXyXfXhXjXCXhXhXlXvXdXzXhXjXhXcXvXhXgXhXxXvXcXcXCXxXvXvXcXcXxXCXvXbXxXHXgXcX3XJXJ A S.T.T.S.T.R.R.c.c.( r r r # r e # X.1.{ ;.;.] _ :.`.c.<.;.1.{ [ [ >.] { l.6X9Xk.{ 0.{ 0.j.M.M.8XqXfX#Xy 4 1 ~ H.I p L s $.-.=.*.=.-.&.=.,.=.=.-.j L.f.m T @.@.$.$.$.=.4.-.} T P b b @.$.&.$.&.P m m b M ' M m } m m n x m P x T R 3.$.m P &.3.-.T P U U &.2.u.u.-.u.Q R Q 3.-.Q R &.u.3.&.4.4.4.=.&.$.$.%.T -.T P R p 3 3 Z 3XJXT.9.*.@.i.u.T %.*.%.[ c c ` ` ' ] | | | ] ' _ M M } _ :.`.uXtXiXqXtXnXMX5XnXrX_.#X#X[.zXE.[.0X].).v.W.b.5XrXz.[ [ [ b ' [ [ [ [ X.b.9XqX8XqXyX0X5X`.qXwX.XpX@.Y 9.5.4.6.~.^.).).n.| ( / / ( [ r h <.0.;.0.1.>.` <.).c.v.l.z.>.{ ] 0.1.;.l.8X0Xb.O.0.0.0.z.).M.8X0X0X*XL J J ~ H.H G I v &.=.4.4.4.=.3.=.7.=.3.-.x L.f.P m $.@.&.$.%.4.,.&.$.$.@.P P &.4.4.=.&.*.&.",
"L n L m n m n N v j l T n n T T $.m m $.$.&.&.=.R &.@.R 2.T 3.3.R E T T R R R R R &.R &.3.&.3.*.-.$.@.R 3.R 3.I.! Q G I T.;X2XbX^.i.R. X%X$X%X$X@XQ.!.oX(.<.!.*X%.b 1. Xx.R.^./.}.Q./.^.&X XfXZXZXZX>XpXdXsXaXaXvXDXDXvXCXlXhXjXvXvXhXxXaXgXxXxXxXxXcXgXxXxXjXVXxXxXlXxXCXxXgXVXaX,X,X,XIXW V ~ 3XG.G.T.}.ZX].:.) / / ) / e./ ( [ ( [ ] { ` ..X...r [ ( ) { { [ ( [ ] >.l.oXyXqX`.8Xl._ ' l.p.s.d.6.4 7 8 F ~ F i p u $.*.=.-.-.=.=.=.=.7.&.Y =.}.m T %.-.=.=.%.$.=.=.-.&.T T } -.-.$.-.-.&.$.&.-.@.T m } T T } m w j n n n T T T P m $.-.-.%.u.&.U &.T R R &.3.R T T T Q Q 2.T R 2.R &.4.3.3.*.-.-.P @.T n P T p : : 4 Y.:X.X>Xx.<.1...t.:.#.%.%.[ M _ [ M  ._ ` | ] ] ] ` ( ` _ _ $.' c.'.zXNXDXnX].].6X7XtX7XtXzXnXeXeX].5XtX7XsXrX6XtX5X{ [ #.' @.] [ ] >.b.`.b.N.8XuXqX8X8XeX)..XrXxXR.4.5.$XP.R.^.^.sX`.>.;.` [ { ) ) ) ` { ` ` >.>.;.:.j.>.` ;.>.;.;.;.{ | ....<.v.oXqX0XoX8X).t.<.c.!.x.Q.J.L I J J ! F p l v -.=.,.=.=.=.-.=.=.=.*.P =./.m $.-.-.=.,.-.$.=.=.3.&.-.$.-.=.=.-.=.-.&.&.-.",
"U L L n n n n N j w x m x x m m m x M ' $.m -.T &.R $.P U =.=.&.m $.P U U &.$.P v m m m n n R &.3.&.$.&.&.&.3.R j G v 3.I.:X>X^.}.pXxXgX$X}.~.L.L. X$X{.L.L.7.a.@.R.#X_.Q.d.x.Q.Q.x. X$X@X^.%XdXaX!.!.#XrXzXDXKXKXvXCXvXxXxXpXdXjXjXhXvXwXjXgXgXgX<X1XgXgXdXVXVXxXZXxXbXVXxX>XjX>X$X@X:XIXH., S.4XH.H.G.{.^.` h [ ( ) ) ) ) ) o.o. .o. . .o.X. . .X. .X.....X...;...] ] :.>.:.:.-.v.p.| | <.<.;.-.&.y 4 7 7 7 & > m c h _ } -.-.-.=.=.-.=.-.N f.T N $.3.p.i.,.=.*.-.%.&.-.&.&.&.u.u.-.R =.3.R @.&.U P ' M T m m n w x x x x c m c x m ' -.m 3.&.&.&.&.U U 4.4.=.P R T R &.3.&.P m P m T m n R =.3.&.$.-.-.| &.k ; 5 C H.|.2XHXVXvXsX.X).v.8.s.1.#.' ' [ [ ] [ ` ` ` ` ` ` ) ) ) ( ( ] ..,.,.Q.!.#Xl.t.v.8XzXDXFXSXlXzX&XwX#X#XrXrXoXeXtX8X8Xc.%.[ w.#.#.[ 0.5XuX5X7XqX[.`.c.).8Xn..X0X#XvX}.2.I.:X|.{.J.^._.;.` { ` ` { { { o.{ X.O.X.X.X.X.t.X.X.>.t.>.h.0.0.r.<.:.;.;.t.r.r.t.t.x.x.r.r.n.x.i.p.u.l G J g g - q m c M | %.-.t.-.=.-.-.,.-.n i.T n $.=.p.i.4.=.,.-.%.-.-.-.3.&.=.u.3.&.=.3.2.2.",
"R K l v n L l j v s w N u x x n m N m P n N T T -.T P n @.a.3.&.&.u.&.P &.&.P P P n T T m T $.&.-.R -.$.T -.z q i l G Y.<XJXcX,X:X:X$X}.I.L.P.$XdX$Xp.m c s d r s.#XQ.Q.(.Q.d.R.s.=.,.m.p.d./.wXdX%XfXZXKXVXKXHXCXvXpX>X$X%X$XlXfXfXvXfXlXjXgXdX&XdXhX%XpXhXCXlXjXVXfXjXVXhXhX&X#XaXwX%XhX{.a W J ! UXH.T c h [ c ( _ ( ( ) ) {  .o.) o.X.X.X.o.o.o.X. .X.X...o.{ { { ) X. ... . .....] ;.;.;.=.-.n 4 8 g 8 y + s M _ h _ :.-.| | $.} } } ' h h w w $.=.i.u.i.=.=.-.$.&.T } $.-.-.$.$.T T P v n *.P n x m m m N m r h x w x M T m M m @.m x T T &.T T m U L.4.R R i.&.T &.3.P T T m T T T $.-.3.=.&.t.u.-.u.g 9 1 5 V 4X;XPXJX1XgXbXlXgX XoX'.E.rXq./ ] ] ` [ [ [ ` _ [ } ' ` / [ { ( ).>...] p.!.v.#XZXKXvXDXZXCXhX/.x.1.p.v.8X].iXuX`.`.).9Xq.] { [ [ 1.`.tX9XiXuXqXiX5X`.).9X8XtXrX0XhX@X9.a.a.L.L.I.s.....;...] | ` `  .X.X.X.t.X.X.t.V.X.X.X.X.h.V.X.>.X. .X.X.{ ` X.......%.>.<.r.l.<.1.p.i.&.L H I 7 k + u m ' _ _ | -.} } $.%.} $.[ h M h w -.=.i.u.i.t.=.&.$.&.T -.-.-.=.=.$.T T U n n ",
"U U P L K m P N m N q w w v P T n n T T m n x T T T m n P R L L P 4.&.R T R m T &.m T $.U $.U T T T T N n z ; 8 7 i J Y.3X3XI.K.J.J.5.u.L.|.+X+X}.{.U.d.s.,.@.m d.Q.U.U.a.a.L.K.&.&.s.^.x.s.#X@X=.L.OX>X1X:X<XOX;XOX$XdXpXdXdXdXgXCXxXBXvXjXhXgXhXxXxXkXCXVXVXxXvXgXgXCXBXgXVXVXfXfXhXhXJXY.G H.T.! ! U.y.m c c h h h h x h h _ )  . . . .o.X. . .X.X.X...t.t.o. .X.o.`  .o. .X.X. .....X...| -.$.y z ; 7 4 4 X x | %.]  .t.t.| } $.} _ _ [ r w x M -.-.=.u.i.-.7.-.$.$.m T &.-.t.$.$.T @.&.x j &.&.$.P P ' T M T M w w x m $.-.} m -.$.m N N m T $.T L P 3.R T &.a.4.2.&.&.&.&.-.$.-.&.$.3.&.$.&.$.$.} T z 9 2 5 5 5 H.IXJX|.~..X$X}.~.%XCXxXpXVXjXdXwXwXW.' ] %.] _ | ]  ._ _ _ [ 1.tXh.] ;.8.%.1.v.W. XI.|.J.s.Q.s.!.x.z._.`.8XzXuX[.0XqXqX5X0.{ X.k.iXtXtX9XqXuXsXsX8X).qXyXeX`.rXyXVX}.7.~.|.L.L.~.Q.<.:.:.] [ _ c _ _  .| |  . .X...t.X...X.t.h.r.t.X.......X.....X.t.X.t.:.t.r.l.h.p.t.t.i.&.R E I k 4 O m %.| ] | t.t.| } } } _ M M r w x N -.3.u.=.i.=.=.-.-.$.m T -.-.t.$.$.T @.$.v x ",
"R T L L P P $.T &.M w w N N m T P n m T m x e w x T T L L T T L L T L m T m $.T T T T P T T P T P T n n N 4 ; 8 2 7 4 W Y.K.K.I.I.a.u.3.a.K.3.3.Q R 3.K.K.3.y.3.P U &.@.@.P m @.@.$.d.d.=.=.3.&.R R L R R 3.y.3.4.a.U.~.J.L.L.L.OX*XU.I.T.+X*X:XcXHX<XgX<X3XcX;X2X2X2XBX2X2XBXCX2X2XBXJXLXT.2 ! Y.S.! ! Q T x w u u y q e w w e w w h M M _ M } _ M M M M M m M ' ' _ _ } }  . ._ M } ' M _ M M x > k 4 3 7 ; + L =.%.} | t.t.| } _ _ } m x q w h T $.' -.-.$.T -.$.$.-.&.T $.&.3.$.} m M x m &.=.-.P T P $.-.} %.M h w x M m T T T T $.T x w x n -.T T T &.R T R &.T P &.} -.-.&.&.-.&.&.3.&.&.$.T T m T ; ; 1 5 6 < D.LXcXbXHXHXgX.X(.pXcX{.}.~.K.{.1X<X+X*X^.$.] ;.%.] ` ] ] [ ` M._.:.| ] %.:.} } ' %.s.d.,.,.=.).n.<.M.[._.wXoXd./.oX#X_.8XiXrX5XuX9XqXuXqX8XqXuX0X].wXNXzXwXyX*XfXZX{.L K.|.P.K.K.y.f.=.-.$.m x j j x x N N M } M M |  .-.%.} $.} } $.} } %.%. .] .... .|  .| <.:.=.t.t.u.u.P R L I k : = L =.%.-.-.| t.-.} } } _ [ x e x x m $.} =.=.$.m -.$.-.&.&.m &.3.-.$.$.m M x n T ",
"T E n L L T T $.$.T N u x n n L L P n n n l u n T R T R R n l l n P T T m N n T m P P L L L L T P L L n i ; ; 9 < & * H.P.u.y.J.H.J.y.u.y.R L K G L I E G l L P L n j v j j x N x x n v s x s s c s c ' x b P m m T a.3.&.R R 3.U L n P Q 3.u.y.H.y.UXR E E E UXY.U.|.Y.T.T.H.UXE E E H.H.F 2 J ! H.~ < 3 3 : 4 4 4 ; ; ; 9 ; > ; > > : > y y : y ; 4 > : : 4 y q q y q y e e y e @ q e > > > 4 3 > 4 4 8 3 2 g G T R &.u.| t.T M M M h h q j m x m M } %.$.m n P n U P Q P R R E P U R n j N $.&.T n L n T $.-.$.$.M x x n n T T m P P m x j m T u.$.R R n n n n T T $.$.M n } } &.T T T P T T R T T L z 2 2 8 5 8 1 IXPXIXJXHXHXJXCX1XcXI.5.u.6.J.K.I.J.u.a.d.7.=.-.} [  .[ ] ` ;.;...{ ` ) ( ` [ { ;.] ..;.;.:.p.wX'.v.m.x.!.x.,.,.7.s.#XyXfXsXuXnXiXtXtX0X].eXyX].).].'.@X'.'./.i.^.@Xu.I 3.J.Y.y.U R R Y T P n y 4 4 4 z y z y j j j j j z j l l j z w z j j y w x j j x x u x T m j n T T T L E E E 7 3 g G R &.3.t.-.-.m M M M M c e j T N m M } %.$.m T P n U P R R I R E L U T L s n $.",
"I L L H L L E R L T L y y l l G L G G L G z l L L T L L K n n n n P R T T m x L L L L L K L G L L H G F 6 5 5 5 5 < 7 D.W ! ! H.H.D.6.W E G G G H L U ! I G z p u u u w q e e e e u x v c b @.@.' &.@.@.m v x a n 3.u.L L T n w y j u u l L G L L l z z k 4 y 4 7 k i k k k k z z z z G z 4 6 a B H J Z ; 2 2 ; ; 9 9 2 9 9 9 9 9 ; ; ; 4 ; > 8 3 4 8 4 2 3 ; 4 ; ; ; > ; ; ; ; & & ; ; > - > 9 ; ; 2 2 8 8 8 8 8 4 k z z E L N n n x x w w l n v m x n M P n T L F J J F H I K H z K K G H H L T L L E H T T R L T n q w l n L L L n n K j l L T R E T L v L n n T &.&.$.T n T T L L R I L L E E E I G 7 5 C 8 D 1 ~ 2X4X4X2X3X2X2X3XY.Y.u.u.5.5.T.{.}.J.i.$.@.%.' [ _ [ b [ #.[ ..b.j.0.j.b.b.M.5X5X[.v.r.,.@.f.&XdXd.d.(.x.:.] ..] ) l.pX#X.X6XeXsX0XqX`.`.].eX].0XwX'.'.!.x.!.(.Q.(.Q.a.2.R Q 5.3.2.P I L L L z 4 4 4 4 4 y 4 y 4 4 4 : k z l z G z g k g k k y 4 y y 4 4 4 4 l L l l z G z G l G L H 7 8 8 7 4 k l z E n T T n m x w y v m v m m m n P n T L G J J F H I Y E G A I J L L E ",
"H J k J ~ J J G k H F 6 4 g g 7 7 i Z k i p p F H L L L v G G v L L K I R U K U I K L G G L G L I J G i 6 5 V 5 B < H W H A J J H W W U A K A G J Z J I Y K A p a a s s w w f d b 9.R.F.8.4.4.7.a.a.3.! 3.2.U R 2.L L G K K L n u u u Y l U l z k y i y 4 : = 2 ; = ; 3 ; ; * > 9 * ; 1 8 8 8 5 Z 6 J J 6 3 , & 2 & , 2 9 2 9 9 2 2 2 9 9 ; 8 ; ; 2 ; 9 2 3 2 2 2 ; 4 4 4 2 2 2 ; ; 3 ; 9 ; 4 9 9 9 2 2 5 2 1 2 8 8 8 2 8 z g 4 k i k l k y y : y p y i 4 6 4 7 4 6 6 Z 3 < t t i 7 7 V Z F F J H J k J J J G H l H F 4 2 7 4 7 7 7 i k i k F k z G k z k z i i z l z K E T l L L G H L L H L H H J G F V 8 D V D 1 H.H.H.! S.H.H.H.H.H.! ! 3.H.u.! 5.H.5.3.@.@.[ [ [ ) ( ( [ +.0.9XSXzXsXeXeX0XhXjX X$XOX/.Q.R./.Q.i.-.=.i.x.:.` h ] M.M.yX(.].#XeXsXeXeXrX[.!.!.).&X&X*X/.$X@Xp.R &.~.|.{.H.E Q I Q u.E I I K H l i i 3 g g ; 3 7 k 7 3 g z G E L G k i 4 4 i 4 4 k g 4 g g g k z k J E L k E H G J k k 8 9 5 8 7 7 5 g k z z l G G l z y y : y p y i y 3 4 B 7 6 6 Z 3 - t 6 7 7 6 B g F F G ",
"V F 8 F J D J F D F F F F D D F J D 7 6 5 8 7 7 i k 4 i i i l G k G G G Z K G G G i i 4 G z L H I L G G J H Y U Y 6.5.2.U #.U K d &.5.5.7.6.2.#.2.9.2.5.J.P.8.8.*.7.8.8.7.*.8.!.^.}. X%XxXaX.X}.~.J.3.U Y Y P Y 9.&.9.#.@.@.b v &.Y Y Q Y R R J l J F g i 3 2 < 8 2 2 : 9 * 4 9 * 9 9 1 8 4 6 i a i a K K = 3 5 = ; * * ; 9 * 9 & & 1 1 ; 9 ; ; 9 2 9 9 5 < , 1 2 2 9 9 9 9 9 ; ; ; 9 9 9 9 9 1 2 9 2 2 9 2 2 2 2 8 2 8 5 1 1 8 7 7 7 B g ; > 4 ; 2 7 5 V 5 V V 7 Z a 2.2.2.W A Z 7 6 5 6 5 5 8 8 B 5 7 V 8 g D 8 D 8 8 7 V 8 8 B B 8 8 2 5 8 2 8 8 2 3 2 : 3 3 2 3 6 7 4 i 6 7 4 6 3 2 k 7 g z k 4 8 8 C D V V V C J F k z J D z H F k E H I ~ ! ! ! ! E ! Q 3.3.!.aXaX0X).tXDXKXLXKXZXHXKXKXHXCXgXI.y.4.3.a.u.i.&.=.=.=.$.' ' %.%.c.eX'.eXFXzXwXlXjXwX&X#X'.@X%X$X~.{.I.OX*XH.3.K.Y.U.K.K.J.H.2.Q W 3.5.G I F l L z : k k ; ; 2 2 2 3 7 k z k k F k 4 6 6 3 3 4 4 2 3 3 ; ; 3 i k z k k k z ~ z z H J J 7 2 8 2 8 5 7 8 8 1 g B 7 7 F g 3 > 4 ; 8 7 5 V V V V 7 Z a 2.2.2.W A i 7 6 5 V 5 5 7 ",
"U Y Y U U W W K A Z J B D D V J ~ V V D D V A V Z Z F D F B F D ~ Z A A A J A J A Z A S A a K A J J W W W S.P.D.XXT.T.Y.T.T.D.D.U 6.D.F.D.D.D.D.5.D.D.5.6.J.XX;X,X,XXXJ.J.D.D.6.5.D.|.3X;X;XT.~.R.2.#.*.*.*.8.L.E.R.R.~.XXL.L.6. XE.#.Y Y I G i B 7 7 3 a 6 A A S p p a a S i a i Z J p a d d #.aXsX6X6X6Xq.f 0 < < 3 t A a s u w a t t i a a y 2 2 3 3 < < t a t t 3 < 3 6 3 3 < 5 < < 5 < , 1 1 * * & & , , < < < < 5 V 5 C V V C V V V V 6 5 V 5 6 5 7 V B B V 5 T.JXgX{.I.~.|.I.D.9.Y Y S U Y S K Y Y I K S A Z A V D V V D D V D S.C C B V 6 V Z 5 6 5 8 5 V V 6 6 V Z 5 B V < 6 6 6 < 6 6 4 8 6 V V B B V A V ~ D V V V Z 6 B 5 V 6 B V V V Z D A V A H H.4X;X4XT.4X4X;X4X4XT.T.4XT.T.G.G.G.! UXQ R L T T u.R Q R Q T P I D.J.D.a.K.OX+XH.U.K.H.u.y.H.I.+XY.U.H.3.H.3.3.! u.! ! W W W Q 6..X,X.X.X.XE.S p A J G K K S u p s u u p G Y I R p i G y 3 y i p a t t 3 a t 3 a p l i G J F Z G g k G k i 3 , 5 5 , 6 6 B V V V V V V V V Z 6 5 V 6 6 5 B 7 V B B 5 T.JXgX{.U.{.|.P.D.9.Y Y K Y ",
"aX,X:X,X-X.X|.pXXX2.W S J J A V ~ V A A ~ D.S 9.6.S S a a a A S A W S S W #.6.9.#.8.9.D.8.D.D.6.2.U 2.W W ! D.D.T.D.XXXXF.D.2.D.6.6.D.6.2.2.6.9.8.XX|.E.XXL.~..X-X|..X-X%X|.F.9.9.R.D.D.5.5.J.5.E.L.8.d.8.a.4.4.7.2.2.2.2.2.J.I.I.XX~.~.5.Q G 6 6 5 , 3 p b [ #.w.w.] ] { [ ] ] #.#.[ @.E.).W.sXLXKXLXPXPXPX6Xd Y Y L U P P ' [ @.m ' m Y &.U P Y d Y Y @.v @.*.Y b Y x d x d Y Y d K p a t t p p < - - * a A A 9.q.w.w.f a a a V 6 a f a V 6 V V V < 5 7 i B B V H.JX2XOX~.&.3.|.:XbX,XgX$XbXdXhX<X<X<X:X:X-XbXXX2.I Z J V D V A Z V A A D.A 9.2.A a t 3 t Z A a A A a S S 9.#.w.9.9.9.9.9.6.9.Y G A Z Z V V A A A D.D.S A 6 Z Z 6 Z A a A a A w.D.D.W 6.W D.Y.|.Y.T.T.T.T.H.J 5 C 1 6 C 5 V 2 g g 3 4 4 4 4 4 y 4 i 7 g g i k Z A L G G k G G z l F z l G l F k p l K K l K l l v l v &.&.@.7.{..XgXxXxXZX^.p K K L U P P m } $.m T Y P U R @.P Y Y U U b &.-.@.P P Y v n U &.2.R Y I K K L U I G k a 3 i A d 9.8.w.w.a a 6 Z A < Z A A V 6 A V V < 7 7 7 Z B B H.JX2XOX~.$.3.|.:XbX:X<X.XhXgX",
"HX3XOXP.3.{.<X<X*X:X2Xu.W W D.D.D.D.F.XXbXvXvXvXvXzXsX[.c.8.).).E.6XeX6XaXbXvXfXhXhXvXCXbXbXbX;X-X.X-X.XE.XXXX.X%XaXaX,X.X[..X6X[.XXq.1.E.XXE.E.XX[..X.XbXgXcXbX,X,X,X,XbX2X<X3X,X|.F.D.8.6.D.J.P.5.3.P.J.T.K.6.2.2.5.D.5.L.P.~.XXXX|.P.J.XX8.6 Z 6 6 3 p w / rXtXtXtXuXtXuXMXzXuXzXtXuXnXDXFXDXFXLXKXKXKXKXKX1.[ #.#.@.@.&.P m ' ' ' T $.T T T P P @.#.@.-.$.' @.' ' Y @.@.@.%.@.@.@.@.Y P Y T &.9.R &.&.&.6.f.LXLXFXLXaXF.q.q.9.q.F.W.F.q.w.S a < < 6 5 1 8 D Z 3XJXY.3.{.+X~.5.{.}.;X;X,X;XBXHX3X-XT.Q {.<X1X,X:X2X3.S W D.D.9.D.P..XbXmXmXvXmXzXaX[.v.q.W.W.F.6XsX6XsXvXmXlXlXjXHXCXbX2X2X-X|.}.;XXXD.P.F.,X%X,XCXvX-XE.E.W.W.[.F.1.F.]..X.X5X6XW..X,XbXgXcX3X2XIX;X3X3X;X;XT.! A A D B A V 7 2 3 g 6 B B B g D D D J V D ~ ~ ~ W ~ ~ ~ ~ ~ W H H E ~ H I ! 2.3.2.6.Q 3.4.y.y.y.u.f.d.U.~.I.~.{.|.}.$XdXhX@.b P P L L U m b b m m n T n L L L n P P @.$.T P P P P b P @.@.&.&.P T P Y T P T &.R R &.&.Q 2.a.LXLXHXKXsXF.q.q.q.q.F.F.F.9.9.S f 3 2 8 5 8 5 B Z 3XJXY.3.{.OXI.5.{.|.:X,X;XOXBX",
"I.{.5.G K a.J.3.U.Y.+XY.-X3XcXHXIXvXbXIXBXHXbXxXvXDXZXaXzXlXzXNXzXDXzXzXsXmXzXDXvXvXxXgXgXbXaX^.^.W.E.E.v.E.[.6X6XbXaXmXbXvXbXbXaXrX.X6X6XrXaXsXsXbXsXbXbXhXhX>X%XXXE.s.^.XXXX$X,X,X.XXXXXE.F.R.P.F.D.6.9.5.9.6.D.D.F.P.XXXXXXXXXXXXXXXXXX}.5.a J A 5 < 5.R.^.0XrXrXrXeXrXrXqXzXnXFXDXnXvXnXzXvXmXmXmXmXvXzXzXc.] [ @.9.$.$.@.@.@.@.$.} $.%.} $.' $.%.%.$.@.$.*.&.&.4.9.&.9.9.@.m $.$.$.$.@.@.#.&.&.3.2.2.4.&.d.LXmXLXFXKXFXmXmXmXmXKXKXKXmXsX6X[.L.S 3 7 V 8 H ! 4XcXI.T T T 4.L.}.$X XI.}.:X1XY.|.3.a K y.K.3.P.Y.+XY.-X3XIXIXHXHXvXVXIXHXIXvXvXZXmXeXzXlXfXSXzXDXzXzXzXvXlXDXvXvXvXgXbXbXaXW.^.W.v.<.q.[.^..XaXaXvXvXbXvXvXvXaX6X].sXmXmXFXLXKXKXHXKXKXHXlX>X%X%X%XL.:X4X|.3X2X-X|.T.XXD.9.W 6.6.2.L A a A A A A Z Z Z Z Z J S W W D.5.6.2.U U I K I Y Y U U 2.Q Q R 2.&.2.5.a.L.L.K.L.L.L.R.I.R.~.I.~.L.^.6.b b b @.P P P P P P P m P T m m m m P $.T P @.&.@.&.9.&.&.U @.P n P P P P P U I U R &.2.&.3.R s.KXvXKXFXmXDXmXmXSXmXFXFXDXmXsX6XXXE.A 2 7 B 5 ~ ! -XcXI.L T $.4.L.^.:X}.~.|.:X3X",
"=.a.L.K.I.3.k z K.J.y.! P.3XHXcXhX&X%XyX%X$XwXhXwX[.c.v.].tXzXzXzXuXtXuXnXnXmXzXzXlXvXzXvXKXHXmXnXzXzXzXrX6XrXrX[.c.[.[.[.[.[.6X[.[.6X6X6X6XeXaXrXvXzXbXvXwXrX.Xv.W.[.[.W.E.W.W.W.E.[.pXaXfXpX%X6XwXaX.X.X[.XX.X[.E.E.XXXX|..X%XbXbXvXvXvXpX~.Y 2.W Z t :X.X].).8X0XrXeXtXzXhXhX.X*XfXlXmXDXDXSXSXSXnXSXNXSXuXzX5Xj.{ ] %.%.%.%.9.] ' } ..#.{ 1.;.%...*.@.*.1.9.*.1.1.9.#.#.#.1.%.#.] @.;.@.#.#.7.*.9.*.3.9.2.R.KXDXLXKXKXLXLXLXLXLXLXFXmXFXDXFXsXsX6Xd - t Z T.3X-XIXIXgXp.[ t.v.'.&X/.Q.^.d.d.:.f.L.d.U.! 7 y K.y.y.Q T.3XHXcXjXwXwXfX*X*XfXfXaX'.c.v.5XtXuXnXzXuXtXtXSXSXmXzXzXvXDXvXHXKXKXmXSXSXnXnXnXSXSXnXC.z.N.b.c.W.b.M.b.N.6XtXsXnXnXzXnXDXDXDXDXeX0XiX6XrX5XiX6X<.7.R.L.L..X>X&X>X>XpXvXHXvXaX,X.XrXaX-X.XP.J.T.T.Y.|.3XcXIXHXHXKXZXAXaX.X XR.XX^.XX X.X.X.X}.^.XXI.P.J.a.E.XX}.XX^.^.^.R.Q.R.R.~.L.d.7.&.n K Y L L @.P m b m P ' ' $.#.@.@.T $.*.#.#.&.*.*.9.#.@.@.&.@.m P P @.Y @.@.6.&.9.&.2.2.&.L.LXmXFXKXKXKXKXKXKXKXKXDXDXDXSXFXsXsX6Xd 0 a Z T.3X-XIXIXgXp.[ ,.x.'.&X(.(.Q.x.d.",
"$X*XL.K.&.R t l 3.3.|.H W <X,X#XoX8X5XM.M.M.h.>.N.8XN.C.5XC.iXtXqXtXuXzXuXuXeXzXzXzXzXDXDXZXmXzXlXzXzXeX6XtXsXtXtXsX6X5X5XW.6X6XsXtXtX6XrX6XeXeXrXeXeX.X].E.v.q.q.[.rX[.q.b.q.W.F.v.)..XeXrX].[.6XsXmXmXmXvXHXDXvXvXbXhXgXcXgXxXvXxXvXvXvXvX%XQ T.H.A W bX.X5XrX5X5XqX5X0.0.1.<.] [ ] | 1.5XrXrXmXnXzXSXNXuXSXSXnXuX5X>.;._ ] @.] 1.#.] #.{ { { _ _ ] { ` h / / ` { ` { +.{ / ) >.{ { X.{ X.0.0.q.1.<.q.<.1.1.6XDXFXFXKXFXLXFXmXSXmXFXDXFXmXlXnXnXnXnXaX1.U Y.3X4XIXJX-X1X1X}.dX}./.@X/.kX+X&X|.OX$Xf.U.T R : z 2.Q |.J W <XbX.XoX8X5XM.N.M.h.>.M.5XN.C.5X5X9XtXtXtXuXzXuXuXuXzXzXSXzXDXKXDXmXzXZXSXvXSXDXuXSXSXSXuX7X7X7X7X7XA.tXtXMXtXuXuXMXnXuXvXlXzXzX].5X5X0X9X0X).{ O.0.X.) 0.0.b.5Xb.b.c.6XzXFXFXmXvXKXLXHXHX;X2X3X2X3XJXPXJXLXJXJXJXJXJXJXJXJXCXJXHXLXLXJXLXLXHXxXcXgXaX%X X X$XrXfXhXaXhXzXsXsXeX.X.X.X[.E.s.9.@.P @.Y @.@.@.] m ' [ m b [ m m m r d / [ ] ` ] { w.d [ 9.] ] %.] ] 1.;.1.;.1.1.1.9.1.#XmXFXDXFXFXKXFXmXvXmXFXDXFXZXzXNXzXnXvXrX*.U T.3X4XIXIX;X:X>X}.dX}././.+XkX/.*X|.",
";XK.u.U.&.j u P n y.Y.B ! xXgXoXh.M.9X8XoXn.M.8X7Xb.N.N.C.qXtX9X8X8X0XeXzXzXzXuXnXMXzXzXsXfXzXyXfXeXwXrXaXzXvXvXvXsXtXeXtX6XrXsXrX6X6XrX6X6X.X[..X]..X5X6X6X5X[.[.5XW.v.5XsXrX9X6XtXqXzXsXsXsXeXsXpXzXvXDXmXKXDXZXHXbX,X,X3X-X:XHXcXHXvXxXvX,XA T.T.6 H.vXvXDXmXnXGXtXMXMXMXC.Z.k.k.+.+.A.MXtXtXtXiXtXtX9XzXDXmXzXaXzX].q.v.0.;.w./ / +.[ { [ / ( / o./ / 0.7X7X7XA.5XC.Z.Z.Z.7XtX7X5X7X7XMXnXuXtXtXnXDXnXzXDXSXSXFXFXFXSXSXFXKXFXLXFXDXSXSXnXnXDXKXuXaXvX1X,X;XH.IXJXT.E Y.UX:XBX$X@XOX:XI.I.3X;XH.u.U.Q j w N n u.Y.7 ! HXdX#Xj.M.9XrXoXM.M.qX9Xb.N.N.C.qXtX9X0X9XqXqXzXzXGXuXuXMXzXsXtXsXzXzXzXzXlXvXNXDXDXFXSXSXnXMXMX7XuXSXnXrXrX6X`.[.0X#X5XwXeXeXzXrXtXMXuXtX9XO.k.uXN.A.iXiXiXMXiXMXiX9XtXuXNXvXvXDXFXmXsXCX|.Y.4XY.~ ! 3XIXJXHXHXHXBX2XcXcXgXcXHXHXHXHXKXHXxXxXvXAXkXfXfXfXwXrXzXDXNXZXDXZXZXvXlXZXDXCXhXpXpX%X}.!.!.!.v.1.w.1.1.{ ;.{ w.{ { w.[ 0.5X5X5XC.b.b.q.k.q.5X5X5Xb.[.5X6XtXtXtXrXsXmXnXsXDXSXzXFXFXFXzXmXDXDXKXFXFXSXnXDXnXzXDXKXtXeXlX<X,X;XG.IXJX4XQ Y.UX;XBX*X$X*X:XT.I.3X",
"R R L u.I.j e j z z i 1 ! HX=Xm.8XN.b.).0.z.iX9X0.k.5XC.iXiXB.B.b.5X7XC.N.oXuXDXSXDXFXzXtXsXrX0X6X].W.[.[.6XrXaX0X5X6X6X6X6X5X5Xq.v.b.q.b.b.b.).[.5X[.W.c.W.6XeXsXeX6XW.6XrXtX6XiX6XrXeXeXzXzXzXzXsXvXrXbXvXvXsXaXbX}.J.P.P.T.6.Y.cX;X:X3X$XI.A Q D.6 T.cX<XgXlXDXLXPXPXPXKXLXFXSXSXnXMXFXFXFXSXnXFXmXnXtXeXzXNXzXsXuXsXiX7XiX7X7XZ.+.0.0.0.Z.7XtXMX7X7Xb.nXFXmXSXFXFXFXFXFXFXnXMXnXSXMXMXSXFXnXnXuXuXzXDXDXDXFXFXLXLXKXnXmXFXKXFXFXSXNXzXNXsX0X0XzXvXvXmXHX:XI.;X2X4XS.R y.z R u.+X{.R q x j y.U P G u.{.w q j z z k 2 ! BX$Xn.oXA.k.W.0.k.iX9Xj.k.C.Z.7XiXB.B.k.C.5XC.N.`.qXSXFXFXFXSXnXSXDXzXuXuXqX0XeXzXDXSXlX8XqXyXyX9XiX7XO.0.k.0.b.C.b.k.b.N.q.1.{ ;.5XuXuXtX6X0.uXMX7XiXiXiXuXuXuXtXuXnXsXuXFXnXmXFXDXmXmXvXY.! T.G.G.D S.HXJXJXJXBX1X1XcXxXgXxXZXVXvXZXVXZXZXHXDXZXKXLXDXDXDXDXKXKXDXFXDXDXDXDXvXlXvXlXdX%X X'.[.!.].0XeXeX6X5X5X5XrXsXMXnXMXtX7XDXFXFXmXDXKXFXDXFXFXnXsXDXnXnXnXDXDXSXnXzXuXzXDXDXZXDXFXLXLXKXvXnXDXKXDXDXSXNXzXuXuXoX6XzXvXmXmXHX>XI.;X2XY.S.R u.z Q u.+X~.R q v j y.",
"x x p @.3.p a q q q z = W XXP..XqX5XB.5XiXuXMX9XiXtXMX7XtXMXiX7XuXnXnXuXiX5XW.eXrXaXpX X.X%XaXuXsXsXeX5X5XN.N.`.5X6X5X5X5XN.Z.5X5XtXtXtXtXtXsXMXMXMXtXtXiX0X7Xv.b.[.[.5XzXuXmXsXtXzXzXeX6XM.[..XaXrX6XMXsXsXsXzXsXrXE.8.}. XR.8.7.F.}.E.v.8.8.Y U P.P.|.pXR.^.wXzXzXKXLXLXPXPXPXPXPXPXPXLXPXKXJXPXPXPXPXLXHXDXvXNXzXtXnXzXzXuXzXnXFXnXFXFXnXFXFXFXKXFXSXSXzXsX5XrXnXnXeXtXzXsXSXFXFXDXDXKXnXzXzXnXsXzXuXuXsXzXsXlXfXDXKXFXDXDXzXMXnXzXnXqXuXuX9XiXqX0X#XhXkXxX,X2X4XE I Y P v {.U.=.^.R.i.} r.f.s s p @.6.p i q y 4 i - W XXP..XtX5XN.C.iXMXMX7XMX7XMXMXMXMXiXiXMXnXMXMX7X5Xb.tXrXaXpX>XfXdXzXSXDXSXnXtX9XB.k.B.N.C.b.N.Z.+.k.Z.C.MXMXMXMXMXMXMXMXMXA.A.A.A.A.+.X.j.O.0.MXtXSXSX9XuXuXtXuXqXtXeXSXnXDXDXDXDXLXKXDXvXL.W T.T.T.H J ;XLXJXJXBX2XAXAXVXCXAXZXCXCXAXVXvXHXHXHXHXKXLXKXLXLXLXKXKXJXKXLXLXPXLXKXKXCXlXfXwX8XqXqXyXyXuXlXSXNXDXDXDXDXFXFXFXDXDXDXNXlXeXsXmXDXfXzXvXlXFXFXKXFXFXKXDXlXzXNXzXzXnXzXzXlXzXmXzXFXFXDXDXDXmXzXzXzXzXqXzXuX9XqXeX0X6XfXhXxX,X2X4XE K U P v }.~.-.^.R.i.| g.d.",
"x v b l u n -.x e u q - Y -X.X[.5XiXMXSXnXnX9XuXnXtXMXuXuXSXnXSXnXSXzXiX7XtXuXN.l.b.M.c.c.9XiX0X9X5X5XeXsXsXsXsXtXtXzXuXtXtXtXtXnXnXnXtXMXnXSXnXzXzXuXuXsXnXzXuXnXnXnXzXtXrXtX9XeXtXtX0XrXeXsXzXzXvXmXDXmXvXmXnXnXzXrXpX&X>X>X>X X%XZXZXhXlXbX3.y.2XY.T.cXvX6XsXsX5X!.d.P.J.J.P.~..X%XF.6.5.L.L.L.~.}.-X&X*XgXdXjXCXZXDXDXDXuXzXnXmXmXnXnXSXnXsXnXnXtXrXsXzXtXtXtXnXnXMXsXnXSXzX8XM.0XeXaXwXeXeXwX0XrX].b.5XtXuXuXuXnXDXDXFXFXDXmXDXzX5X9XNXNXuXqXh.h._.).n.!.y.JX4Xg 3.T R &.dX@X&X/.Q.@X@XU.Q.j u v u a x -.N e x 0 - Y -X.X].5XiXnXMXSXnX7XnXnXMXMXMXMXSXSXSXSXSXnXiX7XtXtX[.0.b.M.5X`.5XiXtXuXuXtXSXDXDXnXSXMXuXSXMXMXiXMXMXSXFXSXMXSXFXSXGXMXMXGXGXGXSXSXMXnXMXGXMXiX5XN.A.iXiXqXN.9XNXFXDXDXmXDXKXmXzXmXDXzXwXa.D.H.H.H.H.D ~ IXJXJXBXBXBXCXZXZXCXZXFXAXZXlXpXwXhXfXgXgXgXgXxXgX,X*X+X&X:X,X<X<X<XgXjXjXkXVXVXlXlXSXDXzXNXDXDXDXDXDXDXCXlXvXlXhXzXNXZXvXzXzXSXnXzXnXDXDXzXyXrXaXzXzXfXfXsXeXwXaX.X_.qXsXzXzXzXDXDXDXKXDXDXSXDXzX8XiXNXNXuXqXh.l.`.'.!.Q.a.JX;Xk UXT E $.<X+X&X/.Q.@X@Xm.U.",
"T j m &.n x u.d.P.2.- < -XIXCXZXDXDXSXSXDXMXzXnXnXnXzXnXuXuXuXqXuXSXzXzXnXnXtX5X0XqX6X5XqXeXtXeXwXeXeXwX#X'.#X'.aXeXeXyXzXzXnXmXDXzXzXzXmXmXvXzXzXzXzXzXmXDXDXDXmXzXzXnXzXzXtX5X].uXwXsXeXaXaXzXDXKXLXDXKXDXlXDXzXaXhX:XcX<X:X,X1X:X,XxXCX1X*XR 3.T.H.Y.cXCXNXDXmXtXc.q.z.b.b.q.b.5X9XN.5X7Xb.N.b.b.0.+.>.` ) ` { X.M.5X5XN.b.5XMXtXtX9XtXMXtX7XZ.b.Z.b.5X9X9XiXnXMXtX7X7XuX7XC.C.C.MXnXtXiX5X7XZ.Z.b.B.A.MXMXSXSXuXuXnXNXSXzXSXDXuX0XzXqX_.`.`.W.b.0XW.W.W.1.u I.Y.~ H.u.u.R U.I.+X{.U.L.L.d.m.T w x $.b w -.f.L.3.< < -XIXZXHXFXDXDXnXDXMXuXnXnXnXSXFXSXSXNXuXnXFXnXGXFXnXtX7XtXnXuXnXnXSXFXSXnXzXSXNX6X[.eX8XDXzXnXSXSXFXSXFXFXFXFXFXSXFXSXzXSXMXMXSXFXFXSXDXFXMXSXFXuXtX9Xj.0.iX9XuX9X8X).oXDXDXDXlXFXvXrXzX6XW. XJ.4XY.S.G.H.D H.BXJXBXAXAXAXCXZXAXZXZXFXZXKXVXhXlXhXfXfXfXeXzXzXqXfXuXeXyXrXeXrXoX6X'.].'.'.].eXeXzXuXuXzXnXmXlXzXzXnXlXkXyX0XqXeXyXzXzXNXnXnXzXnXuXuXtX9XqXqXnXSXsXtX5XqX5XN.C.Z.9XMXuXSXSXnXuXzXNXSXnXSXDXzXqXzXqX`.oX6XM.b.6XW.c.W.,.u T.Y.I y.u.u.R U.U.+X{.U.L.L.L.m.",
"-.j v s.f.n T Q T.D.< < 2XIXgXlXzXSXnXnXnXnXSXDXnXSXnXzXNXNXzXNXSXnXnXuXtX5XrX5X)._.c.!.W.!.!.R.R.x.s.d.8.7.!.'.'. X X X^. X%X.X#X%X%X X^.#X&X#XoX.XwX&X&XwX>XwX$X^.%XwXrX^.%XwX'.wX0XwXwX.XwXpXbXdXbXaX%XL.L.%X X,X<X|.Y.|.Y.I.H.6.W 6.P.y.Q H H.;XY.|.1XgXdX&XzXuXzXnXmXsXuXnXzXuXuXGXSXSXSXFXnXnXmXnXMXtXiXtXtXuXnXnXnXnXMXnXSXSXSXFXFXnXFXFXnXmXFXFXSXnXDXSXnXSXFXFXSXzXuX9X5XtXuXuXSXSXFXGXnXGXGXFXFXFXSXDXnXnXuXuXSXzXqXeXoXrXzXrXeXrX`.N.X.j.b.0.j.b.r.x I ;XQ H.u.y.R K.U.y.y.u.u.u.I.U.=.j v L.f.T u.R U.! < 6 2XHXjXvXSXSXnXSXnXnXSXDXnXFXSXSXFXFXDXFXFXFXSXSXMXtXuXnXnXnXMXSXnXnXMXtXsXqX5X6X].N.9XMXSXnXzXSXuXnXSXSXMXSXFXSXFXSXDXGXMXMXSXGXSXSXSXFXnXqXqXzXuX8XiXtXtXtXtXuXuXrX0X#XhXwXzXNXsXl.0.tX.XzXlX}.! T.G.G.H.~ D H.2XJXAXBXZXDXZXZXKXFXJXZXZXZXCXCXHXZXDXZXNXlXzXNXZXDXDXDXZXSXDXZXNXlXzXzXvXSXDXDXDXDXDXFXDXDXFXFXFXDXFXDXSXSXDXDXDXDXFXZXDXDXFXDXDXSXlXuXqXzXlXzXSXFXFXSXSXSXGXFXFXSXDXDXDXzXzXuXSXzXtXyX8XwXuXwXyXrX`.N.X.l.b.0.z.b.t.n I ;X! H.u.y.R K.K.H.g.u.4.u.U.U.",
"T v &.i.i.u.&.R u.I 6 i ,XcXhXNXNXnXnXnXDXzXzXzXlXDXDXlXNXNXlXZXzXlXzX0XqXyX8X_.i.p.p.1.7.s.x.l.s.p.7.7.*.<.i.,.p.*.=.*.*.a.7.s.p.s.d.d.s.i.p.v.l.p.v.x.s.v.x.s.<.7.,.1.1.%.,.p.<.%.,.1.7.x.s.7.7.s.i.*.@.[ =.%.,.7.4.4.v L U R L p a u v K K p 6.Y.G.4X2XJX<X(.^.(.}.@X@X@X@X=XwXyXyXAXuXNXAXzXeXwXyXVXZXfXAXKXKXDXDXKXKXLXLXLXLXLXKXKXCXDXKXZXDXZXDXZXVXVXVXVXZXAXdXfXyXyXoXyXqXx.yXlXNXwXyX!.wXNXZXKXZXZXZXAXDXZXZXhX'.%.| p.n.p.=.x.oXqXyXoXb.8XM.M.N.=Xr.q k Y.H.UX~ Q R R u.f.UXu.u.u.y.u.T n -.d.p.u.$.Q J.I 3 Z 2XcXhXvXNXSXnXmXSXzXzXzXmXFXDXFXFXFXDXFXDXFXFXzXnXFXSXGXuXSXMXMXnXFXFXnXSXMXuXiXC.tXMXiXuX9X5X8X8XuXuXnXnXnXSXSXzXuXuXuXnXMXnXSXnXnXSXnXiXtXiX9X5Xk.`.qX9Xb.5X5X5XtXeX6XW.eX0X[.l.{ `.).8XqXwX$X2.D.T.T.Y.! 8 J T.AXJXBXJXZXJXZXJXZXKXZXCXVXBXAXVXVXVXVXAXAXAXVXAXZXZXVXlXjXjXVXZXlXVXKXKXDXKXKXKXLXKXKXLXLXKXKXZXZXDXZXCXZXZXFXZXZXZXZXHXVXAXAXfXfXyXuXfX_.zXNXNXyXyX/.eXVXZXFXVXVXVXAXZXZXZXjX.X,.%.v.!.s.:.m.=X0XyXoXb.8X`.n.M.#Xt.e J Y.u.! ~ Q R R u.d.u.u.u.g.y.u.",
"n R 3.=.=.i.y.T I i 9 u.cXxXHXHXVXdXZXZXhXlXAXdX%X>XdX<X$X}.$X&X(.$X>X>X>X.XwX Xd.R.L.d.L.E.R.8.s.8.l.8.s.<.p.v.x.v.,.1.l.v.p.p.8.s.a.i.s.p.8.i.s.x.R.x.R.d.s.i.7.t.i.,.=.,.t.%.%.} ] %.1.;.%.9.1.1.c [ c ] ;.:.%.@.-.T y l H l z a - : - = 3 Z ! Y.Y.2XT.! ! E G E L L U R u.3.u.H.K.{.+X{.y.u.a.5.u.I.~.{.~.L.U.u.u.OX~.~.I.+XU.H.U.H.u.H.K.y.5.5.P.I.a.U.4.d.}.-.m -.-.:.t.n.v.#.p.x.x.!.r.:.x.!.R.t.d.U./.d.L.x.<.} r [ ] >.] h [ | | | :...l.v.M.n.oXl.w q 8 ! ! H J l y j N z n T T R T n L T 4.4.u.f.f.T I l = 3.IXxXHXKXVXdXZXZXhXAXVXdXrXaXxXlXgX&XgXAX%XjXFXZXDXzXDXnXNXDXFXKXFXLXLXlXzXzXuXuXMXMXMXGXSXMXiXiXMXGXGXuXMXnXNXzXNXSXSXzXnXFXKXDXFXFXSXSXsXuXtXtXuXuXuX9X5XN.b.5X9X5X5X5X6X9XO.0.O.b.9X0XqX`.wX$X! T.;XY.UXUXJ g H H.2XBXCXJXJXJXZXBXBXBXgX1X&X*X%X>X,X:XOX:X:X1XkX1X*X$X$X@X+X>X>X1X&X:X&X$X*XgX:X1X1X<XgX>X>X:X:X:X1XOXOX$X&X1X1X1X*X*XdX=X{././.Q.Q.@X(.p.Q.'./._.d.t.!.^.(.L.Q.~.+X(.(.x.p.:._ [ %.<.;._ _ ;.....>...l.b.n.n.`.p.w w 4 ! ! H J l y j N z L T R T E n ",
"y z y z z y y 4 3 4 4 z Q 2.y.U.U.H.U.P.3.u.&.&.&.I.+Xa.3.u.L.K.J.K.y.4.7.a.}./.R.~.}.R.XX<X,X,X$X@X%X.X X%XhXbX%X%XwX^.^.E. X^.}. X^.^.Q.~.}.~.a.u.7.P.a.K.J.J.J.y.5.y.7.=.-.$.%.$.=.,.,.,.,.,.%.' ' $.| %.m m v m T k 4 J F k 4 4 3 = 3 Z Z A H T.;X2XH.J 8 k F 7 4 4 7 a y 3 3 4 4 4 g g p p l K v l l n G y z z i G k p u G i a i t i y y i l l p l j j x x N x M x x z l j j L m v $.' M h c M x h N x v v m x x m m c x x s x r r c c r r r ` ) / ) ( $ > > k k : > q q > w w @ > y j z 4 y j y z z z 4 4 3 8 4 G R 2.y.U.U.y.I.L.3.4.$.T 3.L.$Xa.&.y.{.{.~.~.K.a.a.d.%X$X+X>XcX1XaXgX1X<XjXlXlXwXqXSXPXPXFXNXDXNXSXzXNXNXuXrX0XwXwXkXBXCX&X/.&XAXvXVXVXVXNXzXzXNXzX9X9X9X9X5XiXnXnXMXnXtX7X5X5X5X9XiX`.`.].#X#XL.~ 4X4X4XY.4XUX8 g UX4XY.4X+X+X+X1X:X1X1X1X1XOX/.~.U.I.K.K.K.H.U.{.U.I.I.U.~.U.I.U.~.I.U.U.U.U.~.U.d.U.{.~.I.{.P.U.U.U.U.I.U.Q.I.U.U.(.(.~.U.(.m.m.U.d.a.u.y.g.i.=.=.t.T %.-.%.-.&.@.&.-.$.T m T $.m m b c M c c ' _ h r r { ` r ` h $ e ; k k 4 > q q > w w @ > y y z > ",
"9 ; ; - & & 2 ; 2 4 4 : l u q u y x w w s x x w x s x Y P Y v j j w u n n T @.u.s.R.R.*.4.d.L.5.R.}. X!.@XgX<X:X:X;X|.|.,X,X:X}.~.~.L.J.L.~.^.~.L.a.y.2.U L L I Q R 3.u.Q U 2.4.4.4.4.T 3.4.4.&.&.&.$.$.$.P } P @.P L z 3 J F D F F 7 5 3 Z J Z H 4X3X3XT.H.! D F G F Z Z J i F F i F F l k i G i p p i k i 4 k F F I F F J H i Z I J F k 7 i G i y 4 y 4 : y > y j z z e : z 4 G l i z y z l N y 4 y k k p i A l k k 4 k g 4 4 j k y i u u x r r r r d e r r + - ; 7 > ; + > @ @ @ @ @ + + + - 9 : ; ; * * 8 ; 4 4 4 : u y e u q j w w w x x w s s w p u j w y y y y j z l z T R P n P m P P U 3.3.a.d.^.:X+XH.y.U.T.H.Y.{.I.y.6.&.T L P m &.=.@.v n L *.*.2.y.L.L.^.@X/./.'.wXwXeXaX'.0XsXwXrX0X5X`.5X5XM.8X6X].8X XP.H 4XT.T.4XU.UXH g UX-.T u.3.-.UXUXy.+X4X+X+X+XY.{.Y.U.y.K.Y.I.I.U.U.P.U.K.K.K.a.K.K.a.K.U.U.~.I.U.I.I.K.J.U.I.T.U.U.K.U.L.U.U.U.d.U.U.y.d.f.U.y.y.y.y.f.U.K.y.y.R &.-.R T T L E R R U R L G L J z F z z l G p z l j x x r r r h # e h O + 3 4 : ; + > @ > @ @ @ + + > - ",
"; = 9 & 9 ; ; 4 8 3 7 7 4 : ; y y z z y : 4 : y y q z u t i G A k z i n R L P P -.i.$.s $.@.*.7.*.7.-.,.7.a.7.J.~.J.4.a.J.L.a.L.4.4.4.i.a.d.7.7.f.s.d.7.P &.K v G K K v K K U U U &.R U R L I I G L L L R R T R R H H i 5 D D H F F Y #.#.#.Y Y I :X3X|.+X,X|.I.{.L.8.9.~.I.y.2.2.2.2.2.6.2.Q 5.Q W 5.&.Q Y I I I Y W A I A A B Z A H Z F k i Z i 7 Z D k B i F F F k F F k F F J J F F G F F J F F J J F F J F H G F i k 4 g g 6 i 6 i 7 3 4 = ; = X = > t 3 ; 4 g 7 k 3 3 9 9 & * & 9 * * ; ; ; & = * 9 ; ; 4 8 ; 4 3 3 ; ; e y y y : 4 > : 4 : : q q > < y 3 4 4 4 y k 3 z : t y y q y > : > : q q a y q 3 u z v 4 y 4 7 3 i i 4 3 t y q q w u v x p u q q y y j v x b U 3.3.4.f.L.a.Q.4.L.s.7.x.x.m.!.(.=X=X*X/.K.2.i T.Y.4XY.T.G.~ i J I l G F H z J E ! ! u.! u.u.y.K.H.y.y.y.y.K.K.K.a.I.K.P.I.I.U.T.T.I.I.{.Y.Y.Y.I.I.U.Y.U.H.H.H.K.H.K.K.U.P.U.P.K.K.H.H.y.K.H.y.y.K.K.K.U.H.H.Q E ! ! Q R ! 3.Q 2.2.Q Q I G G G F F k i F i p 7 3 4 3 ; > X = = 3 t = 4 i 4 p 2 8 9 ; & * * & * 9 ; 3 ",
"; ; ; ; 3 4 8 3 4 7 4 3 2 = : 4 ; 4 : g 3 ; 4 i 4 i G k l i J Z 7 i l G L R E 3.4.u.P &.u.4.*.4.4.=.*.4.u.i.i.4.7.=.=.u.u.4.i.6.4.a.a.a.K.4.4.a.4.i.i.&.4.y.5.2.3.9.P p p d p v p v n l L K L K p y y y 4 k k k k i G i 5 J H D F E H.P.|.^.'.^.R.$.~.~.5.4.J.~.$XP.P.}.1X-.-.&.$.@.@.*.9.*.4.4.@.=.7.6.L.~.~.L.L.P.I.XXI.J.D.2.W H J A G Y Q 2.2.Q K K K G a i A a 7 l a 4 p p a i G L p K G G G A p S p p a a p K A F y 4 g g a 6 6 6 7 7 3 5 a = X < 3 3 4 7 4 4 7 8 4 8 3 4 2 , : : ; ; 2 2 3 ; ; ; 3 4 4 8 4 g 7 3 2 9 ; 4 ; 4 : 4 ; ; 4 6 3 4 4 4 i 3 5 6 2 4 4 6 8 7 2 g 2 6 8 7 8 4 5 6 4 7 4 4 g 4 y k 4 ; 4 ; 4 3 4 5 2 4 3 6 3 = ; < 2 3 3 6 4 3 2 3 ; 4 ; : 3 i u u t u v n P L T l y z j z N $.T -.3.&.3.G 7 T.T.4X4X4XG.~ 7 7 4 7 4 g g g g 4 g g k 7 g G E k G z n G L E R R E R R Q 3.Q y.u.u.u.u.y.H.P.Y.I.Y.T.H.u.R E ! ! u.U.K.y.H.y.H.H.y.y.H.u.Q y.f.H.H.y.5.5.y.5.R I U Y R Q Q 2.3.3.Q K K I K K p 4 p J Z i Z Z Z 7 6 3 i * X 2 y 3 4 7 7 4 g 8 7 4 3 3 2 ; ; 3 ; : 3 2 ",
"3 4 8 2 8 3 5 5 8 8 8 6 2 2 , 5 7 2 2 5 7 2 6 7 B Z J F F J D Z J F J Z J J E 5.a.y.a.J.4.4.5.6.4.5.5.4.5.a.a.4.3.4.3.u.u.u.y.y.4.5.7.a.4.K.y.u.K.y.R P 4.7.5.4.3.4.4.=.&.$.@.@.u u v l p l p p G z z y 4 4 2 4 4 4 3 2 V D J D H J T.~.8.@X*X&X X!.%.c s b } $.8./..X(.t.h _  ._ _ ` ] _ [ [ [ c [ [ _ 1.%.9.] [ ] *.7.i.,.s.g.$XpX}.5.4.u.u.u.7.a.i.4.*.*.L.8.,.8.W.x.E.c.8.q.8.1.@.9.8.,.,.:.8.q.1.8.8.E.J.7.*.4.&.4.3.4.u.g.2.S Z A a Z Z i 7 3 3 i i 3 7 7 8 g 8 2 8 2 8 3 9 9 2 < 2 ; ; 2 2 3 4 2 8 8 2 < 8 8 8 7 2 2 9 8 5 5 1 < 5 9 5 8 8 V 7 B 5 V V 5 B 6 V 5 B 7 8 7 B B B B B Z B 6 6 6 6 6 3 7 B 7 7 8 8 8 2 8 < 5 5 5 6 V 7 7 4 8 7 4 6 7 5 7 5 7 2 2 8 3 3 3 2 6 4 4 4 4 3 4 8 ; 3 4 7 4 4 4 g z F p G 5 < ~ S.H.G.G.~ ~ J i 7 B 7 7 g 8 8 8 4 g k G G L J z z n j z z n l j l v j u p v L v v v l K L P &.R Q -.y.J.3.Q E E UX3.! u.2.Q 3.4.5.3.4.u.K.K.K.K.y.y.4.3.&.=.4.6.7.7.8.d.8.J.J.L.P.a.4.4.4.4.4.5.5.P.2.Y p p a Z Z Z i < t i i 3 7 7 8 g 8 2 8 8 8 3 9 9 9 2 2 ; 2 ; ",
"2 5 8 2 5 8 8 5 5 2 8 5 2 5 2 < 2 1 5 1 9 2 2 5 7 B F J B F D Z Z G Z G I L E 2.5.7.a.5.4.s.s.7.a.7.8.d.s.s.7.4.&.R 5.2.5.5.5.4.J.y.2.U Y U L Y U Y 2.4.J.5.5.5.5.5.J.K.J.y.a.5.R Y P b s v K x p v l l p z y t 3 : 5 6 7 V D Z ~ 6.$X$.b %.<.!.%. .[ [ ` r ) _ ` | ..| } ) ) ) ) )  .) ) ) ( ` ` h ) o.` ) ) ` ` ` ` ]  .:.:.t.<.8.] %.r ( ( ( [ d ( ;.c.(.m.s.@X&X~.Q.+X(._.=X).n.v.c.n.v.l.m.!.oX=X(.R.a.d.x.i.,.%.:.,.x.g.t.*.7.8.E.8.J.{.|.-X~.5.L 3 6 B V D D 8 g g 8 8 1 5 2 2 , 2 2 1 9 1 2 2 5 5 8 5 5 8 5 8 8 1 5 2 9 9 1 5 , 9 2 2 5 V 8 V 8 5 5 V 5 5 6 3 B Z Z G G A A K S K U Y U U Y &.6.5.J 6 Z 5 7 D V B D 6 , Z Z a a 6 < 6 < 6 V 6 5 6 V 5 5 5 5 5 8 5 8 5 8 V 7 B B B B V 7 B D B Z g 7 g 3 4 4 6 6 B V ~ T.T.H.T.T.~ Z Z V 7 8 g 5 8 2 4 g 7 k F F z z z z j N z x x j x x x u x n v x x v v v x v m P T n L T n n z x w w u j w v &.&.R T -.u.Q R u.R -.u.&.T P &.=.,.,.7.f.d.~.a.y.=.a.s.7.=.-.*.=.p.7.%.7.i.8.Q.a.P.XX|. X{.D.K 3 6 B 7 D D 8 7 8 8 1 5 5 5 5 , 2 8 2 , ",
"2 6 7 6 6 5 < 6 5 5 Z 3 Z 3 a 3 3 t t y 3 : 3 6 8 B F D J D ~ ~ T.Y.{.-X|.|.>XxX{.%X X^. XR.R.(..X#XwX'.&XR.4.u.4.&.U 4.3.&.4.R.@X^.R.i.x.7.,.p.1.,.s.s.a.-.3.&.&.&.3.J.a.a.J.a.a.~.^.R.8.d.s.7.,.&.b b b x d a a y 4 Z F J ~ ~ E :X7.<.t.0.` ` [ ( ( ` h ) ) ) ) _  . .) _ _ ) ) ) o.) ` `  .o.) ) o.) ) ) ) ) ) ` ) ) ) %  .V.{ ..V.M % ) ) ) _ ) ) o.;...<.x.r.:.} $.%.} :.t.r.m.n.m.m.m.m.m.=.%.1.:.:.$.=.<.p.,.<.:. . . .N ;... .1.%.' @.$.' @.&.9.t i B B V 6 6 7 8 2 1 < & = , , < 3 5 5 2 6 i 3 5 < 5 6 6 < V 6 Z 3 a 2 3 t 3 t : : 2 6 2 V V C V 8 V J H.I.Y.-XXX{.>XBX~.>X|.L.}.J.}.~.XXjXhX&XhXy.i 6 B V B Z V 5 W |.>XP.}.^.Q.i.&.Y f a U 2.K 3 6 Z V 7 6 7 6 5 i 4 p J 2.Q W W G A A p i A S K K p i K J J K ! -X;X3X3X2X3X|.! Z a a B < 5 7 7 7 7 7 7 i k p F k k z k u z z l v l l l x l j v s x x x x v u j n m n N T x j h w w w w j x x n n T K v n v j n Y P T R &.T R g.g.i.&.$.-.$.@.@.*.=.t.=.-.:.;.} _ _ } |  .-.| T } M @.Y %.&.a 4 B B V 5 V 7 8 2 5 1 < & < , < 3 < 3 ",
"p S S p p a i A A a a a #.XXd d s s s s d u p i Z F J J J D J D.cXOX|.}.|.}.$X~.^.}.^.^.^.^.!.!. X'.Q.x.Q.i.4.R L L R &.3.~.}. X%XoXwX0X#X8XwX0X_.n.oXqX).l.v.,.s.!.R.x.,.<.v.!.0XaXpXwXaXaXwXrXrX.X.X#X0XwX[.m b U W Q ! ! ~ W |./.' M.N.j...j.{ ) ( ( h % ) h _ ( _ `  ._  ._ _ )  .) ) )  .) ) ) % o.) ) o.) ) ) _ ) ) o.) % % ) o.) % % e.e.e.% ) ) ( ( ( ( )  .) `  .| ..| ..:.t...} t.t.t.:.:.:.t.:.%.=.%.,.:.t.:.t.t. . ._ _ _  ...|  .| ] _ s m u : t 5 7 V Z Z 6 3 6 i < = t t t a u d p d S p i a i A A a a f #.XXd d s r r s s u a t 7 7 D V 8 V B S.2X|.|.}.|.|.$X~.~.~.R.}.^.R.R.!./.>X$X/.{.I F 7 B B D V B T.4X-X>X~.&XyX*X*XwX*XR.x.pXzXQ.%.%.@.m Y b Y s s b &. XbX>X{. X}.d.s.s.s.L.}.>X,X:X$X~.|.aXgXgXbXcX1X2XJXBXcXcX<XD.W J i t i 4 4 i 7 i 7 7 F k k k y p z l l l s v x u x s s x j j j x u x u j n w j j j N w w w w e e e e w w w w m $.%.*.*.@.m Y b m v L v n m :. .| %.%.%.' $.$.$.-.:.,.:.%.:.}  ._ _ _  .}  .|  .] ` d [ s 3 7 5 V 7 Z Z 6 3 7 a < - 3 f a a p p ",
"d d d [ d Y Y b d d d d <.zX[ / / r r r r r a a B J H J D D J H.OX{.}. XR.L.R.}.}.^.Q.R.Q.x.R.!.!.d.,.f.R.&.@.&.K &.2.Y |.~.L.d.Q.~.!.{.*X&XyX&XyXfXfXwXrX0X#X).[.6X_.[.[.).#XwXwXwXaXfXaXwXeXfXsXfXzXlXzXNXwX,.&.&.2.! W W I P.}.i.wX_.j.m.N.t.| ) ....t.% t.% X.h.{ | h. . .`  . . .) h  .)  . .) ) ) o.) )  .) ) ) ) )  . .) ) ) % % ) e.e.% % ) % % o.o.) ) ) ) o.o.o. . . . . . . .t. .V. .t...| ..| :.:.:.:.t.t.:.t. . .V.o. . . . . ... .` { { $.@.: 3 , V F J I 2.A S d d s d d a d s s a d d d d d b d d d d d 1.nX[ / # / / r r r w t 7 B Z D V D D T.;X{.}.}.R.J.L. X}. X!.x.E.!.!.^././.(./.>XU Z ~ Z V D D ;X-XJ.J.}.}.$X{.(.}.+X=X&XdX'.Q.@XdX&X/.x.x.s.R.v.x.'.@X%X&X>XrXwX#X#XwXfXdXdXfXlXvXlXvXaXdXgX>X>XbXgXgXcXgX:XOX,X:X|. X.X6.U @.P Y L K L L L K I L Y Y Y @.@.' c c ' } } } | %.%.| ' ' [ M b [ c [ b s x x j w j w w e $ e w h M M M g.v.l.c.n.c.:.:.:.;.:.:.<.>.:.t.t.r.r.:.t.-.r.r.:.<.,.t.-.| :.| |  . ._ )  .| t.) ` ..] @.U : 3 < 7 F A W 2.A p b p s d s a d s s ",
"@.@.@.[ @.[ [ [ #.9.1.<.).q.1./ / e.r / r r s a Z B D D J B W -XOX{.{.|.}. X$XR.x.Q.'.oX'.!.m.!.!.m.!.x.!.i.4.L.L.7.=.R.E.i.<.l.x.v.p.v.R.m.d.d.R. X/.Q.Q./.#XyXyXwX#X&X*XyXwXwXkXyXyX&X0XyXfXlXfXfXzXfXdX&XL.%.$.$.P R I I W |.P.R.n.x.-...| _ _ } )  .% V.t.) | ....t.m... . . . . .) ) ) )  . . . .o.)  .) ) ) ( )  . . .o. .) ) o.) e.) ) ) ) e.) % ) ) ) ) ` ) _ o. . .o.o.X. . .X.)  .) t. .| | .. .t.X.X.t.r...:. .) t.X. . . .X. .........` { %.*.t 3 5 V A A W XX&.b v s w s s r c r r r d r s d s b r [ #.<.<.[.q.;./ / / r ( r f s a i Z D V D C ~ 4XOX{.{.}. X}.>XI.R.Q./.@X@X/.Q.(.'./.}./.-XW Z D.D.A ~ Y.:XJ.Q.R.!.^././.{.(.d.L.(. X@X/.'././.(.Q.(.a.f.L.+X=X*X1XdX>X>X&XwXdXjXlXjXjXlXvXhXkXdX*X@X X@X$X>XjXxXxX<X,X,X,XpXpXaXhXjXaX^.1.*.#.@.Y #.&.3.4.&.-.-.-.-.-.-.,.g.x.!.!._._._.m.z.l.x.x.v.d.x.x.x.x.i.m x x x w j h w w x _ M [ ( ..b.z.M.z.z.M.j.>.` ..r.M.`.z.z.r.g.<.:.h.v.l.m.h.t.>.t...:.|  ..... .o. .V. ...o.) ` ` ..%.-.t 3 3 V A A U |.@.Y d x s r d s h s r ",
";.9.[ @.] / { +.q.5Xb.C.N.b.N.X.e./ e./ / ..[ p Z A B ~ S.W P.P.$X$X&X X X#X@X@X#X@X'.[.(.'.]././.[.'.oX#X8.@.a.~.^.>X$X(.@X#X#X].'.].0X%X_.n.c.c.M.).oX#XyX#X].@X#X&X&X#X#X#XwXjXfXfXlXNXlXlXlXZXNXfXaXzXwXs.| T &.&.E E W 2.:X.Xn. ._ [ _ ) `  . .) % ) o.) ) ) ) ) o.X. . . . .) ) ` [ _ ( [ _ _  .) ) M / ) ( h ) _ _ _  .o.) ) ) ) % ) o.% ) ) ) o.o.o.t.% ) h ) ` ` o.) o.o.) o.o.) o.o.o. .o.o. ...|  . .V.V.)  . . . . . . .X.t.t.V.t.t. . .t. .$.j 4 ; , F J B 2XbXD.S S s s s s r x s d d r w.w./ / { 0.5Xb.C.[.B.N.O.e./ e.e.( ..] a C ~ V S.S.W T.P.$X$X&X X X#X@X@X%X#X@X'.^.'.@X X@X X X%XpXU < ! 4X4XIX3XT.4X/.}. X X/.$X@X^.@X(.(.=X*X@X@X=X=XQ.(./.(.!.~.L.Q.@XdXxXxXxXlXjXxXVXCXVXVXVXVXgXkXjXhXpXdX>X&XgXdXgXgXgXkX>XgXjXdXhXxXhXxXhXdXpX#X.X!.8.,.,.9.%.=.7.,.i.x.(././.(. X*X X X/.(.!.Q.!.!.Q.Q.x.x.d.f.p.=.b j u u x j x w M :. . .X.B.b.b.z.z.b.N.z.b.V.X.h.j.k.j.B.z.V.t.V.o.t.V.t. . .....t.) t.V.) t. . .X.t.V. .t.t. .....' #.j 3 = 1 F J V bX3XD.S d d s s c x s r ",
"*.%.9.1.q.q.W.6X5X`.5X6X5X5X8Xb.X./ e./ { `.8.K A D J 4X;X;XY.,XgXgX~.{.$X}.>XVXpX*X'.(.'.(.).'.#X#X%XwX'.$.4.I.$X1X>X$XpX@X'.'.'.#XwXwXoX_.yXqXyXfXyXoX_._.'.'.'.#XaXwX].#X#XwXpXdXjXlXhXlXlXlXlXzXfXhXfXZX%Xc =.=.R R Q I U +X%XoX:.;.%...`  .) h ) ) % ) ) V.o.o.) ) o. .o.) ) ) ) ) ) _ _ h _ ( [ h # h r r # # ( ) ) ( ( ) ) ( ( ( ) ) ) ) ) o. .) )  .% t.) h ) ) ) ) ) ) ) ) ) o.) % ) ) ) ) ) o.) o.o. .o.o.% t. .o. .X. . . .o.) o.) t.X....._ _ u ; & 5 Z ~ V -XLXbXS d d b s s s s s d d / [ +.q.q.5X5X5X6XiX5X5X6Xb.X./ / / { `.8.K Z D D 4X3X;X|.;XcXcX/.}.:X/.>XVXdX%X@X'.oX'.'.'.#X#X#XwX$Xi 3 H.4X2XIX3X2X;X>XdX X^.@X{.R.@XjX*X&XdX@X(.m.Q.Q.Q.Q.Q././.f.Q./.&XgXgXCXZXxXBXVXVXAXAXkXgXgXAXjXgXkXxXxX>X$X$X X>X>XkXgX>XgXgXjXgXxXxXkXkXjXjXjXVXjXfXpXwXwX X$X'./.'.#X'.(.Q.'./.(.Q.Q.x.s.x.Q.!.m.x.x.!.x.x.p.i.=.m u v x u j w w M n.z.B.B.N.N.M.b.z.n.z.r.t.k.z.B.B.B.B.k.z.j.o.o.t.t.t.V. .X. .o.o.o.% o.t.)  . . .o.t. . .V.t.....` [ u : = 6 Z ~ V -XLXbX#.d d b x d d s c ",
"9.;.q.].tXsXtXeXsXqX].`.5XrXN.b.N.b.0.0.N.6Xv.&.Z J G.4X4XT.4X3XcX:X$X>X>X+X$XdX>X&X&X%X%XwX&X%X'. X/. XQ.5.5.|.gXcXpX$X&X}.'.0X0XyXwXpXwX#XyXyXyXzX0Xn.'.).)._.oX*XoX#X#X*X&XwXyXpXfXjXfXdXfXfXfXwX#XdXkXkX/.m @.*.L.2.I ! I u.1XwXm.r...:._ _  . .|  .V.% % % h % ) ) ) % ) % % % ) % % # # # # # / / ( r { X.X.0.X.X.) ( h h h ( % ( ) ) h ) )  . .o.t.o.t.o.) ) # ) ) ) ) ) % ) e.% % % e.e.% ) ) ) e.e.o.o.o.% o.o.o.o.% % ) o. . . .t. .t...) ` | m > O X V A A H bXHXLXXXd d d d f w.w./ / / 9.b.7XtXrXtXtXtX7X8X5X9XN.b.).b.0.0.N.5Xv.9.Z Z G.4X4XT.;X2XBX,X:X<XcX&X>XxXgXdXdXfXhXjXjXfXwXwX&X&X~.y 3 H.2XIX3X4X+X|.>X+X~./.}.$X$X@X%XdXdXdX=XQ.m.x.d.Q.(./.f.d.(.=X=X1XkXpXdXBXgXjXAXkXdX}.f.@X1X$X&X*X$X@X%X>X$X%XdX<XdXdX<XdXkXkXdXdXfXjXjX&XkXkXhXgX1XkXdXdXpXfXdXyXyX&XwX#X#XoXoX@X'./.'.!.^.!.!.'. X#X'.!.n.v.t.p.7.b u u j j x j j $.!.M.M.`.oXoXN.n.M.z.c.h...z.h.M.`.M.M.N.N.k.V.o.V. .) o.X.o.o.o.o.o.o.% % % ) )  . .o.t.t.t.) `  .] m > * ^ V A S ~ 2XHXLXXXd d d d d d d [ ",
"q.).rXtXrXtXtXsXuXoX8XqXqX9X`.9X9X5XC.b.N.b.v.4.Z S.4XT.T.T.3X2X{.OX,X<XgXgX$X X$X>XpX&X@X#X#XwXwX&XwXaX/.L R I.;X|.,XBXgX&X&X%X%X%X#XwX%XfXfXfXdXwX#X=XoX*X=X@X'.#X#X'.&XyXlXvXlXfXfXaXaXyXwXyXwX&XwXdXwX{.t.v 7.%XdX4.K I Q R f.t.<.r.!.n... .| | | | M t.t.)  . . .) ) h ) r % h ( ) ) % % # # # # # $ ( q.{ 0.) X.O.X.( % # # # # h % % h % % ) ) ` % t.% % # ) % # % ) e.e.% % # % # % # % % e.% ) o.) o.) o.o.o.o.% % % o.% % % h ) ) ) % r r ( w u * * * A a S.bXHXIXmXvX9.d d b w.w./ w.w.q.6X7X6XrXeXtXsX6XtXeXrX9X5X9X9X7XC.N.5XM.v.5.Z D.4X4XT.T.3XJX+X:X<XcXcXxX<X*X>XgXhXjXjXlXlXVXVXlXVXZX+X< C Y.IX3X2XIX1X;X}.{./.{./.@X$XdX:X&X&X&X&X@X*X/.=XQ.x././.#X*X&XVXHXZXCXlXxXhXdX&X>XdX&X@XpXwX*X@X/././.@X*X^./.&XjXjXjXjXkXhXlXdXdXkXgXfX1X1XgXAXVXgXgXgXxXgX>XdXkXjXkXdXwX@X/.!./.oX/. X/.^.*X>X X X!.oX].!.r.t.,.%.m x w u j j j w -.m.n._.`.N.M.j.z.M.z.j.z.>...h.z.X.r.z.z.h.h.t.t.V. . .o.o. .o.X.o.o.o.o.% % ) % % ( h ) ) h h % h x w 9 * ^ A A W bXJXvXHXvX9.d d @.w.[ w.w.",
"rXsXeXeXeXrX5XrXtX].[.rXrX].5X9X9X).b.N.N.).M.P A Y.H.4X4XH.IX+XY.{.}.;X<X,X:X{.+X%X$X@X/.%XdXdXwXpX&XdX}.p v 4.~.I.P.}.}.}.,X.X%X@X'.#XwXdXdXfX&X&XwX.X#X#X'.%X'.'.@XdXlXVXZXNXVXvXZXvXlXzXfXzXyXdXfXwX@X-.-.%.^.bX&Xa.P R E T T t.p.x.M.!.n.r.| %.| } | | | }  . . . .` ) ) h h ( ) ( ) ) _  .( _ r e 1.v.| v.v.r  .)  . .% % # # # # # # % h # ) h h % % h % # % ) ) ) ) ) % % # # e.% % % e.% % % % o.o.o.o.) o.o.) o.% ) ) ) ) ( r % )  . .| :.$.u : = < ^ A XXbXJXJXHXHXHXZX[./ w./ [ 1.q.6X6X6X6X6X5X5X5XiXrX6XtXqX].5X9X9XN.b.N.N.`.!.#.J T.T.4X4XH.JX|.Y.{.$X,X<X2X,X|.:X>XpX>X<XVXHXZXCXCXcXHX<X6 < T.2X2X3X2X,X>X<X~.}.*X}.*XgX<XdX>X$X&X*X/.=X/././.@X/.=X&XkXAXZXZXZXZXHXVXxXjXyXkXkXdXdX%XdXdX*XdXdXdX&XwXdX&X&XfXjXlXjXhXjXjXhXfXdXwXdXdXkX<XdXgXgXgX<XgXgX1XgXjXjXgXdX1X&X+X@X$X@X&X*X}.&XpX&XpXpX!.'.n.x.x.x.s.7.%.b u w q j w j -.Q.n.n.n.z.z.n.z.c.b.h.h. .j.z...o.X... ... .) o.o.)  .o.o.o.o.o.t.) o.o.o.% o.) ( / % )  . . .:.} u : ; , ^ S Y.bXJXHXHXIXmXvX.X/ w./ [ +.F.",
"sXaXsXhXaXrX6XrX6X6X6X6X5X].0X6X`.b.N.N.b.].[.Y ! 3X4X4XT.T.2X|.}.{.~.{.:X}.$X:X$X~.~.~.{.dXxXxXxX>X$XgX{.3 v 4.s.d.x.s.v.^..X#X&XwX X*XdXgX>X<X&X/.(.(.'.}.#X(.Q.&XpXhXjXlXhXlXZXZXCXvXjXjXdXdXdXkXdX*XQ.T =.7.$XdXdXI.L Q E E T $.:.t.:.:.:.:.| %.| :.%.%.%.| } _ }  .} ) ) _ ) ` ) _ _ _  .M ' c w [.jXv.:.;.r ) ) ) ) o.) ) ) # # % % % % % # # % % % % h % ) ) ) ) ) ) ) ) % % e.e.o.% o.) o.% o.) o.) o.) o.) ) % ) o.o.) ..o.{ >.t.t.t.t.-.:.,.&.i , 5   T.JXcXbXxXcXHXvXmXvXq.1.q.5X5XrX7X6X6XrX6X6X5X6X6X6XiX6X6X`.0X8X`.b.N.5XN.[.].Y D.3X4X;XT.T.2X4X|.OX{.{.:XOX,X,X,X{.{.}.>XHXKXJXHXxXgXHX|.= V S.;X;X,X:X,X:X>X>X<X>X$X=X*XcXxX<X*X@X~.(.@X/.@X!.d.@XdXfXAXVXCXZXKXKXHXCXjX1X&X&XdXwX1X*X$X&XwXdX&XwXdXdXwXdXdXfXxXjXhXAXjXVXxXhXdXgXxXdXkXdXgXdXgX>X>XgXkX<X$X&XgXdXdX*X@X@X@X*X&X+X$XxXCXgX>X>X/.@X/.!.m._.n.m.!.,.m m w u j x m t./.n.m.t.z.z.m.z.v.j.>...>.j.X. . .X.X.X.V.o.% % % o.o. .o.% ) o.% % % o.o.o.`  .{ ;.:.t.t.-.t.:.=.&.i = 2 ^ T.IXcXbXbXIXHXvXmXzXq.;.q.5X6X6X",
"eXsXsXfXsXrXeXrX5X[.6X5X6XeX5X5X5XiX9XN.N.`.0XL.P.Y.Y.;XT.Y.JX<X<X}.~. X.X:X}.{.@X+X%X>X@X>XxXxXxXcXhXvX|.p E a.}. X X'.'.oX!.&XpX@X*X{.+X$X~.~.d.=.=.%.p.,.<.,.x.wXVXlXlXVXjXjXVXjXxXVXkXkXdXwX#X@X@X&Xi.@.&.*.pXCX1Xg.T ! Q y.u.T t.:.:.:.:. . . .` `  .' _ ] | | | } } _ _ ( ( ` ` _ _ _ _ } [ c [ 1.[ [ ` ..( ( ( ) ) % )  .) ) o. .o.) o.) ) e.) ) ) ) ) ) o. . . .o.t.o.) ) ) ) ) ) ) o.) o.o.) ) ) % t.% X. . .) ) t...t.>.:.t.<.t.| t.t.t.:.=.@.t t 2 * D.IX3XbXbXxXbXCXmXaXW.rX6X7X6X6X6X6XeXeXrX5X6X6X5X6X6X6X6XtX5X5X7X0X9XN.`.`.,XP.T.4XT.4XY.{.HX2X<X X{.$X,X>X X}.@X$X<XgXjXCXHXHXHXHXHXJX4X* V D.;X;X<X:X X:X}.>X}.+X$XL.$XxX>XdX$X~.Q.Q./.x.*Xf.Q.dXAXAXjXCXAXCXCXBXCXCX1X>X>X=X*X+X@XgXdX*X@X%XdXjXhXdXgXjXkXZXJXZXCXxXxXCXxX>X>XgXgXgX>X}.>X%X$X%X}.}.U.~.L.$X>X&XpX>X&X$X}.@X}.{.}.dX$X*X#X#X@X'.'.!.!.x.n.'.'.t.-.t.m } u.t.=.%.(.m.h.h.z.n.z.z.h.;.....j.:. . . .) )  .o.X.o.o.V.) o.) o. . . .) % ) ) V.t.t.:.:.<.<...:.t.t.-.*.$.a 3 < ^ T.cX3X,XgXxXbXvXCXaXW.6X6X7X6X5X",
"sXaXtXeXaXeXrX6X6X6X6X6XrX6X5XtX6XrX5XN.`.0X.X|.H.4X4XY.H.2XBX2XVXhXpX%X.X$X X^. X>XdXxXpXgXlXCXHXBX2XHX2.4 I P.{.}.*X$X{.Q.{.@X{.f.u.u.4.i.L.d.s.p.s.!. X!. X(.pXhXjXkXdXdXfXxXVXCXlXpX%X&XwX@X'.@X$X@Xi.*.i.7.}.%X*XU.R UX! ! f.$.%.:.r.t...| ....| ....| _ _ [ } %.} ' b ' m _ _ _ [ h [ h _ h ( h h ( ) ) ) ) o.) ) % ) o. .o.V.o.) ) o. .) o.o.o.o.o.o.)  . . . .o.t.o.t. . .) o.o.) ) o.X.) t.t.% V.t.% V... . .h ) t.:.r.t.t.t.g.t.t.t.M -.:.[ b x q < = ~ 3X3XbXbXbXvXvXvX.XE.0X6XrXrXrXrX6X6X6XrXrX0X6X6X6X6X7X6X6X6XtXrXtX9Xb.`.rX.X-XD.4X4X4XH.2XJX2XHXlXbX%X.X X%X}.#XpXhXCXCXKXHXKXJXJXJXJXE & D H.T.;X,X,XOX$X:X+X$X}.I.L.I.+X>X:X$X}.@X&X@Xf.&Xi.dXhXxXlXVXCXxXCXJXKXCXxXdX>X*X@X/.}.@X&XdX%XpXfXdXVXxXjXAXjX<X>XBXkX2XcXxXcX>X+X:X>XxXxX<X$X>X<XcXhX7.m &.$.4.&X{.$X%X}.~.~.Q.L.d.L.Q.+X!././.!.Q.!.!.d.,.,.f.d.t.t.m.!.g.i.i.7.i.-._.z.h.h.z.M.b.r.>.>.X.:.:.X. . . .o.) o. . .o.t.% t. .o. .o.o.t.t.)  .t.t.t.t.t.t.p.p.i.<.-.:.:.[ c x q 3 = H 3XbXbXbXbXvXvXvX6XE.6X6XrXrX6X",
"wXaXwXrX6XrXrX6X0X6X6XtXtX6X6X7XtX7X5XtXtX6XrX XH.;XY.Y.4XJXBX1XBXcXxXxXwX0X#X%X%XHXHXHXCX2XcXJXcXcXcX3Xi J J 5.I.+X{.U.U.L./.(.i.p.%.=.1.i.f.d.f.x.d.f.f.i.d.a.~.XX}.$X>XcXBXkXBXVXCX=Xs.d.d.L.Q.^.}./.4.7.d.7.E.%XgX{.R u.! H.{.4.,.:.r.:...t.| | t.-.| | %.| } $.%.*.%.] [ } :.} M M _ _ } ) M ( ` ) ) o.) ) ) o.) )  .o. .o. .) ) o.o.o.o.)  .o. . . ...)  .t.)  . .t. . . .`  .` X...` .. .V.V.%  . . .| ........_  .t.r.t.<.t.f.f.p.i.g.t.:.| h c m u : = D.P..XbXmXzXvXzXhXrXv.6XeXeX6X6X5XtX6XrX6XtXrX6XtX6X6X6XtX7X6X7XtX7X6XrXtXrXwX.XH.;XY.4X4XPX2X2XCXCXCXCXpXwXrX,X3XJXPXJXPXPXJXJXJXJXJX2X< 5 F ! ;X;X$X}.:X$X$X%X&X}.a.J.R.+X$X1X>XxX>X*X@X~.@XQ.&XpXhXxXvXHXBXBXKXJXHXZXdXdXpX%X#X#XaXdXdXfXvXgXgXxX1X:X1XgXcXBXCXCXCXBXxXcX$X$X1XBXxXgXgX>X>XdXxXjX.XhX.X!. XpXfXkXdX>X&X@Xx./.@X'.'.^.oX'.@XoXoXoXn...:.z.n.m.n._._.n.m.i.%.i.s.=.s.d.g.d.l.:.<.h.h.r.j.r.....)  .o. . .)  . .o.t.% o. . . . .X.:..._  .t.t.t.-.r.p.f.p.i.t.t.t.| h c b u : = P.P..XbXvXzXvXzXfX6XE.6XaXrX6X5X",
"R.E.E..X6XrX.X0X6XrX6X6XsXtXsXtXtXrX6XsXzXtXrXXXJ.T.H.Y.;XJX3XBXBX<XCXKXLXHXHXHXCXLXJXJXHXcX,X1X,X3XcXH.3 i i J.a.y.a.4.d.d.~.x.d.p.=.,.t.p.l.d.l.f.p.r.t.t.:.=.p.d.d.~./.@X+XOX+X}./.Q.a.i.7.s.x.d.!.^.d.x.!.R.>XjXdX~.R u.U.Y.OXQ.p.,.t.:.:.-.t.-.:.:.%.:.| %.| %.*.*.*.@.] %.] }  .| ' ' ] ' _ ` ] .. . .) ) o. . . . . .)  .o.t.o. .) o.% t.`  . .| .. .t. .t.t. .t.t.o. . . . . .|  .| |  .% N t.M  . . .| :.t...M  .t.:.t.t.t.t.i.f.i.:.:.:._ _ c b u 3 = T.3X6XHXmXmXzXaXaX6XW.].6X6X6X6X6XrX6XtX6XsXsX6X6XtXtXtXsXtXsXsXtX6XtXMXnXsXrXXXJ.T.H.Y.3XJX2XJXJX2XHXLXLXHXLXJXJXPXJXPXJXJXJXIXHXJXPXT., 8 V T.4X|.;XI.+X}.gXgX<X%XR.}.}.%X>XbXdXdXpXpX@X/.Q./.&X1X>XcX<XxXCXcXCXJXHXCXkXgX<XgXgXgXvXHXKXHXZXdX>X>X$X$XgXxXJXJXHXHXJXCXcXgX>X,X1X<XBXBXxXxXBXgXgXxXgXHXHXCXZXVXCXVXlXlXlXdX@XfXwX#X#X&X#X=X@X=XoX*X(.v.=X!._.(._.!.m.!.m.t.-.i.7.u.p.| | } )  .| r.l.X.X.>...) `  .)  .` `  . .) )  . .}  . .| >.:.| )  .t.t.t.t.r.t.g.f.t.-.:.:._ ( M ' p 3 = T.3X-XmXmXmXsXeXsX6XW.].6XrX6X6X",
"x.R.[..X.X6X6X6XrXeXeXsXsXtX6XtX7X6XtXsXtXtXaX>X6.Y.T.4XY.2XBXcX;X:X3X1XcXJXJXJXJXJXJXJXcXHX2X,X:X3X;Xi 3 G F u.a.L.d.4.i.s.s.p.d.p.t.p.x.x.x.v.m.p.l.t.p.r.:.:.p.r.p.x.x.R.L.x.x.R.x.s.x.p.i.p.d.f.a.i.i.7.R.pXgX<X:XP.5.H.Y.|.OXU.i.r.1.,.:.<.:.:.:...| | | | ] } %.' } [ ] ] |  . ._ ` _ } ` ]  .| .. . . .) _ _  .|  . . . .) t.% ) ) M t.% } ` _ | ..| t. .) t. . .| ) )  . .|  . . . .X.| % % % )  . ...X.X.X.t. .} t...t.t.g.t.t.r.t.-.t.:.h _ M -.L 3 5 ! LXLXLXHXbXaXrXsX0XW.].6XeXeX6X6XtXsXsX6XsX6X6XsXsXsXsXsXtXtXsXtXtXtXMXtXsXeXpX6.Y.T.4XY.2XBXBX;X:X3X2XcXPXPXJXLXJXJXJXJXJXJXJXIXJX2XC 2 B D H.{.;X,XP.~.$X*X>X1X*X=X+XhXjXhXhXhXdXdX&X1XyX/.}.wX&XpXdXhXCXCXxXBXCXAXBXBXpX:XhXvXcXcX1XgXcXgXpXBXHXBXcXHXHXJXKXBXkXcXBX2XBXgX2XBXcXBXBXBXcXBXcXgXgXaXgXdX>XcXgXkXAXdX1XkXhXfXxXdXpX%XpXwX>X&X@X/.@XQ.(.=X!.(.(.(.'.(.x.Q.d.i.a.i.u.p.} ) ) ..:.z.M.h.h.r.X.`  .)  .) ) ) ` o. .)  .) ) )  . .t.....t. .| :...:.t.g.t.t.p.t.:.t.:.h _ m $.L 4 6 W LXLXLXmXvXaXaXeXrXE.[.6XtXeX6X",
"x.^..X6X6X[.6X6XsXeXeXtXsXsXtXsXtXrXtXtXzXMXsXaXD.T.T.Y.T.2X3X;X:X3XBX,X2XBXJXIXIXIXcXIXHX2XJX2XcXcXJ.3 7 7 g u.y.a.3.-.i.f.i.f.d.f.d.Q././.!.m.x.d.p.f.d.d.m.f.p.i.!.Q.Q.Q.m.(./.!.Q.!.Q.x.m.m.x.x.f.=.i.s.L.{.~.P.J.J.J.H.T.+X<Xa.4.d.t.:.%.;.:.t.-...|  . . ._  .| | ]  .` _ }  .) M } )  .|  ._  . . . . .) ( ) _  .M  . .) M o.M ) o. .% t. .|  .| ..|  . . . .M % ) ( )  ...o.` `  .`  .o.t.t.) )  . . . . ....._ _ :...t.t.t.-.t.t.t.:._ } M _ m U l 4 2 S.3XHXHXbXsXrXaXsX.Xq.[.6XeXeX6XtX6XsXsXsX6XtXrXsXsXsXtXsXsXsXtXtXrXrXtXsXMXsXaX6.T.T.Y.T.2X2X;X:X3XHX,X2XJXJXJXIXJXJXJXJXJXJXJXJXLXT., 7 8 g Y.;XOXP.y.{.$X+X$XdX1X<XAXHXKXZXlXVXhXpXgXAXZXZXAXdX&XZXCXCXCXxXHXLXZXCXZXHXZXZXZXCXVXkXwXhXbXcXxXBXcX2XBXHXHXJXHXxX2X1X&X<X1X>X$XOX$XBXCXCXHXxX>X$X>X<X>X>XgXxXgX<XkXBXkXjXgXxXkXdXdXdXwXyX#X&X(.m.Q.i.m.Q./.Q.m.^.m.d.m.Q.Q.a.-.u.i.=._  .t.j.j.r.j.j.t.:.X.o.` o.o.) ) ) ) ) o. .) ) ) o.o. .o. ....._ M :...t.t.t.-.t.t.t.:.M } ) m ' U z 7 2 S.3XHXHXbXbXrXrXaX.Xv.[.rXtXtX6X",
"E..X6XaXaX6X6XrX6XsXtXsXtXtXsXtXsXtXtXsXsXzXpXpXQ T.T.4XH.2X3X:X;X2XcX2XOX;X3XHXcXIX2XIX2X2XcXIX;X;XJ 2 8 8 8 u.R L L P R &.u.u.g.y.y.f.H.d.d.L.u.t.f.K.y.y.i.y.3.u.K.a.d.H.U.y.K.U.K.i.i.d.U.U.Q.~.(.Q.Q.~.Q.I.K.f.K.y.D.T.T.{.+XK.f.f.s.,.:.| :.:...|  . . .} _ ( ] ` ] ]  .] _ M ) ) ( _ `  . ._ ) _  .o.) ) ) _ ) ) ) ) _ )  .) ) h  .M  .M _ ] | |  . ._ `  . . .` ) ) )  ...` ) _ ` `  .) % % )  . .o.` `  . . ._ _ ..t.t.:.:.....t...| _ _ } -.$.R G 7 2 ~ 3X2XIXbXaX6XaXeX[.8.c.6XaXtXaXsXaXsXmXsXsXsXrXsXsXsXsXMXsXtXtXsXtXsXsXsXzXaXpX! T.T.4XH.2X3X;X;X2XcXcX;X,X2XJXIXIXIXJXIXJXJXJXIXIXH 2 8 8 8 T.Y.u.u.U.~.}.1X&X1X1XkX1XBXAXVXCXpX&XCXCXBXkX<XkXOX1XCXBXCXJXBXBXBXJXZX<XkXCXJXCXJXJXKXCXHXBXHXCXBX2XBXBXBXBXBXCXBXBXBX2XvXvXgXpXBXBXkXBXZXJXBXBX1XAXBXBXBXBXCXCXBXAX<X<X:X=X1X1X&X}.%X&X#X&XoX!.!.t.$.x.m.Q.Q.Q.f.f.p.t.p.d.i.&.4.i.=.,.p.h.j.j.n.z.r.r.] ] ` o.) ) ) h ) ) ) o.% ) ) M V.%  . . . .| ) ) ..t.t.:...:.| :...|  .M | -.&.T J 7 2 J 2X2XxXaXaXrXaXtX[.<.E.0XeXeXsX",
"6X6X6XsXsXsXsXsXsX6XsXsXsXsXsXtXtXsXtXtX8X0XaXhXH.H.H.Y.H.Y.U.OX{.cXcX2X2X3X,X<XcXcXcX3XIXcX2X2X;XT.g 9 2 3 F z 3 p G l L R -.Q R UXy.H.y.U.U.y.u.u.3.u.u.u.E k G G G E ! 3.3.u.y.u.y.y.H.y.H.K.K.H.H.H.H.K.H.y.H.y.H.H.u.! T.I.u.u.u.d.x.p.i.g.p.d.t.-.t.| } } M _ c _ [ _ ` _  .)  .) (  . . . .)  . . .) h ) o. .) h h ( ( ) h ) ) ) % h ) h _ _ _ ` ' _ ) _  . . .` h h ) ) ` ) ) ) ) `  .) % )  .) M ) )  . . . . .) _ | | } h M M M M M -.} T T R L F 5 5 , 3XIXbXpXaXrX.XaX).q.c.5XaXsXzXsXsXsXsXsXmXmXsXsXsXsXsXsXsXsXsXtXsXtXtX9X0XaXgXD.H.H.T.H.Y.K.:X{.cXcX2X2X2X,XcXIXIXIXIXJXJXIXIXIX4XF 1 8 5 F ! H H.K.y.U.{.OX:X1X1XBXBXBXKXZXBX1XcX1X;X1X:XU.R Q Q ! H.|.+XOX2X1XkXBXBXBXcXBXJXJXJXBXJXBXJXBXBXBXBXBXBX2X;XOX1X:X:X;X2XJXBXCXxXKXLXJXBXBXgX1X<X1X2X1X<XBXJXBXgXBXBXcXkX@X@X*X&X*X*X=X=X/.oX!.d.(.p.M p.x.x.x.m.t.i.:.f.i.i.u.n &.4.&.x.x.h._.M.z...:.>.[ ) ( { ) ) ) ) ) ) o.e.) %  .) % ) )  .o. . . ._  . . .` M M _ } M N $.} T T R L F 5 5 , 3XJXbX,XaX6XrXsX[.v.W.6XsXzXsX",
"vXvXsXsXsXsXmXmXmXsXsXsXnXtXsXsX6X6XrXrXqXrX.XpXD.T.T.H.~ ! E Q u.H.:XBXcXcXcX4X3X3X;X;X3XY.H.H.H.F 2 8 2 2 8 8 ; = * : j G g g z E UXUX! UXUX! ~ ~ k G UX! u.I 4 7 ! 3.! H E E E Q Q UXE E ! ! H g 4 i z g k F E E H E H H H.H z u.u.u.u.f.a.f.d.g.i.-.T N n N v v K n m m x M | M ) M h ) ) }  .)  . . .) h ) } _ ) h _ _ [ h h ) M ) % h M  ._ M [ _ _ _ [ ( ` _ _ ( ( ( ( ) ) ( ) ` ) ` ` / h h ) ) % h )  ._  . .} ) M _ _ _ h h h _ M c } m -.R R p 6 7 V ^ Y.LX,X%X6X6X6XaX[.W.W.rXsXzXvXsXsXsXsXmXsXmXmXnXsXsXsXnXtXsXMXtX6X7X6XqXrX.XaXJ.T.T.T.~ ! E R UXK.3XBXIXcXIX4X3X3X2X3XIX4XH.Y.T.~ 1 V 8 8 g 7 2 4 k L u.y.E Q UX{.1X1X;X;X2X:XY.U.! u.;XOXOXy.z z Y.;XY.u.U.I.Y.{.:XOXY.Y.+X|.y.G l U U I E G.K.T.H.T.H.H.Y.y.! {.1X1X1XBXJX3XJXJXBXcXBX3XY.R H.4X1X;X+XY.Y.H.{.:X1X<X:X+X+X(.~.{.d.d.Q.d.f.a.}.d.-.f.x.d.Q.i.i.t.f.d.p.a.4.l n R R f./.!.p.| _ ) _ h [ { ) ( ( ( % ) ) ) ) ( % % % ) % h ) _ _  . . .( M } ) M r h c M } N } T -.Q R k 6 7 6 ^ Y.JXpX>X6X6X6XaX[.x.).0XfXsXaX",
"zXvXnXmXmXvXvXmXmXsXsXsXsXsXsXsXtX6XtX6X5X6X6XbXP.2.H.H.u.E z H E E UXH.6.! ! ~ A ~ J ~ F D D 4 8 4 3 4 8 7 7 4 3 : a a v v y : g 4 4 g g 4 8 4 7 7 4 g k g F g 4 8 E H z g g z J z y k z 4 z 4 4 y q : 4 : : y y 7 4 y z G 4 4 3 y z y 3 y a a z z z > 9 > 8 4 3 4 y 4 4 y ; z z y : j y e u j N w w w x x % w h w h x h N c c h h h N h h N h c c c c c _ b [ _ _ c [ _ _ _ _ _ [ ] '  .| _ r  . .h _  ._ _ ` _  . .|  .} |  .| _ [ M ' } T b n T E L 7 5 5 B , Y.LX-XaXwX.XrXwX[.v.].rXsXmXmXsXmXmXmXmXmXmXmXmXmXsXsXsXsXsXsXeX6XsX6X5X6X6XhXP.2.H.H.u.E z H E E ! H.! W S.~ ~ D C S.D g 8 8 C D 8 8 8 g 8 8 8 2 4 4 k z z k g J g H J z k z G L z E Q Q E E k z f.UXE E H E 3.! E L l n v n l u u y u y j z n n z L L E L z z E E E g H ! J ! UXUXUXUX! H F ! ! ! UX~ z J g g J H H J J H H L L n l l l z j &.i.4.=.$.u.f.t.$.&.g.g.=.i.$.u l T T 3.&.' _ [ [ ) h ( ` ( ` ) ( ( ) ) ) ) ) r t.% M )  .M _  ._  .}  . . .} } ] _ _ _ ' M @.m N T T L i 6 V Z , Y.LX-XaXrX.X0XrXW.v..XeXsXsXaX",
"vXvXsXmXmXmXmXmXmXmXsXaXsXsXsX6X6XsXrX6XeX6XW.aXL.6.XXT.T.Q 2 G k z z 4 4 ; 3 3 4 k l l l z z z y 4 6 a i Z p v Y *.a.y.a.3.&.p < 3 2 ; 2 2 4 3 i 3 4 t : 3 2 3 2 3 7 2 ; 3 3 4 4 2 ; 3 3 ; 3 3 3 3 4 8 8 4 3 2 4 4 4 4 4 6 7 7 3 = & = ; * = * = < = 2 : < 2 < = 3 < 3 < 3 6 6 < 6 < 6 < ; * - * O * > * + + @ + - o - - - : 3 @ @ @ @ $ e > > : ; > - - q 0 0 > : 3 3 6 a a q a w a w e e a 0 a f e f f w s d x c x Y m n v l G L H L L G l l v A G G 2 2 V B * F.cXXXaXaX.XrX.Xv.c..XzXvXvXmXvXvXmXmXmXmXmXmXmXmXbXsXaXsXtX6X6XtXrXrXrX5X[.aXJ.6.Y.T.T.W 5 G z z z 4 4 ; ; ; 4 4 ; 4 4 > > g : 3 3 5 6 7 7 8 ; 4 ; ; g 4 8 3 3 3 ; ; > 4 4 > 4 4 4 3 ; 3 3 4 ; 4 4 > 4 z 4 z > > 4 y y : y g y 4 y g y k y 4 z z z z z > 4 4 4 > 9 ; 4 > - 4 9 ; ; 9 9 2 4 7 ; 2 ; 7 7 g 4 g g 4 ; 8 ; 2 ; ; 4 ; : : > > ; : ; y G E L Q 2.l l &.R L n Q G ; 4 i l a s a r e e w s v n v x s s r r h r w r r r 0 e r f w s b x x x m m n v l l L L K L G l l l K G F 8 1 V B , F.IXXXaXrX.XwX.Xc.W..XsXzXzXzX",
"vXmXmXmXmXsXsXsXmXsXbXrXrXrXtXrX5X6X5XW.W.v.W.>XD.! 4XT.T.H i 3 8 ; ; 3 : ; ; 3 4 3 4 4 4 k z 4 4 : i a i p K *.a.4.&.a.&.T &.j - 2 2 7 2 4 3 G l L G l l G l l k z k y 4 3 ; ; ; ; 3 3 ; 4 : 2 3 2 2 ; 9 2 3 2 2 2 2 3 3 5 i G 3 < - - - q - * - : p a a p d Y 2.6.Y #.2.3.U 2.2.Y K S K i 4 2 ; ; ; & = - X X X X X O - + O o @ O X + X X X X - O = = , = - - f 3 t a 6 6 t 6 : p q q d w b @.' d [ d f a a f < t a i 3 6 2 2 < 6 2 < 5 7 6 < < 5 < 5 8 V 8 7 , D.xX.X#XrX.X.X.X[.).rXzXvXmXKXmXmXmXmXmXsXsXsXmXsXsX6X6XrXtXrX6X6X6XW.W.F.XX%XJ.2.4XT.Y.K i 3 ; 8 ; 4 : ; 2 3 4 2 4 ; ; > > 8 3 ; 5 5 6 7 7 3 4 4 ; 7 > 4 > ; ; ; ; > 9 ; ; ; ; ; ; ; 3 4 : ; ; 3 9 4 4 2 > ; ; 4 > : > ; ; : : ; ; ; ; ; 4 : ; ; 4 ; 9 8 > 9 ; 8 ; ; 9 ; 9 & ; ; 3 ; ; = ; ; ; 4 4 8 4 ; ; ; > 8 ; 4 4 4 4 ; ; ; ; ; = 9 - & * * * 3 i 3 3 4 i t : : : : > = 3 3 7 2 < - : - y w t i i a j j w x w r s r s [ ( d [ d r u a a q a p p a 6 3 2 < 6 2 5 6 7 < 6 < 6 < 5 8 B 8 7 , D.vX.X.XwX.X.X.X].!.].eXaXzXlX",
"mXmXmXsXsX6X6XsXsXsX6X6X6XrXrX6X].[.[.W.E.W..X>X~.! 4X4XY.D.J i g 8 g 8 2 ; 3 8 4 8 2 2 g g : 4 i 4 3 6 i G Q 6.@.&.U L P P P : = 2 5 6 7 2 k F G F G l K G G I I I G G G z F k i 4 k k k l l k k 4 i i 4 i y i k l G z l L 3.L.7.2.3.L.E.XXJ.8.F..XaX|.~. X$X>X&X XpX<X#X/.@X%X^.(. X%X/.d.a.&.U L l v Y 3.8.4.9.8..XXXXXd.J.8.8.1.1.1.9.' d u > 3 2 5 5 2 A H.D.2.6..X6.w.S F.6.9.9.9.8.d w.9.d.R.s.-.,.*.8.q.1.#.1.9.1.6.@.*.7.9.9.w.a Y S D.D.2.6.Q I 6 B Z ^ S bXaXrXaXwXaX0XW.v.0XzXsXDXmXmXmXmXsXsXsXsX6XtXaX6X6X6X6XsX6X[.[.[.W.W.[.XXpXXXQ -X4XY.S.J i g 4 g 8 2 3 2 2 ; 2 2 2 8 8 9 9 9 2 , 2 5 8 8 B 8 8 8 2 2 4 8 ; 2 3 = 3 4 4 2 8 2 8 2 2 7 8 6 5 5 g 8 8 2 2 2 2 8 2 8 ; = 2 2 ; 2 9 ; 2 2 ; ; 2 ; ; ; ; ; 9 9 4 4 9 8 8 8 2 2 & 9 2 8 ; ; 2 = 4 8 4 4 8 4 4 g g g g z k n g k k k 4 y 4 4 z l z v G 2.R R L U U P K K v v v a 4 : 2 7 7 4 3 t I L K L 6.K A p U P Y @.*.&.b b P *.i.7.*.1.%.1.q.8.9.1.8.7.&.@.*.7.9.9.w.a Y K D.D.2.6.2.I 6 Z Z ^ S bX%XaXpXwXaX.Xc.v.].fXaXzXlX",
"mXvXsX6XsX6X6XtX6XaX6X6X6X5X6X6X6X5XW.q.q.W.E.W.D.Y 4X4X3X3XH.7 2 1 1 7 5 8 1 ; 2 5 2 2 3 8 4 7 i F K K K W 5.&.&.&.#.Y U R R 2 5 5 V V 7 I Q p G L Q 6.U U K l G G L G G G G G F G l G l l l l l l l G k G G G G l K L Q K.a.T.|.:X;XOXI.I.}.xXCXgX*X^.}.&X&X@X&X@X#X&X&X&X&X@X'.yX0Xc.} :.:.:.<.<.,.=.,.=.a./.XX>XDXvXlXfXaXsXvXzXfXyXfXzXzXsX*.p Z 5 V < -X.X9.9.q.XX8.E.XX1.9.1.;.9.w.d f o 0 d d d r d f / s s d d a d d Y 2.8.1.w.c [ x *.*.4.L.s.H.H.i B C W IX-XaXpXwXeX.Xv.v..XsXhXKXmXDXmXsXsXsX6X6X6X6XsX6X6X[.5X6X6X6X5X[.q.q.b.W.^.J.K 4X4X3X3XH.7 8 1 1 8 5 8 9 9 8 1 1 1 9 1 9 1 2 1 5 6 5 V B C 8 D 8 5 8 8 8 2 8 6 5 5 8 1 2 1 9 ; 2 2 2 8 5 5 9 2 2 2 1 5 5 2 1 2 1 2 5 2 5 5 2 1 2 5 2 5 5 8 1 2 g 4 2 8 ; 1 8 8 g g 7 5 2 < 2 9 2 2 2 5 2 5 8 8 4 ; 4 4 8 7 4 z z 4 : 4 : y z z l k z l L R R 2.K.a.y.i.a.i.a.d.a.a.a.a.f.y.L k 7 7 7 5 S.6.v K P 2.U @.3.Y K b Y b b x q w w s d s s s f d s s d d a d d P 4.7.1.w.c [ s *.*.4.L.K.a.H.i B 5 W IX-XaXpXrXeX.Xv.v.'.eXwXzXbX",
"vXsXsXsX6XrX6X6XrXaXrX.X[.6X6X6X[.[.W.W.W.c.v..X^.a |.;X;XJX,X2.a t a f i t t i t 3 4 i 3 6 i Z Z A U W 2.2.7.*.7.8.7.1.@.K l 3 < 6 6 a H 5.3.@.&.a.a.a.a.P.3.&.Y v v v n j l K G p K l l p p u l l l p i l G K K R &.3.K.y.5.y.a.J.J.a.a.s./.@X+X/.'.Q./.wX*XrX#X%X%X#XhXhXpX&XfXdX_.:.| ,.,.1.%.,.;.%.;.@.#.*.-.d.>XwXvXfXlXlXlXfXzXlXzXeXfXfXhXJ.Z 7 Z < -XD.9.8.E.F.XX[.E.1.1.;.9.1.w./ w.9.w.r o / f w./ w.# f f o 0 o 0 $ 0 r 0 # / q./ d 0 f / f f 7.L = < A 2X.XaXwX.X.X).v.v.6XnXsXKXHXmXvXsXsXsXtXtXsXrXsXrX.X].6X6X6X[.[.W.c.W.c.v..XXXt |.;X;XJX,X2.a a a a a 3 t 3 : < 3 3 2 < 6 6 5 , 6 6 Z i < a S A a t 2 < 3 3 < < < 6 < 2 3 t 3 3 i 3 t a 3 3 4 3 i 6 t < 5 < 9 = < - = = = < 2 2 5 = = 5 5 5 1 1 7 2 8 1 9 8 8 8 8 V 8 2 < 6 Z Z 6 < 6 < 5 5 8 8 5 5 5 8 2 2 4 g 4 : : 3 4 y a p k a p i i p l I 5.5.K.y.J.K.J.a.K.J.J.a.a.J.J.W i V B 5 D.W K W 2.&.3.9.&.Y d Y v S d p d Y p f f f / / w./ f / f o 0 o f $ 0 f r $ / q./ d 0 f / f 0 7.Y = 5 p 2X XrXwX[..XE.v.l..XsXaXvXfX",
"sXvXsXsXsXsXsXsXsXrXeX[.[.].].5X6X5X5XF.v.c.8.[..Xa Y.T.T.cX>XrXW.w./ / r d d d d d d v Y x S w.K U &.4.7.8.[.eXtXeX].v.p.1.#.s p p p Y 8.d.J.L.L.R.L.d.d.p.s.R.R.R.8.@.v m b b b b b b b P m Y m n m Y P K K l K P.a.a.d.a.a.L.a.f.L.Q.!.(.^.#X#X0X#X].0XwX#X#XpXrX&X&X&XrX#XoX0X0Xr.t.:.%.;.=.,.,.,.;.:.8.1.;.l.^.v.sXzXlXzXzXzXzXvXSXSXzXuXlXhXa.2.p A a XXL.8.q.W.XXW.XXF.F.q.q.q.0.9.+.+.1.1.;.[ w.q.+.q.+.+.1.+.{ { 1.1.+.] / e./ { q.{ { / / / r 0 r u X p J.,X X.X'.W.5X].v.v.eXaXnXmXmXmXmXmXvXsXsXsXsXsXrXeX.X[.6X].5X].5X5XE.c.v.p.XX.Xi Y.T.T.cX>XrXW.w./ / s s [ d d d s s d d p A A G G G U d 8.aXhXaX6X1.' d d d w.[ d d d d b d m x d x d w.d x b b b d d d d a w q f d s a u u v p u p p i 3 2 ; 3 5 2 8 2 1 5 8 8 1 5 7 2 i ;XT.}.~.K A S 6 < 2 8 5 5 8 5 8 7 7 g 4 t y 4 y a y l z j l v p u L R L 5.a.J.J.d.L.J.L.R.R.L.a.s.a.U U i Z 7 ! 2.Y Y #.&.2.4.2.6.2.9.9.@.#.P #.@.&.@.[ [ 9.0.1.1.{ 1.{ [ [ 1.1.{ [ / # / { q.{ { / / / r 0 r u X a P.,X X.X[.W.[.).v.l.rXrXzXmXvX",
"vXmXmXsXsXnXsXsXrX6XrX'.W.W.[.[.W.W.c.q.<.<.q.E.D.a 3X4XY.+XhXsXtX5X0.0.+.o.{ { O.O.{ ) ( [ { w.9.1.1.*.1.].eXzXsXeXqX0XqX`.c.[ r p @.s.R.8.v.l.v.s.l.c.!.v.v.l.v.r.c.).b.v.<.] [ [ [ [ ] [ ' ] @.[ @.' @.&.#.[ *.E.R.E.L.L.L.K.L.L.R.~.~.Q.#XwXoX0XeXeXrXrX`.#XwX0XwX0X[._.oXqX8XoX.. .:.| ,.,.1.%.<.h.h.0.0.).DXqXoXNXlXzXzXzXvXzXzXzXuXuXuXzXaX!.L.Y.4XOX|.s.E.W.[.XX.XXX.X.XF.F.F.q.q.1.q.q.q.q.q.0.q.0.q.q.q.q.0.b.q.b.W.b.b.b.q.+.q.5X5Xb.;.;.[ / / d v O G Q ,X}..X'.v.[.).0.).tX6XmXDXDXmXmXmXsXsXmXsXsXsX6XrX[.W.W.[.[.W.W.b.q.<.1.q.W.D.t ;X4XY.+XhXtXtX7X0.0.0.{ { { O.O.{ [ [ d w.[ w.#.@.d d 0.qXnXzXzXsXnXtX5X0.{ e./ / [ ) [ [ { / / d / / [ ;.` [ ( / { ;.{ ` / r r / / / / [ w.[ d c b b @.v s j v p a 3 3 5 2 1 8 8 5 5 & J ;X5.}. XwX X}.5.K E 3 Q Z i a A L L l K L K v L L P P U ' @.b $.-.Q.i.4.Q.%XpXaXsXzXaX%X[.E.[.^..X^.J.I.Y.I.K.H.@.4.J.L.XX,X{.[.XXP.F.L.L.7.4.7.7.8.8.1.q.q.q.q.q.q.1.0.q.z.q.q.b.c.b.q.{ q.5X5Xb.;.;.[ / / d x O G Q ,XXX.X'.x.).).q.M.eX0XvXDXvX",
"vXmXsXzXmXsXsX6X6X6X6X[.E.W.W.W.c.q.q.1.q.0.b.W.#.G 4XH.-XgX.X5X5XiXtXnXMXMXiX7X7X7X7XC.Z.5XC.q.tX6X5Xc.].uXzXeXtXqXrXqX0X0XN.<.] <.v.W.).).`.[.M.b.M.).M.`.sXrX`.b.b.qXnXnXuX9Xz.0.;.] ] ] [ ] ;.;.] _ _ ' ' M <.!.R.R.s.f.L.I.~./.{.Q.'./.@XdXfXqXyXyXyXyXuXzXuXfXrXoXwX0X&XyX=Xr.t.| %.=.1.1.1.v.rXzXtX9XnXFXzXrXDXZXlXlXvXvXDXzXzXNXzXlXzXyXfX%XJ.2X;X;X;XE..X6XaX.X.X.XXX[.W.E.c.F.q.F.F.q.q.q.q.q.q.q.q.q.q.q.q.F.5Xb.F.5XW.[.[.6X5X6XrX].c.b.0.{ [ 9.v.X y R I.^.^.[.).[.).q.6X[.sXDXmXmXvXmXmXnXmXzXsX6X[.6X#X[.W.W.E.W.W.q.q.1.q.0.b.W.9.K 4XH.-XgX.X5X5XrX7XMXMXiXiX7XA.7X7XC.Z.C.Z.q.tX7X5X{ q.tXuXzXzXuXtXtXMXMXiXZ.Z.Z.0.O.) { { { ) { { O.O.Z.tX7XC.b.Z.7X7XtX7XZ.k.0.{ / / ) / / ( [ [ r r r r r r d d S 3 < 6 5 1 8 8 8 7 , H $X$X^./.=X@X#X^.$X>Xa.:XE.J.Y K 9.U P 6.&.L L U @.U *.a.s.p.x.^.[.R.i./.~.*XgXdXhXjXpXpX1XdXkXkXaX&X}.J.|.Y.{.}.J..XvXXXE.E.~.XX~.E.8.8.8.1.1.8.8.8.8.F.E.q.q.q.q.q.q.q.W.W.W.W.5XW.W.5X5X6X6XrX].c.b.0.{ [ 9.R.X y R I.~.^.[.).[.).q.5X[.eXDXmXNX",
"zXmXvXsXsXrX6X6X6X[.W.W.W.q.q.q.F.q.q.q.W.q.5Xq.[.9.|.Y.|.xX.XeXtXtXMXMXtXtXiXuXiXMXMXuXuXMXMXuXMXuXuXqX0X9XuXqXtXqX9XqXqXqXqX!.s.^.$XwXfXzXNXAXNXDXNXeX#XrXyXuXqXqX`.].uXqXqXqXqXqX9X9X5XN.0.0.N.N.j.k.v.h.h.:.z.0XW.s.7.J.U.~.~.{.~.Q.@X/.oXyXyXuXlXyXyXzXeXzXfXwXwXyX0X#XfXfX<.| ,.;.%.;.;.1.).vXSXSXKXFXFXZXNXZXZXfXNXZXzXzXzXlXvXNXzXNXuXqXuXyX7.;X3X;X;X.XXX.X>X.X%X.XW..X[.W..X[.W.W.F.q.q.q.q.q.q.v.E.q.v.b.b.q.5XW.W.6X.XwXrXaXrXaXsXrX#X0X`.l.c.0X%XX p 6.J.R.v.W.).).W.c.W.[.mXnXmXvXmXvXmXvXvXsXaX6X6X[.W.W.W.q.q.W.q.b.q.q.W.b.5Xq.W.9.XXY.OXxX%XrXtXtXzXMXtXMXiXiXiXuXMXuXiXMXMXMXMXMXnXuXuXuXnXnXuXtXiXuXsXMXMXnXnXSXGXMX7X7XiXMXiXtXMXnXnXnXMXtXiX7XA.iXA.C.A.7XiXMXMXiXC.Z.O.O.+.o.) o.k.Z.k.V.b.W.1.[ - ; 8 V 8 V V B 7 2 k {.Q.m.n.n..X'.d.^.}.>X^.@XpXd.!.p.,.v.#X7.P [ %.p.7.v.R.R.(.'.'.Q.R.Q.Q.m.#X&XdXrXwXwX XwX&X#X#X'..X!.4.I.~.I.~.L. X#X^.W.E.R.R.v.8.8.v.s.8.8.q.7.8.v.E.x.8.E.v.q.q.v.W.v.W.W.[..X.XrXeXaXrXaXfXrX0X0X`.l.c.0X%XX A 3.J.L.q.W.).).).c.N.[.mXmXvXnX",
"vXsXmXsXbXeXrX6X[.W.q.b.v.F.W.W.b.q.q.5XW.W.5XF.aX6.5.4X|.HXlXSXnXnXnXnXnXMXuXuXGXnXSXMXuXnXnXMXuXnXuXtXtXtXyXuXtXqXqXqXqX8X].8.7.Q.'.wX0XrXqXyXNXzXwXfXzXyXzXuXuXyX9XqXoX].oX_._.M.8X8XiXtXuXqXtXtXqXuXzX`.M.)._.`.v.l.1.i.R.d.Q.d.~. X}.'.*XfXfXlXNXzXzXlXkXzXyXeXrXeXeXzXzXaXc.l.<.<.l.l.1.].DXDXDXKXKXFXZXVXkXjXlXVXDXZXDXlXaXNXeX0XzXzXNXnXNXaXa.}.-X;X-XXX.X[.].[.^.W..X.X6X.X.X[.[.W.q.F.q.F.W.F.v.W.W.q.W.q.q.q.W.W.W.6X].rXzXwXwXhXfXpXaX0X8XrX.X%X XX y.T.P.8.8.v.W.).5XW.q.rXsXzXsXvXsXmXvXmXsXaXrX6X6XW.v.c.q.c.q.W.W.q.q.W.W.W.W.W.6X8.D.-X|.CXlXSXnXnXMXMXSXnXMXuXMXSXSXSXMXSXSXMXuXSXnXuXMXMXMXnXMXuXtXMXnXSXnXtXMXMXMXMXuXuXMXSXnXnXSXSXnXMXzXMXMXiXiXiXiXMXiX7XA.A.A.iXA.iXiXMXtX7XZ.5XnXuXuXuXuX5X0.[ $ + 3 2 V 8 V V V 2 4 K.(./.'.'.!.R.'.Q.!.!.Q.Q./.%X#XwX&X X'.!.p.^.!.'.'.'.oX_.).(.[.!.x.x.x.(.dXfXfXlX'.@X'.pXlXfXeXfXfXwXR.^.~.R.R..XzXaXaX.XE.R.d.R.R.L.d.d.s.8.s.v.R.d.d.s.8.v.W.v.v.v.q.v.W.[.[.6X].rXfXwXwXhXfXaXaX0X#X0X.XrX.XO D.K.P.8.q.E.).).[.W.q.6XsXzXvXsX",
"aXbXmXbXvXsXaX.X[.W.W.F.c.q.q.q.q.q.q.q.c.c.q.W.6X5.P.-X;XgXhXzXnXSXSXSXnXnXnXnXSXSXSXSXnXSXFXSXnXzXzXeXqXzXnXnXzXzXtXeXrX).M.p.d.!.@XlXzXyXqXwX#XoX0XzXzXzXyXyXeXqXqXqXN.`._._.M._._.9X9XyXzXuXuXNXuXeX9X5X`.).`.M.c.[.M.;.p.d.Q.~./.^. X'. XwXyXzXyXzXlXzXfXfXaXeXeXwX0XyXlXSXfXuXrXyXtX#XfXDXfX&X&XAXyXyX&XyXyXjXvXZXCXZXZXZXDXlX%.v.FXKXKXKXzXi.~.-X4X;X;X}.XX).).6X[.6X.X.X.XE.q.W.W.F.F.5XW.W.q.F.W.q.q.q.q.b.q.b.c.W.[.6XrX.XeXfXeXwXpXsXvXfXwXpX%XgXXX^ J.I.P.#.1.v.W.).5Xq.[.eXsXsXsXvXmXbXmXsXsXzXsX.X[.W.c.[.W.b.q.q.q.q.q.q.F.b.q.W.rX5.D.;XOX<XfXzXzXFXSXSXMXnXnXnXnXSXSXDXnXSXDXDXSXSXSXuXnXSXFXnXnXSXnXnXDXnXnXnXnXnXnXnXGXMXSXSXnXnXSXzXtXzXMXtXiXiX7XiXiXMXiXiXiXMXiXMXMXGXFXGXGXSXuXMXnXnXSXuXnXtX5X0Xq.X = 7 8 C V D 8 8 2 U./.@X!.!.d.!.(.]. X!.R.!./. XgXjX%X&X*XdXzXpX#X#X0X#X(.=X'.'.x.v.v.!.!.#X0X*XfX#X#X/.,.'.lXCXVXfX&Xd.R.^.E.|.dXlXjXpXR.^.}.^.!.R.x.8.8.p.s.R.R.R.E.L.8.8.L.q.q.1.q.v.v.c.W.W.W.6XrX.XaXyXwXpXpXfXlXfXwXwX&XpX{.^ H.I.P.9.1.c.M.W.`.v.[.tXsXbXsXvX",
"6XaX6X6X[.[.].].5XW.5X6XW.b.c.q.q.q.q.q.q.q.q.q.[.D.P.4XOX|.-.wXFXSXnXnXMXuXnXMXuXnXSXzXnXSXnXzXtXeXuXqXeXzXqXeXyXsXuXuXqX`.c.!.R. XdXzXlXDXSXuX0X#X0XeXqX0XqXwXqXoXqXuX).N.M.N.M.N.).N.N.N.oXC.`.8X8X9X8X9XtX8X5XM.5XuXrXc.v.^.{.^.}.}.@X&X&XfXzXyXyXyXoX#X0XrXyXeX0XoXuXzXuXqXzXzXqX8XeXrXyXeXx.h.eXrX8XoX9XyXsXuXzXZXDXlXkXjXZX$Xb wXKXNXyX].[ i.,XD.Y.;X;X|.(..X[.6X6X5X5Xb.W.W.5XW.W.q.b.F.q.q.q.q.q.E.q.v.q.W.[.W.W.[.W.].].).rXrX.XwXzXfXfXwXrX%XaXbXXXX ! Y.a.R.v.W.W.`.5Xb.6XrXsXaXzXsXmXvXaXaX].6X.X5X].[.5X6Xb.W.q.c.q.q.q.1.q.q.q.q.XXD.P.4X;X|.=.wXFXSXnXnXuXuXnXMXnXSXnXnXSXDXSXnXmXSXnXuXnXSXSXFXDXSXSXFXnXuXnXnXnXFXFXFXSXFXSXFXSXnXSXSXnXnXnXMXtXMXMXMXMXiXMXMXiXMXuXuXMXMXSXMXMXSXSXSXSXSXMXzXzX5Xb.iX`.$ o 3 V V V B 8 V 7 U.L.Q.m.x.(.'.@X%X'.'.'.'.@X>X>X}.$X%X%X#X$X'.'.@X!.p.eXwXwXoX_.#XeXc.x.0X#XwXfX*XhXR.-.&XfXjXdX/.%.<.Q.a.$XxXCXxXjX^.x.!.E.W.x.v.s.x.s.x.x.8.s.F.v.F.s.8.q.s.q.c.v.W.W.W.W.].W.].[.).rXrX.XrXzXfXfXaX%XrXaXhXP.X ! Y.7.x.q.b.[.5X5XW.6X6XsXsXsXsX",
"pXeX6X[.[.[.[.6X5XW.7X6XW.W.q.q.q.q.q.q.q.q.q.v.E.2.D.;X;XH.p /.vXvXDXvXnXnXMXuXuXnXnXtXnXnXzXuXeXuXqX0XuXyXqX8X8XyXqXuXqXuX0Xx.~.$XpX&XfXZXDXDXDXjXyXkXrX#XwXqXqXqXuXzXuX9X9X9X5X5X9X9XtXiX9XiXiXqXiXqXqX9X9XuXzXsXNXuXqX.Xs.!./. X$X}. X*X%XwXfXlXzXfXsXlXzXzXlXeXqXsXzXzXnXuXuXqXyXyXyXrXyXfX#XoXrXoXqXqXuXqXuXuXzXzXfXwXoX@XdXs.<.ZXDXzX;.) ` vXsXL.|.-X3X:X^.].[.6X6X[.5X).).M.c.M.c.b.q.q.q.Z.b.q.W.b.W..X[.`.[.].5X6X].).5X).c.[.].5XrXaX0X[.wXaXaXHX6.- ! I.I..X6XM.5X6XiX[.5X6XsXsXzXvXsXbXaX6X6X.X[..X6X5X6X6X5XF.q.q.q.q.q.q.q.q.E.q.W.2.6.;X4XH.p  XDXvXDXzXnXnXnXuXtXnXnXsXnXDXSXDXDXSXnXnXnXnXDXFXFXnXnXmXnXSXFXFXFXFXDXFXDXFXFXFXDXDXFXKXFXFXSXnXnXSXnXnXSXMXMXMXMXMXSXuXtXuXnXSXSXnXnXSXnXnXMXnXuXrXqX9Xb.1.X < Z V B Z D V 7 y.d.(._./.wX*X%X$X%X&X X X X+X}. X%X X/.%X@X'.%XdX/._.kX&XwXwXyX#XqX*XeXyXeXfX#X#XwX/.^.vXvXvX'.c.<.qXfX^.gXcXBXgXR.R.!.W.!.x.x.v.x.v.v.x.x.d.v.R.v.8.R.v.x.R.v.^.^.[.[.[.].].].[.].M.M.).`.5XrXsX0X[.wXaXbXvX6.- 2.Y.I.'.6XM.5X6XrX[.[.rXsXzXsXvX",
"[.[..X[.[..XW.W.W.W.6X6XW.W.q.0.q.q.q.q.F.Z.q.q.).2.A 4XT.! a >XaXDXDXmXmXnXuXMXtXtXnXtXnXnXzXuXqXtXuXtX0XtX9XqXqXqXuXyXzXNXlXd.R.$X$XhXDXKXlXkXwX0XyXqXrXyXfXqXzXzXSXqX0XtXtXqXiXtXnXzXzXzXzXuXqXqXyXuXuXuXzXzXzXyXyXzXzXrX!.m./.}. X%XpXwXwXfXNXyXyXuXzXlXNXlXzXyXzXNXSXzXzXNXzXeXlXuXwXwXyXfX:.!.*XwX*XyXyXyXfXNXNXzXuXyXqXyXqXM.tXFXSX9X/ j.`.tX%X~.|.;XcX}.R.).].]..X5X).N.c.c.b.W.b.b.c.b.F.b.b.q.q.W.W.E.E.'.).].[.6X].].W.[.tX5Xb.[.5X6XW.v.rXfXaXpXD.& ! Y.{. Xl.W.5XtX6XM.[.tXzXzXvXvXsX6XaX6X]..X[.[.F.W.6X5XF.W.q.q.q.q.q.q.v.W.q.q.^.9.A -XY.2.p ,XaXvXDXmXnXmXMXMXMXMXnXnXnXSXFXSXnXFXFXDXnXDXSXFXSXnXFXnXDXnXDXDXDXFXFXFXFXFXFXFXDXDXSXDXFXDXFXFXFXSXnXnXSXMXGXMXMXSXnXuXnXnXMXuXiXuXuXuXnXMXnXtXqX).oXeXrX1.o : 3 V B V V D 7 E i.d.m.=X*X*XpXgXgX>X%X+X~./. X%X>XwXwXwXwXwX%X#Xx.>XyXwXdXyXyXwXdXzXlXNXkXfXfXwXfXwXfXDXDXfXv.'.wXkXwX$X<X3XcX$XXXR.E.Q.R.n.x.s.p.p.f.d.v.s.8.L.R.R.v.x.L.s.R.L.R.[.'.'.[..X].].W.).sX`.M.[.5X6XW.v.6XhXaXaXD.* ! Y.{..Xl.).5XrX6Xb.5XtXzXzXvXvX",
"[.[.W.!.W.c.W.W.W.W.W.W.b.q.q.q.q.q.q.q.q.q.q.q.E.U W 3XT.6.{. XR.s.6XzXmXzXuXzXuXtXtXtXuXzXsXyXsXeXfXfXeXyXoX8XqXrXyXuXuXzXfX!.R.}.$XdXZXNXZXfXwXzXNXyXzXzXzXqXqXzXuX8XuX9XqXqXqXzXSXSXzXlXuXqXqXuXuXtXnXuXzXSXtXqXsXyXqXtXrX8XwX!. X&X X XwXkXzXyXzXzXzXkXlXDXzXfXfXlXNXzXzXzXsXzXnXzXuXsXrX0X_.yXyX9X8XyXyXkXyXkXuXlXzXuXNXuXuXqXnXSXFXN.j.8X9X_. Xy.;X2X2Xs.d.W.W.v.c.b.c.N.v.v.v.l.q.v.q.b.b.q.q.q.q.W.[.q.W.W.v.E.)..X).[..XwXeX].5X0XeXtXrX].wXaXaXaXJ.& H.;X|.L.q.6X6XqX5XW.eXsXsXvXzXrXaXpX[.[.W.W.[.[.5Xq.W.W.W.q.q.q.q.q.q.q.1.q.q.q.E.@.Q 3XT.S.Y..XXXs.6XzXnXzXsXnXtXsXnXzXnXnXDXDXFXmXDXDXvXDXSXSXFXnXFXFXmXFXFXFXFXDXDXFXDXFXFXFXFXFXDXKXFXFXKXFXFXFXSXnXMXnXMXnXnXSXSXnXSXnXzXnXnXSXSXnXnXSXnXzXiXN.tX`.N.5X0X'.6.i 7 B C D ~ y.L.+X/.@X/.}. X>X>XpX X}.>X>XxXZXhXpXkXVXjXwXwX@XwXkXdXyXdXfXdXhXhXfXjXhXlXlXlXVXhXjXNXZXNX#XoXwXzX@XpX}.cXxXxX>X.X^.R.v.s.f.v.d.s.i.p.s.s.s.s.v.R.L.8.s.8.R.E.8.L.^.x.!.!.].!.[.6XrXwX6X].0XeXeX0X.XrXaXaX,XP.* H.:X|.J.l.6X0XrX5XN.eXsXsXvXzXrX",
"7.*.8.v.E.E.W.W.W.W.Z.Z.F.Z.q.q.q.0.q.q.+.q.9.F.v.Y 6.4XY.;XI.5.p.1.1.0XuXzXzXzXnXzXnXzXzXzXuXzXlXjXdXfX#X).qXqXqX8XqXqX9XrXwXQ.R.+X:XdXaXZXvXZXNXzXuXzXSXNXfXuXyXuXuXuXqX9XqXuXSXSXDXSXzXzXqXuXSXzXnXuXzXzXyXrXuXqXuXuXqXzXqXoXoX^.!.^.'.#X&X0X#XfXyXyXzXyXlXlXwXuXzXNXDXNXlXzXeXNXNXfXwXyXyX#XoXqXuXuXuXuXtXuXuXuXNXzXzXzXNXyXzXzXSXNXzXqXN.b.8X`.#XU XXJ.$XR.v.z.h.z.v.z.c.[.W.v.c.c.q.W.W.c.F.Z.b.q.q.q.q.q.v.W.W.x.W.^..XrXrXaXwX[..XrXwX#X.X].[..X>X%XP.< H.OX}.E.E.sXsXrXW.aXtXrXrX.X6X.XF.8.E.E.W.E.W.c.F.5XZ.W.b.Z.q.0.0.q.q.0.1.q.q.q.s.Y 2.4X4X;XP.4.p.;.1.qXzXzXvXnXmXnXnXnXnXDXDXKXLXKXZXHXfXrXDXSXSXnXnXFXFXFXmXFXFXFXFXFXDXFXKXKXFXDXDXDXFXKXFXKXFXFXFXFXFXnXnXFXSXSXSXSXSXSXSXSXSXSXFXSXSXSXzXtXeX5XuXiXiXnXtXh.W.L 6 V D D H.T.a.(./.*XgXgXpX>X>X&X X@X.X}.}.}.$XdXvXVXvXhXdXaXpXfXlXfXlXlXfXzXfXjXNXlXNXNXlXfXfXfXlXxXlXfXwXyXfX*X,X|.,X-XgX,X%X&X].!.q.p.8.x.s.p.s.v.s.x.v.L.R.q.R.s.s.J.P.8.F.R.L.R.E.!..XrXrXaXrX'.].0XrX.X0X[.^..X%X.XP.= T.4XOXL.E.sXsXrXW.eXaXrXrX6X%X.X",
"..l.b.`.5X6X6Xc.W.).6X5X5Xq.q.q.q.+.q.F.1.q.q.E.8.A ~ Y.;X;XOXu.i.m.!.!._.m.&XlXNXnXDXZXDXjX@XU.L.y.u.{.y.i..X#X0XoX8X8XrXyXrXx.~.+X|.1X>XCXCXZXKXZXVXNXNXlXNXDXNXNXzXuXyXqXyXkXzXlXzXyXNXNXNXzXuXyXyXqXuXyXuXuXuXuXNXqXNXuXuXqX].].#X#X#XwXwXyX#XwX#XyXzXyXlXzXyXzXDXNXyXqXfXyXyXyX0X=XuXyXuXoXoXqXqXyXuXyXuXzXuXuXNXqXyXyXeXrXyXuXzXuXqXA.z.oXM._.s.5.Y.OX}.x.c.b.k.b.W.b.c.M.).[.W.c.v.v.v.v.l.q.q.E.F.q.1.1.8.q.q.W.v.E.W..XwXwX.X[.[.W.[.[.[.[..XXX|..XH.< Y.4XgXR.aXzXsXrXsXqX6X6X6X[.c.1.1.c.`.5X7X6X6XW.q.5X6X6XF.Z.q.q.q.0.q.q.9.q.q.F.8.A ~ 4X4X;X;XD.7.m.!.!.!.Q.yXAXNXSXDXDXKXHXgX|.Y.T.H.;XJ.d.aXZXKXFXFXDXDXDXDXFXLXKXKXLXPXKXKXKXPXKXKXZXKXDXZXKXDXFXDXDXSXDXDXDXSXFXZXDXDXFXDXFXFXSXSXZXDXSXzXzXqXzXzXuXuXzXzX0X' K W ~ B ! D.Y.L Y {.#X@X%XpX,X>XbXhXpX.X^..XpXjXlXxXjXxXjXfXwXyXfXfXzXzXfXzXlXfXlXNXhXlXhXhXfXzXkXlXlXlXwXwXwX'.^./.+X:X3X,X$X%XrX'.v.^.^.!.E.^.[.^.W.[.E.[. XR.8.d.R.v.8.8.8.8.7.7.p.v.R.W. XwXwX.X[.[.W.[.[.[.[..X^. X-XD.5 T.-X<X~.sXzXsXeXsXtX6X6X6X5Xb.1.",
"W.6X6X.XrX6Xv.[ 1.W.6X6X5Xq.b.Z.W.q.1.+.q.q.[.1.w.p ~ ;X4X4XT.H.5.&.s.i.P E L U D.J.P.|.Y.5.p i y y l R v R y.d.U.g.L.(.#X&X@XH.H.u.H.H.|.|.~.|.+XY.|.gX:XgXhX>XwXwX>X*X@X/.).0XrXwXhXfXfXsXwX8X].wXrX6X#XqXfXzXwXyXzXyXuXyX0X#X_.n.wXyXyXwX#XoX0X8X#XuXqXyXeXyXzXzXNXuXuXyXyX8XqXqXwXqXyX0XyX#XqXyXuXuXuXzXNXyXyXyXoX0XqXyX8XrX9XqXuXuXuXoXoXC.M.x.v a.Q OXJ.d.v.z.c.c.W.W.[.).c.v.v.q.0.1.1.q.v.q.v.q.q.{ 1.1.<.;.1.v.v.c.W.]..X).W.].W.`.W.).6Xx.v.[.L.}.A 6 Y.;X:X,XvXsXeXeXaX6X5X[.6XW.W.W.6XaXrXaXaXrXq.[ 1.5X6X6X5XF.q.Z.b.k.+.q.q.q.5X9.Y Z ~ 4X;XY.T.D.5.&.s.7.P T L E y.P.Y.;X|.D.Z B 3 3 p Q l ! H.Y.$X|.;XcXBXJXIX2X1X4X+X:X1X:X1XBXBX<X3XJX3X<XcX<XvXvXcX,X2XwX*XjXgXhXlXxXjXZXjXwX.XrX#X X%XaXzXlX#XeXzXyXeXuXyX!.x u +XY.T.;X4XT.H.K.K.{.:XpXhXgXgXdXpX>X&XgXfXhXvXlXVXjXjXfXjXhXdXjXlXjXkXjXlXAXlXVXwXfXlXjXfXpXdXfXlXfXAXyXyXwX#X*X{.OX|.,X}.$X%X#XR.#XpXeXwXwXwX%XwXwX%X@X#X.X[.R.s.q.8.,.7.1.8.7.,.p.p.x.E.[..XW.).[.W.).).)..Xc.v.^.J.{.G 6 Y.-X-X>XvXsXrXeXsX6X6X[.6XW.W.W.",
"6X^.E.L.8.1.] 1.1.1..X6XW.F.W.q.q.0.0.0.1.5X[.] 8.K W ;X;XT.Y.Y.y l a z j > q - = : = = = 3 i 3 i i y k 6 G G G n j n n R U L 3 i k E u.L L P L L n v 3.4.&.&.&.=.3.u.u.a.=.d.!.d.Q.Q.Q.L.i.,.i.x.(.^./.#X'.#X#X&XrXoXx.oXqXqXwXp.l.fXyXoX'.!.oX*Xn.N.`.`.].rXqXqXNXzXNXzXuXqXrXyXyXyXwX_.m.x._.rXqXuXuXuXuX8XoXm.d.m.oXoX8X8X8XqXuXeXyXyX0X9XoX!.m : y 4X;Xi.s.<.<.q.<.v.v.c.M.x.v.q.<.1.q.<.q.v.q.<.1.#.[ ] 1.1.1.1.z.v.v.c.W.[.).W.).`.`.c.M.].v.E.!.E.|.= 6 4XD.2.bXvXtXsX6X6X6X5X5XW.7XtXsXsX.X.XE.s.8.{ 8.q.9.6X6X7Xq.5Xq.q.0.0.0.+.W.7Xw.8.Y S.;X4X4XT.T.i l y z u > q - - < = * & , 3 3 4 4 6 B 2 D J B 6 6 i k F D D g 7 p Z k g 8 g 4 g H F ! ! ! ! I W ~ I H Q 2.H.P.J.y.K.f.a.3.n R 8.~.$X$X}.~.}.^.+XdXL.N i.*XDX&Xw - |.;X3X3X;XY.K.3.L.^.pXaXdXfXfXjXxXZXZXZXVXCXVXxXkXAXgX&X&XdXfXfXlXkXNXjXkXdX&X$X*XdXdXdXfXfXfXlXlXfXyXyXdXwX%X~.K.H.,X,X}.,X^.1.x.%X%X%XwXwX%X%X>X%X$X X}. X.X[.E.E.E.8.8.x.p.,.8.v.v.v.c.).[.E.!.).[.`.M.).[.l.E.R.R.XX< 5 4XH.2.bXvXaXsX6X5X6X5X5X[.7XrXsX",
"v.1.1.8.E.q.q.q.q.1.1.XX6XW.b.W.Z.q.0.q.b.F.0X8.vXP.H.3X;XY.T.I & J ; & & > < 3 t 3 - + - - - - - 3 3 B Z i 3 y 4 y y y z j y 3 2 J E J l z j n n n x u x m x x M N c M m m T T &.&.P %.-.m } ' m _ M _ $.=.s.d.d.x.m.f.m.m._.!.g.@X#X@X@Xx.*X_.oX_.0X_.8XM.oX0XwXoX0X@X_.oXqXoXoXN.n.r. .} _ h.oXyXyXuXuXqXb.| ;.] %.;.n.8XqXuXeXsXzXuXyXuXyXyXt.> z k 6.! Y ' [ / [ ..] | 9.1.1.1.1.] #.] @.#.9.9.@.d r d [ w.;.1.q.q.8.v.W.R.8.x.c.c.c.c.).b.c.<.v.8.d.J.5 < D.4XJ.xXbXsXeXeXtX5X[.6XeX0X6X6XE.<.8.F.W.v.q.q.q.9.9.6X6XW.W.W.q.0.q.q.F.W.6Xq.vXI.G.3X;XT.T.S.= J ; ; - < < < a < - O + + * * O 6 < C Z B 5 < = = = & ; 9 9 8 ; 4 i 3 8 4 ; g g g k 3 ; 3 3 4 a 3 ; y ; : y 4 k k 4 z G k l z k y y y l l z G H T R n n 3.a.&.t = 4XY.4X4X;X;XY.U.|.,XgXvXHXHXCXCXHXHXHXHXHXCXBXjXgX>X@X X/.&XdXjXfXfXlXAXyX=X X/././.%XdXdXdX.XpXdX%XQ.dXxXjX+XK.U.I.;X}.P.4.-.s.'.'.'. X.X}. X X X^.E.~.^.^.|.|.~.~.R.~.R.R.^.R.8.v.8.v.E.R.v.v.R.c.c.c.M.c.c.<.c.p.x.J.< < D.-XP.cXsXeXeXrXrX6X[.5XeXrX6X6X",
"@.1.q.q.1.0.v.q.1.q.] ] W.W.W.b.q.Z.F.W.[.x.9.Y 9.S.4X4XG.T.T.S.D.! V V 7 5 < 5 < , i u.|.P.7.&.4.XX2.a 6 6 W ! i : : : ; 4 3 2 3 F ~ k 4 3 y 4 y k z z p l n l P n l v u e q w j n v $.x j x M x M h x x n m &.=.-.-.-.m n T &.i.3.5.4.J.{.d.=Xn.(._.oX_.=XyX*XoXQ. X*X=X&X=XyXg. ._ ) ) _ r.!.oXNXlXlXZXDXn.z...t.M.oXfXCXZXVXkXAXZXZXNXlXjX$Xj : F k 3 l a r r r r r s r r r r [ r r 0 r r r r r f f r 0 0 r / #.<.l.q.p.1.1.<.8.,.,.<.0.b.M...{ l.1.8.5.3 < S.3XJXIXbXsXtXeXeX6X6XsXW.;.c.1.] q.q.q.q.q.b.q.0.q.9.1.F.5X5Xq.q.b.q.W.].R.2.@.6.W |.4XG.T.4XS.6.! B 6 B 5 5 V 5 < B T.cX$XXX9.E.-XP.a i Z S.D.J 3 2 8 ; 2 8 8 5 5 V 7 7 2 7 6 4 3 g 7 7 8 4 2 7 7 5 2 &   X O ^ O O O O O 9 ; ; ; : ; ; 3 4 ; 3 ; 4 4 : ; 4 4 1 1 4XG.4X4XT.4X4X~ S.4X4X4X4XT.H.4X3X;X|.;X3X2X1X1X:XOX$X@X$X$X>X<X$X}.&X>XU.f.u.t.d./.>X<X1X1XgXxX*X{.(.@X1X<XU.H.T.T.H.y.R u.R.Q.Q.~.L.a.L.U.~.~.R.L.d.a.L.J.2.K l U 2.u.P b 9.7.Q.!.v.v.7.1.7.8.7.<.1.<.z.b.;...p.1.7.6.t < S.3XJXIXhXaXtXeXtX6X6XtXW.;.E.;.",
"q.W.W.c.q.q.b.c.c.q.q.{ 1.W.q.W.F.q.F.5X9./ d f S W S.4X3XJX3XT.D.P.A a 3 < Q T.6.T.;X3XH.Y.|.OX,X1X:XK.5.U I.2.3 y i 4 4 2 3 6 7 D J F g F F 4 k i 7 g k 7 4 7 4 y k z y * : 4 y k y y j z z j j l j l j z n v n l z z j z z l l G I I I R &.u.g.g.u.i.x.d.U.*XI.~.~.L.f.K.{.+Xi.t._ } } _ m.x.=.d./.{.{.g.u.t.m.#Xx./.}.+XOXf.U.K.d.U.K.K.3.p 3 4 g k i : u u r r s r d r r / r r r 0 # 0 r r r r $ # r 0 $ # r r [ ) ] [ [ [ [ _ [ [ [ >.8.r r d [ *.R.2.3 6 ~ T.3XgX XzXsXeXaXaXvX^.8.W.W.q.W.5X5X7Xb.b.b.5XZ.q.q.+.1.F.q.F.W.c.5XW.9.[ f f S U D.4X3XJX3XT.D.K.K i 3 < 2.Y.H.T.IXJXY.,XcXxXHXLXIX.XI.4..XP.p p K A i 4 8 2 V A H F 7 7 7 5 g D g 8 8 B 2 2 2 9 2 2 *   X O * * O 9 4 4 9 3 4 3 3 2 2 2 ; 9 ; 2 ; ; 8 2 , 5 C C G.T.Y.4X4X4XD.W V V g 2 8 5 5 1 5 8 V D H H J H E H I E u.3.R 3.K.H.y.2.R T 3.u.R u.UXu.u.UXH.U.y.a.3.u.&.R Q Q E I ! G H I L K U K l u z v U &.4.4.=.4.4.f a a a q t u b -.7.7.s.<.8.@.@.[ ' ] ' _ [ >.<.c r d ' 1.R.2.3 5 J T.3X2X.XzXzXaXaXaXvX[.8.).W.q.",
"W.[..X0XqXzX[.E.[.v.q.q.{ q.q.q.q.W.q.{ f # r w.XXD.T.4X4XPXPXJXHXcX<X}.L.J.,XgX;X|.;XJ.J D.6.;X3XT.5.u.H.U.u.2.U y G ~ l 7 F B g J J F G F k i 7 g g 7 4 7 8 k 4 7 4 4 2 : 3 3 ; 3 4 y 4 i k l p F F p p k i z k l k l G G G G G G E ! R E L Y G G L n G L l l K z z z n L P n n n z n n n L l L z z z z > y z L l y k 4 k 3 g 4 4 g : 4 > 4 : i 7 3 i 4 : > > a y q q w w s w w s w r 0 $ e e e w f e w e e w f r s x c x v u x N w w b @.$.M c x 4.7.4.G 6 5 ~ Y.4X5.L.LXbX%X.X[.,.;.c.q.W.W.6X6X6XsXsXmX5XW.6Xb.q.q.+.q.5Xq.q.W.q.{ r $ / w.E.H.P.;X;XPXPXJXJXIXbX$X~.E.bXcX,X,XbX|.H T.T.IXJX;XT.P.I.OXL.a.7.a K y.Y J F D Z H W J J F i i 7 7 D 7 V B 5 8 5 2 5 & * X * O * * * ; 9 1 8 7 7 D 7 2 7 8 ; ; & , 2 9 2 2 5 8 D 8 T.2X3X4X3X4X4XY.E a 3 4 4 7 D 7 6 7 Z 7 g 8 2 7 4 7 7 y i i k k k k g g z z z k i i 4 g 4 4 4 k z k z 4 z g z k 7 4 3 2 ; : 2 y 3 3 t y y q y w u y y n u q s j u u u a p l v P &.P @.m m x m m x x m $.-.b b x *.u.5.l 4 5 ~ T.|.5.J.LXhX.X.X).8.9.W.q.c.[.",
".X.XW.XX[..X6XrX6X].W.v.q.1.q.q.q.q./ f r [ ;.1.E.6.T.T.G.2XJXIXJXIXHXBXcXbX;X|.}.~.I.Q J.{.{.P.5.E R R T 3.R 3.3.R 5.5.3.6.I H H J J A i F J F i 7 F 7 F g g 7 7 p Z Z I R y y y y y y 4 4 y i 4 i G i i i i p l l G a p A K Y L U &.P Y L I J G L H k G J J G H G G l l l i k k g g 4 F F g g F p k y g z 4 4 < 7 G 7 4 y 4 k k 4 3 y g 4 4 3 7 6 6 i i 4 y 4 4 4 3 i 3 : : y y y : q q q q q e q q e q t t y q t z y y y y 4 z 4 z z j z z j j y u a i y < V D 4X-XP.aX~.8.a.1.1.;.1.q.c.[.6X6X6X.X[..X6X6XaX6X6X5XF.q.q.q.q.q.q./ f r [ ;.1.R.D.T.H.G.2XJXJXJXHXJXHXHXIX,X:X>X,X$X4.^.,XpX|.P.3.&.3.&.a.4.s.~.d. X X|.|.5.Q W H J H A J ~ J V V B V D V V 5 5 B Z Z ! H.: 2 > ; 8 1 9 ; 8 8 8 4 7 8 9 5 & 9 2 1 5 , 5 5 8 D 1 G.3X4X2XIXIXJXJXJX<XT.P.H.3.k 7 4 5 6 5 3 3 7 Z 7 3 6 7 7 7 7 i 7 3 4 4 7 3 8 2 4 k 7 4 7 7 g g 4 4 4 k ; 4 3 4 4 6 4 4 4 4 3 4 4 4 4 4 : 4 4 4 4 : 3 3 3 4 3 4 : 4 3 y 4 4 4 4 4 y y y k k z l k z z j z j j u u u u p 4 2 V ~ 4X-XP.aX}.5.8.8.;.{ 1.q.c.[.6X",
").6X.XW.E.W.W.XX[.6XeX6XW.0.1.0.0.{ / / 0.b.0.8.8.W F I T.T.3XBXHX:X:X1X<X>X}./.~.d.K.{.$X|.a.3.a.4.&.@.@.&.4.4.5.6.U U Q 2.K Q ! D.3X{.D.K G G Z i 7 Z B Z i k K &.#.6.J.J.7.U U 7.4.&.2.6.7.*.@.U P @.2.7.J.P.a.y.u.I.R.}.pX/. X$X}.~.|.E.L.J.5.9.2.#.#.K S S p G J Z J D Z ~ D D V Z Z Z A Z Z H A Z A Z B B 7 B F F 7 7 g k g k 4 8 7 k 4 4 k 7 6 B 7 V D 2 4 4 i 4 i B 7 B 7 7 4 i i y 4 k y 4 4 i 4 i i y 4 4 4 g g z 3 i i 4 4 i y 4 3 k V i Z 4 6 4 B V ~ 4X;XP.}.[ ;.q.q.q.q.l.c.W.6X].6X6X6X[.W.[.^.W..X6XsX6XW.0.1.0.+.9./ / q.q.q.q.8.I Z ~ T.T.3XBXHX,X1XjXxXkX%X&X#X(.^.dXVX1X(.u.~.s.=.1.%.1.v.R. XOXa.a.U.K.3.L.{.T.;X{.5.I Y I l 7 5 V D D V 8 4 G G R I.K.3.q y k i y 6 4 6 3 4 3 2 2 ; ; = = = < < : 9 E E 8 UXY.S.~ 3X! H.2X3X3X3X2X,X|.Y.E l g F H ~ H.! J.2.5.2.#.Y K R Y I J ! ~ J G F p 4 7 F Z 7 4 7 Z 4 7 4 3 i 7 6 7 7 4 2 6 8 8 7 2 5 6 7 7 6 5 6 7 7 3 7 7 7 4 6 4 4 6 7 7 4 6 y 7 3 4 4 7 g i 3 i 4 4 4 i y 4 3 i i 4 Z i 2 4 B 8 ~ 4X;XP.}.[ ;.q.q.0.q.l.c.).5X].",
"#X.XE.v.E.XXE.v.F.E..X.X6Xq.1.0.q.{ q.5Xc.z...[ d a 6 W Y.Y.;XOX:X<X,X$X>X}. X{.P.{.$X}.{.a.&.5.4.6.5.a.J.L.E.I.}.}. X{.~.{.a.i.J.~.}.&X$X7.9.P @.3.5.Q Q 2.5.2.K.~.}.:X>X%X}.a.a.}.~./.%X$X$X}.{./.}.&X<X*Xf.m n R P u.$XxXHX;X,X|.~.+XxXKXHXCXZXCXCXZXjX>XpXgXE.8.7.9.9.U 9.w.9.D.D.9.9.8.9.6.2.K J Z F F J B V D D D B B 2 7 4 6 Z Z Z B D B 7 B Z V J Z 8 D V Z 7 Z i 3 3 t t t t a t t t 3 i i 4 6 Z 4 B i 4 6 i i i 7 Z 7 F 7 i 6 8 D D 8 J Z V 7 Z 7 Z 5 S.Y.;X:X%XE.c.c.v.v.c.W.W.).).[.[..XW.E.W.XXW.R.q.XX.X6XrXc.q.q.q.1.0.5XZ.Z.;./ s p 3 W T.Y.3X+X:X<X<X<XgX&XdX>X X>XxXpX&XU.u.d.J.4.a.a.L.{.~.L.d.a.u.3.&.y.L R 4.L.L.(.~.&.Y v K k 4 5 C C 7 F p z v a.L.4.L : l L j z l q q 3 y > : 4 > - - + q : q y > U.K.- u.E u.u.Y.> G.H.! ! {.:XH.|.P.F z 4 L L u.H.E u.u.OX+X{.~.Q.^.4.@.9.R.L.5.5.J.5.2.D.2.I Q Q K K I U Q ! J B i 6 5 B 6 6 B 7 5 7 6 6 5 7 4 2 5 3 6 5 2 i 6 t 3 6 7 7 7 7 7 7 7 V 7 6 4 Z i 7 Z 7 F 7 Z 7 8 g D V F Z V B F B Z 5 S.Y.;X:X&XE.E.c.v.q.c.W.W.W.).[.",
".X!.v.s.8.8.q.8.8.L.q.F.F..XW.q.1.1.w.0.v.0.) 0 f u : S.Y.Y.,X:XU.a.L.OX>XOX:X:X,XE.6.a.{. X+X$Xs.a.x.d.E.L.(./.}.L.L.a.}.}.a.~.L.f.Q.@X@X Xd.i.8.L.a.L.s.a.R P n =.I.{.}.Q.u.4.L.~./.@X@X(.(.{.+XQ.~.{.{. X X$.w x s %.s.~.+XU.,X<X>X.XrXaXfXvXvXHXHXZXxXHXHXKXPXLXLXPXLXLXHXHXLXLXLXJXKXKXLXKXvXhXhXL.K 6 F 5 V J ~ ~ W W H.Y.D.W i t A 7 6 Z 7 7 6 6 6 6 7 B i < i Z Q F.L.R.E..X>X.X XXXJ.U p 7 9 3 7 8 B V V B V 7 F 6 Z B 4 Z B 6 6 5 4 i 6 a i 7 Z A A 5 G.4XY.cXgX^.x.v.c.!.).[.'..X%X#X.X^.c.q.q.v.8.8.8.q.F.8.F.6Xq.q.9.+.0.0.q.q.( $ e a < ! Y.Y.3X:XP.i.L.:XgX<XxXBXxX|.5.L.$XOX(.=X-.T -.-.y.t.i.$.&.-.m x i.u.M -.&.m -.d.x.s.m m b L < < 5 8 4 3.w q m m x N e @ x x x w w @ > e q e q e q e $ @ 0 e e q + f.u.T /.R u {.j N T -.R u.L R U :Xu.p w q q w j x T &.3.f.*X1X>XAXVXVXdXdXAX*XI.y.H.H.H.T.I.J.D.5.P.I.P.2.6.6.Q A 6 7 i 6 5 Z B 5 6 7 J I W K W 6.D.5.6.D.P.D.D.D.6.J J Z F G F D F B B D B V B 7 Z 7 i B B 5 7 6 7 6 6 6 6 a Z A Z 5 G.4XT.BXxX!.x.m.E.!.[.^.'..X.X#X",
"7.,.1.8.*.;.9.[ [ #.] w.[ 1.w.[ { { [ / ] ] ) r d s - ! Y.Y.;X$XU.i.d.U.~.OX|.~.}.J.s.}.*XkXfXyX*X!.f.W.!.f._.#X#X.X X).s.7.4.i.i.a.3.U.@X@XhX:X X{.R 2.P.P.x x w x b $.4.$.@.4.a.L.L.u.K.a.a.L.~.P U 4.2.7.p.*.,.%.' x.$.@.c T U.d.}.kXpX>XhXxXlXVXCXhXpXhXgXgX2X2XcXHXJXJXLXPXPXLXPXJXHXHXHXHXHXLXPXJXJXT.< B Z H.4X3XIX2XbX3XbX,X$X-XXXXXL.5.2.F.E.XXXXE.P.&.K 5.XX XHXLXxXIXJXLXCXJXIXxXgXcX~.#.K p a 3 t a p A G A I U U 9.9.6.9.D.J.I.XXJ.J.I.:X2XcXcXS.J T.Y.T.|.{.Q.d.v.x.v.R.!.'.'.'.!.x.p.8.1.#.#.#.w.@.#.@.[ #.{ [ [ { [ { / { { / r r a : ! Y.Y.;X*X~.y.d.I.{.:X|.}.:Xa.u.(.@XdX=X=X!.<.] ,.,.} -.%.:.p.t.f.$.c x m j T x u.d.d.#XQ.s.6.- * 2 4 4 y j N x M M x e j x x N q @ @ e e w e e u u e e e @ > j w @ u.y > y.y u ~.+ h N j N j $.N P P P x e w w w h x M | :.=.u.~.}.OXOX+XcXHXJXCX,XP.H.H.J.|.,X:X>X>X$X$X X|.E.D.8.D..X~.Y I Q ! Q Q W 2.P.P.~.XX>X.X|.|.bXaX,XxX:XXX|.|.P.9.K S K S Y K Y Y Y K U 2.#.2.2.9.9.8.J.P.I.J.J.XX-X<XIXcX! J T.Y.T.Y.~.Q.d.p.c.x.x.!.'.'.^.^.",
"1.%.,.1.9.#.[ w.w.[ / / / { ) ) [ / / { [ / ( r r a t G.T.4X;XI.d.L.Q.4.U &.4.{.:X,X&X*X>XAX&XdXfX&XwX/.x.!.@X*XkX=X/.@X(.d.f.f.U.a.u.i.g.{.&XAXxXP.a H W P.U.p.[ [ ( c c c c M @.[ c w x r x c M _ _ _ ' c x M =.,.M _ M _ h h %.d.@X*X$X>X%XjXZXlXZXlXlXyXzXfX%XaX>X XXX~.|.{.|.{.}.xXvXvXcXcXvXJXIXHXJX+XI I ! 3X4X;X;XT.OX+XY.I.$X+X$X*X:XCXJXBXBXKXJXJXJXBX}.|.I.dX<XJXBXBXJX{.E |.BX:X+X}.$XU.$Xs.&.L.~.1X,XK.T.OX+X+X+X1XJXJXBXcX2X:X;X2X3XJXJXJXJXT.H.G.G.G.T.{.P s.s.s.p.,.,.s.p.8.<.,.1.%.;.#.[ [ [ / / / / / / o.) / / e.o./ / / r r r f < ! Y.;X1XI.L.x.~.u.P R 2.P.{.^.{.(.=X1X=X&X&XoX=Xd.:.t.=.=.f.t.t.x.-.} M ' -.n w T $.d./.ZXKXJ.O < 3 H G z N m M m c x $ N x c e + q @ > e e q y e w @ @ q @ e x e e 4.w y v z u.u.@ w % w h % N } h M M w e h $ > w h x c m m $.-.a.{.L.y.I.|.|.:X1X{.y.I.OX<X:X1X:X@X:X@X}.L.Q.d.Q.%XgX1XU.H.U.Y.T.Y.U.+X|.I.J. X[.-X^.XX XP.4.XX}.R.R.F.s.8.x.8.7.F.P.XXI.5.J.I.|.{.I.{.cXxXcX2X1X;X;X1X3XJXJXJXJXT.H.G.H.G.P.{.P p.s.s.i.,.<.8.p.p.<.*.",
";.*.] [ ] { ] / / / ( ) ) ) o.) { / / / ) / / d d u i ! H.4XOXU.R.u.&.-.&.&.&.i.L.#X*X/.d.U.U.I.{.Q.Q.L.{.&XgX1X&X{./.f.s.d.R.d.<.7.4.t.d.~.~.&X<XJ.t Z 7 5.H.$.=.p.s.' M h h h M M h h h N h h M h h M ( M _ h r x h h h h ( h h ( m @.4.4.&.L. XgXZXxXvXHXVXZXDXlXeXfXaXhXzXvXvXhXfXgX>X%XpXhXvXjXhXxX2XI.! H.T.Y.T.T.H.T.Y.|.K.}.<XU.u.3.|.:XY.U.Y.Y.I.P.I.OX:X~.,XXX,XJX2X3X;X-XJ.K.K.P.y.&.R y.-.y.u.I.P.I.5.&.{.:XOXI.H.I.+X+XT.UX! I E ! 6.T.~ Y.H.! 8 J H.H.P.u.x [ | %.%.] | | %.%.] [ [ [ ( [ / / / / / / / ) ) / o./ / / / # / r / d s e i ! T.Y.;XU.Q.u.-.$.U n P =.7./.(.d.u.f.U.U.U.u.u.&.f.L.Q.f.L.d.(.i.p.x.v.s.%.' } @.t.~.{.AXCXT.< 6 & ! H.l N T $.P m h w h c h e @ e > > q > q q q e q > @ e w w r s m w w e e T T w N N @ @ @ e M w h h w w @ N x w u w x n M m } %.:.i.d.d.a.K.{.|.{.K.I.T.{.4X+XY.|.:X:X>X{.}. X~.L.@XOXy.E ! ! W E H H.}.XX XE.|.:X X}.}.XXP.E.E.L.a.7.6.L.L.s.4.L.8.J.J.F.XX$X|.R.a.I.{.|.y.UXE L E ! D.H.H T.H.! 8 H G.H.T.7.d m %.%.%.] | %.] @.' _ ",
"] [ [ [ ] [ / ] ] { { { { / ) / / / e.# / / / [ b a 3 ! UXY.+Xi.a.=.m $.!.d.f.f.s.d.i.i.u.3.=.t.t.i.d.g.i./.+Xd.i.=.Q.t.m.m.!.g.p.t.t.-.,./.^.4.I.7.p i 3 4.}.i. Xx././.i.m m m M T N x x x N x x N M N N h c h r h _ M h h h r [ [ [ [ b @.#.c d P a.;XgX:X$XxXHXgXAXwXpXlXxXgX X%XpX.XE.R.q.~.>XxXHXHXcXH.3 T.T.D.T.H.T.3X1X:XJ.^.5.6.~.U.U.u.u.u.&.5.7.5.a.6.R. XgX2X,Xu.u.K.I.I.|.L.v &.*.@.$.P u x c n n n v 5.,XhXpXpX'.*.T -.4.U P n U @.*.p U U y ;XW I T.Q Y.I.b c _ [ [ [ [ ] | ] ] [ ` [ ) [ / / / ) o./ / e.) e.e./ / e.# $ e./ / [ d a 3 ! G.Y.+Xu.f.u.x $.Q.f.i.t.i.d.-.-.T N N N w x M M w m m v m } d.i.d.m.(.t.p.r.t.,.i.@X+Xa.|.D.6 6 , H.3Xg.P P &.6.&.m M N N m w w w w e q > q > - > q 0 + e e $ @ w w @ w w w h h w j w e @ @ w $ @ @ @ @ @ + L.4./.$.s x w x ' $.m %.-.%.a.d.L.{.I.u.L y.J.H.H.D.T.|.OX1X|.$X~.Q.*X$X/.{.y.Q G I K K U y.~.}..X X X9.5.J.L.L.XXR.9.7.8.,.*.,.,.*.%.,.*.&.@.8..X,X>X.XW.*.&.*.i.R P Y @.U 2.d I R a }.U J T.! Y.I.b c [ [ ] [ _ ] ] ] ] ] ",
"h [ [ ..` [ { { ] ..{ ` { { / / / # # # / / [ b x i 8 u.H.+X3.T $.m m ' } $.:.} } ' %.*.:.<.:.t.:.t.r.r.d.!.d.t.-.,.x.!.oX(.g.d.(.s.R.p.P =.P P R U K G q y.:XgXwXQ.i.R.s.<.<.s.,.| ' } [ _ M x x c M m N n n M M ' [ } -.} } M ' ' _ M  .` _ _ _ ( ] ).eXs.,.p.R.$XdX:X&XjXvX/.#X>X$XpX%X%X,XaXaXcXCXvXHX{.8 Y.H.Y.4X4XY.1X:XI.{.@XQ.@X{. Xs.b &.g.E.R.&.8.^.^.{.+XOXH.E u.L m Y P L.~.L.=.6.$.%.$.b [ c c c c c a.%XpXdX>XdX(.j T v n T m } M %.m m -.(.$XK t Z ~ 6.3.s.b ] _ _ ( [ ` [ | | ` [ ( ) ( / / / / / / / / / / e./ # # # # # e./ / d i < H.T.+Xu.n n j w w M N M N c x w s w w % % % h # ) h w w r c ' f.m././.g.g./.f.^.p.m 4.R P 2.I J Z * H.2X,X+Xi.$.P R R E T T P P P P x x w w u a : q q - q > q q > w > w @ e x m w w h h e @ @ @ > @ > @ e + m u.d.a.f.3.u x v &.&.=.4.u.f.p.p.d.x.~.f.L L.H.u.y.H.y.I.P.K.$X$XK.+X@X>X$Xy.R u.Q Q A 4.,X{.|.|.I.y.9.5.@.-.7.s.^.x.7.4.8.8.8.<.9.1.1.1.1.1.*.8. X%X%X$X%XQ.s $.m L T M T } %.} ' &.~.:XL i D ~ 6.2.s.[  ._ [ / [ _ _ | ] _ ",
"] ....>.{ ;.{ { { ] ] ] ` [ / / / # # r r [ [ d Y i Z T.I.|.@.} N M } } ,.| ] M M M M t.| :.-.=.=.t.t.x.!.p.,.-.t.*X&X/.Q.Q./.(.R.(.!.Q.r.[ b @.m n T E L K.OX$X$X%X&X.X.X*X&XwX#XoX_.n.c.v.%.b b m ' m T m $.$.$.@.&.&.T R &.m [ h ] 0.;.h.j.v.<.} _  .c.eXNXyXc.d.s.R.^.dX%XQ.}.pXlXjXZXVXlXxXjX<X}.:X1X{.p T.Y.T.T.Y.;X|.Y.{.}.+XI.Y.}.$X$XU.L.@X%X X%XjX>X%X{.f.u.4.4.a.4.P &.U a.J.J.4.=.-.=.-.@.$.' m ' b b L.dXCXBXAX/.!.p.:.| ' %.=.t.-.-.1.7.i.*XL.4 2 8 J 6.a 4.8.d [ [ [ c _ ] ` ] ` [ [ ) ( [ / / / / / / # / / # # / # f o / / w.f n y F H.T.OXv h w $ h h _ h r # # $ # % @ @ % e w w h h h h x x | /.=X(.f.m.{.(.R.Q.(.x.,.d s @.m l z J , 6.;X1XgXdX X8.#.L U E R Q 5.Q W U Y K v p u u u u s l p K K K n x N x h x m M h x h w h w e e $ @ $ @ + x U }.2.4.T P @.#.&.*.u.i.g.d.f.a.s.(.,X+XJ.K.y.3.R u.f.u.u.4.a.y.y.U.{.}.}.~.P.5.3.3.H.cX1XJ.P.2.7.9.@.*.9.<.R.8.L.x.E.8.v.R.c.x.v.R.R.s.8.v.*.E.wXxXxXkX/.!.l.1.;.] %.=.t.$.,.:.i.i.@XL.a 2 7 G 6.u 8.8.d [ [ c ( _ ] ` _ [ ",
";.;.;.:.;.] ] ;.] ] { [ / [ / / / / f 0 d [ [ @.@.2.H.;X;X{.3.=.t.} t.T ' m M h h h h | -.-.-.=.=.=.f.Q./.a.=.-.g.1XQ.i.g.t.d./.&XwX#X@X/.%X%.$.&.L L y.6.3.|.:X&X>X%XxXvX&X@X>XdXkXAXAXkXU.P n Y &.@.P ' $.#.*.@.$.1.1.8.] %.%.#.[ %.yXzXuXtXuXC.X.M.v.8.d.!.@X>X#XwXjXDXwX@XdXdXlXjXgXVXvXhXpXgX>X~.a.P 2.4 D.S.T.4X4XOX;XP.P.{.{.{.|.OX<XgX<XgXBXcXxXcXgXxXgX@X+X^.L.d.d.Q.d.&.7.J.E.7.4.&.@.-.8.x.*.=.%.m m x /.KXCXAX2X:X~./.@X/.=.d.d.d.f.s.m.Q./.U.T : < J G L s s v.9.c d [ ] ;._ [ [ ) ) ( / [ / / / / / e.# # / # # f o # # # # / / / Y L UXT.Y.U.L T M M M M h e $ @ @ @ @ @ @ $ @ > $ h w h x c c x -.&Xg.&.t.} g.(.*X@X'.!.(.*X' M L z 4 J B H Y.;X,X>XjXZX X7.$.P U @.&.&.P Y b b v m ' m %.@.@.$.@.b @.@.@.$.-.} ' ' ' c c m ' M M M N r c w e q q > s.4.&.Q.t.U.P @.*.d.Q.d.d.d.L.~.Q.d.=.4.T 2.Q u.u.u.u.g.=.=.i.t.u.d.{.{.Y.~.|.I.T.H.;X,X:X~.8.L.XXR.R.E.^.^.F.R.R.E.L.L.8.L.a.s.R.L.E.s.8.5.7. XvXcX1X<X$XQ.^.@X/.4.d.d.R.x.d.Q.Q./.Q.R q < I H L u d 8.;.d s [ 9..._ [ _ ` ",
">.1.:.1.1.9.9.{ ] [ [ [ { [ / r # f r r d [ [ @.@.J.E Y.T.+X3.} t.| M M b b n x N M h m | -.=.=.-.a.+X+XL.-.-.m (.+XR g.3.u.-.t.,.i.Q.~.{.}.T T &.E J u.E E T.OX>X>XgX&X*X,X}.R.~.$X&X+Xx.@.1.^.W.v.v.`.].v.>.1.1.8.qXzXsXqXyXqXp.%.} p.wXNXKXFXFXSXFXMXB.X.{ 9XnXNXlXfXjXpXfXdXlXjXhXhXxXvXxXpX>XfXjXwXQ.K.G J G.H.;X4XH.Y.I.J.P.~.$X:X:X:X,XcXcXCXBXHXHXHXgX,X$X>X*X+X X~.^.^.^.>X>X,X%X$X~./.&X X!.E.*.} $.M @.dXcX2X:Xy.y.K.{.{.+X+X$X>XaX&XkX=XQ.*XU.q : = G I K m r d 1.] d r [ ] ] ..] { { ( / [ [ / / / / # / / / / # # o / o # f / f / m 3.F T.! Y.l N _ M h w w e w e e # @ # % % @ % w w w h x x m w Q.(.n u.M T m m &.,.a.L.(.~.x l L l 4 I Z K Y.:X:X>X<XkXZXZX*Xv.,.Q.@X@X(.'.%XdXfXhXfXjXNXzXlXfX#X).R.v.7.'.ZXfXfXwXaXv.*.@.-.@.-.$.T T @.P s s x c T x T $.m m.t.-.i./.Q.*X{.Q.d.x.m.d.7.t.n n Q -.u.u.-.t.u.=.i.g.d.d.d.f.L.I.I.I.H.-X2X<X:X|.~.~.R.E.^.!.[.!.E.R.E.XXE.E.8.s.R.8.1.8.1.1.8.,.*.>XbX>X$XK.y.L.{.~.}.|.OXaXpX%XgX$X(.&XL.y : ; G I Y @.r d >.] s d [ ] ] { { ` ",
"<.1.;.%.{ ;.] #.] [ ] [ [ / r / # / / r r r [ [ 7.y.Q {.OXY.f.=.-.M M } } n x x N h M M m T @.-.d.U.u.-.m m v &.d.i.u.-.-.$.| -.$.T $.-.i.=.T T P E k G ~ 5.~.OX:X@X>X&X%X%X X/.!.x.^.'.Q.Q.jXVXxXjXhXZXDXZXNXNXuXzXFXNXDXDXGXNXuXuX`.;.] s.&X$X:XAXFXLXKXFXDXNXeXfXyXNXjXfXaXjXlXVXlXZXVXVXCXZXVXvXjXpX>XgXI 7 S.Y.Y.OXY.|.|.XX|.~.L.{.,X,XcX2XcXHXJXHXIXBXxXgXgX1XOX*X&X*XwX&XaXhXgXgXvXvXJXLXKXpXlXlX^.p.1.@.@.d.*XgXcX$XL.=.s.~.^.}.%XgX<X$XU.d.I.y.a.: < 3 ! H.G a.b e f ] W.v.>...) [ [ ] ] [ [ [ [ / / r r r r r / # f # # # / f # # / w.*.5.~ Y.Y.u.T m M w w h h w w h j h % w # @ w w w j w N M m x m f.=.T } T m } | M x M $.-.T n n z G 3 6 J Q P.;X,X*XdXkXxXVXZXZXZXDXDXZXZXZXZXNXlXVXjXfXhXkXkXlXjXjXlXVXZXZXZXZXKXDXAXvXlX'.@.%.-.-.R R 2.$.T $.P -.} -.-.&.&.-.$.$.-.,.-.4.f.d.f.d.d.p.p.d.T v T -.i.g.u.t.i.i.f.i.t.i.d.d.Q.U.~.{.P.;X2XgX,X|. X X^.^.'.!.'..X[.^. X.X.X.XpXpXpX.XpXrXXXE.L.1.#.s. X>X>X}.L.6.a.^.~.^.$X>X<X XU.f.U.y.d.; ; 7 G.6.G 8.b e f #.M.c.>.;.[ [ [ %.",
"1.:.| %...@.%.#.] [ [ @.w./ / w./ # / f r / r #.v.a.H.OXOXY.a.i.i.-.} T M x N N N M M h M ' m m T T T m m m m $.-.-.-.-.$.| %.} | $.} } -.} N n P l k G ! E K.{.{.{.'./.@XQ.oXwXwXdXdX@X~.a.L.a.3.u.-.*.a.a.~.lXKXFXKXFXKXZXFXZXFXKXKXFX).z.j.{ :.,.^.hXVXKXPXKXDXDXKXDXDXZXVXZXZXKXjXdXVXZXZXHXZXCXjXkX$XgXQ < G.H.4X4X{.I.P.|.|.R.$XOXOX2X<X1X2X2X2XBXvXHX<XgX1XAXdXyXAXAXBXCXBXBXBXHXJXLXLXJXLXxXKXZXkXNXkXoX.XjXkX<Xi.&.&.i. X^. X&XdXgX1XgX~.(.i.T v * : , D H E 3.&.r r f ;.5X0X5X5Xb.0...] ] / [ [ r [ h r f / f / / / / o / / # f / r d 7.7.2.Y.Y.U.R N M N N w w w N N x h w h r w r w w r x m m M T M T } } m M } M M M M x M m M w l v y 4 F ~ k u.Y.OXOX*XdXyXkXdXjXVXjXjXAXVXAXjXjXgX1X*X$X*X*X>XdXdXdXkXVXFXCXJXKXZXVXZXVXZXZXdXQ.@.&.&.@.&.3.3.T &.T y.~.s.^.x.#X!.#X'.p.p.f.s.d.x.d.g.d.i.d.T j T u.u.y.g.i.u.d.s.i.f.d.f.f.d.d.I.K.H.+X3XIX,XXX X X.X#X#X#XpXdX X}. X%XaXaXaXbXjXwXjXfX%X#XrX.X.XpXwX%Xs.=.&.7.^.^. X#XpX>X>X>XQ.(.i.@.v + : , D H ~ 3.&.r s r 1.5X6X5X5Xb.0.;.",
"n.r.1.1.1.,.1.| @.@.#.[ { / / / / # # / d r / 8.v.u.u.U.Y.+X~.~.4.i.=.-.m x M N M M h M M m m m M m m ' m M M m m } | -.-.-.| } } } m ' m M m P L G G F ! y.T U.$X/.@X*X=X&X*X$X&XdX#Xi.%.;.q.v.c.n.W.5X).;.%.Q.kXxXCXBXCXCXKXJXKXKXZXAXNXNXuXqXuXNXDXNXDXHXCXgXBXZXZXZXHXZXDXZXHXZXHXCXCXHXLXLXLXKXLXKXBXHXG 7 ~ S.4X;XT.,X;X:X:X,X:XI.Y.OX+X:XBXBXJXJXHXBXcXcXBXBXJXHXJXJXCXJXCXHXJXKXJXLXLXJXgXxXJXCXjXkXZXZXZX%X~.-.T T U.=XgXaXAXdXgX1XgXdXhXwX#Xt.x.U * 9 , g ! ! R.%./ [ r >.rX6XqXqX0XN.0.{ ) [ / [ d r r r f d / f / / / / # / / r / <.v.2.Q D.Y.U.U.f.M h N N N h N h N h h w h x w w w w x M m M N N M } m } M } _ M M M h x c w x x z 7 4 7 J u.g J.:X}.*X&X&X*X&XdXhXfXkXkXkXkXgXpX&X&X&X%X>XdXdXgXxXVXVXCXZXHXZXLXJXHXZXZXZXZXKXCX!.#.7.-.&.6.2.5.2.Q K.cX$XfXpXwXlXfXfX&X/.Q.^.^././. X(.d.Q.z z P E y.g.u.L.L.d.L.x.L.i.3.i.i.g.{.U.H.4XcXcX,X XpX,XxXhXgXbXgXpX$X>X>XaX-X%X:X X.X%XbXdXaX&XhXjXhX}.L.4.&.&.L.@XaXwXgX1X>X>XdXdXkX&X.Xt.L.&.* 2 1 g ! -.R.%.r ] r >.0X9XrXiX7X).",
"_._.1.| ' ' [ m w.c d / / w./ / / # f # / r [ 1.8.5.R Y.K.H.U.I.-.m $.$.T M M M N x N M n m m m m m m M N h c x M T } m } T } m m M M T T T P T L Z k 7 J ! ! Q I.OX~.~.OX:X{.+X+X{.{.~.!.!.ZXLXFXZXNXZXZXNXoXm.L.J.J.{.{.;X;X2X1XBXJXZXKXAXxXLXKXJXJX1XY.H.|.cXcXBXHXHXvXgXgXxXpX>X X}.CXCXHXHXCXBXBX1X1X1XJ 8 ~ G.;XT.H.4XI.|.:X*X$X:XOX1X1X2XcX3X:X1X:X;X;XOX4X+X2X2X;X2X2XBXBX2XBXJXJXcXJXcXJXHXJXCXAXkXdXdX*X+X<X{.I.I.+X+X{.>X2X2XBXJXBXkXBXCXHXJXVXL > 2 & F D.J.R.[.).5X8Xl.0.).6X9X5X5X9X5X0...{ [ [ d / d f / / / / / / # # / / r [ <.<.i.P 4XY.T.P.~.' x N h j h N h x h w x w w u w x x x M x h h h N T } M } m } M h c M M c x x n G a 8 5 F ! ~ ~ K.OX{.(.=X=X1X&X1XdXkX>X>XdXdXdX<X&X$X$X$X%X*X>XgXAXCXZXHXJXJXHXCXAXJXAXCXCXCXVXVXlXhX#XE.R.5.2.6.&.u.AXjXkXyXAXhXVXAXjXVXhX=XU.~.~.~.P.T.f.P z n ! U.y.R d.y.y.L.d.d.d.f.i.f.L.U.a.u.T.;X,X{.|.{.~.$X$X$X$X1X:X$X:X,X:X;X%X,X$X,X,XbXpXpXdX&X&X X^.*X~.I.I.{.{.}.,X<X2XBXCXBXxXBXCXZXHXvXG 2 2 & J u.H.R.[.).0X6Xk.>.).0X8X`.5X",
").M.M.c.>.[ [ r d [ d / / / / / / / e.f r [ ;.%.1.*.E T.u.3.y.{.f.m T n n N N N N N x N j j z j n n x N x N h N N M T $.m M m M x N M x x m P L G i B 7 7 g ! D.E y.a.y.u.-.g.i.u.u.y.+XOX2X2XBXBX2X2X1X<XZXPX@Xc ] *.=.g.U.+Xf.y.U.+X|.H.I.BXBX1X5.Q U 4.R 3.K.|.|.;X,X3X<X<X X:XpXgXVXCXkXgXdX<X1X,X3X+XH.F V C 4X4XS.Q Y.H.T.D.Y.OX{.+XY.Y.Y.y.! E E ! UXU.T.G.u.u.UXUXY.U.H.H.H.T.H.Y.Y.;X,X;X,X1X>XcXkXZXVX>Xn T &.u.UXE y.U.Y.T.Y.Y.T.T.Y.;X1X:XU.! F 2 5 , F T.~.s.^.zXnXSXtXb.k.5XN.9XqX9XtX0X`.0.) [ / / [ / w./ / / / / / r f r / ;.;.,.u.R Y.H.H.I.&XQ.} -.n N N N N N N w j N z u u j N N c x N h x N M T } m M M M c N x N N n T L G 6 V 6 B D ! H.! U.Y./.+X+X/.1XkXdX1XgX1X1X1X>X&X$X=X$X&XgXdXgXjXjXAXBXVXJXZXBXcX2XBXBX<XkXkXkXxXVXZXZXCXZXxXW.i.4.(.HXVXVXBXBXCXCXCXCXZXVXAXkX%X{.I.U.K.u.E G J H.H.Q E u.-.i.3.u.f.u.i.u.3.u.Q z g E Y.Y.I.T.J.J.5.K.P.Y.K.J.P.K.J.J.P.~.-X}.XX~.:X$X>XdXhXhX$X&.2.3.y.u.3.J.T.I.U.T.Y.T.P.T.OX2X;XU.u.F 9 5 , H T.{.s.).sXnXnXeXM.k.5XN.9X0X",
"m.x.l.p.x.<.[ [ h c h r h h ( ( ) # r r / { ;...7.p 7.T.u.~ H y.UXT n n N N z j j w j w y 4 > > q j w x N j N N z N M m m m x m n x j j j v n L l 4 7 7 B D F u.k y k z z l j n z N L L l L R Q ! Q Q 2.Q H.T.y.T m ' m m &.4.&.4.3.U &.&.f.u.a.u.-.&.g.~.i.-.T 3.u.u.y.a.+X4X+XOX;XY.I.+X+X1X<X:X;X+XK.K.3.4 4 B ;XY.! g T L &.R 3.4.2.4.@.$.m w w x N z N N N N N j N N N w e e y q q z G L E ! H.U.{.;X:X3XBX+Xn 4 : = t y t y i z z q : : 4 k z H l p i & 5 , 8 H.Y.-XXX|.,XpXaXfX0X_.oX#XoX].`.b.c.).h.` / [ d r ( h r ( ( ( r # # / { ;.;.7.d y.Y.H.! ! Y.Y.-.u.T T T N T N n j n x u w j j x x z z N m v N M T m } m m m n x x x x n P P H 3 7 B B D F T.G k l G L L E ! E E ! ! Q T.H.u.T.Y.Y.U.Y.<X2XAX2XU.+X;XY.Y.4X:X:XOX1X;X,X1X<XBXKXJXJXJXJXJXKXZXBXAXCXCXCXBXBXAXBXAXAXAXgXBXBXBXxXcX$X7.4.R K L G K.H.! L R R &.R T &.P $.m T v j q y l u.u.P -.=.$.@.@.&.-.x w m x v p n K U 2.6.H.P.I.|.OX:X<X{.&.v l a v K p K L L L z 4 t k k G H z G k & 2 < V T.I.-X|.|.aXaXaXfX#X).].0X].",
"4.p.t.:.1.%.@.[ [ r d r r ( ( r h s r d S 9.P Y A G T.! H J g F J g 4 z y 4 y z g z 4 z 4 ; ; > 9 : 4 4 y 4 z g z z z z v z l l y z y z z L L T k * 7 7 7 5 7 D 2 2 ; = - ; ; * 9 + ; 9 ; ; ; ; 4 4 3 3 3 4 4 4 k g g 4 4 4 7 z F i i k G F G l G L E E J T L L L L T E E L L L T Q E T u.Q u.u.u.-.Q -.3.z 2 2 D T.H.Q ; z T n n m n P n b N N x h j # % N h h w N N w e y e > ; + - 9 ; ; 3 7 i F k k J z E R z z y O ; : 2 > = & ; * O ; : > 4 : 4 4 : * 5 < 1 8 F I a K D.2.|.pX^.R.^.p.| %.p.m.v.h.t.<.;.] [ r d h r ( ( h h r d d w.9.U Y K G T.! H H D H H J F k z z z z z n z z z z y 4 y 4 k k z 4 z z n z j n L l n l j l z k l L E R l * Z 7 B 8 B F 2 8 ; = ; - - 9 - 9 = ; ; : : 4 3 3 ; 3 z J E ! E 4 H L z g 4 J E ! H.UXH.Y.T.4X4X;X4X4X2X2X3X3X2X2X2XBXBXBXBX2XkXBXBX<XkXgXcXkXdXdXpX Xf.T G G ~ H.6.! z l R T T m v m m m m x x q y w z w > N x M m b m m v - p p y u a y l G K L K I Q I 3.3.U L l t z y i p k p z p : y q > q 4 3 4 : ; 4 2 < V G I a Y D.6.XX>X!.!.(.p.$.:.",
"&.=.=.*.%.m m p x @.@.' c $.,.-.=.&.&.Q Y A H J J H.T.T.! g 7 6 7 7 4 7 i 7 2 y z z 4 4 : & ; * * & = & 9 9 1 9 9 2 4 ; 4 3 3 2 7 2 8 7 7 i i F 6 * 7 Z 6 5 5 4 6 ; = 2 9 9 2 ; * 9 O * * - - = = - ; & = & 2 4 2 2 6 2 = = = = 3 6 6 7 7 7 4 4 ; ; ; 2 7 2 2 2 3 2 2 2 4 g z z z l k z z T n z N T u.T j ; 7 7 8 F ~ F : : j N M m x x x N x w j j w w w @ > e w z > @ @ + * > 9 > ; 3 : 2 3 ; ; = * = ; ; ; 9 9 4 9 O = = 9 9 & * + 9 9 4 8 4 ; 9 * 9 = 2 * < , < ~ W 6 Q P.Y.-XP.U #.b x s x %.,.,.1.*.P P u b ' #.[ c | ,.%.-.&.3.Q Y Z A A G H.T.Y.! F 7 7 g 8 8 8 8 8 9 g J F 2 4 ; 2 3 9 9 = & 9 9 2 1 1 9 2 4 8 7 4 3 4 4 2 7 D k k i G 6 * 7 F 7 2 7 4 3 = ; ; ; ; 9 9 ; ; = = ; 3 ; 7 4 2 3 3 8 4 8 9 1 4 ; 4 y 4 4 g 7 2 7 5 8 8 D 7 V F D D ~ F H ~ UX! G.T.4X;X;X3X3X2X3X3X:X2X2X3X:X:X:XOX{.H.H.! J H E I l z n n n n n N n z x j j ; k y j : q q q N j q > > : ; : : 4 4 3 i 6 3 3 2 ; = 2 y i 3 4 z 4 = : : 3 3 4 4 4 i 4 z g 3 3 ; 9 9 ; 2 & 5 , C W W 3 ! T.I.|.T.2.U Y b x x ",
"G G l l y k y : i G U R R P Y P P L l n #.H.P.D.{.{.*X{.T.K.H 8 J D D 8 V 2 7 2 8 g 8 4 4 ; ; * & & & , 2 1 1 8 1 5 2 9 5 2 5 5 2 5 7 7 5 7 3 5 2 5 V B 5 < B F 2 2 2 1 5 2 , < y H H.f.L &.L U v K @.L Y U v p p G A G 6.5.J.J.U d s p L L L i y 3 2 4 & 2 9 9 9 & & * & 9 * 9 & & ; ; 1 9 9 ; 4 4 z z = = 5 5 V V Z 2 4 > - > @ > e > q > > > @ O @ O   O @ > O @ + O O * + 9 - ; ; ; ; ; ; ; ; = & = = ; & ; 9 O * * + * & = 9 9 9 9 ; 9 ; 1 * * & * & & , , 5 , H.T.H Q Z < 6 a Z 3 i k i 7 p k z k q z y : y G R Q U I P P P L v n &.D.K.5.{.OX,XOXU.T.I 8 8 8 D 1 8 1 g 1 V F 8 5 7 2 2 9 9 9 9 1 2 5 1 5 5 8 2 , 2 2 5 6 5 8 7 V 5 7 7 5 2 5 B Z 5 5 D F 2 2 2 2 9 ; 9 ; 7 7 2 6 7 7 7 i 7 4 4 4 3 4 k 4 8 ; ; 4 ; 4 4 > ; 8 7 7 8 8 7 7 F 7 F D 7 7 D B 8 1 8 5 C 8 C D C H J F D ~ H D D H ~ ~ D D H H J J H 7 7 k y 4 y y 4 4 4 y y 4 ; ; > ; ; : ; ; 9 - 9 O O - 9 ; ; ; ; ; ; ; ; ; ; ; = = = ; = ; 9 - * = & ; ; ; 2 ; = ; 9 4 ; 3 9 * 9 & 9 & 2 , V , D.T.W ! Z < i i p y i J i i ",
"y 3 6 < i i J Z B Z B Z 3 < 3 i G H.|.;X2X2X3XcX2XJX2X3X;X2X|.G.F 7 2 8 7 2 3 2 : 2 ; 2 : q > : < = 3 2 < 1 2 6 2 6 i J G G i F J Z i 6 6 B 8 8 8 B D B F J ~ ! B 6 2 2 3 ; 4 I K.+X~.a.T -.m $.P $.} m T n T u.5.=.2.&.2.2.H.J.}.$X$XhXgX$X{.~.K.3.R l k l y 3 3 Z Z i = = & & 5 5 2 V 5 5 5 5 9 & * * = & < V 6 V B 7 4 : * * O O X & + O O O O O O   O O - * * * = ^ * * 9 9 & 2 ; 2 ; 9 & & 9 9 9 & & & & = 9 & 9 & = & , , = 9 , & 9 9 * & * & & & , , , , C , S.3X|.4XY.2.p : t t a a 6 i 6 6 6 < i i H Z Z V Z V 6 < 3 y F H.OX;X2X2X;XBXBXJXcX2X3X2X;X! F 7 8 5 8 8 8 2 < 5 2 5 < 5 9 , & , 1 5 < 1 5 V 5 3 7 I F G F A H Z i 6 V B V 5 5 V D V V 6 H D.8 8 5 5 8 5 5 8 V 8 5 5 5 B B 5 7 7 7 7 8 4 ! g 8 1 1 8 8 5 g 5 6 6 < 2 i Z H ! D.D.! P.H.6.H.H.! D.! Q E ! H I I Y H Z J J F 7 D 7 6 4 Z 5 5 6 6 Z 4 G L k 3 3 = ; = ; ; ; - 9 * 9 ; & 9 ; ; = - = = * * & = ; 2 2 2 2 2 2 9 ; 2 9 9 9 & & ; 2 9 9 ; = = 2 2 < 2 & & ; & & * , * * < * & , & , < < 2.3XY.|.T.2.p 3 t 3 t a 6 a ",
"5.K p K A J J F A A Z Z i A 2.;X3X+XT.H.4X3X;X;X3X3XY.T.T.H.H.H.E H I R K L T 4.&.R U P u q b Y p p a 6 6 i 2.2.2.P.a.U.J.y.K.u.5.J.P.H.G G i p i 5 3 a 4 i J.:XI.K K P v y u @.L j p d.3.x h w h r $ w w @ e $ + $ f $ 0 + - - 3 t I Y.<X$Xs.&.m x x w P &.x q d &.P.~.P.Q i < & & * 9 9 5 5 2 & 9 & * 2 , 5 5 6 A W a : : - < = * & & 9 * ^   ^ O ^   9 O * * * , = * * 9 , * , & , & & , 2 = 9 & & , & & 9 , & 9 ; = , < < , & & & & & * , & , , & & * , , < 5 C ;XJXIXIXcXbX<XXXD.R.J.J.D.P.J.I A K A J A J A A Z B i A 3.;X2X+XT.H.4X3X3X3X3X2X4XT.Y.H.T.H.W H E ! H E &.y.3.3.2.! H i ! 6.H A 6 < 6 i 6.6.D.T.I.Y.P.J.I.H.H.P.T.J.A J i i 7 < < 7 6 6 T.;XT.a 2 < ; 8 C 5 5 9 1 1 5 1 8 V g D 5 8 7 D 7 8 8 5 C 1 8 V C 7 Z Z W 6.Y.|.,X2X2X2XHXJX-XT.|.Y.T.Y.Y.Y.;X4X+XT.4X4XY.T.6.! ! y.y.E F 4 F G J W W H 6.H.I L z y k p i F k 7 ; ; k G i ; ; 4 4 2 ; 2 5 9 & 2 , = 2 , 9 2 ; 9 9 9 9 9 9 , , , 9 = & ; 2 , 2 < , < , = , 9 & & < * , , & & * , , 1 C 5 4XJX2XcXbXgX,XE.J.J.J.D.J.J.",
"$X|.OX$X$X:XcX<X-XY.! ! ;X4X;XOXH.; * 4 H J F ! G.W ! ! ! J t t p l v v u n +X1XOX{.U.K.u.u.&.v L R : p 5.2.R L j R U.{.4.I.a.K.K y.y.3.I.J.&.Y K Y 6.{.}.$X|.J.}.}.{.s.@.[ ' M c s *.s.,.1.p.:.:.| _ h # ..:.| ` [ # + 0 r c e q e b d p &.d.m x b w h r h $ w r s s _ @.a.I.I.R i ; 2 * & , 1 1 1 9 , 5 i Z A P.,XpX~.i.u w - = * & O O ^ O * O O O * O * * O * * = & = = & & - : < q 3 q w t y a y t t u t q e q q t a p f f y q y q q y t : t 3 < < < < a A Z V T.LXJXLXJXLXLXHXKXVXCXgXBXCXcX<X1X:X,X1XcX2X-X4XS.! ;X4X;X;XH.2 * 4 H J F ! G.! ! W ! G y : i j j x y n OXBX1X+X+XY.|.Y.H.I ! 2.< G H.3.R T z 2.I.}.y.{.J.I.v P.J.5.{.P.2.Y K R 6.|.,X,X;XI.,X:X~.D.T.K.H.D.UX! W W ! H.! J 8 V B V 8 V B V 8 V V 7 B Z W 2.6.J.3X2XgXHXJXJXLXPXIXQ 3 p i y 4 a t i K I W ! G H.T.G 4 & k T.! ; 2 3 4 k G G D.P.,X~.&.u q : y 2 : ; 4 ; 3 H y.3.k 3 = : ; ; 3 3 ; 2 6 3 2 2 2 3 3 : : t i a u a i t t a f f q q q t a p u p a y y q q 4 3 3 < a : 3 < 5 6 B A V T.JXJXJXHXHXJXHXHXvXvXgXxXCX",
"p.x.'.p.[.%X@X:X,X-XH.S.S.G.T.u.u.P.i.n N z &.T k L 2.n l z p u u e q e &.@XI.Q R : : q v u q e x w + $.7.y + u R a.u.&.~.a.Q n > - y p p K v y z J.|.{.BXJXxX%X(.~.d.d.x.p.p.1.b *.,.b @.-.m.d.d.t.p...l.m.p.oX0X| e c / ( ( >.h.:.<.w e b Q.a.*.%.[ r r # # % h r h ( h b d ,.8.J.K Z B 1 6 5 5 < , 6 G K K  X:XaX%X&XzXwX!.f w q q 4 y > q e z w N j x w j e q 0 - : > > > ; 0 e w s c r d r r / s r / r r r r r r r r f r / r r ( h r r r / f r r s d f S f S S S bXIXCXLXHXvXZXZXfXwXv.W.6XE.).#Xv.[.&X$X1X,X-XH.S.S.H.Y.6.u.P.4.m N z -.T F I 3.n G p a u s q 0 e 3.&X+XR R 4 3 3 p G : + q q + =.f.y - l Q K.y.5.+XK.3.z = * y Z l L L y l H.;X|.JXPXHX3X{.I.K.K.R z 4 y Q y.! J J D 7 W H 5 5 5 5 V V V 5 8 7 Z - P.LXxXhXKXPXPXPXJXIXJX4XH.B 2 p j u x w x e r e w w l P {.T y z a 5.I.k 3 : 6 p i z 3.&.~.dX/.Q.L.7.s u u q q q 4 3.u.i.l j u w u u w q q q q q y u q w e w s c c r s d r s r r r f / r r r r s r s r r [ [ [ [ M r h / d d r s v d d S S S ,XcXIXHXHXvXvXDXfXwXv.^..X",
"l.1.0.0.z.c.0.)..X~.K.4X~ S.Y.;X2XU.n j j w N z v n n P v x q w e T u.7.L.3.q x u e w j w w e r r h w -.r.p.%.e e a.q y k y z L u e e e s s b T v v :X|.T.T.D.;X|.! R m $.m m M x x x x x x T } $.:.$.M $.t.=.} m _ m.r.n.!.n.!.p._ w r e h h r w e h _ :._ r # $ $ $ h h M ) h N T m n n l 7 7 5 5 ^ Z K s ].zXW.0XM.v.`.`.eX_ h h h x h c c M c c M M c c c c c c d s r s r # e r # r r r r r r r r # r f / # # # # 0 # # / # r / r / r r f # # / o / / 0 # / / / <.vXsXlXzXwXwXrX0X#XE.0.[.[.c.0.q.0.v.M.0.)..X}.K.4X~ S.T.3XBXU.z j j j n z v n K m x x q w w $.i.d.~.a.q j u 0 q @ 0 + @ c e h w r.n.x.,.e q U.t q k y l L j q e 0 s x b m j l <X;XY.H.D.3X-X! S U U.t.q e q u u > n y T L z ! J 8 V 8 D 8 8 8 = t I.LXPXLXPXPXPXPX4XG.! I z N M M M h N w h x w r $ w h e M N j N j l E E i y < u x w :.f.$.^.^.<.i.t.m.M r h w h e T $.w x x b c x c h c c r h s s s r e e r r h r h ( r r r r # r r / / / f $ / e.f # r # f 0 / / f / / r r # f / / r f [ d 0.zXaXzXwX0XwXrXwX6XE.0.[.`.",
"b.j.{ X.b.N.b.b.eX/.5.Y.~ H.;XY.,Xz : y > w w j x v m x v 4.f.Q.d.L.@.n a.d.%.x e > $.i.=.w %.d.i.u.$.d.d.@XwX=X/.r + + r r h $ $ s c $.' ' =.x.&.j &.4.k * & Z z N n N M T ' m ' ' M x x h j N x w w r e x M h c t.x.%.$.,.[ s x h h w h e e e # $ [ v.).f.:.:.| # $ $ e # h j h N n w j z 4 5 6 , < i b /.SXzXuXrX0XtX5X8X8Xh.# h h r h h r ( h [ r r s r r c r r h r ( d d r # $ # # # # r r r / # # r # o # # # # # # # # # r r r # # # # # e.# # e.e.# # / / q.M.tX0X].M.M.rXqX5X;.>.`.`.M.b.j.{ O.N.N.b.b.eX XJ.Y.S.H.;XT.,Xz : y @ e e w x v m x v 4.f.Q.f.U.R P L.Q.=.x e > $.d.*.@ $.~.Q.L.4.+X}.&XjX#X@Xx + $ r s h e $ s x &.' @.*.R.U u 2.J.7 ^ * 6 F G I K.+X1X+Xf.s.4.d s e w - : > ! ! 8 8 8 D g 6 : n AXPXPXPXPXPXPX3X~ D D l T } m } M } M M N N M h x h h w N % w N z w j w z k j q l x ,.!.x.p.#XoXx.l.l.x...r r r w r x w w c x c r s r h c c x r r h r s r r # r # r 0 r [ / r r r r $ o $ o # / # # # $ # # / / # r # # o r # # / # # # / / z.b.qX0X`.M.).rXeX6X;.<.).).b.",
"k.;.X.b.b.j.X.k.`.%XU G H.T.T.Y.K.j t w w e $ $ 0 e e u P -.f.L.4.u.K.a.4.&.R 3.n v n z &.-.3.P n j L y.K.R d.I.i.+ x t.i.$.-.T &.u.3.L n 3.u.-.i.U > + > u : q e w h M M c x M ' } ' c h h N h h h x r h x M M w h s s w s s c h e # $ # w M h r c ,.@.1.x.yXlXfXoXt.M h e $ @ @ e w w z z ; = 6 6 = t R.DXqXzXM.9X5XN.`.b.8Xz.# r r ( r r r r r r r r r h r ( ( h r r h h ( r r $ r r r r / r r / r / # # # / # # # # # # # e.# # r / # / # # # # # # # # # # { 7XtX5Xb.C.N.N.C.5XM.z.b.b.rXtXb.X.X.b.b.k.X.k.`.#X@.F H.T.T.Y.K.y q e w e $ e e @ e w P -.d.U.u.u.P.K.y.&.-.u.L n T n y.u.u.T l k T Y.+XUXU.+Xf.+ n i.g.-.-.T &.3.u.L z 4.u.-.a.R - X : q - : : + q 7.T N E N E f.a.v e X U &.k 4 g 1 D D C ! R +XPXLXLXLXPXPXLXH.g z J l M } } } t.M  .M } t.t.| M m M N h h # w h w N w z > y u > s =.(.m.m.:.`.!.h.j.r.z.:.h h r h r e # h h h c r r h h c h h r h h c h h 0 r r r r r d r r / # / # / o / # # / # # # # # # / 0 / # # # # # # e.# # # # e.{ 9XqX5Xb.N.M.b.N.8Xb.b.b.z.rXtX",
">.{ z.b.0.k.N.N.0.<.U R H.T.K.T.T y q e w h w @ e x x =.Q.{.a.&.{.{.a.T l : q z n n q > > q m w @ > e e u q ; > l y.P.L y j Y Y j j z w w w q e u e w w e 0 e e w N h M h h h c M _ _ M h h h h h h h h h c x M c c h _ h _ h r h # w w $ h  .} %.M c r e b i.kXAXU.t.(.M N w w h j w w e q 2 2 5 2 & U xXwXzX9X<.8XN.z.j.b.9X9X{ r / r ( r / r r r r / r [ r r r ( r h r h ( h r r $ r r r / ` { ( / # # # # e.# # e.e.# # # o e.# # # # # # # # # # # # / # # l.5XN.C.5Xb.j.5Xb.[.N.5XN.5XW.0.0.{ z.k.0.b.5XN.j.8.Y R H.T.T.T.T j q e e x w $ w c v 4.Q./.a.&.{.}.J.&.l q 3 z E T : - > q R s - 0 > u j y - : G J.K.L y y K P l z j y y q q > q e e e e - e 0 e @ j &.> > @ w > 4 R d.3.L i.z -.! 1 D 8 C D 4X;XZXLXLXLXPXPXcXQ z N N v n m } T | t.M t.M N t.T -.T =.T m N M N N w h w j q L l 4 : v ^.v.n.p. .p.r.r.:.t.z.n.` h h r h # h r r r h r h [ ( r h ( h h h ( _ h r # r r r / ( ` [ / / / # # e.e.# # # e.e.o # # # # # # # / # # # # # # # / # # j.5XN.N.5Xk.z.5Xz.N.N.5XN.[.b.0.",
";.j.z.0.{ k.z.0.` r j Q T.Y.Y.4XI.J.q w T =.v w T U.y.L.a.3.P 4.~.y.q l R $.v x b w w w c h x c w $ w w e w e N n q q q l p u u u x x [ T m 3.i.-.m x w e $ w h h % h h h h h M h M h h h h h % h h h h % w h h [ } } :..._ h # % $ % % w # $ h r # h N h M h g.Q.i.i.i.n w x r h N t.-.N - 2 2 5 5 < H.vXkXuXoX`.M.b.b.N.b.N.5X>.r r / r r # / r r r / / ( r r # r e.r e.h h ( / # # / / / { b.5Xb.0.+.+.+.0.+.o.+.+.e.+.o.# o./ { e.o.+.1./ / / # $ # # e.e.0.5X5X5XN.k.C.k.9X9Xb.b.b.{ z.0.0.;.k.q.0.X.b.k.X.) r j Q T.Y.Y.4XT.J.u w m =.v w P L.y.L.J.3.P 4.~.a.y l &.&.L v n j w x P x } m x $ e e e w e x j q > : p l v l u v x ' T T 2.y.&.m w e @ $ @ e e @ @ w e @ w w e e @ w R y.k & g F 6 6 D 1 ! Y.4XJXPXPXPXHX5.y z w N N N N N } } } t.T } M M M T } t.T m M m M N M } } h y y z l i 3 3.(.(.!.m.p.r.t.r.r.r.h.z.;.h h h r r r h r h r ( h ( [ h r h ( ( h h ) ( ( r # r ( ( { z.b.b.0.{ X.+.V.o.o.O.{ / { o.e.o.e./ / / 0.{ / / e.# # # / # e.+.5XC.5XN.b.C.k.9X5Xb.B.b.{ z.0.0.",
"0.j.j.O.j.N.0.X.) r e R Y.T.Y.4XY.K.L p =.j l v v T u l a q P U.$X@XL.&.w u u w e e w x e e e w w e w N N x x w q > q q j j j x x x z -.g.&.T z j z x w r e $ h h h N h h h h h _ h _ h h w h w e h h $ N % h w h M _ ( h r w # $ % % $ % % % $ $ h # h h h  .m c M -.' x h N h h h w x n ; 5 5 V V , XXxXaXrXoX8X`.`.5X9XM.z.`.N./ / ) / r # r # / r r [ / ( r # # / r # % e./ / # # # e.# j.b.k.B.B.k.+.0.Z.O.V.O.o.+.+.+.Z.k.+.+.+.Z.5XZ.+./ O.e.# e.e.# / 9X5XB.B.k.N.B.9XC.0.B.9X0.O.0.C.B.0.j.k.O.j.N.0.O.) h e Q Y.T.Y.;XY.K.K p 4.l j l v R u v u q m ~.$X$X~.3.u p j w q e x x e e $ w w w w j N z j z > @ q w u v u j v j x -.f.-.R z z z u u h e @ e e + e w e w w e @ $ e e z n : : 8 8 5 8 D 8 ! H.3XPXPXLXY.J l L N N % N N N } } m } t.} } M t.N } M } M M M M  .h M h M M > q 4 G l : a./.Q.n.z.z.h.h.z.b.l.h.n.l._ ( _ h h r r h r r h _ h h r r h h ( h ) # % h / e./ / # j.k.b.B.B.k.O.O.k.O.+.+.+.+.+.+.B.k.+.+.+.Z.Z.b.1.o.+.e.# e.e.# / 7X5Xk.k.j.B.B.5XC.0.B.5X0.O.0.M.b.",
"{ 0.0.{ N.B.O.O.o.r e T Y.+X;X;XT.P.q e q + 0 > - w q u q $.@XL.&.u q u v $.%.$.' =.} c c r e r r w x m z w > q j j e e x x n N v v v u.$.U v u u P T N n | N h w h N h h h h x M h h M h M h h e h h w h w w h h h h x r h h h # w % h % w # # # h h ) h h M w _ h M _ r h N w w h N c w : 5 V B V < ,X>X).`.).`.M.M.b.0.k.C.9XtX0.r ) ( / r r r # r # / / r # r e./ e./ ) e.# e.# # e./ O.tXC.0.o.+.O.+.O.O.O.V.+.+.O.V.k.k.Z.+.O.Z.0.Z.Z.0.k.Z.+.) e.# e.O.A.k.j.0.Z.B.5X9Xk.B.9XC.C.N.9Xj.) X.0.O.X.N.B.O.O.o.r e T Y.4X;X:XY.P.q q e + > 0 0 t q u q &.$XU.&.u q u P -.7.:.} i.-.c [ w e s w x c P j w > > j j > w x x m n v v j u.T R l q z n E L n t.N w @ @ x h w w @ e e + @ e u b Y 2.i 2 < , 8 8 ~ S.4XPX:XR l P n m } } N } M M M M M } T } M } } M  . .M N M T } M M M h M h e 4 y k l y R.Q.r.m.z.z.r.h.r.t.h.z.M.`.;.h _ _ ( r r ( h r h ( ( ( # r / h e./ e.h e.e.r r # ( >.qXN.j.o.o.0.+.O.V.O.V.O.+.O.O.k.k.B.O.+.k.0.Z.Z.0.k.Z.{ / e.e.e.0.7Xk.j.V.N.k.5X9Xk.b.9XN.N.C.5Xk.) ",
"` { X.{ z.k.0.k.0.l.x n ;X3X3XOXOXa.*.7.@.[ @.@.7.7.7.L.~.~.Q.a.T U =.T 4.a.u.T -.&.i.L.f.-.-.N w w e @ q @ > e @ w w w j x x x n w -.-.P T v x l n u.n T m M N h h h h w h h h h h h M h h j h h w h w w % w e h x w h % h # % h # h h h % h $ r % h h h h % % h h _ h e h M h j h N w q * 3 Z A 6.U pX].v.`.N.>.X.j.B.5XN.C.tXiXb.) e.# r [ ( r r r ( # # r # e.r # / e.# # e./ # / / { 5XC.k.Z.Z.V.V.O.k.k.+.V.k.k.O.k.V.Z.k.O.0.0.Z.q.Z.0.k.Z.0.k.+.+.O.N.7XB.B.C.C.C.b.j.N.tX5X0.M.b.0.` r ) { X.X.j.b.k.k.0.l.w T :X2X2X;XOXa.*.i.] b $.@.=.7.7.L.^.!.Q.s.$.T 4.&.L.~.K.u.i.-.U.*X(.f.p.c w w > @ > + @ > > w q w j l j v v w -.3.Y &.v z z z -.L n n N @ @ @ + + @ $ e @ + + + + q q z R i 8 2 5 C C S.D G.3Xq z n m n M } N }  .) N N M m N T t.t.} } M M T M t.} } T M M } M h j > w E I R P ^.m.t.p.l... .>.j.z.j.M.oX`.z.` ( [ h c [ r r r ( r / r r ( / r / / # e.# / e.r ) { 9XN.B.B.B.V.O.O.k.V.+.V.k.V.O.Z.O.0.k.O.0.0.0.0.Z.0.q.Z.0.k.+.+.0.b.7Xb.B.C.C.Z.b.0.N.tX5X0.M.z.0.[ # ",
"X.X.j.X.j.j.k.O.C.zXw t ;X3X3X3X4XY.|.I.{.I.g.K.I.H.K.I.T.J.2.Q I u.k > > w m j n $.3.R y.u.=.R T m m x r e $ @ $ e w e e e e e w e M M w x w w w w h x N M h h M M h N N N M M h h h h M x h j N w w w w w N h x r r # h % # h $ w h h h % $ $ % w r h h N h h w h h % r x M x x x w e - : 7 J D.;XE P.}.8.).l...0.b.C.5Xj.N.tXqXtX5XN.+.O.) e.# o.{ { ( / # # e.# e.e.e.# e.# # # # ) b.M.j.j.C.k.j.O.k.k.k.B.k.O.O.j.k.k.C.k.O.j.Z.k.Z.B.0.N.k.j.k.k.B.k.A.7Xk.C.C.k.k.j.v.N.b.] <.0...X.o.) O.0.k.X.k.k.k.V.C.uXw 3 3X3X3X3X;XY.|.{.{.I.u.d.I.y.U.Y.P.H.6.Q E y.l > > j P x P u.u.3.K.K.y.3.$.$.T M e @ e + $ e w e e q > 0 j @ n N w w e e w e w h h j e w w N j m T T u.u.q a q #.&.q j : ; 4 8 2 5 F Y.! K.J.u w j x N m M } T } N N M M M  .} t.| T m t.} } _ M _ } | M } m c x q q y u.5.U.T a.L.,.v.r.| >.h.b.b.h.z.5X].8X).M.;.X.) / / o.{ ..) r # h # r r % / # e.# r # # / b.b.j.j.N.B.j.O.k.k.j.k.k.O.O.V.k.k.Z.0.O.O.k.k.B.b.0.B.k.j.j.k.B.k.C.7XB.Z.C.k.k.0.z.M.c.` 1.0.{ X.{ ) ",
"h.h.>.X.5XC.C.uX9X).w a 4X3X;X3XY.4XU.Q T G E E l E ! E i 7 = O + X + e j =.i.=.-.n n l j z : y j x x w w v j w m T &.m x w @ q h e w x x w w h x h N N x M N w w h N N N N x w x c x x h w w w w w e w w N N e w h h w % w h w # $ $ r w $ $ $ w r $ h h h w h % N h h r w h h w h e q : 3 7 ! Y.G.4 Q P ,.<.m.l.N.k.h.j.N.tXtXiX9XuXMXiXiX9XN.iXtX5X0.) / / # # # # e.e.# e.# # # # { 9XN.8X8XM.k.N.k.j.k.B.b.O.O.O.0.B.k.O.X.o.O.Z.k.C.0.b.B.0.k.k.k.O.C.MXC.C.N.b.j.0.b.v.b.>.{ ] ] 0.q.( ..b.j.0.X.5X9XC.MXtX].u a Y.3X3X2XY.+XI.2.R l L E J E ! E i y * O * X + q n d.d.f.3.T L L z y 4 a l L n j w T x j T =.u.T j w q @ w e w w w w w w h j N w j x w @ j x N N u.n w > P y.4.x q + > - q 3 3 2 5 ! ;XI 3.3.w j x x N h N N N N N N N N N N T N T T M m } } } M M M n M M M w e j k z T.H.Q k &.m =.,.r.l.h.r.X.h.z.9XoX5XN.9X9X9X5XN.z.oX`.M.>.) / / # # e./ e.e.e.e.e.e.e.# { 5XN.`.`.N.j.b.j.O.j.N.B.>.>.X.0.z.k.0.X.o.k.B.k.N.0.b.b.0.k.k.b.O.C.tXC.C.N.j.h.>.c.z.c.>.| { ;.<.q.[ ..",
"R.p.1._.`.8X9X5X_.%.v 5.D.4X4X4X4XQ E P j q e e e w w : q > x T v N T u.u.P z y n Q R R l z > - > > > > q > > q y q > q y e w w q q x w w e w w x x x w w h w w w w w w j z q q y e q q q q e q > 4 > y y n N z j j w q q e e e > w > > > @ > w > q 0 e e e j w > w j w w w z w j w a - ; 3 W H.~ Z l U b #.[ %.%.;.;.r.).yXeXoXqXyXeXuXyXqX0XuXz.| ../ ( # / / # e.e.# # # # # # # 0 >.#XwX!.m.s.>.h.r.h.>.j.M.N.b.0.B.C.B.k.o.O.j.o.j.0.0.k.z.M.N.b.C.8XqX9X5Xb.[.n.t.v.).).<.[ [ >.,.@.b d ;.'.c.0.`.oXqX9X8X`.%.v y.G.4X4X4XY.Q P L j e e q e e w > q > x &.m x -.d.d.3.z n &.u.3.2.L z > : : > > > q : : : : : : y z e w e q $ w h r w e j x x w x w N h e w e y > x z > > : > @ + 0 @ + - q > 4 3 g Y.Y.3.K.d.q w x M M M h N N h N N h N j w j N x N j N T N N m N N h x N N j q q y L 3.L y v P b ' m | $.%.| :.m.oXoXm.oX#XoX*X#XoXoX0Xh.| ..( r ( / / r % / # # # # # r e r ,..X%X^.x.p.:.r.<.h.>.j.b.N.N.j.j.B.B.k.o.+.0.+.0.0.0.j.b.b.N.z.M.7XqX9X_.z.`.n.<.v.).W.1.[ [ ;.,.@.b c *.",
"d.%.Q.0XoXoX0XaXp.m t Q H.Y.Y.H.H.J z z z z N w j j z w y z n 2.2.H.L l p G y : 4 z 4 4 y g z y : 3 k z z 4 y L ! 3.T n y q j j w w w w e q q j q j w u q q y y > : 4 > > - > 4 : 3 q : : ; 4 ; > ; 4 4 4 L z > z z : 4 : : 4 > > > > @ > > ; > - - > > > 4 > > > > > w e y q q e e > : t i i J l k t q n s [ [ ' ' @.-.%.-.P @.s.J.a.L.x.| M _ h [ r r # r r r r r # # # # r r r 0 s 6.4.$.P T @.*.-.,.Q.Q.a.p.v.v.c.].].h.j.0.z.N.`.`.b.<.1.<.v.c.v.c.!.m.x.%.p.x.1.v.!.<.8.| [ ;.v.@.' ' s -.^.1.'.wXoXoXrXpXp.m w R H.4XY.H.H.H k l l u x j j j z z y z n 2.3.K.U l u L z 4 y l i j y p z z > 4 z L k k z R y.J.R L z q u j w x x w q e q w w w w w e w e w e e e w e > > > - e > e q + > @ O ; 3 3 H Y.T.F H.-.n N N x N N j w e w N M N h N % w w h w w h h j j h h j j w w w q q y y a i 4 z y w b c b c [ ' m } $.$.@.P 4.a.7.s.f.$.M _ c h h h r r h r h ( h # h h r r r w u *.=.@.P @.@.&.-.,.R.R.i.8.s.v.v._.[.0.0.<.j.).`.).c.<.1.0.z.c.c.n.n.x.x.:.p.v.,.v.n.<.q.] [ %.v.@.[ ' r *.",
"*.$.d.}.>X XR.i.P P l I.2X;XY.Y.T.3.l p w t y : t 4 y H y 4 4 4 4 y i i y 4 > ; : 4 4 4 y 4 y 7 7 g 6 B 7 3 z H F G G G F l z y z L G u N z z z z u y u l p u k y y k z z n L k i 3 > 3 y = ; ; 2 2 5 5 B g 3 k 2 ; & ; : ; 2 < = 2 5 < ; 8 9 9 2 = = & = = = < ; ; > 4 : 4 4 y 4 4 3 4 i B B J J k z > - @ e w w e e > > q e w u 0 w s s s r s h x c w r x x s r s w r r u w u d s b &.n w q w w j v v q > : > > q x M s r [ c h m %.%.:.] c ' @.@.@.' $.' ' m ] @.#.1.#.%.s.;.@.@.[ [ _ [ ;._.1.,.!. X>X XQ.i.Y P p I.2X;XY.Y.T.3.k l u t y t : z y H y 4 4 4 y k y y k : > > : z y z z 4 i g i 7 4 B g 7 H E l H J L l G k j k y y y z z z k y z y y q w q w e > > y > : : y q e > > @ + - : = 2 8 7 ~ H.! H.z 4 : > > > > > > : y y u u w u w w w j w q q y y w w j u p i y 4 4 : t 3 t Z G G l k q > e e w w e q e e e w u s e w u s x c c x x h w r x x s x s w s w w r w s x v -.N x q q u x v x q q t > > q x M h x c c M M } %.%.' d ] @.%.$.m $.@.' ' @.[ #.,.9.%.7.;.@.%.[ [ [ _ ;.n.",
" X}. X~.L.7.s.$XXX*.7.L.K.H.|.2X3X;XP.4.P 6.P.L.&.i a L i : : 3 y ; 9 ; ; 4 4 4 4 2 3 3 8 8 7 B 7 2 7 7 7 8 g 8 2 6 2 2 4 2 3 4 G k z k 4 g z H G L l L R &.R P L L T T R R Q Q E 3.u.~ k I H k 2 5 8 V V B F 8 5 5 7 2 5 2 2 5 5 < < 5 8 1 8 2 2 5 2 9 1 5 6 5 8 8 2 ; 3 5 5 2 2 8 7 i i 6 A ! u.Q G a X > q < : * * = = = * = * - = ; : : t t y a 3 3 4 4 4 4 p i i a t i p p a p i y : 4 : > ; : + - = - - + + @ + O + + + + q w e e q q y y q w q w u b &.=.s. X.X}.a.=X/./.R.^.%XlXyXlXwXoXfX&X%X|.~.7.s.%X{.4.7.L.K.H.|.2X2X;XU.3.P 6.P.J.&.y a I y : : : 4 - * ; > 4 4 4 g ; ; ; 3 4 4 k 4 8 7 7 8 4 7 7 2 8 ; 2 8 ; 2 4 4 ; 4 4 ; 8 2 4 4 g 4 7 k 4 y : > 4 4 k z 4 y y y > : ; 9 : 3 g 3 7 V B D ~ UX~ 8 ; 3 3 ; > ; 4 2 3 ; 4 3 4 4 4 4 g 4 7 3 4 i 4 4 g 4 4 4 4 7 4 2 3 7 7 i 6 Z W ! I l q + - q : q * = = ; ; ; ; * ; > 4 q : q t a y q 3 4 z : i y a t i y k l k a G i y y y : : > q * - : * - - ; > + + + + + @ e w w q e q y u q e w q u b &.*.s. X@X~.i.@X/.^.x.~.%XzXdXzXwX=X",
"xXpX&X X Xp.=.L.4.&.P m x Y y.,X{.K.&.P P Q Y.|.Y.D.H 7 i F 7 6 4 7 3 3 4 8 8 4 5 < 5 6 2 8 < 7 7 7 7 4 7 B B 7 6 B 7 6 7 i 7 F Q k z l p z z z l n p z j n v j y w y j z j e y i E H.E y i H E F 7 V V V D ~ D A 6 a < 3 t i p G 6 < < < 6 9 2 3 < 3 5 5 5 6 < < 6 4 4 A K Y U U 6.6.D.P.{.|.-X3X:XP.|.5.S 6 < < < < 5 1 2 3 ; 2 8 8 8 8 5 6 , 5 5 5 8 7 5 6 5 < 5 5 V V 7 6 V 5 B 7 7 7 4 2 7 4 ; ; < = 2 & * 2 2 3 9 & ; 3 4 4 y 4 4 7 4 4 3 y i K y.,XCXBX1XxX1X,X+XOX$X<X:X:XgXgXHXJXCXCXCXVXgX&X X Xi.-.J.4.@.P m x K y.3X|.J.&.P Y 2.Y.{.Y.H.J Z i F V 3 2 7 4 4 3 6 7 6 5 2 8 7 5 5 5 7 7 7 4 7 k 7 B 6 7 4 7 6 3 i 7 k F i 7 7 4 7 6 6 8 i 3 = 9 2 : < ; ; ; ; 4 3 ; ; 4 2 4 4 9 8 2 7 7 7 B 7 B G.H.H G 7 i 4 4 5 g 7 B 7 8 8 7 g B 7 g g g 7 7 7 7 5 5 6 8 4 Z p G G G &.Q 2.5.J.T.~.{.{.H.I.2.p 6 2 5 5 5 5 2 2 < 1 2 8 8 2 8 6 5 , 5 5 5 5 8 7 6 6 2 2 6 7 V 7 7 5 6 B B 8 8 4 3 4 3 ; ; : ; 2 9 & 3 2 2 & & ; 3 3 4 4 4 i 7 4 4 4 a k G H.$XxXcX:XgX1X:X+X+XOX:X$X:X1XgXHXHXBXBXBX",
"gXgXhXjXVXjX&X@X$X$X#XoXx.=.Q.{.+X{.&.x s c s s b P 5.{.2.G J i 4 4 4 2 4 3 2 9 5 6 7 Z B 7 V 6 7 7 7 Z Z i 7 i Z Z J J Z F p 3.U K Y l v v l p p Y K v s u u w z w w z x j j y v k l A i 4 k i 7 i V V J S.! ! W P.P.R.7.8..X X.XR.8.P.8.8.8.2.Y Y 9.9.d p p 2.U K Y R.XX|.;X|.,XcXgXbXbXbXxX3XP.:XcX,X,X.XL.I.D.2.W A 3 3 t p p G S U H J A A p p J Y I &.5.5.2.2.Q Q ! 6.W Q 6.6.D.H.D.G G K j K &.n p : = & 3 ; ; * ; 4 ; = 2 y k i k l l I U Q {.,X,X<XcXBX:Xu.&.u.3.u.a.I.OX1X;X;X;X;X2XJXcXgXjXlXZXzXwX$X.X%X@X#Xx.=.~.~.+X}.&.x s x x s x Y 5.~.3.G G 6 3 2 3 ; 2 2 2 , 2 8 5 8 V V 5 5 V B 7 F Z Z Z Z Z A I Y A A G K K K K K I G i A p W K A q - - 3 : & ; = 9 ; 9 9 ~ g 8 g B 1 B 8 7 F F F W ;X;XY.Y.3.G 4 5 8 g g B B 7 7 7 D F Z g g D k i 7 7 G G k l 3.5.D.T.J.Y.;X-X|.|.:X,X|.H.{.,X|.|.|.a.P.6.Q K A 6 3 a i p p A I G F Z G Z p G K L U 6.2.R R Q I Q Q R W ! ! D.H.u.G G K l G U K u : ; & 8 3 : & ; 4 2 & 3 y y 7 l l G L I Q I.:X:X<XcXxX:Xu.&.u.3.3.J.I.+X:X;X;XY.:X2XJX",
"5.y.H.I.Y.,X|.3.a.{.{.Q.g.y.L.a.4.P @.@.' @.%.@.[ s m }.}.a.4.5.5.4.6.3.y.J.5.U K U &.K U Y I 2.U 5.5.L.a.P.I.~.|.{.H.J.T.K.K.{.i.d.i.d.d.f.=.%.t.f.p.-.| | } x e e : j y j y y y a i K L L l G J Z H W W H.T.6.;XxX>XrX X#X'.}.^.~.|.XX.X|.XXR.7.E.E.8.E.1.9.s.^.E. X.X~.J.Y XX,X-XXX|.|.P.P.8.6.E. XXXbX-X2.XX:X|.P.-XY.T.I.H.D.D.D.U S #.D.L.XX-X-XXX-XXX-XbX,XXX8.- 9.9.Y U #.#.6.P.XX5.6.8.J.E.}.hX}.a ; = 9 8 , & 5 3 G 5.a.&.U 4.4.4.@.&.7.a.3.4.a.5.5.|.<Xa.v $.' $.@.@.&.=.a.L.P.{.I.K.u.u.H.I.|.3X{.u.J.{.(.I.u.u.L.d.*.P @.@.' @.-.' m s m }. X4.6.3.3.2.Q 2.5.J.5.U p Y Q A p G G R U D.D.P.P.{.|.+X,X<X1XcXBXdXkXdXwXwX#XfXjXxX+X~.>XVXVXpXE.).x.v : 7 5 5 , 2 5 1 5 V V C V ~ H ! G.D.! S.S.3X3X+X;XY.G I Q I t 6 6 i i 7 Z Z G I U Q &.6.2.Y d U 3.4.J.R.8.5.S D.|.XXP.T.XXD.D.2.2.J.XXE.,X|.2.P.|.T.P.XXT.T.J.6.H.2.6.Y S U 5.5.P.XXXXT.XXY.-X-X,XE.2.0 9.2.K U Y W 2.P.I.y.6.7.a.E.}.pX{.y 2 5 2 7 1 & 6 3 G 5.y.&.Y 3.4.3.@.&.4.a.=.4.a.4.2.|.,Xa.v &.m T @.P @.4.a.P.f.I.I.f.",
"R $.-.3.u.u.u.$.T T T m T T T } } $.} | =.:.,.%.} m c ' p.s.s.Q.~.L.d.U.{.:XCXCX$X~.s.7.R.^.%X}.>XxX,X>X&X+X{.{.|.U.;XI.Y.K.I.}.{.(.x.Q.f.L.s.i.f.d.i.:.i.p.i.m q q q : t q w l n Y 4.7.y.-.n n : - H.2.2.T.Y.+X,X>X.X>XpX.X[.[.E.^.E.7.#.8.E.8.R.E.8.1.E.^..X X^.XX.X'.E.E.XX,X XF.XX}.F.F.W.@.8.XX1.F.E.E.~.E.4.9.F.D.F.K A : f o a 0 0 w.w.8.F.F.F.F.D.w.q.6X.XW.q.1.w.0 f o o o f 0 d 8.q.;.1.q.hXaX6.K I F 7 5 < < < W HX}.4.4.*.3.&.@.P &.{.(.d.Q.1X@X&.i.i.4.$.$.&.$.} m m $.-.u.-.T $.$.T T -.-.3.i.4.T T T T T } T m ' $.} ' %.=.:.t.%.' [ c [ <.7.p.d.R.d.f.L.~.:XJXJX<X~.s.8.E. XhX{.dXHXCXHXJXBX,X1X:XI.:X<XJXCXBXHXPXJXCXgX1XBX<XgXCXCXhX%XlXZXZXR.t 5 V 5 5 , 7 F J S.D.D.T.K z L 3 : z q * 5.H.y.3.&.R a.L.4.$.J.~.y.5.|.J.J.{.I.~.}.}.{.~.Q.~.~.XX X{.XXP.R.XXpX XD.P.XXL.8.E.@.8.E.9.D.F.P.E.D.8.6.8.D.8.S S t q - a 0 0 d #.9.F.D.F.6.9.w.8.XXXXE.8.9.[ 0 f o 0 o 0 0 d 1.<.9.;.8.pX>X*.K K J Z 3 < < < Q cX|.4.3.&.&.T R P &.{.Q.L.d.>X/.&.i.a.=.$.@.-.$.' m m &.-.4.u.T T T ",
"} -.%.-.$.t.t.T -.-.%.} | } | | _ } %.%.;.| %.:.} } ' [ ,.d.f.=.$.$.&.$.m b 6./.L.d..X%XfXdX&X>X>X}.}.XX4.3.-.3.&.y.|.+XK.R U.a.4.i.u.t.i.=.$.-.$.[ m %.%.:.%.$.n u u j n &.a.~.{.a.5.a.i.T T n - 3 J.a.L.J.}.}. X%X%X.X#X].0XrX].v.l.v.v.v.).6X.X[.W.[.v.R.E.!.x.[.R.8.s.E.[.E.^. X.X.XR.v.1.9.q.8.#.#.9.b ;.8.f #.w./ f w.f o o o w.8.[ #.9.E.XX1.9.8.q.8.9.9.Y d 9.8.1.#.0 $ f f / / [ 1.^.W.q.pX.X&.t Y Y.D.D.W ~ ~ Y.cX:X5.v $.&.&.&.-.m a.d.a.>XxX%X~.i.=.$.&.m T $.-.} ' } -.| -.-.$.} } -.| $.-.| i.u.} -.-.| } -.} %.| } ' } :.%...-...| } } c =.p.t.-.M m } m x v 4. XR.x.#XfXVXZXjXjXxX,X,XbXI.6.4.3.u.U.<X2X3X{.OX:X;X<X{.I.{.U.f.Q.a.7.7.'.rX#X]. XJ.K H I ! T.2XJXcXI.2.2.&.: v n e x -.s M -.i.-.-.d.f.:.%.:.s.(.'.R.x.^.R.t.d.Q.d.d.Q.m.x.Q.R.^.x.R.x.v.s.R.E.R.R.W.}. XE.v.8.9.v.<.#.#.#.[ 1.8.d #.w.w./ w./ o f 0 #.8.@.9.1.E.E.9.9.4.q.8.9.#.#.d #.8.1.9.0 $ 0 f f w.w.1.E.W.L.rX.X9.a U {.H.H.! W W Y.,XOX5.x U &.R &.&.P i.a.a.>XgX$X~.i.=.P $.m U &.| } } ' -.$.-.-.} } } ",
"| | %...| -.t.t.:.-.%.%.-.} } } } ' ] | %.-.| %.%.' [ $.' ' | | ' [ _ ' @.] ] h [ M %.#XAXkXAXwX@X X7.-.x.Q.i.p.d.d.a.U.Q K.y.&.&.=.4.=.=.:.| _ [ %.:.;.;.] [ s b @.&.=.a.~.~./.&.&.4.4.i.u.T j j G 5.I.I.}.^.p.x.v.8.(.x.).].c.).W.[.v.c.c.E.v.8.W.rX.XW.E.s.W.[.E.E.W.W.v.q.;.8.<.XX[.XX.X.XW.q.1.q.0.q.[ w.<.E.q.q.r / q.b.w./ q.eX6XE.W.W.8.#.d S f f o o f f w.w.q.d $ f 0 o f o f w.q.R.9.1.8.#.f * 4 4XH.H.G.2X3XcX:Xu &.4.=.-.-.&.$.$.d.&.&.4.*.&.@.-.t.$.t.d.$.' ' M m m $.$.-.:.$.| } -.| | :...-.t.t.:.-.%.%.%.} | }  .' } | ;.%.%.%.} ' m ' [ c m ' M c [ _ @.] ' r c c %.#XZXZXKXAXpXpXa.1. X%X~.^.}.{.I.{.y.$X+XK.s.L.4.i.=.,.-.| ,.x.'.].].c.8.$.J.|.;X3X2XIXJX2X7 p Q I R @.v v T &.-.=.-.-.} } t.,.:.p.f.l.m.1.:.s.(.d.s.s.d.p.7.p.Q.!.Q.s.,.x.!.R.R.!.E.v.l.;.q.8.^.[.E..X.XW.8.;.q.q.q.] #.8.v.q.8.r [ F.F.w./ q.6X6XE.E.XXq.9.d [ S f f 0 f f w.w.8.d 0 r f 0 r f d @.q.E.9.1.8.Y a 3 F Y.T.T.H.3X;X2XOXu &.=.3.=.&.$.$.$.L.$.*.4.3.&.U -.:.$.t.d.$.' m m M m } $.=.t.-.-.} ",
"t.}  .| | t.t.} :.} } %.| %. .| |  .}  .%.| ] ' } ] c _ ' ' ' _ M _ _ ' | } } } M _ r #XhXjXdX&XdX/.d.d.Q.x.x.f.t.f.d.4.&.4.m %.1.:.>.:.;.;.t.h.v.n.`.n.h.<.v.;.' 8.~./.{.^.$XL.P 4.u.d.3.T l 4 G K 5.J.U.L.7.x.x.!.!.m.s.r.x.'.[.oXW.l.v.v.E.1.<.W.#XR.E.E.E.[.[.E.R.<.v.!.[.E.q.s.[.s.8.v..X'.v..X].[.W.q.1.q.q.F..X.X6X6X6XF..X6X6X8.1.q.#.w.9.8.q.8.w.w.9.w.q.q.w.1.{ [ / f o o o 9.c.q.9.9..XXXXX9.* t F G.T.G.4X;X|.|.L T ' $.-.=.-.,.&Xd.@.=.| %.} } _ h } <.f.' m ' %.@.| -.} -.:.$.} | |  .}  .| | t.| ..} M -.| | | | |  .} } %.}  ._ ] } c c M ' _ _ h M _ _ ] } _ } h c r wXlXvXVXkXVX=XQ./.>X#X@Xx.7.Q.^.a.L.i.%.,.i.<.<.;.| .. .z.`.oXrX).l.>.!.#.~ 4X2X2X2X3XIXT.= K R &.P v l j $.=.T &.m $.-.-.t.t.m.m.n.p.m.m.oX!.@X/.(.!.x.d.i.!.'.x.R.x.R.'.[.!.E.8.v.!.[.R.l.v.XXv.8.s..X[.q.6X[.[.W.q.1.q.8.E..X X6XpX[.W.W.6X6X8.1.D.#.S 9.8.q.8.w.w.#.1.q.q.#.1.1./ / [ o o o q.F.q.9.1..XXXXX&.- i H UXH.T.Y.4X+X+XT $.$.$.&.=.=.t.#Xd.@.=.%.:.} } } M } t.f.' m $.$.%.$.%.-.t.%.| | | ",
"| M _ _ _ M  . .} } _ } M _ }  ._ _ | ..| .. .} | ' M h _ h c h h _ |  .} _ } _ [ c [ @.W.#XR.!.R.,.t.i.d.d.d.=.:.i.,.} i.^.!.'.c.r.r.h.z.h.M.8X#X0X*X0XoXrXoX(.~.*X<X1X$X}.$XL.~.^.L.3.y q u i z G u.U.Q.@.%.p.p.d.p.:.p.x.v.R.!.!.v.x.v.W.[.W.v..X[.[.W.c.R.].aX6Xc.W.E.R.d.p.*.E.s.<.x.!..Xr.v.E.W.[.E.E.q.E.E.E.8..XsX6XW.XX.X[..XF.q.w.w.1.9.w.q.F.5XF.W.7X6X6X7XW.W.{ { { W.F.7X6X5Xq.1.W.F.1.R.p X 4 F ! T.4X4X;X|.J.v P b $.@.=.,.*X@X=.%.,.%.} _ _ M h } | ' $.$.} %.| } M m  .m | } | } } M ) ) _ M _  .} }  .} M  . ._ _ | ..| :.| _ | ' M h _ h h h h _  .} ` _  .h _ ( c @.^.wX~.^.^.=.a.f.(.Q./.,.=.p.,.-.x.(.wXfXoXh.:.h.z.t.z.A.M.oX!.b.m.z.<.-.W 4X2XIX2X4X3X! &.3.&.&.T b m m m T T $.m m } $.} -.g.t.f.!.(.@X*X XQ./.Q.d.!.x.!.!.!.m.n.(.!.'.#X'.v.c.E.x.R.8.*.E.s.1.v.!.#Xp.s.!.E..XE.v.q.E.E.E.q..XaX.XXXE.XXW..Xq.q.] [ 1.9.#.q.q.W.v.W.6X5X6X5X[.W.{ w.{ q.b.W.6X5Xv.1.c.q.1.s.v * p H S.T.T.4X4XY.y.n m ' @.$.:.,.$X'.,.-.:.%.} _ M _ h } | ' $.%.| %.%.} } m | T | T t.",
"| | T _ _ _ } } | } m } } } }  ._  .} } }  ._ M M M _ ' ' M h x c M _ _ | _ _ h h r h h c p.p.d.=.%.%.%.-.:.-.:.=.,.,.x s.'.!.!.'.n.M.0XlXwX#X0XyX&XwXyXyX#X#X@XL.+XcX1X|.|.+X~.~.{.y.y j l z z K U a.$X(.i.,.*.<.p.,.-.r.p.<.:.1.!.E.l.8.R.[.v.c.[.s.x.x.x.R.[.E.!.R.^.x.s.x.8.7.E.v.)..X0XE.1.v.l.XX^.[.v.8.q.q.q.F.6X.XF.6X6X6XW.q.F.W.[.W.6XsXmXmXsX6XaXaX6XsXbXaX,XXXW.sXmXsXsXsX6X6XrX[.E.#.[ *.b + = ! T.G.4X2X4X|.Y.L m c m %.%.$.%.t.-.-.-.%.@.' ' m @.%.} } ' } | } } | } } M M } } } | } } _ ) M } } -.M m } } } M } _  .} } _  ._ M _ M _ M _ M h r h _ _ _  .( _ h r r r r [ t.l.m.:.%.} } %.%.%.=.,.p.<.%.} m.oX(._.l.oXqXzXuXyXoXA.oXoXoXoXj.r.f.k T.IX2XT.;X,XK.u.a.i.i.=.$.x m $.t.t.d.x.| M M -.t.f.d.x.m.d.d.d.Q.L.R.R.d.d.(.(.!.Q.Q.!.Q.!.!.x.R.R.!.x.s.s.<.*.E.v.[.0X0XR.1.v.8.W.^.[.v.8.q.q.q.q.XX.XXX.X6X6XW.q.F.W.[.W..XtXsXsXrX5XrX6X.XpXpX.X.XXX[.sXmXnXsXtX6X6XrX[.E.#.#.1.Y f 3 2.H.G.4X2X4X|.Y.T m b m :.%.$.%.=.-.*.-.%.$.' m M @.$.$.' ' ' } } } } } } } } _ } | ",
"T } } } } M M } } m P m m M M M M } M _ m M [ m m ' ' m m m b M M ' $.} %.] _ ] [ r h [ _ :.t.=.$.%.:.-.,.-.=.:.1.-.*.m s.d.@XQ.(.}.%X}./.Q.+X/./.&XkX&XkX>X>X&X{.;X3X1X3X1XjX+X}.~.R j T L R R R &.L./.=.-.=.;.,.p.1.v.p.| ' 1.p.x.8.l.v.x.R.v.7.@.f.c.1.,.W.E.!.8.x.s.7.s.7.%.[ ~. X X%X&X%Xi.s.s.8.v.8.s.v.v.8.F.F.[.6X6X[.bXaXF.1.q.6X6X%X6XaXaX6X[..X.X.X.X.X.X.X6XXX6XbXsXvXvXmXvXrX6X.XW.q.q.w.@.5.9 F H.G.3X2XY.Y.OXU.y j T $.T $.$.&.-.%.| } _ _ } | ' | ' ' } ' } m m m | M } } m $.$.$.} } } } } M } } m } M M m M M M _ m [ ' M _ c c ' m ' n x x x c m ' } } } [  .( r r h _ :.p.=.[ ' ;.@.%.;.%.1.;.;.1.] ] } | | f.oXeX!.p.d.x.g.x.oX0XoXoXoXoX(.E H.;X;XY.T.;X! 5.u.a.i.=.i.i.p.f.r.d.m.f.f.t.t.m.(.n.(.m.d.:.-.7.i.i.i.7.u.f.i.4.=.i.f.7.i.x.R.R.p.d.d.7.s.7.%.b E. X X%X&X%X7.7.s.s.l.q.s.l.R.<.q..X[.W.[.[.aXaXq.q.q.[.6X.XrXrXaX6XXX.XXX.X.X.XXX.X.XW..XaXaXsXbXvXsX6X[..XE.q.q.#.#.8.> L J.H.;X3X4XY.4XU.j n T T T $.$.3.-.%.} } _ _ } | } ] ' ' | ' $.@.m } %.} } T } t.$.",
"P &.T P $.$.P T m m M M m m M @.m m m m m b n m m T m T m P b m m } } } } _  ._ ) h ) h _  .| ' ' %.%.=.=.%.-.$.%.,.a.Q.Q.f.i.i.$.4.,.*.&.&.$.P m &.a.4.2.3.6.Q 3.! H.H.H.Y.;XI.H.y.L l R R ! 3.u.R K.&.T $.=.d.<.,.%.%.1.7.p.p.p.i.p.s.x.!.s.,.*.,.R.p.7.x.R.d.p.7.,.7.,.@.' %.4.^.L.7.3.4.a.8.7.&.7.*.&.7.s.8.Q.}. X~.$X.X#X.X[. XXX.XbXhX,XaX6X%X.XpXpXrXaXvXbX.X.X.X[.pXrXbXbXbXvXbXbX6X,XE.W.E.1.9.8.2.- i 6.3X;XY.T.T.H.D G H G E L E R &.R T T } } T T m N N N M m } T m T m n n T E R T T &.T T @.$.P m m m M M m m M ' m m m m m m n b m $.b m P @.m m ' } } _  .) } ) ( h h % ) `  .) }  .| :.t.:.>.X.;.l.;.] ] v.,.m.p.!.(.1.=.,.%. .@.d.^.=.=.3.U l p W T.G.G.T.4Xu.u.g.u.g.d.K.U.(.Q.Q.d.d.g.m.(.&X=X{.m.g.f.g.g.g.g.t.u.=.=.=.u.-.| -.i.t.,.i.s.s.i.,.7.7.,.@.[ @.*.~.L.4.&.2.7.7.7.@.4.*.#.7.s.7.R.}. X!. X#X#X X^. X^. XbXaX,XpX>X%X.X%X.XwXaXhXsX.X.X.X^.wX#XaXpXaXbXaXpX X#X!.!.E.1.1.8.6.3 G UX1X;XT.U.T.K.G H L L U R E Q R R T T T T } m T m n N m m } } m T n T N T &.R $.",
"4 i l l G G l l z n l z l j k i l L l j v l K l l v l G z z L v P m N m N m M x j x h M h _ c x m s -.d.i.U.Q.(.*X+X{.{.{.U.i.R P L v l v u x x u v u l y a 3 : y H ! Q I R G j T T z l L H G L L L P P P R t.t.a.=.&.-.P $.-.*.-.$.%.m @.$.' m P $.&.3.4.y.4.3.@.@.&.-.&.&.7.4.=.-.$.$.@.$.T &.&.&.@.@.@.U p d 2.d d b U Y &.*.b d d 8.[.E.E.E.P.8.2.F.|.~.,X.XL.8.5.J.XX X XaXbX,X-X-X,XbXvXgX%X}.$X.X~.I.W W ;X3XT.Y.;XY.H g i 3 y : ; 3 4 3 i z l l z 4 w y y : > > : z j j y : : > ; ; 4 4 4 y l G H G l l l v l z l l z z l L K j n v K L G L L l z l L v P T n } m m m M x x h _ M _ ( M _ x m.jX0XAXAX=X#X_.'.!.n.wX$Xf.P 4.4.P U v L l l L l H i 8 2 8 5 ~ T.T.S.T.E E UXR L Q Q ! Q u.y.y.u.u.d.U.=X=X=X{.U.{.g.i.i.t.-.T m $.&.$.T t.T $.=.3.-.3.&.&.&.&.-.&.$.&.7.4.$.$.m ' m m m P P @.P @.Y P p Y 2.v v Y &.Y 2.*.@.d @.8. XE.E.R.R.8.4.P..X~.>X}.L.a.a.J.XX X X>XaX>X|.;X,XpXxX>X%X}. X@X^.I.R Q ;X;XT.4X;XY.H k k y k y 3 y i y z l z n j y j y q > > : > j z z z y 4 ; 3 3 i i ",
"7 2 2 5 2 3 2 2 2 3 8 ; 2 3 5 < 2 8 8 2 7 8 2 2 2 2 9 2 2 3 2 2 8 3 4 g 4 z g k g z 4 j z z u y t 3 I U T.|.|.Y.T.P.OX|.{.3.G : ; : ; > = ; ; = ; ; ; ; 3 3 2 3 7 2 g k J z 4 4 4 4 4 ; 3 2 ; ; ; ; ; ; ; 3 : t p G L K n Y p x u l y z u j z p u z i l l p p i p G L l G L I G L l n n L L L l G l G p y t a t 3 a a t a a u q > q e e a v v u Y S A Z S A K G G Y 2.6.Q Q G.H.S.W W ~ T.T.Y.Y.Y.XXY.T.D.H D.Y.;X;X3X3X4X! g g 3 < 2 2 2 = * 2 2 9 ; 9 * * * & 9 * O 9 9 O 9 ; ; 9 9 & ; 9 1 1 = & 2 2 < 2 2 , ; 2 3 2 2 2 5 2 2 5 5 1 7 8 2 2 ; 2 9 1 2 8 2 1 2 3 4 g 4 4 k z 4 k 4 z j j z z k y u.3.Y.OXK.3.i.I.cXcXcX;Xy.G G k i k i 5 2 5 7 5 6 5 7 V 5 8 8 D D ~ G.J g 8 8 4 4 4 4 3 2 9 ; 4 8 4 F J J H ! H.K.u.g.y.u.T -.-.T m T m T T T n L L P L G G G L I n l I H z l u j j p j l i i t y y q t a 3 q a a u u p p s a w w u s P Y d Y U Y S I K U I I R 5.5.4.3.H.H.D.S.6.6.P.T.Y.Y.{.{.Y.Y.H.Q 6.Y.;X;X;X2X4XUXG F i 3 3 4 3 ; = 4 3 ; 9 9 O 9 * & ; * O 9 ; * ; 9 ; ; 4 ; 2 9 , 2 ",
"5 2 2 5 2 2 5 5 3 8 2 2 2 4 5 1 1 9 2 1 2 2 , 5 7 4 5 3 7 7 6 7 2 ; ; ; ; ; 2 9 ; 9 8 3 ; 4 ; 6 7 p ~ ! H.6.D.! H.H.D.H.T.H.i 3 3 = - = * = , * * = ; & ; 9 2 = & 4 k k 8 ; & 9 9 * 9 9 9 9 5 5 8 8 2 9 & & & ; & O O - O - - - = : 4 3 7 7 i Z p i i i k 7 i i F 7 4 7 4 7 k i i 4 4 a 3 6 7 7 6 2 & 9 ; & 9 = * * * - - O = - - - * O O - O * = * * = < 6 < , 6 3 < 3 6 Z < 5 < V Z Z 6 6 Z a Z A 3 3 < < Z 4X3X3X3X3X4XT.UXg = 5 = 2 * * O = 2 9 9 * * & 9 & 9 O ^ 9 ; 9 > 9 ; ; 2 , 2 ; 9 9 2 2 2 , 1 9 2 1 9 5 9 9 9 2 3 , 1 , < 1 2 2 9 2 2 2 2 9 2 5 1 < 9 , 9 & > ; 9 9 2 = 3 < ; 4 * 8 5 6 1 1 7 2 B B B H J J J F 7 D 7 2 2 8 2 7 7 5 B 7 B 8 7 8 B 6 1 J G.! J g ; 8 3 ; 2 2 8 8 g 7 g g 8 8 2 2 9 7 8 ; 4 g g z g g 4 g z k 4 z n L G L z l H k l l l g k 7 7 4 7 3 3 3 : 2 = < , 2 1 & * & & * & = * = - < = - - : - : = - = = = : t < 3 < 6 Z a 3 p i a i J K i p p J W U I Y Y L I W p A A a K 4X3X3X3X3X4XT.H.k 6 3 2 2 = & * ; 8 9 9 & * 9 2 & 9 * O 9 ; ; ; 9 9 4 2 2 2 2 , < ",
"2 , 1 5 5 5 5 1 1 5 5 5 5 5 5 1 5 5 1 5 < 5 1 5 2 5 8 7 J i 7 V 6 5 6 5 5 V 8 5 8 5 V 7 7 5 7 Z W W Q 6.Q R l l l Y R L 3.J.R p y a y t q 3 3 t t 2 t < = < : 2 i H L H G a 2 = - = & ; < < 5 2 8 2 6 6 6 5 2 2 2 & & * * = * < 3 3 6 6 6 7 7 7 7 i F l p H E k F F F G J F k F i 3 7 2 2 3 2 2 2 9 = 9 2 9 = & & = = * = * = & * O + * * ^ X = & < 3 3 < p K U 2.2.J.T.6.2.2.5.7.y.2.+X}.}.~.J.L.{.{.}.~.K.|.2XIXIX2XJX3X2X:XY.6.J Q R G L k ; & 2 3 < & , & , ,   & 2 ; 8 3 9 1 < 1 , , , 1 1 1 , 1 5 5 1 5 , , < , < 5 5 1 1 1 5 1 1 , C 1 1 1 1 5 , , 1 , 5 C 1 5 1 1 1 1 C 5 , 5 C 5 , 5 5 V V V V V F 2 4 3 2 i 3 a 2 y F i 6 6 5 5 2 6 i i 6 Z Z 6 i Z A ! P.T.T.H.H J 3 2 : ; 3 6 5 5 6 7 8 7 6 6 D V D F 7 7 B g 7 7 8 V 7 B 7 7 7 7 i g 8 8 k 4 g F 4 i F Z J F F F G g 3 4 2 2 ; ; & & & * 9 2 9 & & & < & = = & = = = & * * & * O < < 6 6 t i A I Q 2.6.J.I.y.3.6.a.5.K.a.}.+X+X{.U.L.{.{.~.{.T.I.3XBXBX2XIX3X2X3XY.5.I Q Q H T l 3 ; 2 8 2 & , & , 9   & 2 2 2 2 5 4 1 1 1 1 1 1 5 ",
"1 5 1 5 1 5 1 C 5 C C 1 C < 1 1 1 5 1 5 C 1 C 1 1 , 1 1 2 7 1 < 1 1 5 5 1 5 5 V V V 5 5 2 5 6 G i l K G v j b n P *.4.8.s.d.7.@.-.&.@.P Y $.6.*.2.3.3.&.a.H.7.J.a.J.y.a.5.K.J.Y z y u p A p p K P R 2.3.S t B 6 6 3 6 < 6 Y U W 2.I I Y Y U 2.6.6.T.I.Y.H.H.5.! I G p I G F E I I I G 6 3 4 4 2 4 2 5 3 6 5 5 6 6 5 6 6 < < < = 2 , 2 & = ^ = < a 2.2.P.}.a.a.s.a.8.J.R.D.s.a.a.a.u.L.>X>X*X+X}.$X>X>XgX<XcX<X;XY.{.Y.{.H.UXu.I.{.K.a.I.~.U.~.R p i = < 6 7 7 p p < * 5 9 1 1 8 C 5 5 1 , 1 1 5 1 , 1 1 1 1 , C , C C C 1 1 , 1 1 1 , 5 C , , 1 1 , , , , 1 , 1 , , 1 , 1 1 1 C C C , 1 , , , B 5 < 5 V 6 4 L G K &.2.4.6.J.2.&.y.3.3.6.2.5.I.P.T.I.I.I.,X,X,X<XbX,X,X,X;X2X,X5.K l K K K Y A J G y A 3 a B A Z Z Z Z 6 B B B 7 B Z Z B V F F F k J J ! H G I J G F i H G G ! I W W G 3 3 2 4 3 2 3 2 2 6 5 5 6 6 < 6 5 < 5 5 , < 3 < : < * = : a U Q J.I.7.y.7.4.4.5.J.5.5.u.=.4.3.u.P.P.K.y.u.5.6.! u.T.|.;X|.Y.Y.Y.4XP.3.4.I.{.J.K.L.~.I.{.U G p < < a Z 7 i F ; < 8 1 , 5 8 1 8 5 1 , 1 , C ",
"5 5 C 5 5 5 , < C , C 6 V Z F 3 5 7 6 5 , F Z Z F p Z i A A G J G F J K H Q J A Z p W I E L l p E u.J.d.d.d.7.*.@.*.1.%.[ %.1.' ] ' ' @.' @.@.[ =.7.s.8.7.s.L.s.4.@.4.a.J.s.*.@.b b *.%.#.%.@.7.,.7.E. X}.s.7.P 6.&.Y L U 5.6.5.J.5.a.P.I.a.4.8.J.P.P.H.W W J W p 3 a p #.6.Y G U K v p a i i G p J A W Y U P K Y I P I R R L l v L v l a q j L 2.P.a.8.a.R.~.L.a.R.s.i.8.R.^.s.7.x.&X.X X X'.}. X X$X$X|.~.XX~.{.}.{./.~.d.d.m.m.x.m.Q.!.v.m.d.7.&.P.I.#.@.2.@.U J.E : 2 1 C 8 5 5 , , , C 2 1 1 < 1 < 1 5 , < , , C C 5 V V < = 6 6 < , V B B F F i i Z Z J J V A H H ~ Q H B i Z W L U I Z 3 Q H.4X;X;X;XP.5.&.6.4.%.@.7.,.@.*.%.$.*.&.-.-.@.x.E.#X@X^.%XaX%XJ.8.~. X.X.XE.1.$.' 7.*.2.8.#.@.&.4.}.~.P.XXE.1.^.R.*.7.2.K S Y K H J W E K p G z l J J F F g G p 3 a p #.6.Y S Y S p a 3 t 4 Z i Z Z Y K Y Y K Y L Y U Q &.P v L L n x u q u K &.a.4.5.5.d.L.a.4.s.7.4.4.7.s.6.6.4.L.J.y.2.2.Q U Q ! ! I 6.5.a.K.U.U.U.Q.s.p.f.f.d.d.m.m.i.s.d.4.@.J.R.@.U &.P @.J.I = 2 1 5 C 5 5 1 1 , < 1 2 ",
"3 < 6 6 a < V W W A I Z 6 2.5.l u U 2.p = D.6.L I R y.J.L.~.~.5.&.2.5.J.&.u s &.&.R P.R y.L 5.{.;X+X|.U.d.=._ [ _ ] ' `  .t.h.:.h h [ ] ' [ %.r.<.:.1.] | 1.:.:.1.7.<.%.1.p.<.>.:.r.h.h [ r ` ;...] l.v.v.W.v.v.v.s.7.7.s.XX9.7.E.c.8.s.[.!.E.}.~.E.6.p S U K a t U I.XX|.}.XXL.L.J.8.&.&.U R Q 3.3.}.dXhX%X.Xx.,.p.i.i.=.=.=.,.,.:.%.:.1.:.%.,.4.1.8.L.~..X X#X&X&X@X@X%XwX XrXwXrX#XwX#X%X%X*X%X>X%X$X X X}.}.@X X@X#X*X_._.oX`.oXoXC.oXoXA.#Xn.d.).x.^.[.v.s.c.@X&Xq & & , , , < , < , 6 G A 5 < 6 6 5 < 5 H W A A a 3 2.6.G p U 2.p - D.6.L H R y.P.P.|.|.5.! 6.y.K.2.y u ! &.U Y.R H.G H.;X2X3X;X3X3Xa.c s r [ ( h ` `  .` h h c ] ..d >._.c.l.v.1.1.v.c.c.c.W._.1.).).N.l.j.b.N.( h r h  .` ] n.z.v.!.'.#X].wX].[.6Xv.#.*.s.E.*.%.s.7.a.^.y.G p 7 k F F 6 3 U ~.|.XX}.^.a.7.4.@.b K G J G J I ~.pXfX%X#Xd.,.s.i.i.t.=.u.u.i.t.1.7.p.t.=.=.4.7.7.a.L.}.E.^. X}.^.~.^.^.R.!.R.L.d.J.a.a.4.a.D.6.W K I 4.L.{./.(.(.oX'.!.!._.n._.!._.M._.M.oXx.p.(.d.W.(.v.v.R.@X&Xq = & , , 1 2 9 & < 7 J F ",
"&.x p b u n R R 3.2.D.5.H.2.I 2.5.2.4.a.I.5.Y K L &.6.3.3.4.&.j L R P v v q x &.4.L.4.p p p 2.H.D.~ ~ Z p ' [ [ _ ` ` ` ` | | [ [ ' [ ;.r.l.z.l.r.r.t.p.t.,.$.%.' [ [ _ } :.l.l.v.h.<.>.X.` k.0.{ X.`.c.q.6X).<.l.,.7.@.v.).) { O.;.>.W.<.] q.E.8.,.Y u K a t : t |.~.J.R.J.8.5.4.2.8.J.P L &.y.u.3.>X%X=X(.!.m.s.a.a.a.4.=.i.=.,.=.u.=.i.4.4.4.s.a.7.~.>XpXpXkXfXdXpXfXfXpX&XdXhXfXdX&X*XyX&XpXpXfX&X*X XwX#X#X#X%X>XwX%XoX@X#X=XoXoX].#X8XoXN.!.N.n.M.0XlXjX#X#X&XQ.p.q 6 5 5 , 5 = a v &.4.3.P u u v u v P T S.W 6.D.H.Q I 2.3.Q 4.a.I.5.K K L R 3.3.3.3.Q y K R L v n q u &.5.I.4.i p i Q T.S.S.~ V 7 K c h h ) ) ) ) _ } M M M [ %.M.oX8X#X`.n.z._.n.s.:.,.%._ [ ` ..j.oXN.oX).b.j.>.{ j.X.# / 5Xq.q.W.[.v.W.W.).0.b.k./ / o.{ { q.z.{ c.v.] s u i i B 6 3 < |.~.J.E.J.5.7.9.#.2.2.l z K W I U 1X$X%XoX!.x.f.a.a.a.4.i.4.t.t.=.=.=.,.4.7.a.L.a.J.~.$X>X>XpX&X&X%XwX&X%X$X&X>X%X>X%X$X:X,X>X,X>X,X{.R.}.wX@X'. X%X%X@X'.'.@X#XoX_.].oXoX`.n.n._.m.n.#XzXzX@X#X&XQ.p.t 3 5 5 < 5 2 y l &.4.2.",
"$.3.$.P &.&.K n n &.@.4.7.$.$.-.%.P P &.6.@.&.3.T m P U $.$.R m n m m x v v x x b M x w s x m u L 2 L v x %._ c ( ( _ _ _ ` ] | ] _ _ | <.>.:.| ' | %.:.%.%._ } } } c h ' 1.,.:.@.| ;.:.>.h.9X5Xh.b.9X8XC.N.j.z.n.b.<.r.oX'.v.M.M.W.5X].<.v.l.[ r d s Y a t a t p 9.4.E.R.4.9.&.8.6.4.4.u.K.K.y.I Q }.R.!.!.!.(.!.=.=.i.7.y.u.i.4.i.i.i.i.=.4.a.a.a.J.pXdXdXgXxXlXxXjXjXfXaXzXaXfXaXeXwX*XwXaXfXhXwXwXwXeXeXfXfXsXzXzXhXaXrXwXrXqXqX9X8X8X8XoXoXoXoXoX#XyXyX0XwXpX*XhXlXa.2 5 6 5 5 k l T T U P T 3.$.b P R L v S #.P =.4.' @.-.-.m P &.6.@.R &.U m L m &.T P v v K n x x v x x b m u e u x n t D , J G S *.[ w r ( ( ) _ M _ } [ _ [ :.b.n.l.%.' | t.t.:.:. . ..._ [ /  .h.h.r.;.X.>.h.j.b.N.9X .V.9X8XN.`.k.b.N.`.5XN.`.8XN.C.qXtXnXnX0.b.j.( e e q a 6 6 a 3 i 2.4.E.R.4.9.*.P.4.5.2.L ! Q E Z I $XQ.'.(.(./.!.=.=.7.7.i.i.i.i.i.s.i.i.,.t.7.i.7.s.%X>X%X>XpXfXdXwX&X%X.X&XrXwX&X%X%X'.%X%X%X@X.X/.'. X).0X0X#XeXaXeXrX0XrX0XqX0XrXrX8X]._._.M.M.oX=XrXwX#XwXwX%XhXlXa.2 6 V 5 7 p G T U @.L ",
"P m m @.@.&.&.-.$.$.=.u.=.p.t.i.,.t.-.$.=.=.=.$.$.-.| u.=.=.=.-.-.,.=.$.%.m @.} $.%.-.m M $.$.T R k y R R.r r r / / / ( [ ` [ ` [ ( _ %.] h M ' ] ' ] $.' _ } | ' _ [ [ | ..>.>.{ 0.X.0.>.j.eX).).0XtX9XoX`.M.8XeX].'.].E.p.R..X<.q.].c.v.c.).0.r f f u s t a d d 2.E.8.@.%.' %.b j 4.Y L K L U K u L.x.!.!.(..X*X'.s.i.s.u.7.4.4.4.i.u.7.i.,.t.<.<.#XvXvXVXBXAXhXgXlXlXfXzXyXuXzXqXqXqXuXNXzXzXsXyXqXqXrX0XuXAXxXjXlXlXjXfXfXyXyXyXyXqXqXqXoX9XqX9XqXqXyXuXrXyXfXkXhX&XR.y : 5 < 4 G z v L b P m x m m @.$.$.$.&.$.-.t.:.t.t.,.,.t.%.$.=.t.-.$.$.-.$.=.=.=.=.-.-.,.=.$.%.m m m $.&.&.c x $.&.P W V 5 Q +Xw r r r r r h h _ _ _ [ r h <.] r h _ |  ...|  ._ ..:. .) ( ( V.t.z.j.V.k.j.k.k.N.9X0.j.`..X`.oXN.c.0XuXzXzXzX`.).].wXx.).zXeX0XqXuX`.$ $ 0 - t 3 4 i a 6.E.8.@.%.@.#.d w 7.K k p G G A a ~.^.[._.'.#X*X'.d.i.a.i.7.4.4.7.u.i.i.p.,.,.p.,.'.fXfXdXdXdX>X&XaXwXwXwX0X0X0XoX`.oX0X#X0X#X).v._ r.n.!.#XwXdXfXhXfXdXdXfXyXyXyXyXyX0XqXoXoX8X=X#XqXyXfXwXyXfXhXfX%XR.p 3 7 5 i H l n m Y m ",
"P $.} } %.$.=.%.-.i.i.t.a.i.g.f.a.i.=.-.=.i.=.i.f.g.g.d.f.a.d.i.i.7.,.:.} $.3.&.T &.P m T ' U P y p Q I.}.%...;.>.>.X.{ ) o.{ # r h ( ` [ _ _ _ ' _ [ _ ' | } _  .' (  .h.z.B.z.B.j.j.X.X.b.b.5XtXtXv.q.l.<.p.).).7.-.7.7.1.1...[ 1.q.1.] ] p.l.[ r [ [ Y *.2.6.Y 5.5.4.=.#.b r s x m n j v l v v a d.).).n.!._.#X&X!.i.7.i.y.a.a.4.y.i.i.7.t.7.=.[.DXZXZXZXZXBXxXxXzXfXfXuXlXzXzXNXNXyXlXfXuXzXzXuXyXyXyX0XoXqXeXfXlXjXlXlXNXzXNXuXyXqXqX8XqX9XqXyXqXqXfXuXuXyXeXeX.X!.d.P = 3 5 7 I P P P @.m m $.} ' $.$.-.-.$.7.4.=.u.i.u.f.f.i.=.-.=.7.=.i.f.g.f.d.f.f.L.t.i.i.t.%.m -.3.&.m &.T n T n L E 2 7 ! |.:Xb r r s h r # h ( c r 0 r ( ) ( ( ( ) ) _ _ _  . .) `  .) ( h  . .V.V.k.j.B.O.0.b.X.z.`.]...;.;.] ;.]. Xl.v.x.v.<.;.] / <.W.).<.s.].c.f # r c p d K U u 6.5.4.1.@.d r e a n i y k p A G t L..X'.(.[.oX#XwX!.i.7.u.4.a.4.4.,.i.,.=.=.,.;.n.zXzXhXlXhXgXdXdXdXwXrXrXyXyXqXqXyXoXoX`.`.`.[.`.l.r.M.M._.oX0XyXfXdXdXfXfXyXyXyXqX8X8X8X9X9XqXqXqXqXuXuXyXyXeXfX#X!.L.@.2 i 4 l I P P P @.m ",
"M %.-.t.t.:.:.%.%.$.T -.-.m T T &.R =.J.L.a.s.L.i.u.L.d.a.d.U.f.i.=.-.} $.$.m m =.n n P v c $.L : i U }.>Xx.v.)._.'.`._.M.z.M.j.h.>.( | _ h M ) _ _ _  .:.' | | ] ]  .j.N.qXqXqXqXuXzXtXtXtX9X9Xb.` ( [ r r r [ [ r r %.[ r ` ` / [ ..;...x.).<./ r w.1.#.b U &.p Y P b b s w e r x N x j j j v Y p p.#Xn.x.).).oX*XwX/.u.i.5.a.a.4.4.7.i.7.i.i.=.zXFXDXZXZXZXJXHXZXzXzXzXNXlXfXfXyXrXyXwXfXpXeXeXeXuXfXzXzXuXNXlXZXDXZXZXZXAXNXzXNXuXyXyXuXzXuXuXzXuXNXNXuXlXlXlXvXzXfXwX~.3 < 5 6 I Q n @.m x m %.t.t.t.%.%.$.%.$.M T $.n m T T T 4.s.L.a.d.d.i.u.d.L.i.K.U.f.i.=.-.} $.} m ' =.n N L l v L k & 5 ~ 4XOX@.h r r ( [ ( ` h _ r h ( r o.) % % h ( h h ) ` _  .|  .` o.) X.N.C.N.N.8XiX5X6X5Xb.N.0.# # / # $ / [ r / ) X.) / e.) # { >.%.[ i.v.( # 0 { F.$.q v K : v P m b s e $ e s j y y y i k l a s.*X!.!.[.].#X&XwX/.4.i.4.a.7.=.=.4.4.4.=.,.*.wXSXlXlXfXkXjXxXlXyXyXyXyXeX0X0XoX`.oX).'.).n.M.M.).`.oX8X8XyXyXlXNXlXAXlXfXlXuXuXuX8XqXqXyXuXzXuXuXNXNXyXzXlXlXlXfXfXaX{.y 3 i i W 3.Y $.m x ",
"=.g.m.g.i.p.t.t.t.t.<.p.r.f.t.-.$.x v &.R &.P Y n n T z T U.I.d.-.i.u.-.i.i.i.@.m =.f.' %.s.4.L t i R +Xs.[ | ,.p.R.!.!.x.r.r.l.m.M.>....._ ) _ ..r.h.<.] ] _ ( _ _ | z.`.8X8XM.c.c.`.eX8X[.`.z.>.>.0.;.r # / r r ( ( ` ` ` l.l.<.1.;.1.1.<.1.[ e r r d d b u a - + u s r e # w r N w e j j v P m v 4.c.m.!.(.].wXwXfX&XQ.p.7.a.a.7.5.7.a.a.i.,.%XKXDXKXDXKXZXCXlXlXvXNXzXzXzXaXwXuXzXzXSXvXzXsXNXlXzXuXzXzXAXNXlXlXlXNXlXzXlXzXzXzXzX0XqXyXuXyXuXNXNXSXNXzXNXNXfXzXwX#X%X$Xl < 6 , 4 l 4.$.P -.:.i.d.t.i.g.t.t.t.:.t.p.t.r.t.%.$.x v 3.&.R T n Y P T j T U.~.U.&.i.u.&.i.f.i.} m =.d.T &.=.T y * 5 J |.=.# r r h h ) _ ( [ ( r h ( / j.V.) % % h ) M ) _ ` [ h ( ) h  .m.C.N.h.>.l.M.`.b.j.N.j.O.>.X.>.# $ / # e.) o.X.X.{ b.5Xn.j.:.( h ( r # # # [ [ s u 3 : + - s d e $ e $ e x u y z 4 l F G p 4./.!.'.].#XyXfXfX&XQ.i.7.i.a.7.4.7.7.t.i.,.'.ZXlXlXlXlXjXkXfXfXzXsXtXeXeXoX].oX8XrX8X8X`.`.`.oXN.oXqXrXqXlXzXfXfXfXfXyXyXuXyXyXwXoX=XqXqXyXyXzXAXNXNXlXNXzXzXzXwX*X#X$XK a Z 4 p I y.*.-.-.",
"d.g.i.L.d.g.u.%.-.(.Q.'.@X@X'.(.d.m w q + + + + @ ; + + &.K.{.K.L y.K.u.u.-.a.d.&.i.u.4.Q.d.Q.$.v P U R.,.r r [ _ [ ] ,.<.p.v.M.M.M.M.0.j.n.l.r.r.h.| ` ( ( ( ) ` ..M.].b.N.j.>.>.>.;.| :.n.m.>...0.1.0.# r ..X.j.z.h.l.1.8.p.8.;.[ _ _ [ [ [ 0 $ r e e $.Y p u + - e s r r r w w x M v x z x v l v 4.Q.n._.oXoX0XdX%XwXwXQ.i.7.a.s.a.8.7.s.1.zXPXKXLXKXDXHXZXZXCXjXdXhXvXlXpXzXNXvXlXjXyXlXjXjXfXfXyXjXlXzXvXzXzXfXhXhXzXkXNXzXfXfXyXaXeXyXqX*XoXyXNXAXfXlXlXkXyX&XwXwX@X*XY ; 3 5 * = L U.3.=.d.f.i.U.f.g.u.t.$.!.!.'.oX*X/.(.d.$.q e + + + + > @ + - 3.U.+XK.I y.U.i.4.3.f.U.&.i.u.&.L.i.d.l = = i L.-.e e.r ( ) _ ` ] ` h ) ( ) h % h % ) % o.e.) r # # # ( ..X.0.b.j.B.V.o.o.X.X.r ) h.r.h.j.l.z.0.r # >.0.C.C.N.N.b.).c.c.O.e.# # r # # $ $ # / $ c s y q - - 0 e r r r e e u v l k k p p p p f.{.@XoX#X*XwXfXwXpXwXQ.7.,.s.a.7.7.7.,.' #XDXDXDXNXlXAXlXjXjXdX&XpXfXwX#XrXwXqX0XoX_.oX'._.).!.n.oXqXyXyXyXaXwXwXpXwXyXfXyXwXwXeXwXwXwXwX*X#XwXlXNXlXlXlXfXdX*XwXwX@X@XR 3 g 7 ; 4 T ~.u.t.",
"T n 4 R u.R g.g.g.y.U.+XI.a.3.a.L.d.d.n 0 @ @ + @ + + O 4 G z > y j n l q y L R y.T : q y x L y y l t =.f.;.>.X.` ) [ ] | :.8.,.<.@.r.!.m.l.r.X.;.` ) ..X.X.X.0.h.M.9XM.h.>.j.b.b.j...) ` _ ( _ ] ] { X.) { 0.l.l.,.$.m m  .c c # # # # r # r $ $ # e r s e x u q q 0 w s r h r h u x v n n v n n n =.f.f.n.(.!.&XfXhXfXfXfX!.i.,.=.6.6.*.%.uXFXKXPXPXLXKXHXHXxXjXjXCXCXxXgXcX<X<X:X~.|.;X$XbXcXgX<X<XkXdXxXxXxXlXgX&X:X&XkXAX>XdXjXjXxXlXkXfXyXfXjXfX@X/.*X*X=X*XoX=X=X(.(.T 4 7 8 9 4 k n T n T z : R -.-.u.g.g.y.I.{.Y.d.3.L.L.d.x.m 0 - + + + + O O : l z > 4 u l l : y G R y.E = > - > l 4 & ; & 4.R.>.0...) r h ` _ h ( r h # V.oXj.j.X.e.e.# ) o.V.V.j.k.X.V.B.B.X.+.j.C.N.N.X.)  .) ( _ { ;.>.0.{ X.j.M.).v.-.| %.<.] ` # o # # # # # # # # r r e f u t > q - s s e e r r a l F G E p J F G y.U.U.(.@XoX&XfXhXfXfXpX!.i.7.,.4.*.*.%.0XFXDXKXDXVXAXVXVXjXkXwXhXxXdX%X>X$X X~.f.L.Q.R.^.'.(.Q.!.+X@XdXhXgXdX&X*X@X*XdXdX&X>XhXdXjXkXuXyXyXyXjXdX'./.=X*X@X=X#XoX=X(./.R l k g 8 z z T u.T ",
"- 9 : : 4 : H Q 3.z y z L z u K &.3.y.y.3.E > > - + + O O O + + O + + + + > e w s w e + @ > q > : 4 > u.4.x._.'.l.<.:.%.] | | t.:.` :.1.[ ..>.....r.l.b.z.h.r.r.z.l.>.<.c._.'.l.:...` :.o.r h X.) [ ] ( ) ) :.%._ h r c s e r r # $ w # $ $ e e e r w e e e a p i 4 7 : z x s b c x x x x -.n n v v n &.i.f.s.f.a.U.|.$X:XcXHXZXaX XE.c.).DXPXCXLXLXJX3X2X3X3X3X;X4XY.T.H.T.Y.4XH.H.H ! W ~ ~ ~ ~ ~ 6.6.W Q 2.4.a.a.a.L.a.{.U.f.H.K.H.OXOXOX+X+X+X+X^.L.Q.Q.d.x.f.t.i.7.=.i.&.t Z a = 9 - X O > ; - ; 4 4 y L Q 3.z y z T j y n &.y.y.y.u.T > + > + + O X O + + O + + + + > q u w w @ + + @ 0 * * = * a.a.(.0XzX0Xn.r.>...;.>.N.h.{ b.B.X.z.B.j.V.z.9XiXiXoXN.N.9Xz.j.B.9XuXNXN.h.t. .j.o./ (  .] ` ..) ) | l.t._ h # r r r ) # # $ # # o # $ # $ % w w r e e i i 4 y 4 j p p u x p u k G 5.J Z G L J 3.P.U.Q.L.a.I.|.:X>XcXCXZXaX'.c.v.c.vXZXjXCXCX1X>X:X;X;X;X|.Y.T.H.H.H.T.U.y.5.L T I L L K L m R 2.Y &.2.4.5.a.a.a.i.Q.Q.y.a.H.H.OXOX+X+X+X+X+X~.L.R.Q.x.R.f.i.t.i.=.i.3.a A Z t 3 4 + + q ",
"; > 4 > > : > > q : q > > > > : : > > > : > + > ; + + @ - - + $ e + + + > : : j s u w y > e > > O @ + x w s c _ c c ' [ ' ' %.' c M } c x ' $.m ' $.m b N u s c d m $.-.%.c h h r h ( _ h ) r ) ( [ ` ` h h ` h r s h s c r $ $ $ $ $ $ w $ $ 0 $ e 0 e s w q a i 4 i 2 t l n n x v v j v u.4.R m R v u P T L U Y I I 2.! 6.Y.3X3X3XcX3X2X2X4XT.S.H.~ B Z B Z J B B 7 Z V 5 V 5 V 6 Z a t i 6 A G K 3 G Q R 2.P.L.{.}.v 0 w h h u q r e n n &.T $.m U ' &.-.} M m m T @.T U L - < 7 2 9 9 ; + ; - : > > : : : > > > y > > > > : : > > : > 4 9 @ ; + + + - - + @ @ + O + @ > w u x j w e @ q q @ O @ O m x c m | | | r.p.h.l.c.t.| t.j. . .<.p.l.l.v.r.:.' [ c ' [ t.i.h.t.} ) h h ( )  .) ) ( ) ( ) X.{ % h | ( r ( ( h ) r # $ $ $ $ # # # # # $ $ $ # e 0 q t 7 7 4 3 4 p v v d l k k k H.T.D.I Q G t G L K K I J K ! ! 6.Y.3X;X3X2X:X3X:XT.H.! H.J F Z i Z G F k 7 k i a 7 4 i 4 l u u u u x v b w x &.U 3.P.L.E.^.c w $ s u u w u j x [ P P $.$.m m &.-.m T m T T T &.T T > y 7 6 < ; : ; > ",
"4 8 4 : ; 4 4 4 4 9 > O X = - ; : ; ; 3 3 ; 8 8 8 4 8 8 4 3 ; 4 4 ; ; ; 2 9 2 ; 3 3 2 4 ; 4 : ; - 9 O > w r r r e e e e e e e q e q q e > > : > > ; > ; > 3 4 : 3 ; 4 : ; y q z j w j w N w $ e w e e r w e e w u w j u w N w @ e $ $ e $ e r ' ' #.0.%.1.9.&.2.2.! ! ! I I R R Q K k l l u.6.H.K.H.R l l F k F F J F Z Z Z ~ F V S.S.D.T.T.S.T.Q F B J J A J G G A S A Z J F H W I W H.6.D.Y.~.{.}.;X~.I.{.CX:X:X,X<X{.+ X O X + + + + $ + @ > + $ e $ @ + $ @ e w e w u j t * 4 5 2 8 8 ; 9 2 8 4 4 : ; ; 4 3 3 ; ; O X = - ; ; ; ; 3 ; ; 4 8 4 4 8 4 4 3 = g y > ; ; 9 9 2 ; 3 2 ; g ; > ; ; = 9 O @ r r / ( ) / % # r r # r r r # $ $ e > > > q q > : t u y y : z : : z y N h w h h h h r h h h r h h w w x h w N j e h # @ $ # $ # # # # h s h } h ' @.U U 2.! ! W Q E W Q ! J B F D H.T.T.Y.Y.! G k y g g i F F Z A Z J D Z ~ S.H.H.D.! T.W A G G J G K G G p l K A A A K U U Y 4.&.4.a.s.a.d.L.s.a.I.cXOXOX*X>X~.@ X + X X + + + $ + + @ + + $ $ @ + @ e e w u f j u : & 4 8 4 7 8 8 ; 8 ",
"2 9 ; 9 2 9 4 2 ; 9 ; * & ; ; ; ; 2 2 4 ; 1 4 9 2 7 4 8 7 3 2 2 3 8 8 ; 9 9 ; ; 2 2 3 9 ; 9 ; 3 < < - - w e e e e q e q 0 > : > : > - - : i 4 3 3 4 7 3 2 4 7 4 4 4 4 3 4 4 4 4 4 4 4 g 4 4 z 4 w 4 4 4 4 y 4 4 4 4 4 4 g F 3 - q : q u N T d.~.J.8.7.,.4.4.4.4.6.D.D.6.! G G J W I F g D H S.S.H.! ! J 4 7 4 7 3 6 i 6 A 2.Y.I.-XbX3X3XcXcX,XxX,XXXI.I.L.a.}.%X~.XX-XP.-XgX2X2XbX,XgXP.I.6.J.R Y H.5.9.P.pXJ. X>X|.}.*X2.X . .   . . X . X . X o . X X X X o X X O X + + & ^ , 2 2 g g 1 8 2 5 9 ; 1 ; 3 9 8 2 2 9 ; * * ; ; ; ; ; 8 3 ; 1 2 2 2 8 g 8 4 8 ; 8 8 9 8 8 9 9 9 9 = 2 8 9 1 9 = 2 = = - - w e # # r r # # $ $ $ $ $ + X X + y y 4 4 4 4 4 3 4 4 4 3 4 4 4 g k g 4 4 y 4 z 4 z k k z y y 4 e 4 y y : 3 3 3 4 ; - > q > q u $ % N T @.' b m @.&.&.2.2.D.D.H.D.I I 2.6.6.F 8 D ! 4XT.Y.H.H.R 4 7 8 7 6 6 i 6 A 2.Y.P.|.;X-X;X1XgX}.<X$X~.a.L.P.a.R.$XP.XX|.J.|.$X:X:X$X}.OXy.y.R &.P K &.@.P s.$Xa. X:X}.~.+X| O .   X X . X X . X o X X X X X X o X o X X + + & O ; ; 3 7 7 ; 2 8 2 ",
"2 9 5 1 2 2 2 = & = = = 9 9 ; ; ; 9 2 2 3 2 3 ; 4 8 8 2 4 8 7 6 4 2 5 2 ; 2 2 3 2 2 2 ; ; 4 2 2 < 3 3 : + + + - > - : - - - : - ; * * = t : : 4 3 i 4 4 i i F I J E k i k 4 g 4 4 8 8 i 7 7 5 7 4 g 7 8 2 2 3 2 2 = 2 , 7 F 7 3 , 2 y W 6.! 3.3.4.U U P Y P U I J H I I i t a t 3 p J J B J D.H.u.H.H.u.J g 4 y i I Q T.3XHXBXHXLXJXLXJXLXPXLXLXLXPXJXLXJXcXkXCXKXZXCXBXLXPXPXLXHX:X3.~.@XP a.<X8.=.L.~.aX[.bXvXhXcX,X,XI.:   X X X .   X o X . X . . . . . X . X . . X X X ^ * = G G i 2 < = 6 2 2 5 1 2 2 2 & & & = = 9 9 9 ; 9 ; 2 2 ; 2 3 2 9 g 8 9 8 3 8 2 4 9 1 2 9 2 2 3 = 2 2 9 9 2 2 2 2 2 < > - + X + + O X O   O + O O ^   ^ ; ; ; 4 2 3 4 8 2 2 ; 5 9 g 4 g g 8 g g 4 4 4 g B 7 7 5 8 g B 7 = 2 2 ; , = , , 9 1 1 9 , * = 3 4 i k k l z p l v K K I H J W I p - a a 3 A W W B ~ 4X4X4X;XY.Y.I y y t Z I 6.I.2XHXHXCXHXCXHXvXHXJXJXHXCXJXCXHXBXdX&XkXZXlXgXgXCXJXHXBX2X~.T y.K.n R U.U P @.4. X^.>XxXpX<X:X:XL.:   X X . . X X o X . . X . . . . . . .   .   X   * * ; z J i 2 = ; 8 ",
": y 3 3 < 1 , < 2 3 , , 9 2 5 2 2 9 1 1 1 1 2 2 1 8 8 5 8 8 8 8 g 8 5 5 , 2 7 5 2 5 5 2 8 2 2 8 B B 3 : > + O + @ s x m b b P n n m L v U U U U U L Y R Q L 3.6.6.Q E I G E H J F z 7 F 2 2 1 2 1 1 < < 2 2 = 5 3 3 2 5 8 4 D F 6 W Q H J J G H G I l p d a p p a a A S p t t u p t F J V S.S.H.T.T.Y.Y.I.K.U.K.Y.|.H.I.JXJXJXHXJXJXJXLXJXJXPXJXLXJXPXJXPXLXZXLXKXLXLXKXJXJXJXIXJXBXL.Q.7.@.vXZX#XhXaX1XHXKXHXHXCX<X}.<XJ.t p ^ O < p I.#Xs.l.rX'.*./ o $ X X o X o + X - - a a 5.>XhX$X2.#.@.q : 4 : 6 5 , < < 2 , & & 1 9 2 1 9 , 1 , 1 1 9 1 1 8 5 5 C 8 5 1 1 1 1 1 , , 2 1 1 1 1 9 & 1 1 1 5 2 = 9 * X X X X . . O O * * * 9 9 * * 9 9 ; 2 2 2 2 8 2 2 5 5 8 2 8 2 8 V 2 8 9 8 8 8 < 1 9 5 2 1 < , 9 2 & < 2 & , , * , 1 1 , V V 8 V 8 7 Z Z F i t p a p i a a A S a w s f d t J ! J S.4X4X3X2X3X2X1XOXOXY.:X;XT.Y.JXJXJXJXJXJXIXJXIXIXHXIXJXBXJXHXLXCXjXJXZXJXCXHXBX2X2X3X2X,Xy.P.=.P >XdXI.}.~.L.>XxXCXCXxX,X|.<XJ.4 A * - > p I.|.a.s.#X`.,.r o + o o $ X o o + = - a a 2.:X<X|.2.U Y q ",
"$.1.@.b p a a t t 3 q - < = ; ; ; , 2 , & = < = 1 8 7 2 8 7 2 2 5 3 6 3 A G 6 6 8 2 2 ; , & 2 2 < 5 7 4 = : > : w s x c c m [ m b m m b ' $.&.P P P P K v v p p l p p i i i k G k 3 8 k 7 , 5 2 9 9 5 B i F ~ Z A J Z A A i 4 Z i Z V t Z i a a t t t t t q f f p d A Y d a p p A 4 6 7 D ~ ~ D.4XT.T.T.H.Y.Y.Y.OXH.G E Y.3X3XJXJXIXJXIXJXJXLXJXLXLXPXLXJXJXJXJXHXBXcXIX|.T.H.5.4.4.s.s.@. XLXKXLXJXHXLXPXJXJX1XcXOX$X:XH.5 T.S.D.Y.<XcX&.=.!.wX#Xc.].>.o.) r r / ` ;.1.1.8.[.%XxXDXHXaX@.^. X;.| ,.@.d d a a q t : - < : = 2 & = , , 1 & & = = 1 5 5 1 8 1 1 1 1 5 5 1 Z i 2 5 5 , 9 1 , & < , , 1 2 2 & ; + O & 9 ; > + O & & * O * * 9 2 2 2 5 2 1 5 2 5 1 5 5 C 5 5 1 1 1 1 1 1 9 2 5 1 < 1 9 , 1 5 5 5 V , , < , , , < 1 < < 5 < , 5 3 3 < 3 3 t 3 3 q : f a d d b f s s d d a 3 7 ~ S.D.4XIX2X3X3X|.,X;X<X,XT.G R Y.3X3XJXJXcXIX2X2XIXHXcXcXJXJXJXJXCXHXBXBX2X3X3XY.H.UX3.3.4.a.7.P ^.HXxXxXcX;XcXcXcX2X3X2XOX:XOXH.5 T.W 5.T.2X2X3.-.!.wX0Xc..X:. .} # # r ] ;.1.9.8.^. XaXxXvX X@.XXR.@.",
"h.j.b.l.{ / / / / r r r r r r e f f e f f q f s j e q u y q q y q a a s R.7.r w u e s e a q a 6 a a 3 3 3 4 3 t t : w x c x w x c x x x u x x x v x v j a l l l u y a p i k F g g 4 4 2 2 , , , 1 5 i K A p A Y 5.5.&.4.9.#.Y @.Y b w.2.&.@.U Y @.9.9.U @.2.Y P 7.8.p.8.8.&.d v p p 7 7 V ~ ~ ! T.T.T.T.Y.Y.P.a.y.f.d.&.U |.,X-X4X3X3XJXJXJXJXJX2X4X;X2X;X;X,X-XT.H.Y.G.Q *.*.*.R. XwX&X<XPXLX2XY.;X2X3X3X;X3X,X,X X,X,XH.X T.4XH.-XxX{./.].).).).qXrXtX6XC.5X`.tXrXN.5X).N._.0XzXhXaXE.9.W.1.j.j.h.N.z.] / / / / r # r r 0 r e f e f f f q f f u w q 4 : : > y q f w a E.,.f f w q a q f t t 3 < 3 < < 5 2 2 2 5 1 9 1 1 ; & , 9 9 & 9 9 9 2 2 2 , < 5 1 1 1 5 5 1 5 5 1 C C 1 1 1 8 1 , , , , , 2 < 1 , < 3 Z Q W U 2.U Y d K S A I 2.U U Y P @.6.6.9.&.4.#.w.9.7.8.1.*.b d b v p 3 7 D S.G.T.2X2X3X;X3X,X|.~.d.Q.(.&.&..X3XY.Y.;X3XBXBXJX2XJX3XY.Y.2XY.;X;XY.H.H.K.! Q &.&.-.s.^. X X$XJXcX:XT.T.3X4X4X;X,X,X,X X,X:XH.X H.4XH.OXcX~.^.].W.!.).eX8XeX8XC.C.N.tX9XM.5XW.N.).oXwX>X%Xs.#.v.1.<.",
"h.0.h.h.n.X.( _ ) [ ) r # # % # r r e.# # e./ / / r / r d r r r r s f v.v.r ( r r r r r r s r s r r e f r w w e q a t v x w w x h e w x w w e x m s s e s c m b s s w p u u a a p x a u p p v U 4.}. X~.L.R./.}. X X&X$X'. X'.x.x.d.Q.x.Q.~.s.7.7.,.4.@.*.4.7.7.7.s.s.p.7.,.@.@.*.P K Q I H.H.I.{.|.P.P.XX{.L.J.~.*X<X$X&.4.L.|.<X,X2XHX3X4X|.Y.I.P.;X,XP.I.{.$X~.=.&.&.3.(.kXCXHX+X>XcXPXcXI.4.2.2.6.Y.3X$X>X$X}.>X}.:X3.  Q ~ D.-XT.8..X].5XqXnX8X`.eXsXzXZXDXzX.XW.'.v.c.n.!.!..XwX%.;.] X.0.h.0.j.h.n.>.( ) / ( h # # # % # # r # # # # / / / r r r r 0 0 r f s 0 v.v.0 ( r r r r r r 0 r r d r 0 r 0 e u q < 5 , < 5 5 , 1 8 1 9 1 , 1 5 C 1 1 5 < a F K z a 3 t < 6 6 < a 6 t 2 t G v P &.R.^.R.I.a.Q.$X>X>XaXjXdXpX&X&X/.!.^.(.Q.Q.$X~.a.a.a.7.&.4.7.a.<.7.7.,.*.%.#.[ c @.s a G H H.T.;X,X3X}.;X3X,X|.|.$XgXjX&X=.4.L.{.,X,X3XcX;X4XY.T.H.K.|.:XJ.P.~.}.Q.3.R R =.U.1XxXxX{.;X,XJX<XJ.2.U U Q H.|.;X$X$X}.>X{.;X2.  Q ~ D.4XI.8.[.5X5X0XzX9X`.eXsXzXDXDXzX.X!.'.v.x.c.c.x.^. X%.%.] ] :.",
"j.v.j.>.;.z.>.( ( ) % ( ( ( % / # e./ # # / / ` X.{ ` ) / X.1.) r / ( ].r / ( / r r r r r r r r r e.r # r # r r w s x u x r x c w w r r ' } m N x w e f.'.x.x.x.!.x.R.d.R.R.@X&X$X~.~.~.^.{.I.{.XXaX,X>X.X,X}.}.>X}..X}.$X%X}.~.^.^.^.R.d.s.4.*.@.@.#.*.*.7.*.@.9.#.[ @.*.@.@.1.*.*.R L Q H.T.:X;XL.I.>X,X:XpX,X:X$XR.@X~.&.bX1X;X{.|.Y.y.5.3.y.H.5.D.~.P. X}./.+XI.I.OX>XdX1X+XL.P.{.xXHX&.4.*.7.3.3.y.|.:X,XcX<X;XXX:XQ O B J T.4X,XL.8.^. X.X.Xx.'.jXNXzX!.M.v.0.z.h.X.X.0.j.h.].6X[ ] ` 1.0.j.b.z.>.;.z.>.( r ) ( e.( ( ( # # / / e.# / / ) { { ) r / { 0.) r r [ 5Xr r / r # r r r r r 0 r r r # 0 r $ $ w e t 6 < , , 1 1 1 9 & , 1 5 1 5 1 5 * -XcX;X:X:X,X|.}.+X|.{.:X<X,X,X>X%X<XpX%X>X,X,X,XpX:X2XgX<XcX,X>X,XgX<X$X}.}.|.~.I.L.a.*.6.*.@.*.7.7.1.*.@.#.@.d w.[ [ c [ b P l i ! H.Y.2X2XI.{.cX1X1XhXgXaX>X}.>XXX3.cX<X}.Y.{.Y.H.5.3.5.D.5.D.I.I.}.~.~.{.~.I.|.:X>X%X{.K.K.I.gXcX&.&.&.3.R Q 5.{.}.,X2X,X+X~.,XQ * B ~ T.|.,Xs.8.^. X.X[.R.'.lXNXlX!.!.v.<.l.0.X...0.j.<.'.[.[ [ [ ;.h.",
"+.0.O.X.{ {  .j.k.X.) ( ( # ( / / e.e.e./ / ) C.5XC.iXZ.7X7XB.j.) # C.0.# e.) O.) / # r r r r r r ( # / # # / ( ` ] [ [ .. .) .. .h h ( _ :.%.| ' M ,.0Xn.m.v.m.`.oX'._.'.wXdX&X^.Q.~.^.a.4.4.J.y.~.a.7.a.~.R.E.8.J.^.E.E.p.<.7.8.s.L.d.a.=.4.*.$.@.@.b [ &.9.*.%.@.@.#.[ #.[ b P P P l Q 5.T.,X,X>XgX<X<XgXhXjXxXpXpXbX>X}.{.P.~.|.I.R 3.4.4.4.J.L.a.5.4.7.y.u.u.u.H.K.P.I.I.+Xa.a.7.{.d.%.=.=.i.4.&.@.K.<X2XcX2X:X|.;X! 2 V D ~ |. Xb [ 9.@.] c r 1.`.6Xn.`.b.>.O.0.+.k.Z.iXiXiX9XN.h.X.o.X.O.O.0.O.O.o.X. .j.k.X.) ( / # / % e.e.e./ / / ) 5XC.C.7XC.7X7XB.j.) # N.0.# e.) X.[ / # r r r r r # / # # # # # r r r f f f a : 0 < = ^ * ^ & 2 1 , ^ F JX+X~.~.{.@X@X X+X:X<X,XaX$X*X:X&X}.d.R.Q.R.Q.d.d.R. X}.~.a.L.{.}.~.a.a.7.4.s.L.R.s.=.4.*.$.&.@.' Y #.*.9.%.] @.[ c [ s r x d p i ! D.T.cXcXcXCXgXcXxXvXvXCXjXhXbXbX}.^.~.{.|.P.Q 3.3.-.4.a.J.y.4.4.5.y.u.u.u.y.K.K.I.~.|.a.a.5.~.a.-.&.&.&.=.&.P J.;X2XcXcX,X|.;X3., B D ~ 4X|.b [ *.@.] d r ,.[.6XM.).b.O.O.j.O.k.B.9X9X5X`.M.<...{  .X.",
"B.N.N.Z.B.X.j.A.z.k.) ) ( ( r # # e.r ( / # X.k.C.5X5XtXtXiXuXzX5X5X9X{ { ) { 0.b.0.X.{ { ../ ) / / / ( ( o. .` ` ..{ ` X.X.b.j.X.X.t.X...| %.%.:.M r.oXoXoX0XqXyXeXeXeXfXfXfXpX@X*X!.U.Q.}./.}.}.$X!. X.X^.!.!.!.#X0X(.(.!.!.R.v.!.!.!.x.v.p.1.%.*.] ] %.9.[ [ [ d [ r c c s c b b Y L 3.I.}.{.{. X%X*X>XgXcXgXpXvXVXVXkXZXd.T T &.3.u.5.4.u.=.-.7.a.a.7.a.a.i.i.4.4.y.a.L.J.a.5.L.>Xd.m $.-.} $.-.@.$.L 2XcX|.I.|.K.u.6.7 V ! S.T.3.@.>.X.X.X.>.X.j.M.N.`.zXzXnXnXqXuXnXDXnXqXtXyX`.oX9X5XB.B.Z.C.Z.Z.Z.X.j.C.B.z.) ) ( ( r # r e.# ) / # X.k.5X5X7XuXuXqXuXzX5X7XiX( { / o.0.z.0.X.[ { ..r / r r # r # r r r d d d c r r 1.w./ [ @.s f - = & & ^ ! gXpXkXkXjXlXlXhXpXhXhXxXgX>XwX$X$X%XdXpXdXfX&X*XlXjX&X@X/.@XdXwX@X'.(.!.R.d.!. X^.R.x.p.,.%.1.%.@.;.%.[ d d r r r r r f s s s p F ! Y.;XOX}.>X>X>XcXvXHXcXjXZXZXZXjXZXd.P T &.=.4.4.4.4.-.-.4.7.a.7.i.a.i.u.4.4.y.a.L.a.a.5.a.*Xa.m $.$.$.$.-.U &.I ,X2X|.I.|.J.u.u.i 5 ! D.T.3.' 1...X.X.X.O.l.N.b.5XzXnXnXzXiXtXnXSXzX9XqXwX`.oX9XN.B.B.",
"uXuX9XN.>.j.j.M.B.t...) % ( r % ( r # ( e.o.k.k.b.N.`.5X].`.!.v.l.h.( { X.X.0.h.`.9X5X9XiXz.( ) / ( [ / ` ..` ....] { ..) j.z.j.B.N.z.k.N.b.....t.| l.oX8XqXqXyXeXfXfXeXwXyXwX#X#XwX/.Q.~.{.@X}.}.$X^. X X[.@XpX X&X@X%XwXwX#X#X.X'.!.E.R.c.E.x.E.c.R.v.8.v.v.p.8.[ [ [ ] [ b b ' $.&.&.J.{.{.$X X@XwXdXhXgXOX<XCXCXdXhXZXKX/.x T &.=.i.3.=.t.i.8.i.7.i.,.p.a.i.i.i.4.i.a.a.a.7.5.L.(.d.t.-.%.-.:.-.&.*.n :Xy.3.3.3.&.U L 2 5 F T.Y.4.1.h.>.X.>.j.b.M.M.r.n.oXoX'.'.@XwXoX%X.X'.R.!.v.x.0XzXyXeXnXuXiX5Xj.O.j.N.B.t. .) % ) r e.h e.r # % o.k.k.k.5X5X5X8X'.).l.l.0.( { { X.O.0.5X9X9X9XiXz./ ( # r r r r r r c ( r / r # v.MXc.5X].c.c.[.L.- * <   3.BXjXAXgXlXlXlXlXaXaXkXwX&XwX>X&XyXwXdXjXdXdX&XwXdX>X*XdXgX1X&X*XdXgXdX&XdXpX/./.^.R.R.^.!.R.E.!.v.l.l.v.p.1.[ b [ [ s r d s v v p y.{.Y.:X$X$XkXVXCXHX;X<XKXHXgXjXZXLX/.N T $.-.i.&.=.,.u.7.i.7.7.4.i.i.i.i.i.=.i.a.a.a.y.u.L.~.d.=.} -.-.-.&.$.&.v OXy.Q 3.3.&.R K 2 5 F T.Y.6.;.r.X.X.O.j.n.N.N.h.n.'.'.'. X XwX.X#X.X~.R.^.x.!.wXlXqXqX",
"8Xn.c.n.m.`.8X8Xr.t.X. .X.o.( ) / / ) ) X.B.N.Z.Z.b.M.M.m... ._ ) [ { ..0.j.b.z.j.N.5X5Xb.) / ( ( ( { { ;.` k.h.) X.{ ) h.Z.O.O.k.k.0.j.O.j.h.<.:.| _.uXqXwXqXyXzXNXlXfX&XyXuXfXwX#X(.}.@X~.+X{.{. X}.Q.^.$X^.Q.!.'. X!.^.'.^.!.^.x.x.v.1.7.8.v.v.x.R.q.<.l.).E.E.,.' @.@.] %.@.@.@.&.P 3.~.>XcXHXVXdX$X}.{.I.}.}.J.{.:XxX>XL.R P -.4.&.-.-.&.3.a.i.u.i.u.,.f.i.,.4.i.i.7.4.a.i.i.u.u.=.$.} m } %.-.7.=.4.4.&.u.4.-.-.T U 2 5 V ~ Y.L.1.h.h.j.j.k.z.B.z.z.m.l.t.;.1.@.] ] @.9.;.' [ [ } _ | r._.8Xn.n.M.n.`.oX9Xt.t... .X.) ( ) / / ) ) X.B.B.C.C.b.b.c.v.| ' _ c ( ` ..0.0.j.z.j.N.5X9Xb.( r r / / / / / r b.0.r ( / / l.nX0.[ l.;.] ..[ *.u * &   4XCX*XjXkXAXCXHXHXjX<XlXVXAX>XpXyXkXjXwXdXdX&X>X>X$X$XdX}.R.'./.}./.^. X/././.Q.Q.x.i.8.s.s.x.x.c.s.p.8.W.E.c.9.c [ @.d [ c x s K p E Y.2XJXLXHXgX%X}.}.P.:X|.J.|.,XBX>XU.R U 3.=.-.-.-.-.-.i.i.i.u.t.,.i.i.7.i.i.7.=.7.i.7.i.u.4.=.-.$.m } %.-.4.=.4.4.3.-.4.&.%.U R 3 7 V ~ I.L.,.h.h.z.j.j.k.m.z.z.l.v.r.;.,.] @.| @.%.1.%.| %.:...:.h.oX",
"..' ..d.n.m.oXM...h.z.j.j.j.X.) % o.j.k.N.A.N.N.N.h.h.b.M.>.` ] { >.b.b.z.j.N.Z.N.5X9X5X>.O.0...] ` o.X.{ j.iXiXZ.k.k.5X7X5XB.B.B.B.k.k.b.N.j.:.t.:.oXrX_._.oX=X%XaX&X#X#XdXaXhX>X XQ.~.I.~.}.}. XdX%X#X#XrX%X'.'.%X(.)..X^..X).E.).!.c.v.v.q.1.<.<.1.1.q.<.l.l.v.[ c ] 9.' [ @.b P P R R |.gX<X&X~.s.a.4.=.=.4.4.a.i.~.~.3.R R P &.&.-.$.&.=.=.i.4.=.=.=.u.i.,.=.4.4.4.i.7.i.a.4.4.i.a.i.$.:.$.-.@.%.4.*.=.4.i.%.:.-.&.P : 7 D H ,XR.<.0.h.k.j.b.k.N.B.B.B.j.V.>.>.` ] ` h ` ) _ ` ) `  . ... ._ h ..m.).m.oXM.X.t.j.j.j.V.o.( # o.h.k.N.C.B.B.N.j.j.b.M.:._ ` ] X.b.b.k.z.5XN.5X9XqX9XX.O.j.o.) ( / / r { MXMXC.k.b.9XuXMX{ [ { ( { ` [ x.@.* 2 ^ ;X:Xy.~./.OX1XgX,X%X$X>X<XdX>X%X$X&X*X*XaX>X&XjXfX$XpXjXdX*X X X!.'.#X'.#X.X[.^.'.!.E.v.p.1.1.<.1.1.8.0.v.v.c.d r [ [ [ d c s v K G J |.cXBXgX{.s.4.&.&.&.-.6.7.a.~.~.3.R R P &.&.=.$.&.=.u.i.=.=.=.=.u.7.u.=.4.4.7.i.4.i.s.,.4.a.d.p.@.-.$.$.@.#.4.=.=.u.t.=.%.-.-.T 4 B J ~ ,X~.8.r.j.j.k.B.B.B.M.B.B.j.0.>.X.` ] ] _  .` ] ......X.:.t.X.",
"_ ` ] _ [ :.| r.b.j.N.C.N.N.B.+.O.k.N.A.C.C.N.C.z.k.N.N.M.0.0...0.z.j.N.N.N.9XN.5XtXZ.0.X.{ j.9X7XB.k.V.B.tXMXtXiXiXMXtX9X9XC.z.b.N.[.k.b.5X>.| :.M (.'.x.l.x.Q.~.^.R.R.^.!.Q././.@X{.f.8.I.I.I.}.,XpXdX@X@X XQ.!.%X X'.'.'.'.'.].^.[.[.E.).c.v.v.z.c.M.).c.8.<.v.c %.;.] b @.[ @.*.&.R Q |.:XI.s.}.gX$X X^.^.'..X/.&X#Xg.$.T P $.&.&.&.T -.i.=.4.3.&.&.=.u.4.3.3.3.5.6.4.!.^.^. XaXZXKXhXi.@.%.] $.:.-.*.:.%.| :.' M } l ; 7 8 S.Y.y s.v.M.c.b.b.N.A.n.b.z.z.t.h.<.:.' [ _ [ h ( ) ` { 0.>.X...` _ ` ` ) ] | r.B.j.N.C.N.N.B.+.O.k.Z.A.C.C.`.8Xj.j.N.M.N.>.>.X.0.b.j.M.N.N.9XC.9XuXC.X.{ { 0.9X9Xb.O.X.0.MXnXMXuXuXnXnXuXuXb.X.{ ` ( / h.sXs + < - OXgXQ.s.s.d.I.XXP.I.E.R.R.}.+X%X X^.^.}.~.}.}.>X>XxX:X$X*X/.d.1X1X%X%X%X@X#X#X.X%XrX'.].n.c.).v.z.!.).c.q.<.v.h %.;.[ d b s d @.Y G J Y.:XU.a.}.xX>X X^.^.@X#X/.&X*Xi.} T m &.&.&.&.$.-.4.=.4.3.&.&.4.u.=.3.&.4.y.3.4.^.^.^. X>XCXZXhXi.$.| | %.%.-.-.-.%.-...} _ $.v 2 B 8 G.I.u v.z.M.n.n.N.n.A.N.m.b.j.h.h.r.1.] ] _ [ _ _ ....>.0.h.r.t.",
"` ..X. ...) ....j.M.M.N.N.N.N.N.8X9XA.N.N.5X`.5Xb.M.b.M.N.r.j.z.j.z.N.9XN.qXiX`.8X).{ ) V.r.N.oXN.9XtXiXtXtXqX9XiXiX9X9XA.B.j.k.C.N.b.b.N.z.>.r.%.[ n.'.x.l.r.z.c.m.r.v.v.<.s.!.v. X XR.i.f.U.~.5.L.@X%X X%X$X^.a.(.}..X#X%X#X^.!.W.).W.R.).].].].).!.[.[.c.v.q.q.] 1.v.q.%.[ _ [ s.L.&.2.K.;X|.{.~.~.I.L.~.{.}.^.'.*X@Xf.,.-.c P @.6.&.&.&.*.4.4.&.Q 2.6.5.2.2.2.*.&.R.ZXKXHXCXZXKXKXlXhXCX^.$.=.7.-.*.@.M M c s w e u y 3 B 5 ! T.L i.'.`.M.`.N.N.oXN.A.M.M.z.l.h.h.` [ h r ( h % ) ) X.X.V.t.o.X.X.X. .) ` ..h.N.N.`.N.N.9XN.A.iXC.N.`.`.5X[.b.M.b.).M.>.h.z.j.b.N.9XN.qXtX9X9X`.` ( X.j.N.9X5XiXnXuXzXGXMXuXuXqX9X9X5X9X9X9XC.b.C.iXSXv.0 = ;   OXkX*X/.m.oX'.c.8.l.v.7.s.[.R.#X@X/.(.Q./.^.7.i.}.&X$X>X>X~.a.*X>XpX&XfX&X#X^.'..X'.^.'.0X0X#X[.).[.).c.v.q.h._ <.l.q.] r [ d <.a.K K H.;X|.I.U.{.I.L.~.}.}.{.@X$X*Xf.,.%.m P $.6.9.&.*.*.6.*.&.&.2.6.5.2.2.2.*.4.R.ZXKXZXCXHXKXKXxXhXvX^.$.4.7.&.*.@.M N M s s w x u 4 Z 2 S.H.L i.'.`.).N.N.`.`.N.oXN.M.z.h.h.r...[ ( h ( h )  . .t.X.j.r.",
"X.>.....r.z.z.j.h.j.0.h.M.N.N.N.A.N.M.N.C.5XN.b.b.b.N.5X0.0.h.z.B.b.b.X.z.N.b.M.9Xh.j.N.j.j.B.B.N.z.z.N.M.B.9X9XN.5X9XN.9X9XA.9X5XN.N.z.j.| c | %.M ,.x.d.p.!.=XyXwXwX*X'./.!././.'.Q.d.}.L.d.4.a.}.Q.d.E. X[.p.x.s.<.f.R.R.c.v.E.'.!.E.!.W.^.[.x.c.).v.v.W.v.v.l.] l.8.c.[.8.1.v.[.R.K.2.K.H.U.P.a.3.T &.4.u.f.L.L.~.(.(.@X&XQ.p.p.%.] -...,.i.,.*.i.-.$.$.@.7.#XeXfXZXjXbX.X|.cXHXbX$XCXKXfX+Xi.T 4.3.T m m b M m n v L 3 6 6 ~ OXJ.' n.M.M.N.8XoXN.`.oXoXN.!.n.z.h.;.] [ ( h % # % # )  .X.o.h.V.X.V.V.k.z.j.0.j.X.h.M.N.N.N.5XN.B.N.5XC.Z.B.b.N.b.iXh.0.j.b.M.M.z.X.z.N.z.N.8Xh.h.b.j.0.M.b.N.z.z.N.N.M.tXtXN.9XtX9X9X9X5XuXnXSXSXSXzXc - = 3 1 H.1XOX~.OXgXjXjXkXwX&X#X X&X*X@X X^.#X!.!.i.i.~. XR.^.%X Xp./.^.x.x.Q.[.(.x..XwX X X X[.'.'.x.x.E.c.c.W.v.v.q.] q.8.c.).<.%.q.).R.y.I K.H.T.P.y.&.P P 3.4.a.d.L.Q./.(.@X&Xx.p.s.:.%.-.:.,.i.,.=.7.-.$.@.@.i.@XrXeXZXxXgX|. XbXZXhX$XZXHXdX+Xi.P *.3.P m m m m P b v K i 6 V H ;XK.' n.M.N.`.`.`.`.oXoXoX_.M.n.m.h...| _ [ h h ( ( ( o. ...X.",
"h.V.t.j.k.h.h.z.z.` h.z...j.B.N.l.N.N.M.b.>.j.z.b.b.[.b...0.j.0.h.z.k.b.B.z.b.j.b.z.z.{ ` ) ( V.j.X.z.M.j.N.8XN.M.9X9XoX8XN.b.`.5XrXqXoXoXn.:.h h h t.r.:.t.p.m.^.Q.Q.R. X/.^.d.d.=.&.$.4.Q.3.d.$XaX%X^.E.<.,.#.l.,.s.c._.]..XoX0X'.'.'.#X[.!.c.v.c.c.c.[.n.c.E.s.<.[.c.[.[.#X].#X Xa.&.y.U.u.OX*X+X4.m -.i.x.Q.x.(.'.&X X/.yXKXZXDXlX&XkXZXDXZXvXVXZXfXpX.X'.VXLXLXKXpX&X@X$XlXDXzXhXlXKXmXZXPXvXL.7.5.6.*.*.&.&.@.&.P K 4 , 5 7 T.J.%.:.z.M.N.N._.oXrXoX_.[.`.n.z.l.r.;.h ( ( h ( ( # # #  .X.V.r.j.z.j.t.h.z.z.) h.j.o.h.N.b.z.b.N.N.b.X.j.z.k.z.5Xc.{ 0.j.0.j.B.z.B.b.k.N.j.N.j.z. .) ( % V.j.X.h.N.j.`.rX`.N.tXzXtXuX9XtXuXFXSXFXDXDXlX4.- ; k Y.+X3.y.a.J.L.L.a.L.$X{./.L.d.4.$.,.s.@Xi.L.>XvXlX%X^.7.%.| n.x.!.'.#XdXwXdXfX&X%XwXwX#X'._.x.!.c.n._.!.c.W.8.8.[.c.[.[.0X0X0X.Xa.2.H.H.! OX$X+X=.n -.i.d.Q.Q.^.}.&X X/.pXKXZXZXjX#XjXNXDXZXlXlXNXdXwX#X'.vXKXLXKXpXwX#X.XVXZXzXfXvXKXDXHXLXvXL.5.4.2.2.&.&.&.&.&.R I i 2 7 B T.d.,.<.n.b.M.N._.oX0X`._.'._.).z.l.r.>.[ ) _ ( ) ) ) h ) X.>.",
"j.h.j.B.j.V.N.t.o.t...) .. .|  .{ ....X.X.>.( ) ( ) X.{ >.b.z.<.X.;.b.v.z.N.k.>.o.{ ..) )  ...V.X.h.N.j.0.b.z.h.N.N.b.b.N.M.z.c.l.j.h.z.l.v.1.c M -._.m.m.m.x.x.p.,.,.=.*.$.i.x.d.7.i.=.4.4.u.{. X~.5.R.s.-.x.^.'.!.'.@X&X#X#X/./.!.!.v.7.<.R.8.,.s.v.E.v.1.v..XE.[.E.E.!.1.c..X#X[.R.4.5.a.! R I.=.@.-.7.m.oX#XwXwXwXhXaXaX>X>XHXHXJXLXJXKXHXHXLXJXVXZXHXKXKXCXCXxX>XgXHXZXKXKXKXLXLXKXZXDXvXxXvXZX X1.*.@.P @.@.P Y Y I 6 5 5 2 I ~.%.<.j.j.j.b.`.8XoX!.'.[.).c.v.:.h ` _ ( h h ) ) ) ) % h X.j.j.B.k.V.V.N.V...>. .) o.X. . ...{ X.{ ..>.) [ ( / ;.{ >.b.c.:.....M.z.v.`.k.X.) o.) ) ( ( )  .` ..`.0.` `.`.j.].iX8XiXtXzXqXeXaXDXLXPXLXvXXXq i &.&X_.g.g.d.a.*.&.*.&.$.U 7.R.L.s.a.i.d.f.a.*X&X^.L.{.Q.,.!.&XwX&XwXfXkXfXpX&X#X X/.d.7.8.R.8.,.v.v.x.l.1.q. XR.W.E.E.W.1.E.].0X^.L.4.6.J.Q E U.&.m $.-.!.oX#XqXwXwXzXaXfXpX%XKXZXHXJXJXHXJXCXJXHXCXCXCXHXKXCXCXxX>XgXHXCXKXHXDXLXLXKXZXDXmXjXvXZX].*.*.@.P 9.&.@.U T I 3 5 6 3 Q R.*.<.j.j.z.M.`.8XoXn.].].).n.l.:.[ _ _ [ ( ) _ ` _ ) ( h  .",
"% t.z.N.m.V.) j.N. .% o.o.) % % # ) ) ) [ ) / ( ( X.o.o.0.O.X.{ ) ( ( / ` ..o.) {  .X... .X.t. . .V.j.X.X.>...h.j.j.z.b.`.h... .` ) ) ....[ ' b =.r.m.t.t.p.r.=.%.%.*.%.$.*.p.a.x./.}./.L.~.U.~.L.i.4.$.@.i.^.R.}.L.i.x.s.8.s.7.*.1.%.%.1.1.1.%.1.8.<.1.1.>.q.#.d [ 9.v.;.8.).v.E.[.~.4.I 5.H.y.&.m &.' Q.wXfXlXsXyXAXkXlXNXjXjXgXBXcXJXJXLXLXHXKXZXKXKXDXAXdXhXVXhXlXCXZXlXkXjXZXHXLXPXPXPXPXPXLXPXLXZXpX>X%XK.5.{.gXK.k ; , 7 2 Q R.1.l.z.B.M.N.oX`.oXoX).).'.).<._ h ` r. .( _ ) _ h h ) r % h V.B.N.n.V.o.j.M.o.%  .` ) ) # # % ) ) ( ) ( ) ( o.) o.O.V.X.o./ ( / h ` { ( ) ) ) ) ) ) h ) h ) >.B.>.h.B.>.b.N.N.5XrXuX[.[.!.q.,.L.F.7.#.#.t K.+XCXf.x.x.g.t.$.*.,.&.@.*.R.L.Q.@X%X&X$X$X+X'.L.i.i.*.P 7.}.$X>X}.~.Q.R.a.L.i.4.*.$.$.*.,.,.#.1.l.<.<.<.1.v.#.d [ 1.v.;.<.E.v.E.^.}.6.Y 5.H.u.2.v @.m Q.wXfXlXfXfXlXAXAXVXjXxXgXxXcXHXJXLXHXHXKXCXDXKXDXVXdXfXVXlXbXCXZXzXkXkXZXKXLXPXPXPXPXPXLXLXLXZX&XwX$XJ.a.}.gXK.l 2 1 7 5 2.R.;.v.z.b.N.oXoX5X`.].).).'._.<._ ( ] r. ._ _ | ` ` `  .( ( ",
"# )  .j.V.t.X.) e.) j.k.j.B.o.e.% ) ) ) ( ( ) ) o.j.B.B.V.X.o.O.k.0.X.0.j.{ ) ) ) o.) ` ) ) ) o.X.j.X.X.>.X.X.X.h.h.h.j.0.X.X.V.X.X.0.X.` | | c -.i.Q.=.,.t.d.m.x.p.t.=.%.s.L.Q.L.d.L.a.4.i.a.a.R.@X^.*.p.R.i.1.,.,.7.!.[.x.1.:.c.v.v.c.v.l.l.v.v.0.>.0.z.).6Xr d ] v.v.1.h.1.q.!.E.J.&.5.H.6.&.v P P i.&XdXxXAXBXZXKXZXZXZXZXBX&X+X~.$X:XCXJXJXJXKXKXCXLXKXKXKXHXZXvX<XfXKXPXPXLXKXHXJXHXHXJXLXLXLXJXKXHXLXLXKXKXHXKXy.p ; 2 2 , G P #.t.j.B.n.N._.z.z.c.0.:.:.<.>.v.z.l.:.| _ [ [ _ _ ( ) h # # # ) j.V.t.X.) ( ) j.k.j.B.o.% e.e.) ( e./ ) e.) k.N.Z.V.X.o.+.k.0.X.0.0.{ / / ) ) h ) ) ) ) o. .k.X.` { ] | ;.<.l.v.z.l...:.] ] [ r d s x U ; H.{.cXg.a.L.~.{.~.x.p.=.$.L.~.~.~.I.~.a.L.x.L.R.R.%X~.%.p.^.Q.i.p.f.m.'.*X!.:.t.!.v.x.M.c.v.x.z.v.h.<.<.v.[.5Xr d %.q.l.1.<.1.q.).E.s.R 3.D.6.R u P m 7.pXdXxXAXAXVXDXZXZXZXZXVX&X+X(.+X:XBXLXJXJXLXKXCXJXKXHXKXCXZXVXdXdXKXPXPXLXHXHXJXCXHXJXLXLXLXKXHXHXHXHXZXHXHXHXa.l 2 5 7 2 G U %.h.j.m.N.N.M.z.n.n.p.>.:.<.:.m.c.l.:.| } [ [  .]  .) ) h ",
") % # ) ..X.j.X. .X.k.B.V.V.V.t.) ) o.o.X.o.o.V.B.B.iXtXiX5Xj.9XN.h.>.>.;.`  .( ` _ ) ) ) ) X.h.j.X.X.X.{ { X.{ ....X.X.>.h.V.j.j.h.t.X.X.| %.' [ =.x.$.t.f.d.x.s.f.v.p.d.a.R.s.d.L.d.4.=.7.U.(.$X@Xd.^.^.(.!.(.s.x.!.'.'.<.m.].)._._.n.m.l.l.h.<.0.c.[.rX.XE.] ;.<.q.v.<.v.v.z.<.1.=.&.u.6.J.5.4.&.-.wXjXgXcX:X<XgXgXCXKXCXJXLXdXhX*X+X{.-X<XIXHXJX2XcXLXcX<X2X>X>XxX$X}.LXJXLXPXPXHXxXcXvXxXvXCXJXJXHXHXLXHXHXLXHXCX&.p = 5 2 2 : &.@.l.h.h... ...;.>.;.r.v.m.r.'.!.<.1.t.r.r...' ] ' _ _ _ % % % # )  .V.V. .o.X.k.C.V.V.V.V.) ) ) { X.o.o.O.B.Z.iXuXiX8Xz.8XN.j.t.O.X.) ) # ) ) ) ) ) % t.B.N.h.X.X.X.{ { ` ..| X... .....o.` X.` / ( h w 4 g T.3XL @.4.4.u.7.i.s.i.s.a.L.s.L.a.a.7.f.L.(. X&XwXi.!. X#X@X#X!.@X=X#X0Xt.!.0X0XoX8X`.z.z.m.h.r.<.v.[..X%XE.[ ;.1.q.q.<.q.v.b.0.1.4.U 5.6.H.3.4.$.&.dXlXgXcX:X<XcXgXCXKXBXKXJX1XgX$X$X{.-X,XcXBXJX2X2XJXxXgXgX>X>XxX&X}.LXJXLXPXPXHXxXcXxXcXvXJXJXHXZXHXJXHXHXKXHXCX3.l = 7 3 6 3 3.] m.h.r.t.....>.<.;.h.c.v.p.[.).r.:.r.r.h.:.%.%.] } |  .( ",
") h ( # h V.k.j.k.V.V.X.k.j.k.N.C.N.b.B.b.N.N.iXqXqXM.h.r.>. ._ _ ( ( ` ` ) ) ) ) ) ` X. .X.z.V.o.X. .V.X.X.o.X.X.X.X.X.X.o.X. .X.X.X.O.t.h.:.:.r.(.d.t.p.r.l.p.v.!.m.7.,.7.,.7.7.4.7.4.&.3.=.4.4.=.s.!.!.R.E.d.7.=.7.s.s.R./.!.R.!.!.!.n.M.v.h.c.].rX).x.p.@.] v.q.c.v.c.b.b.v.v.c.,.U ! u.U.K.&.L.AXvX^.4.5.P 3.P.T.{.Y.;XY.;XY.Y.D.D.<XxXcXcX3X|.;XBX2X$XgX<XdXjXhXlXKXJXIXBXBXJXHXKXKXHXHXZXvXCXCXHXHXIXxXHXHXJX<Xl K 2 & 2 2 : 3.[ ] ;...>.h.<.;.<.1.] ` ` ] <.;.;.h.l.p.r.<.@.' _ _ ( _ ) h % % # # V.j.k.V.V.V.X.V.k.k.N.C.N.N.N.N.C.A.uXuXtX`.v.j.>. .` [ ( h ) _ ) ) ) h ) % ) % o.N.k.o.o.o.X.o.{ o.X.X.X.X...X... .X.X.X.X./ r r e > &.1XI.T -.=.,.:.,.v.s.*.*.7.1.5.,.4.=.7.7.i.=.i.=.-.f.'.@X{.$X~.4.a.i.d.f.(.*X@X/.oX/.@X'.n.m.h.M.].0X).x.<.@.] l.q.b.c.c.c.z.z.v.x.,.Y E H.K.K.R L.lXVX^.4.y.U 3.P.Y.Y.Y.;XY.|.Y.I.5.D.<XxXcXcX3X|.OXBXcX$XgX<XdXjXhXlXHXJXIXBXBXJXHXKXKXKXHXZXVXBXHXIXcXcXcXxXIXHXpXn Y 3 2 2 3 y 3.' | :.X.V.l.<.>.<.1.;.` } ] <.:.1.l.l.p.r.1.%.%.] %. . ._ ",
" ._ h ) # o.>.j.B.N.9XA.9XoXiXC.M.j.B.j.B.N.N.M.b.z.{ ` ( ` { ) `  .)  ... . .o.o.` ..o.) X.t.h. .) o.o.o.o.X.V.X. .X.o.X.V.X. .X.h.j.j.h.t.:.%.p./.+X!./.#X#X&X*X*X@X'.'.'.(.(.!.x.R.!.x.f.x.d.^.@X'.^.^.'.R.(.[.v.x.v.x.v.x.R.!.v.!.'.x.x.n.].'.n.l.1.l.v.8.[ l.c.c.M.c.z.b.`.8X!.*.@.U 6.H.H.3.:XU.R n b %.$.' -.3.$.m &.P Y U P U K.+X3XBX;X|.T.2.2.|.$X,X<X<XBXBXCX1X&.y.2.6.5.XX,XcXHXIXgXxXHXKXVXxX,X;X<XBXHXK.z T 9 2 1 5 2 : s ;.h...| ` _ ) ( ( ( ( h ( ` t.n.l.;.| | `  . ._ ) ` ( _ ) ( ( r # o.>.j.B.N.9XA.9XA.qXA.N.j.N.B.N.A.C.N.b.b.{ ` ( o...) )  .)  . ...X.) ) ) ) o.( V.z.j. .)  .o.o.o.o.V.X.X.X.X. .X.X. ...o.` ) ( [ x - Q ;X{.L.~.@X%XpX&X&X=XoX'.=X(./.R.x.x.!.).).m.m.(.#X#X#X@X%X'.oX/.!.!.n./._.!.(.'.!.'.0X(.m.!.`.).n.l.r.v.v.<.' l.v.!.c.c.b.b.`.8Xc.*.@.L ! u.H.3.:XU.R v m @.%.@.-.-.&.P &.P Y &.U R K.+X3XcX:X|.U.2.3.|.:X:X<X1XBXCXVX1X3.y.2.2.5.XX,XcXHXIXgXxXCXKXxXgX:X|.3XxXJXP.G T 2 5 5 6 3 t c >.l.:..... .` ) _ ) ( ) ( ` r.!.p.:.:.|  . . .| ..:. ._ ",
"` _ _ ( h # ..b.z.M.m.h.h.z.t.) >.j.h.B.N.M.B.j.h.0.X.` { { { { o.{ o.....V.h.X. .o.) ) X.j.o. . .) o.) o.) o.o.) o.X.X.X.X.X.j.r.X.h.X.....<.%.=.Q.Q.x.m.!.@X'.Q.{.m.m.!.Q._.(./.!.Q.Q.d.Q.(./.@X!./.(.Q.^.^.'.'.!.(.'.v.R.x.!.!.!.'.R.E.!._.oX_.m.v.c.v.<.:.%.v.c.!.).M.).#X).<.%.*.U G J H.u.Q n l m m ' M M m m [ | @.c x x m @.Y &.2.4.u.~.7.&.R.a.L.L.~.(.$X>XdXVXgX/.dX/.XX7.5.R 6.5.J.|.cX:X3XOXI.5.I.,XU.U.u.H J 2 5 1 < < q d ' _ h _ } _ _  .` _ _ ) ( ( ..>.<.( ] |  ._  . ._ _ _ _ } ` ( ) h # ..b.z.N.z.j.z.m.X.M X.j.j.N.9XA.N.z.j.0.X.o.{ { o.o.{ o.o...X.V.j.r.X.) o.) j.N. . . .)  .o.o.X.o.o.o.X.X.o. . . ._ ` ..o. .) [ @.q K Y.K.4.i.L. X}.R.+X/.Q.!.!.'.!./.Q.~.!./.=XoX=X#X(.*X*X X%X@X@X@X^.!.'.(.'.!.'.'.#X#X(./.'._.oXoX!.m.n.v.p.<.%.v.c.c.).M.).#X`.r.9.@.U G J H.u.Q n v P m m M M ' [ $.%.%.M c m @.$.Y 2.3.4.u.~.4.&.R.s.L.L.Q.~.$X:X1XVXdX^.fX(.}.a.3.&.6.5.J.|.cX3X1X+XP.u.I.3XI.I.u.T H 4 7 5 5 3 t b @. ._ } | } %. . ._ _ ` ( ` ..0.r.[ ] ....%.:.%.|  ._ [ ",
"| ..` [ # r _ t.t. . . ._ o.)  .) { h.O.j.j.z.N.N.X. .o.o.o.o. . .X... .| X.h.r.z.X.( ) X. .o.) ) ) ) )  . .) ) ) o.V.) o.)  . . .` ( _ | | r.%.:.~.*Xd.d.Q.d.d.i.Q.+X@X(./.@X/.Q.Q.(.Q.d.d./././.}.^.d.^.d.x.d.Q.x.!.Q.p.,.%.<.p.p.v.<.p.v.p.p.r.s.f.v.v.8.#...x.W.).).[.#X[.,.%.[ s.5.H E H.H z w x s c h h M '  .} } M M M $.x.R.i.x.!.%XdXa.=.4.Q.R.^.}.~.+X:X*X>X<X1X/.@XAX1X<X>X*X5.Y R :X|.y.R T R R Y 3.E E R L G 4 8 1 2 2 > b x _ M _ }  .| |  ._  .) ) ) ) r r / ..` _ } } _ ] } | | ] | ] _ r r ) >... . . . . .` ` )  .j.j.j.k.N.9X9XX.)  .) o.o. .o.{ ` ....t.B.N.N.V.% ) z. .) o.) ) ) )  . .) ) ) o. .X.X.h ) ) (  .o.) ) _ x.p t Y.,X4.L.Q.d.d.a.(.=X+X/.@X@X}.Q.L.^././.^.#X@X'.'.^.L.+X!.(.~.Q.x.Q.Q.x.r.,.p.d.x.d.f.s.p.s.s.s.f.x.n.v.l.%.%.E.W.).M.[.#X^.*.@.[ a.4.G E H.H k u x x N x h M |  .| } _ m ' =.x.R.i.x.W.$X<Xi.=.7.Q.R.(.}.^.@X$X*X>X>X>X/.@XAXpX>X>X$X5.U R :X|.a.R R R R R 3.R Q &.E L g 7 8 8 3 t @.m } _ } %.| %.....|  . .` | ) ( r ( ;.' } %.:. . .} } %.",
"| | ` ` ( ( h ) )  . .)  .o.) X.j.N.A.C.b.k.M.C.k.o.o.o.o. ...X.X. .o. .h.j.B.B.N.B.V.j. .o. .) ( ) ) ) ) o. .` t.) ) V.X.X.V...o. . . . .>.`.%.-.d.L.p.x.R.m.p.f.g.i.i.p.x.s.R.R.~.s.K.~.{.(.{.~.~.~.}.d.R.s.!.'.R.!.Q.!.s.,.,.p.d.x.!.v.;.,.,.,.<.p.r.p.x.] %.<.v.v.!.W.,.*.1.;.#.W.4.y ! y.E : + + s w w h w h M } x r c b Q.hXNXZXFXKXHXOXy.P.}.~.{.$XL.{.}.U.I.~.L.~.3.u.OX*X{.u.R T P m $.x ' ' @.' $.T T -.-.R n q ; 2 2 7 < : &.b _ h _ } | %.| } |  ._ ( ( r / r ..%.c ]  .` ' | } | | ..| o.) ( h h )  . . .` ` o.) o.B.N.A.A.N.B.C.9Xk.o.o.o. . .`  .X.......z.C.oX9XiX9Xj.9XV.o... .) o.) ) o. ._  .) ` ` o.V.B.C.k.o.o... .[ | #X0 3 P.T.a.R.d.(.L.f.g.=.i.i.Q.K.R.~.^.s.L. X$X+X/.Q.~.{.}.d.^.R./.@Xd.!././.Q.p.f.i.m.(.oXv.} ,.=.<.p.s.l.x.v.] #.<.v.x.W.c.*.*.1.;.#.^.=.a Q H.E : + @ r h r c h x } } M s c ' R.fXlXCXFXFXCX+XK.I.}.~.{.$XI.}.|.I.I.{.I.{.3.u.OX*X{.y.R @.P m $.x @.' ' ' } &.T u.-.&.n : 3 3 8 7 3 q &.[ ' ' ] | } :.:.| | | _ ) ( ( ( [ ..:._ | |  .' %._ ' ] ",
"h.z.r.V.) % X.h.t.B.t.o.X.X. .B.9X9X9XA.A.A.A.B.h.o.o. .| ...... .t.t.V.M.8XoXC.`.`.9XoXz.X.)  .) ) `  .` ) _ X.) o.j.B.N.z.k.B.X. . .o._ >.n.} b a.=.$.7.,.,.=.p.p.i.x.E.i.&.$.=.-.&.L.a.&.i.a.J.a.3.7.J.d.8.a.a.4.*.*.s.R.8.R.x.R.E.R.x.,.p.l.v.v.v.r.s.v.1.,.E.x.c.).<.%.%.] [ n.#X@.u R H.I Q 3.P u e @ @ e x x r %._.m.'.ZXLXJXJXJX2X3XY.y.Q 3.E u.u.T 3.R R &.R ~.4.a.i.$.T $.&.P x w x M M M } M M m $.m n T T N ; ; ; 2 4 = - T m c [ _ '  .| |  .h M ) ` _ ( c ( 1.p.] ' ` | }  . .) | r.j.r.V.) % >.h.t.B.t.X. . . .N.9X9XiXA.iXA.A.N.0.o. . . . . .| | ..t. .9XyXyXuXzXuXDXuX8Xt._ |  ._  .)  . ._ |  . .j.tXFXFXPXuXt. . .| h t.oXs < P.3.P 4.=.=.-.u.f.f.x.^.a.&.&.3.-.$.~.L.=.a.a.a.u.3.i.L.a.7.a.4.&.4.7.J.R.R.~.Q./.}.Q.d.,.p.m.m.n.x.l.x.v.<.,.c.c.c.).8.] @._ [ n.#X@.i R H.R R 3.P s w e e w x c h %.'.!./.VXHXZXJX2X2X1XY.H.Q u.R y.y.R 4.R R &.R R.4.y.i.T U &.&.m n j x M m c } M M T -.T m T R n > 4 3 8 7 2 > R [ m [ %.| %.;.| | M M  .| _ _ _ [ 1.v.%. .} |  ._ _ _  .",
"oX9XoXA.z.# X.r.z.z.z.z.B.n.A.oXC.A.oX9X9XqXoXV.h.h.| X.t. .t.t.r.j.V.m.oXM.M.yX`.z.M.N.oX`.r.X..... .`  .....` t.B.M.A.N.N.t...X.h.V. . .z.n.M c u.f.@.x.,.%.%.$.%.-.!.!.v._ %.1.%.r.r.7.s.d.p.x.p.,.%.' &.&.d.i.4.*.4.4.-.*.4.R.R.d.*.9.%.<.7.p.r.<.p.,.c.!.v.!.[. X[.'.8.v.c.8XrXR.P y I ! T.Y.U.I.}.%X/.=.x m d.jXZXBXBXBXJX2X;XG.! ! ! u.u.u.R L n L L L n m 3.&.m m n v T P P b v j x n n T m j n v P T m L R T : + 3 3 2 4 ; * j c c _ [ ] ' @._ } _ M M _ _ _ [ r !.c.p.r.:.t.X. . .X.z.8XiXoXA.k.# X.h.B.n.j.z.b.N.9XA.A.oXA.yXiXuX9XX.t.V.` ....| %...:... .N.qXA.A.FXuXoX9XsXzXqXh.| .... .)  .....` o.A.FXFXFXSX9X>.j.8XM... .8XyXw 3 D.I.L ^.-.%.' @.m $.^.[.x.c | <.%.p.v.v.x.c.s.s.<.<.%.' P @.i.i.4.4.5.4.$.*.4.~.!.R.4.-.%.,.p.f.p.p.s.,.x.!.v.!.^..X'.[.<.c.M.6XrXR.P a L ! T.Y.U.I.+X$XQ.-.m ' d.1XCXxXxXBXBX2X;XH.G.! ! u.u.u.R T n L P L n m 3.&.m m m v T P P P n j N n n T n x n n m U P T u.T y - 4 4 8 4 : - x b M _ ] ] } %.' } _ _ _ } ` _ _ c ).n.r.<.:.:.| ` `  .h.",
"9XqX8X8XM.h j.X...r.z.l.r.X.r.j.j.N.N.N.n.M.z.z.C.h.X...` .. .o.X.r.X.oXN.j.M.`.n.h.) ..M.9XoXM.r.X.h.V.X. .X.j.B.A.M.B.t.X...) :.r.r.t.r.n.n.x U u.&.4.s.-.i.i.$.-.=.=.=.,.c.x._._.!.!.[..X XrXaX'.E.l.v.x.p.i.$.-.$.@.m =.=.,.i.=.[ c c $.*.%.%.%.<.v.,.1.,.#.8.~.%XaX X1.).wXlXaX X&.G L T.y.G i I I 2.K.P.$XBXJXcX;XT.G.H.! ~ H J W H k J J k l k z : z j z P 3.K l K z y y : j y : z 4 y 4 j l y t t y z y z 7 J 3 3 2 5 1 5 2 = q v x c c c [ m [ h h _ _ _ [ ' c [ ).'  .z.r.X.j.j.B.N.9X9XuX8X9XoX) z.X.| h.B.r.j.t.h.j.j.A.N.M.N.M.h.n.qXz.>...` ..| o... .X.uX9XB.N.yX8Xn.( ..9XzXuXM.X...h.X. .X...N.MXFXPXSXk.h.>.` h.N.C.N.N.uXuXq K J.Q 4.L.@.s.a.&.=.i.=.7.1.).n._.oX].]..XeXrXwXaX].'.v.v.d.s.i.-.$.%.P m -.=.=.d.=.m c x ' *.%.%.*.7.v.,.1.7.%.7.E..XaX'.<.[.aXzXpX X&.G I J.H.G i L U R J.a.|.xXcX<X+XT.UXH.~ ~ H J I G l G L k l k z y z l n P 3.L v K l y y y j y q z w y y j z z t t u z z k k H 4 3 8 8 1 V 8 ; y x n M m m ' ' _ _ [ _ ' ] ] ' [ ' ).' } v.t.X.j.V.z.M.N.",
"9X`.l.n.8XoXt.h ) :.:.X.t.j.j.h.r.r.m.N...| ..h.m.h.oX8XN.h...| | h.z.n.V.t.X.h.z.b.] ..| ..X.M.9XN.9X9X9XB.j.N.z.B.m.t.r.t.t._ ..t.r.m.p.m.f.q y I L i v L n z z n L u v L./.*X>XdX&X@X+X>XL.5.7.L.@X@X&XwX%X Xp.@.$.@.-.R.7.i.@.@.m m @.m ,.p.8.s.s.p.1.7.,.7.R. XdXjX X XjXvXdX}.y.G J ! H.5.R p i i i 7 B W ~ J B B Z 7 2 y 4 7 7 2 4 4 8 2 7 4 2 4 3 3 4 2 9 2 4 6 3 3 ; > 4 4 ; 4 4 > ; ; 3 & ; 2 3 2 3 7 8 2 2 8 8 8 8 V B 8 9 = y x x x x s c s [ c [ c [ ' @.c %.@.[ _ >.h.z.B.C.9XqX9X9X8Xz.n.qXN.t.( ) :.X.t.t.j.t.h.r.j.z.M...t...z.m.j.9X9XN.j.0.X.>.M.tXSXM.m.h.h.M.M.` | ` ..t.9XSXqXGXGXMXA.iXFXFXFXGXM.9XB.N.j.N.qXuXuXuXzXrXf i 6.I t v U n u j n P u x ~.@XdXkXlXjX*X*XdXR.a.i.R.@X$XwXkX&X@Xi.@.-.@.&.Q.i.a.-.P m m T m =.d.d.x.x.s.*.7.,.7.R. XhXxX X XjXvXhX$Xy.G J ! H.5.R l i i i 7 Z W ! F B Z k y : 4 y y 7 3 8 4 8 8 7 4 3 4 4 4 4 2 9 2 4 4 3 3 > : 4 4 ; 3 4 ; ; ; 3 9 = 2 3 2 4 Z 4 8 7 k 7 8 7 g B 7 ; = u x c x c c b s c c [ [ [ ' ' b %.' c _ X.j.j.j.M.N.9XoX",
"!.[ | >.<.n.h.r h ( ` t.m.N.`.z.B.B.A.h.o.) _ _ h _ %.'.oXm.l.r.h.n.M.t. .{ { j.z.;.| ] | ] / N.qXqX9XoXM.m.m.r.p.x.f.p.i.f.u.f.~.Q.x.x.x.^.2.t : L i 2 < 3 3 3 2 ; : y L K.|.I.I.a.L.s.~./.}.{.{.@X@X^.Q.{.{.Q.x.!.!.7.d.L.4.J.@.m m $.' @.*.7.s.c.8.] 9.1.8.8.E..XP.9.6.P.|.I.P.J.2.p 7 I H.T.+XI : k 3 3 3 Z F 4 3 ; 4 4 4 7 4 7 D F 7 D 7 8 D B 7 D 7 7 g 9 4 4 4 7 4 7 8 4 7 g 7 8 7 4 8 7 7 7 7 8 7 2 7 8 2 7 V 6 5 V 8 V V V V , 1 3 p i A p i i p a y a l u j n x w w r h ;.n.#XqX_._.#X_.[ | r.<.n.v.e ( ( ' r.M.N.oXB.b.z.oXj.o.) o.` _ _ ,.rXzXSXSXMXMXFXFXiXB.O.o.C.C.<.;.;...` r 9XSXDXSXSXSXSXFXFXFXFXNXuXzXDXuXuXSXFXSXMXMXSXv.0 - R i - - : t 3 ; 2 ; i I I.:X|.{.L.^.d.^.}.@X}.{.#X@X~.Q.}.{.(.x./.(.7.d.L.4.L.T P m } m } &.t.d.!.p.] %.1.8.p.E.,XP.&.6.P.|.P.D.J.6.p 7 W H.I.+XL : y 4 3 3 F F y 4 : y k k k k 4 F J 7 k g 4 7 F 7 i 7 g g 3 2 4 4 4 i 4 4 7 7 k g 4 8 g 7 g g 8 4 8 8 4 B 8 7 7 V 7 V V V B B B 6 , , 3 F p G p i i p i a z G s v v x r w r h :.x.oXoXn.n.'.",
"l v a j e w c 0 r e r _ ..l.z.h.M.=X_.h ` ' h :.;.[ v.x.d.R.d.Q.Q.Q.f.i.f.f.f.i.c x c _ h h } n.x.f.t.i.t.i.i.K.d.K.a.R G U U 4.P.I.~.{.~.L.d - 3 3 3 i a i 4 7 7 8 8 8 i R 2.3.-.T } =.7.s.d.L.x.L.a.=.7.i.f.i.m -.*.d.R.x.s.%.b m M [ ' -.s.7.7.7.8.x.p.c.R.R..XE.&.x Y 4.2.6.5.5.XX2.J ! D.Y.;XOXT.J.Y.K.U.+X{.{.I.H.L H B 2 5 7 7 B Z F D D D B B B 8 2 V V g 8 V 8 7 8 8 8 5 8 5 5 g 8 8 D g 8 g 8 8 B V 5 5 8 B V V V D V D D 5 V ! H Z i a 7 i 3 7 p I G G G l z u p q a K p Y 2.Y P R y z v u u e r c $ r e r ` ..m.b.l.`.8X`./ ` ] h >.>.] M.].qXDXDXFXFXFXSXzXDXNXSXzX<._ ` { ) ) X.uXiXyXqXGXzXZXFXFXFXPXNX!.,.x.Q.0XKXDXFXKXDXjX@.O = ; 7 l i i i 4 8 8 8 2 y 2.=.u.=.' $.,.8.x.R.R.R.R.i.,.i.i.f.i.$.&.=.R.Q.L.i.-.v M c M T $.f.u.4.4.i.R.d.R.R.R. XR.9.x Y 2.2.*.6.5.L.2.J Q D.Y.;X|.P.H.Y.H.K.|.Y.{.I.H.Q I F i 7 7 i B F F D F F B V B B 8 D g D 7 7 B V 7 8 8 8 8 8 5 D 8 g V D g g V 8 V B 5 5 B B B V V D V B B 5 B ! I Z i t i a i i i L G G G G y p z t a G a Y &.P L U u ",
"G i 3 4 : q 3 : q q : q j j u P $.n u w s w x T m x =.$.R R E Q Q I I L R R &.Y v b b P K v 2.y.u.L l l R u.y.5.E G A p L v p Y n K Y 8.5.*.P &.3.3.! L L K G i 7 4 7 4 i i G L v j v v x P @.-.&.$.&.m M ' ;.%.} $.@.,.:.| 1...` _ [ ' %.*.p.i.d.7.4.s.7.7.s.!.a.@.@.' @.P @.#.$.b U p a ! H.3X3X;XT.I 6.3X;X|.|.;X;X3X2X2X;XY.H.! H J F 8 5 8 B B V 8 D V 8 1 C C C V C V 8 5 5 C 5 5 5 C V 8 8 V 8 5 C C 5 C 1 1 C C C D C D D V B ! ;X|.;XT.Y.|.-X:X3X<X2X1XcXBX1X;X2XOXT.T.-X|.Y.I.Y.Y.H.! F 7 3 3 : 3 q < q > : q y v j T &.m s s s x x | _ [ t.p.d.5.4.T.Q.4.2.4.s.v.v.] [ { ( { [ r R.dX>Xs.T @.XXgXbXgX_.*.&.@.7.@.' 7.9.4.7.D.2.Y w t 3 F J i i Z i 7 7 7 7 4 4 k G L v p x m b m $.&.$.$.T T m } %.%.} $.$.=.;.| .. .` _ _ ' [ -.a.a.f.4.4.d.5.7.s.^.7.' @.@.@.P @.#.@.v Y p 6 ! H.;X3XOXT.L 2.;X}.|.|.OX|.3X2X3X4XY.u.W H J F 7 5 V B V B V D D D V V V V V V V C 5 5 V 8 5 5 5 V 8 8 8 V C 8 V C 5 5 1 C V C V C V B V B ! ;X{.;XI.T.|.|.,X:X,X3X1X<X2XOX+X3XY.H.T.4XY.T.P.I.U.y.W ",
"T.G.W G F J H F B F F k 7 k F K 4 4 y a y y y a t a > t y a i y p i p p p u u u s s w a j j l l l z l a A G p p d K G d d v v Y 4.4.J.}.R.L.L.a.3.P.I.5.y.4.Q R I F k i 4 4 7 3 4 4 3 : 4 y 6 4 k i 7 i 3 z l l v y u y w x x c b m b m b b Y P @.-.%.%.@.$.4.,.v c -.$.x x c b v d v 3 6 E ! ! y.R y ; k H.J.J T.K.t Q Y.P.u.H.J.Y.OXT.UXT.B 9 5 5 7 8 1 1 1 , 1 8 8 8 5 1 1 5 1 5 1 9 1 1 5 5 5 C 1 1 C 1 , < 5 1 5 C C C V ~ H.T.|.3X;XcXHXJXcX,X3X|.|.Y.<XCXJX3X3X2XJXBXHXBXBXJXBX2XBX<X4X;XT.S.I k 7 F F D 7 7 F 7 7 4 k H 3 : 4 6 : y : > - q + * - t : t p x u p s q e e r r r s s p L k G G G p S 2.Z K L v a s v j s v v x a v d t u l y E ! Z p Z p p 4 7 i i i 4 4 3 4 4 4 2 4 4 i 4 i 7 4 i 4 y j z l y z w u j x M m ' b x v v l v Y T @.$.@.} =.=.b b %.$.x s c c v v d q t W ! ! 6.E t : p H.H.K K.H.i E U.y.3.5.H.Y.{.J.! T.B < 8 8 7 7 1 1 9 1 5 5 V 5 5 2 6 5 1 5 1 1 1 5 5 5 5 5 1 1 1 5 1 < 5 1 1 5 5 V V W H.T.Y.3X;XcXBXCXcX:X;X|.{.Y.,XcXJX;XOX3XJXcXBXcXxXBX<X,X2X3X4X4X",
"Y.H.T.E a v p a i p l I Q 6.;XT.K.D.W Z J W G Y A p p p K R 3.R 4.4.&.&.&.&.T $.&.3.-.T T L y.K.y.3.&.3.J.J.a.3.y.J.y.a.P.J.J.y.P.I.K.Q Q 3.! ! ! H.H.! UXE ! E W H W J F J F F J F F z i Z Z Z i 5 < 6 8 g 8 8 2 4 i k i i i t : i i a G S K v p v K v b m R v q u L v v u u u u a u 3 < = H K.i 3 2.4.P.5.y i J.2.K.P.L G A 3 A H.D.p 3 K 2 : 3 : - - - & 9 9 < = * = < = : t : ; - ; ; = = = , & < < * * * * = * = = < < 6 A p U {.>XgXcX1X:X|.5.y.y.K.L.{.:X:X|.|.gXxXcXhXCXBXcXxXcX1X|.T.4XY.H.T.I t p a t t i i I R 2.;XT.H.D.~ Z A J i Z 6 : < 3 t t F l k p i k l z y u q w y w j y k J A G K I 2.I R z z k l i i p F i F k k G k k k F F ~ E D F z G J F Z F F k F B i F k z k 4 4 g g 4 5 5 6 3 8 5 5 , 2 7 7 4 4 3 5 < 6 6 V 7 i i i t i z u u l P p e a Y x x u x s u u a 3 3 = G T.i t R 3.J.3.y i y.Q y.J.K J A 3 F 6.6.i 3 J 3 - 4 > ; - = = = = ; = * = = = > 3 2 ; = = ; = & & 9 , , , = & * * & = = < = < 3 J Z U {.:X<XgX:X;XY.3.4.y.a.K.{.$X{.I.~.,XcXgXgXcXcXgX2XgX:XY.T.Y.",
"T.! K u q.tXqX0X5X)..XpX@XaX>X~.|.I.5.Q H.T.! E L x v x &.4.J.a.J.L.a.s.a.R.~.L.d.x.R.!.s.i.i.&.6.4.6.6.I.}.{.y.u.y.a.J.a.a.5.a.8.5.3.P p K L L W I 2.! L E L l p p A K K J A J J I F J A K S A A i A A g g z g p F G J H G J Z Z p Z G A J I G K G K L I U Y p q K &.K l v L v v t l 3 6 & W I H.L R P.I.I.G U I k R 4 < a - t L G R I < > 0 - @ e q > > > + + - - X * * + > - - - - + - - * + * * * O * O X - = - - - - - - a 7. XpX&X$X$X~.T T 3.d.f.f.x.~.x.(././.$X>X>X,X,X;XbX$X$X,X1XY.H.H.G.G q 7.qXtXiX5XM..XaX XdX>X~.|.P.6.W H.T.! H G t i i 6 B Z i Z J A A S #.2.b v Y x b ' d v d K p J K Y.Y.H.I l G l p p S a p p d p u l K I I W I 3.Q K R P K p p G G J W A J H ~ J J G H z J A a A J Z i F Z i Z i J J F F 6 6 V Z D Z D J F Z Z Z J G H K a 3 L &.L v K n K v a l 3 < * W I H.H R J.P.P.G E I p I 7 = y = t G G U I < : > > - @ e > > > - + - * * - - - > > > - @ - - - - + * * - * * * = : < - - - - - - f 5.+XpX%X X$X~.R $.3.d.f.f.L.Q.d.(.~.~.}.>X-X:X X|.<X$X X:X3XI.H.",
"Y.J.l Q.KXSXFXSXSXFXFXDXzXyXfXpX>X#X#Xd.7.L U.U.L.Q.!.!.Q.s.R.(._.!.R.[.rXfXnXzXeX0XoX].8X8X)._.(.p.v.[.#X@X X@X X/.!. X'.l.[._..X.X[.^.v.9.R.x.7.,.d.^._.n.m.j.v.R.E.^..X(.z.z.n.!.m.N.qXoX!.v.d.p.:.%.=.&.N z G p i Z J J J A Z H H J J ! 5.W K U U I S S I p p 2.Y d K v U &.Y f p < t W 7 2 |.5.p K 2.H.6.K a > - - q + + > q - q Y l j > @ $ @ @ h e @ @ + 0 t e q - @ @ + + @ @ + + + - - - + O * + - - - q - + + q 0 + #.$X$X%X X*X%X{.a.$.4.d.,.L./.d.~.^. X$XgXpXpXhX&X:XpX@X$X&XcX:XT.4Xy.z Q.LXFXSXSXFXDXFXFXzXfXaXwXwX%X#XL.y.I P.U.P.y.4.3.U p P @.%...@.c.9XnXDXSXqX5X9XqXuXtXN.v.8...=.^.>X:X-X:XJ.*.s..X!.] v.l.[.].pX.X^.8.@X^.L.s.[.&XeXqXoXN.W.^..X#XwX8X[.!.N.oXm.oXyX0XN.m.v.8.*.%.=.&.v i A i B Z Z J A 7 Z Z D D D ! u.~ J H W K G A Y p d 2.Y K K Y &.4.#.a p < i Q 7 2 Y.6.l K 6.H.5.L l a : q t q - q y q t U P L q q e w w h w q > > : u q q q 0 : > @ + 0 + + + > - - + - + : : q y q 0 + - > q - @.}.@X}./.%X>X~.i.U *.a.4.d.^.f.U.~.{.}.dXpX>XhX>X%X>X@X X*X2XOXY.",
"H H.:XvXwXtXzXsXuXzXzXuXlXtX5X8XrX0XzXN.5X6XaXwX.XfXlXZXzXSXzXSXDXzXNXFXFXDXzXyXrXrXoXoXoXwXyX0X_.qXzXeXaXeX0XyXzXqXrX].oXwX0XoX'.'.'.x.p.%.;.r.p.:.h.9XiXuXuXuXzXuX9X_.0X9X8XoX8XN.oX9X9XuXtXqX9X`.b.M.qXM.g.m.s.5.6.5.5.E..X|.Y A W A ! 2.XX|.P.}.L.8.L.d.8.F.E.^.4.@.4.7.8.R.4.Y K p Q Y.J 2.,Xy.I G K l R : : q - 0 > - > q : q K 2.p p P w @ w e e e @ @ @ > q q - + - > 0 - + + + + + + @ @ + + + + - - 0 q 0 0 e e w @ a a.d. XdXpXL.*.T m $.*.i.f.f.x.Q.~.@X@X>XgXdXdXgXVXjXwXdX*X1XH.W D H.:XvXeXtXnXsXtXzXnXzXzXtX5X8XtX9XzXM.5X5XyXrX^.aXhXzXeXuXnXFXFXFXFXPXPXFXFXuXtXsX0X5X0XuXDXSXuXFXSXuXnXzXtXzXSXzXeX9XiXqX8Xn.'.lXzX'.!.<.r.n.c.h.M.MXGXSXSXGXFXSXtXqXyXqXqX9XqXN.A.uXiXuXuXiXiX`.b.M.iXN.<.!.v.5.6.6.8.P.,X}.S Z J V S.! |.|.|. XP.8.d.s.8.L.L.E.9.@.7.7.v.R.7.x b p W Y.G 2.3XJ.I K I L 2.p z p y u u u a u p t K 6.d K T j e h j w w e q @ q u u e > : w w q > @ - @ - > q 0 - - - q j a q w e q e u w 0 u a.f.{.aXdXJ.&.@.m -.%.i.f.p.d.Q.Q././.*X>X&XwXdXAXgX&X>X@X1XH.E ",
";X;X;X&XxXfXrXqX8X6XuXqXqX0X8X8XoXC.9X9XuXMXuXiX9XuXnXuXSXKXKXFXKXKXKXDXZXzXqX8X`.N.8X8XoXoXoXz.l.).0XwXuXuXeXrXqX#X0XoX8XoX_.n.z.:.r.] ( ..h.z.B.j.N.9X9X9XyXqXyX8XoXA.h.X. .t.V.t.C.M.A.N.N.m.V.V.m.B.B.V.V.B.z.v.l.f.s.R.R.~.|.|.;XY.|.|.|.F.9.#.1.[.XXXX.XpXbX.XR.v.XX[.[.].E.E.E.9.D.Y.D.P.K.L K p A K a a : > : q + > @ @ 0 w R L j T g.g.N e w w w @ @ @ 0 $ @ @ @ $ @ @ @ + + + + @ @ q + + + O + + > e q w a t u y - 3.pX:X>X&Xd.p.=.t.t.%.g.d.x.^.^.(.^./.*X&XkXkXxXAXxXjXcX>X$X>XK G 4X;X;X:XhXsXeXqX9X5XuXrXrX8X5X8XoXC.iX8XtXnXuX7X7XiXMXiXGXPXPXPXPXPXPXPXFXSXiXiXN.j.`.6X5XoXwX,.x.oX8XyXuXuX9XyX8XtXtX9XoXM.z.:...:.0.[ / >.n.C.A.B.iXMXGXGXNXGXMXuXrX9XB.....j.r.j.C.N.A.N.N.m.h.b.B.N.B.V.j.B.B.g.g.g.f.U.L.~.|.4X;X4X-X-X;XJ.9.@.#..X|.XX>XaXhX.XR.s.XX^.]..Xv.R.XX@.D.|.D.J.P.K K K K Y G v a u q e q w w e 0 u @.P v -.i.f.n w x w s e 0 > @ e + @ @ $ q e e 0 @ @ @ > e e + - - - q e e w a x a p l l : 5.<X:X:X&XL.i.-.:.-.} i.f.x.Q.!.!.Q./.'.*X>XkXkXjXhXgXgX>X}.,XK G ",
"BX;XOXgX#Xp.M.5X`.9XN.M.M.).`.9X9XC.5XC.uXSXNXGXnXSXFXFXPXKXKXKXKXKXFXDXzXqXqX0XrXeXeXoX)._.n.p._.].rXyXfXqX'.oXp.z._.!.c.r.r.l.z.h.M.b.;.h.h.h.t.B.A.*XiX=XqX#XoXn.m.r.t. .j.z.h.j.z.N.m.r.V.) t.B.B.V.V.g.V.t...` ( ( _ _ c c 5.H.D.H.T.Y.2.9.#.w.@.8.R..X.XXXE.7.8. X6X[. XE.E.].%XL.9.|.J.J.A t y t q > : P q > : 0 e e 0 e m f.=.q p p 2.{.~.-.N x e w w w + e e @ j > > e > T > - - + - + @ $.=.-.m q q e w u e w a 0 x &X^.{.R.L.f.!.n.g.t.f.m././.'.(.'.@X@X$X<XgXxXjXxXxX&X$X~.|.$X3.K.IX;X+XpX.X<.M.`.`.9XN.N.N.).`.9X9XA.N.C.MXSXGXGXGXSXFXFXPXPXFXLXPXPXPXFXSXqXtX5X5X0XiX).l.<.| h r.z.oXyXuXoXm._._ ;.c.h.>...)  .b.M.9XN...B.N.M.m.A.iXGXuXuXuXyXqX8X_.v.t.t.j.z.j.z.M.N.g.V.V. .o.B.B.j.V.V.g.t. . .) h ) h h M 5.H.S.T.T.Y.W 9.#.d d 8.XX.X.XXXR.8.8.[..X[.[.W.W.%XaXL.9.|.J.H.l : t q t t 3 P u q u q a w w e @.i.4.s v v 3.{.~.-.m s e w w $ @ @ e e w w > w > U q - - 0 > - q %.4.=.$.u q u x d s x s q n >X~.{.a.a.L.x.d.i.t.g.m.Q./.!.(./.}./.@X<XdXgXgXgXjX$X}.~.}..X3.H.",
"3X+XU.:X,.1.[.N.k.N.`.N.N.b.`.N.9XiXN.C.uXSXSXSXFXFXFXFXFXDXFXFXSXDXNXyXsXzXqXM.).eX].n.).n.m.m.n.oX0XyX#XoXoX8XM.:.t...;.:.<.:.} v.yXQ.d.m.m.j.z.m.oXoXyXoXj. .|  .} t.j.N.N.j.N.B...`  .t.t.o.V.m.N.V.g.t.t.g.>.X.X.t.j.j.o.[ b J Z ~ D.Y.7.7.1.[ 1.9.9.XXF.#.8.9.9.XXE.[..X^.W.W.6XXXE.E.J.5.t s q - q e u u y q > > > e e @.t.P j q q - t U P.|.*X=X=Xg.g.-.h @ w w e $ h @ %.i.+ > q 0 q e q x v a.a.=.-.j @.7.p.=.*.7.a./.i.L.$Xs.d.!.d.t.f.x._.(./.@X X@X$X$X+X$X$X>XgX>X:X,X|.{.L.~.P.J ;X4XT.>X4.1.).N.z.N.N.N.b.b.5XC.9XiXN.Z.uXSXSXSXFXFXFXFXGXFXFXKXFXFXNXqXyXzXrXh.l.qXv...:._ _ _ t.h.N.oXoXn.N.N.0.( # # # / { ` ..M.FX/.(.n.N.N.N.oXqXuXGXuXB.t.t. . .X.B.N.C.k.A.N.t.) t.V.V.o.t.B.n.j.V.t.t.t.V.o.o.V.V.r.o.h s i V ~ H.Y.5.9.9.[ 1.9.7.XXF.@.8.9.8.XXE.[..XW.[.^.aXXXL.J.D.5.q u q - q a d v u a q e e e s @.=.$.v u a a A Y J.{.$X/.m.g.t.t.h e r w e e h + $.i.0 q f q e w w b m s.s.4.=.v &.7.p.,.*.7.7.^.8.a.~.a.d.d.t.%.g.f.!.Q.Q./. X/./.{.}.+X+X&X<X*X$X$X}.~.J.~.K.H ",
"4XY.T.OX7.l.b.`.5X0.N.`.5X9X9XA.N.9XN.N.N.9XzXzXSXFXFXzXnXFXDXMXqXeXeXzXNXqX'.l.v.).v.c.c.n.n.r.p._.!.m.m.m.M.qXyXr.V.z.N.z.>.| ] Q.&Xi.%.p.m.l.j.m.j.r.t.o. .t.j.z.N.N.oXA.B.M.h.X.) j.B.j.V.B.N.N.A.V.V.V.V.B.z.X.j.B.N.h.) _ d y Z F H. XU @.#.<.E.8.R.1.9.8.8.8.8.q.E.XXW.F.9.8.D.F.6.|.J.3.w a c a a q u > y &.=.s m P m &.&.j q q > t 3 t G P u.I.d.g.T t.-.N h x x -.-.i.@X%.e $ $ e $ h r $ [ v.=.,.p.Q. X'.~.$X$XI.$X^.a.Q.i.=.*.t.:.m.(.(.(./.Q.(.{.Q.^.}. X}.}.|.|.{.gXOXL.J.P.a.D.i Y.Y.H.$X7.h.b.`.5XO.N.5XA.9X5X8XN.A.N.B.N.9XuXNXFXFXFXMXFXFXDXzX7XiXqXNXSXqX).:.;.z.;...` ) )  . .z.r.r...h.N.uXuXX.e.V.Z.k.X.0.>.@XCXf.=.p.p.h.j.n.m.z.V.t. .t.B.N.oX9X9X9XN.N.j.X. .j.N.V.V.V.N.N.A.j.t.V.V.m.z.t.j.B.N.V.) M p 3 V B H.:XU b [ 9.E.8.q.9.#.8.8.8.8.8.E.W.E.E.8.8.L.F.6.|.a.2.q t d u u q s > u $.6.d b &.' @.@.v w u t u q q p L 4.L.d.t.T T %.N x N x -.$.t./.@.w $ e $ e r r e [ L.=.,.i.Q././.R.}.}.L.{.I.a.K.5.u.=.=.| g.x.Q.m.Q.m.d.~.d.~./. X{.}.|.+X~.<X+XJ.J.P.a.y.y ",
"y.H.;X{.1.c.`.N.N.N.k.C.9XN.8XN.M.N.9XN.B.oXiX9XqXtXtXnXFXqXc.W.aXNXeXrX0Xn.h.r.z.;.:.<.t.:.-.t.t.v.r.g.x.n.#XoXm.oXyXyXoXB.j.t.| ` ..c.n.z.z.t.t.B.j.B.X.h  .k.n.M.M.z.z.M.z.B.V.V.V.V.j.t.V.t.V.t.V.t.m.B.j.V.X.X.X.V.V. .h M s t < k H.I.P.8.1.q.1.8.8.8.E.W.E.s.q.E.W.[.q.1.E.q.8.5.Y 9.5.9.a s d p d e 0 t > u 4.3.6.@.4.a.=.Y p e q q q q q q > x P L R -.t.i.,.s r w d./.w m *.m x M M $.i.Q.*X#X,.d././.Q.-.P U u.&.3.&.4.a. X*X%X$XwX&X=X(.Q.(.(.d.Q.(. X}.*X*X+XK.K.+X:Xy.R v q u Q H.! UX;X{.%.v.N.N.N.b.z.C.A.N.9XN.N.N.9XN.j.A.9X9XiXqXqXSXKXtXl.v.eXDXwX0X.Xl.X.| r.) (  . .)  . . .t.....| t.oXM.t.A.GXGXMXA.A.Z.V._ :.).n.B.m.V.z.N.N.N.V.h  .B.oXM.N.z.n.N.B.N.k.j.t.V.j.V.V.t.V.B.t.o.B.B.B.V.t.o.t.o.t.% % h s t = k H.Y.J.8.1.8.9.,.8.8.W.XXE.8.8.W.E.[.q.1.q.F.L.8.p U 5.P q p s s s 0 q s e p 8.2.4.@.*.=.$.v s q 0 q q > q q q j L T T R 4.i.=.w r w f.Q.w c -.b w c M $.p.d.'./.=.f.!./.R.-.@.U i.R &.&.3.u.~.$X$X$X@X@X(.d.d.Q.x.d.d.L.^.^.@X$X{.L.a.+X:Xy.R L q p 2.u.",
"E ! U.~.p.v.).N.`.5Xb.N.j.b.N.N.uX9X8X9XN.N.9X9XtXtXzXKXeX).6XzX0X!.l.7.t.h.r.l.n.] ..| ..r.h.r.:.:.:.t.:.;.<.:.N.qXM.n.m.z.M.M.M.z.` ..h.z.h.j.z.j.n.h.) )  . . . . . .V.t.t.V.t.V.t.t.t.V.t.) t.V.V.t.B.j.z.j.r.t. .h ) % ) ( [ y 3 l 5.I.~..XE.v.v.1.1.q.XX8.R.1.v..XE.E.W.E.8.#.<.Y e d 8.Y w P d s e u u q q - q Y a.U s v P P x q q q w e e w q e q q y y y j - @ m (.Q.T @.u.~.U.4.P L T R 2.u.Q 3.3.T -.P ' $.u.,.=.3.i.v U &.R &.a.s.=.d.i.(.+X{.L.Q.(.@X$X&X{.a.&.y.U.R T y n 4.u.y.u.D ! U.U.p.l.N.).5XC.z.B.j.j.`.N.uX9X5X8XN.N.9X9XuXtXSXFXrXW.5XzX.Xp.;.} ]  .o.>.j.h ` ) )  . . . .| %... .% t.) B.FXuXuXiXuXSXiXiXiXX...n.N.z.B.N.B.N.j.) h o.t.X. .o.t.V.h.t.V.t.j.V.V.t.t.t.t.t.g.V.t.m.j.j.V.V.t.V.% % % % % c q 5 k ! I.|. XE.E.q.1.1.8.XX9.q.<.v..XW.E.W.E.q.1.v.#.0 d 5.p q b s a e s d u a e a P 6.U s s v d a e 0 0 q 0 e e e e > > q q u s 0 0 m Q.x.T @.4.L.L.4.U P R &.&.R T &.&.T &.' @.-.s.7.=.=.4.n T 2.&.y.K.L.4.a.4.U.(.U.d.d.Q./.*X$X~.i.R y.L.R T u K 4.4.H.u.",
"T H L ~.p.].z.c.).5X5Xb.z.j.b.zXeXv.zXl.h.l.b.rXqXyXwXM.l.<.eXM.| :.t.:.r.:.:.h.X. ...| | t...:.|  . . . .j.z.b.uXqXoXN.M.z.x.n.n.oX%.' r.p...n.yXoXj.t.t.t.t.t.t.t.t.V.j.h.V.t.j. .t.V.V.t.V.t.t. .t.j.t.t.t.r.m.V.t.o.) ) ( [ c a i B H.I.|.L.9.E.E.v.F.E.9.9.9.#.q.8.#.1.8.W.[.[.8.9.d d #.d f v d p s u s w e > a q w U m c e e e @ e > @ e q e e w q e e @ q y n s.@XK.- - 4 - - - y j u e w x N M x j m P -.=.t.t.i.=.t.3.P P t v v P m @.-.$.3.i.g.d.}.@X~.i.-.n j w x j w u x *.a.i.3.L l G k ~.p.'.h.v.).5X5Xz.j.h.B.zXqXl.zXh.r.j.z.rXrXeXeXM.<.>.qXM./ ) .._  ._ ` >.o. . . .)  . . . . ._  .t.B.N.N.GXSXGXuXuXuXiXuXuXGXt._ m.t. .n.yXoXg.t.t.V.V.t.t.j.t.j.n.j.j.t.B. .t.t.t.t.t.t.t.t.t.V.V.t.V.g.j.t.t.% ) ) % % s < 3 5 H.T.|.7.#.q.F.L.F.R.9.#.9.9.s.v.#.1.8.[..X.X8.9.t a Y u q s x s s x v u a q a t d P b s 0 @ 0 $ $ + + 0 @ $ $ e @ e e - q u n a.}.a.- > q - > : u s u w w x m m x x m @.-.=.i.7.=.=.,.i.P v p U U &.$.P &.T -.u.u.i.Q.+XL.i.-.v j u x x w j d &.i.i.&.L ",
"l y u s.W.`.;.oX8Xl.z.z.X.X.z.rX!.#Xc.%.r.h.j.>.<.:.| ;.;.l.h...|  . . .} _ %.t._  ..._ _ _ |  ._ } g.A.9X9XuX9XoX8X9XyXoXM.M.M.].r. .%.:.:.} t.A.n.n.n.z.V.h.n.N.z.g.z.t. .t.t.M t.M % t.m.V.t.g.B.t.V.t.t.}  .}  . . .) ) ( ( s y Z 7 D.|.|.7.q.8.1.E.F.8.8.F.9.Y Y #.w.Y *.8.E.E.E.F.p Y &.p e f q x s u w w 0 q > q q a @.=.c w e $ e @ @ e w w w w e e $ e n t.3.=.&.u q @ e e e e x h %.-.%.*.$.-.@.} %.=.t.%.-.i.g.f.g.T x e e w x s m u.=.u.i.u.d.f.L.U.&.w q v v v x x s w w e e w e : y : y i.c.)...`.6X0.v.k.X.X.z.eXc..Xv.| >.h.j.>.>.:.| ;...l.j.` ` o. . ._ ( ..r.)  . .) ) M  .t. . .N.iXGXGXGXGXuXuXMXSXGXuXuXNXDXoX_ |  .} h t.yXA.N.A.n.j.h.n.oXM.z.z.t.t.t.t.} | `  .o.B.V.j.V.j.V.t.g.t. .N M t.) t.o.) % t.s > 8 5 ! ;XOX6.1.1.1.F.F.8.F.F.9.S Y w.w.b 4.8.E.^.E.s.- p #.a q q 0 p u w s s w q 0 0 s w b 1.' s r e e e e e w s s s w w e w m =.&.*.&.v q 0 e e e e w x } %.$.%.#.@.m ' %.=.,.$.$.t.7.f.u.$.v q p n $.U m 3.-.-.u.$.i.i.f.d.&.j q v v n x x x e e e w w e : ",
"q > > *.<.' [ v.<.{ 0...{ j.b.<.[.fXp.h...` o.) ` >...;._.r.( ` ` ` ` ` ` ( | | } _  ._ _ ` ` ....m.qX#XoXoX_._.oX8XoX_.].*X'.!.t.@.;.] ] ( ..m.| n.c.<.:.r.r.t. ... . ...] _  . .} } | g.h.t.t.t.p.z.l.......t. . . .)  . .h h w > y k ! }.XXR.E.q.W.F.w.[ 9.8.1.w.[ w.[ 1.9.9.1.1.9.5.p o a K a w a d a x d e e e e e e e e j m T u.P e q e q w z w y w w e e x m m m v M x w x h N c c %.| | :.:.r.7.p.8.<.r.p.<.p.m.m.Q.U.i.' i.i.%.m M m N j w q j z x N T f.d.P n x m x w e e w w w $ $ @ + > > $.1.[ r l.>.{ 0.X.o.j.b.<.[.zXp.h...) ) ) { X.X.>.8Xh.) ` ` ` ) ` ) ( ..`  ._ | _ ) `  .t.X.8XSXuXuXzXqXqXuXuXuXqXfXlXlXhXn._ _ ` ) h X.oX) _.M.<.t.j.r.V.......` .. .)  . .} } ..g.g.t.t.r.g.B.r..... .t.t.} |  ...o.( h w > ; 8 ! |.|.R.q.q.F.q.w.w.9.9.9.[ [ w.w.1.9.9.9.1.*.F.a X t d q q e d w s b w e 0 e s e e s ' b P *.b w e s w s s u u w s e e x m m b s v x w x h h h x } } ' :.%.<.,.8.<.<.r.r.,.p.g.d.R.R.7.@.4.a.=.3.-.$.v u w q u j N N P g.f.P n n m w x e e w e w w e @ ",
"e @ X c [ [ / r _ ;.>.X.0.5Xb.[ ).r.] ) o.) e.) X.o.>.N.V.( ` | [ _ [ ( [ _ ] ` ) _  .|  .| r.M.z.`.N.oXM.M.M.h.`.]._.t.' n.1.] :.p.:...` _ r.l. ._ ' | | t.b...` `  .) `  . . . .X.| | | .. .} | :.| :.}  .t.t.t.|  .t. . .h h > - 3 4 Q H.P.R.8.E.q.9.#.q.1.9.R.q.E.8.9.9.1.q.1.w.d w.f X - K f a x w e w s e e e e w s w u u w w w j q w w w w w w w e e e e w w m T T M } N M -.:.' } i.d.i.=.p.f.oX/.L.Q.Q.U.d.(.U.y.y.I.+X+X(.&.e $ q e w w @ e w w w z m T u.T 4.=.m M w N w x w w w @ @ @ O   r [ r / r [ ..X.X.0.7Xb.` `.h...( { ) % ) X.X.X.9Xj.% _ | ( ( ) / [ { ..` ) _  . .` ` >.M.h.oXqXqX9XqX8Xn.qXyX9Xj.| oXr.| r.m.>. .( ) r.n.} _ | ;.} V.n.t.` )  .o. ._  . . .....| ....| |  .t.| t... ...t.| |  . . .` r r @ 9 ; ; ~ J.P.F.F.F.q.w.] q.8.1.XXv.E.q.{ 9.<.q.8.d d #.0 . X Y q f s a q s s e e e w s d s b x w r s w f s w w s e w e e w e $ e w N m m M M h M $.| m m ,.p.=.%.t.t.!.!.d.U.R.d.f.(.d.i.u.d.{.~.a.R j v x x e w e e w w w j m T u.P =.-.m x x N w x w w w @ @ ",
"v + - x h r r r r $ O.uXM.{ ) ..h.r ( >.b.j.j.z.k.N.j._ h ) h ) h h ( ( r r >.h.V.X. .X... . .` t.N.N.z.t.h.h.M.`.z.r.X.z.r._ <.l.z.m.X.X.t...( _ _ [ [  . .t.V.V.) o.X.o.{ o.o.o. . .o. .) ..| | T | } } t.} } t.t. .| ..` h h > + 4 2 H y.3.%XXX1.w.1.1.<.;.8.9.9.1.q.q.1.1.q.w.f 0 d O o 0 f e s 0 e e s u w w w u u j x u w j w w e e e e x > > w > > @ h m t.i.%.$.$.%.m _ | -.,.p.i.&.7.!.R.Q.s.f.Q.a.a.y.f.L.I.K.3.y.R v j z h e e # $ $ e $ w r e w w w x e d.ZX~.-.P n m L n j w @ @ w $ X O e r r r h r $ { SX5XX.[ { h.r ( X.b.j.k.B.N.N.j.) h ) ( ) ( ( ) ( ( r h.j.t.) % ) ) ) ` h  .A.N.B.j.t.z.M.qXN.j.t.M.r.h <.r.n.B.V.X.h...( ] [ [ _  .t.t.V.V.) o.o.o.o.X.o.o...o. . . . . ...}  .} } t.} t.t.t.}  . .` h h @ @ 8 9 J H.3.,XXX9.#.1.<.8...8.1.1.8.8.q.8.1.q.#.r f d X X - a f e 0 e a w w w s a s u s b b s s s s s x w s ' w e w e e @ e x :.%.} m m } M M | } -.i.7.P =.R.f.p.7.i.L.y.y.u.y.d.U.y.3.4.Y j w l z z j M s w w $ e w e w w w w w f.CXL.&.m j m n n N w $ @ w ",
"y + X X 0 r ( r r $ { N.{ { z.v.[ { 0.z.z.c.M.h.<.l.` ` h ( _ ( ( ( ( # h _ X.h.oXb.X.X.) o.X.z.9XuXqX9XqXN.z.N.8XM.`.`.c.| :.m.| ..r.z.z.l.h...[ ( ` `  .)  . .) X.o.o.X.o.o.o.X.V.j.j.t.t. . . . .|  .t.|  .| t.| t. .| ] ( w + - y 2 i T.y.J.q.1.1.1.q.1.9.c.1.@.#.8.#.q.E.<./ ;.w.#.0 f s b Y b d b s x s v v u v x u u x w w e r e @ q @ q y e > e j N &.=.=.M m -.i.=.,.i.t.t.i.i.-.-.4.N m &.&.3.K L l u l n j q - + > q e w w w w $ $ e h $ h e h w h N x n }.~.4.R T R P P L m w w } w - X . X @ r r # # $ o.7X{ { b.M.[ { 0.b.b.M.M.h.0.z.[ ` h ( ( ( ( ) ( # e.) ..X.A.B.X.V.o.) X.B.uXMXuXuXiX8Xh.C.9XoX8XoXc.] :.z.}  .t.h.j.z.j...) ) ` ` ) ) o.o.o.o.o.o.X.o.o.o.X.j.j.j.t.X. . . . . .M t. . .} } t.:. .] | h e + O 8 1 g Y.H.P.F.1.1.<.q.1.1.E.8.#.9.9.#.q.E.<.[ #.w.w.0 0 a d Y Y d x d x s P b x c s x b @.b s s b ' c s x s w e e w p c ' $.$.s x @.*.%.=.=.=.-.,.,.-.$.=.x m U &.R p v x a v v j : q > 0 q e e w h x x w $ w r r e e w N N x n /.I.=.R T &.T L n m w w } e ",
"- + ; + @ h # r r # r 0.0.]...r r W.l.( [  ...>.>.` ..` ( ) ) ) ( ) ) ) ) ..l.m.l.:.r...X.t.t.j.j.m.n.).M._.oXoXz.v.m.r.r.:._ ..t.r.r.r.:. .j.m.M.h._  ...V.j.j.b.C.j.z.j.j.h.b.N.j.r.t.t. . . . . .| | | | t.t.| :. ._ [ [ d e - : k 4 7 5.W 8.XXq.^.E.W.v.E.E.1.8.8.1.#.;.<.8.1.E.8.1.Y d Y d.s s b d x s P x u x v u j u u u w w x s x j e > @ > e e v -.,.=.i.%.=.&.$.$.,.7.-.f.i.=.a.f.a.T l - - * : - + @ e 0 + + $ 0 @ $ $ $ $ $ $ $ # w e w w e N h w j j m T l n T $.g.f.T w e n =X-.+ O O * O + ( # # # # # h.0.9X;./ r b.z./ ( ` ..X.;./ ( ( h h h ( ) h ( ) h ) ..z.l.:.<.....X.t.j.B.N.8XN.C.oXoX9XM.n.j.r.>. .h ;.t.t.t.t.t.) B.N.`.h. . . .t.r.j.N.8Xj.B.j.z.j.n.N.z.j.t.t.o. . ._ t. . .| | t.t. .|  .} [ [ s e > ; ; 8 B H.Q 8.XXE.6XW.].W.[.[.9.R.v.9.[ #.q.8.q.W.8.1.d d v R.s u b b c s @.x u v x b @.Y [ @.s d ' ' m b s e 0 e q e b %.,.,.1.%.*.$.@.@.=.=.:.i.u.&.i.i.7.P u - - - - - + @ 0 @ + + e 0 $ e e $ e w w x h w w w w @ h N w w x m T v n T T g.f.T w q m =X-.+ ",
"- & 4 - q _ ( ) ( ( ) t.c.l.[ ` { 0./ ( ) ( ) ) ( ;.r.X...l.r.t...t.:.| o...t..._ ( h _  .)  .j.r. .( ` 1.t.x.:.} r.| oXl._ _ ` h ) ( ( | } | t.:.:.t...} | t...t.v.t.} ] ' %.x.m.j.m.j.o.X.X.)  .| | :.%...} | | ' %.m.!.[ s 0 t y 4 4 i Q K @.8.E..X.XE.E.R.7.R..X9.9.9.9.q.F.[.E.8.W.[ d 9.8.s s s x Y @.x u p u a u a u u q q l P $.4.t.-.e e w w N -.p.x.p.t.i.d.d.i.i.i.d.g.f.f.4.@.p y q > + O + > @ @ 0 @ @ > 0 e + @ @ w @ h @ e e w e e w e e w w j z j x j q u N =.Q.Q.R./.*XkXx.e - O O ; O @ h r # # # r ..l.1.r r ) 0.r r ( # h % # X.V. .o.O.V. .) ) ) ( e.h _  .( ( ( [  .)  .B.j.) h _ ..t.z.>._ r.` rXl._ ( ( % % % N t.N } t..... . .)  .t.t.t.h.<.}  .h | m.m.h.B.j.) X.V.h | ......|  ._  . .} | m.R.[ s 0 ; 9 4 8 6 ! G Y 8.W.aXaX[.E.E.8.E.6X9.#.9.9.q.v.W.F.8.[.d s &.5.e s a x Y &.b q s d v s x v b p s P &.@.7.,.@.s e w w c m 7.d.p.p.i.x.d.i.=.i.p.i.f.p.=.@.p t > - - O - > + @ 0 @ e 0 e e @ $ e w e e $ j N j q e w e e w y j j j j j q j m -.m.Q.d.(.%XkXd.e > ",
"O ; = * u m h h r / h 1.:.[ [ / ) ( ( ( [ h % % o...>.h.z.z.l.z.z.t.:.:.t.t.h h h h h ) h  .z.b.B.t.( _ | ] [ [ m.!.<.%.[ ` [ ` _ `  .t...t.M  .} _  . .|  .}  .| M m  .| } }  .M  .t.M.9XyXM.| t.|  . ...| | | | } x.yX%Xs.x t 3 4 Z 7 2 Q 2.3.9.F.8.8.E.XXW.F.XXF.w.r @.q.F.E.E.W.E. XY s 2.*.b #.@.@.&.a q e w e q q > q G u n P v n n T t.&.e j g.(.Q.d.i.=.p.d.p.i.p.d.d.p.d.f.m > X - + > - > - : - > @ e q e q - + + - e y e w w e w e u j j > z z > w w j w j w u w y.~.P &.~.{.=.N r q O O * X w h # # # # r ..] r # # e./ e./ ( ( % % o.X.V.j.b.M.z.z.B. .( ) )  .h % ( h h ) ) V.B.N.A.V. .) ..] ] ` oX8Xp.;.) ) ( ) % ) )  .% % %  .} )  .M  . .M  . .x M } M t.M M _  .t.oXwXuXM.| t...|  .t. .}  .} } m.wXwXs.s - ; 9 8 g 1 ! W 9.6.E.8.J.XXXXXXE.XXR.#.d d F.R.E.E.XXE. X@.f *.2.d P @.@.%.u 0 q a w f q 0 q @.U &.*.Y &.@.*.*.$.e w =.a.p.i.,.=.i.d.p.i.s.d.d.i.f.i.b > X - - - - - - > - > @ e e q w q 0 + > e e q w q j j u w w j > y y y w w j e j w u w y.Q.P &.R.{.-.x r > ",
"+ - - + s r r r # r r %.[ ( r r % # e.e.h r r h h ( r ] ..} _ h M M [ h M M  .) ( _ ) h  .j.j.z._ M ) M ( h r _ .._ ` ( _ _ ( ` ` ) _ | |  .t.) ) ) _ )  . ._ `  .}  .}  . . .| t.t.} t.t.n.g.p.| | |  .| | | | | | -.%.%.7.u t i 3 7 i 5 3.I.l #.6.A S S Y S #.#.d d @.9.#.9.R.XX^.XXE.2.8.9.&.b &.b a 0 0 - - > - - - - - j q L T j n n E &.i.=.R u.g.a.i.f.f.d.U.g.a.U.L.~.d.d.=.s m T j + + + + q y q + + e q q - 0 + X + > e e : > e y y z x y > N z z y > : w u w w u j z u u w e w w + O O + O O s r r # # # # ;.` / / e.# e.% ) r # r h ( [ r | :. .} h _ M _ M _ _ | ) _ )  .(  .j.b.N.M  . .M ) ) h  .t. .| ) ` ) ) `  .) ) ) ) t.t.% ) o.) o. .o.o. ...`  . . .) t. .t.t.} | t.m.m.p.| |  .| }  . .M t.M t.} -.4.q = 2 1 8 V 1 ! |.A Y 6.a S S Y S @.#.d d w.9.#.9.8.[.[.XXE.2.9.2.&.Y $.Y s 0 : - 0 - + - + - - u u P @.m @.P m @.-.@.P @.*.=.4.7.7.i.f.i.a.U.R.Q.d.s.%.s m @.w @ @ + @ e t 0 + @ e w w e e - + > e u > t : y l y j j j > n N y y > q w j w q u l z j a w e s w + O ",
"> : = + + x r r r # # r ( # r # r h h ) # % % h ( ` ` ) # h ( h h h h _ h _ _ } _ _ [ ' %.;.{ ] h.r.j.j.t.t.r.j.h..._  ._  . ._ _ ) _  .}  .)  . . ._  .|  .|  . . . . . . . .t. . .| ..} | | _._.r..._ _ `  . . .| ..t.-.n : y t a 7 Z 3 Q Y.R d S r s d d s s f d #.v.7.*.8.R.XX~.9.Y Y Y 4.2.G q + - - 0 - - - q + > w w u w u v v n n y.3.R u.u.y.u.u.u.y.J.u.u.H.H.3.E Q E E R u.y.u.L n j > + @ > @ + > > - - - + O - O - - > : ; 3 y H T i ; : 2 4 y 4 : 4 > > z q > > : > + - - : =   O ; - * * + h e r r # # # / # e.# # h ) ) % h % h ) { { ) r r ( ( M _ ( ) _ _ _ } ' } ' ] ;.;.....j.k.N.N.B.m.m.N.N.t.) ) )  . .) ) ) ) )  .t. . .t.) M  . . . . . . . . . .)  .t. .|  .| ..| | oXoXt.:._ _ )  .) ) _ t.t.T n > > 2 6 5 B < ! Y.H a d q f f f f f f e #.x.s.*.8.R.XXXX4.#.S #.6.2.A f * o - > - 0 - 0 + 0 [ d w e r @.-.$.m *.$.U R -.-.&.&.4.3.5.2.3.y.J.3.E ! ! E E u.u.3.T z z > @ @ - @ > > : : q : > - > - > : : = = 3 l H L y 2 ; : 4 y 4 4 4 : : j q > > > > + - - : = X O ",
": : = * > n r # r r $ # $ # $ # # # % e.% ( M h ( ) ` ` ) ) ( h h ( h h M )  .r. .h _  .) _ %.M.qXoXm.m.t.p.n.r.| M h h h )  ._ M  . .|  .M M  .} }  .} t.}  ._  . . . .t. . .|  .t.| -.| t.-.:.x.l.%.h h M h h h N M T P > > 3 < 7 B Z 3 ! |.K 3 d d d w.[ f r d s d %.1.8.8.@.w.@.a d 0 t a t - - - - - : : q > q > u z a u z j z z l G G z G H E E G E G l p t 6 a Z 4 2 4 k 4 3 8 3 g 4 E n q + > : : j ; ; : : ; ; : y > > : 4 3 : y 7 7 4 3 4 8 ; 3 2 7 4 4 4 3 : : 9 ; : 4 9 > 9 9 ; ; ; ; 3 = X - } r r / # # $ $ # # $ # # # e.# ) ) ) ( ) ..{ ) ) ( h ( ( ( M ( ) X.h...)  ... ._ >.`.NXGXqX`.g.N.9Xn...o. .) ) )  .) M  . .t.o.) ) t.)  . . . . . . .`  . . . .t. . . .t.t.| | t.:...m.l.;.h h h x h h j h N N > * ; = 5 5 D , ~ 4Xz + a f f d d r e f s d %.1.s.s.#.b d f a 0 t f w - - - - 0 q > - > w > m &.b @.@.&.&.*.U $.U K l v l H l L l p p t 3 6 i 4 3 4 p i 3 2 3 i y L n e - q > > y > > 4 y y : > z > > > > : 2 y 7 7 4 3 4 4 2 2 : 4 4 4 4 4 > : 9 : 4 ; ; ; 9 ; ; 9 ; ",
"= 2 ; = : b s e $ $ e $ $ $ # $ r % % % h h h % / e.h ) ( # h h h h h % r # h _ ) M M M h M c _ ,.=.*.@.} _ N M M h M _ h M M M _ | -...} } M } t.t.t.t.t.| ..t.t.t.| | | | :.| | }  .| | | -.....%.1.z.%.s q > > > > e q ; 3 y 3 i i l 7 ! H.t Y v f d d r s f s s r w.d #.9.4.8.#.q d 0 - q q q q q q t a t < k k i i : : = ; 3 4 7 4 3 4 7 7 5 2 8 7 4 3 ; 7 3 6 7 7 B 7 7 D Z B B V 3 ; g ; 3 4 4 4 7 4 3 8 g g 4 4 4 4 3 3 3 4 7 7 k 7 7 g 7 g 7 7 g 8 7 4 4 4 4 3 4 8 4 7 4 8 7 8 8 2 2 2 2 3 2 = 3 -.c r r # # # $ # # # % % % % e.% ) % ( e.) ) ) / % ) h % h % e.e.( .. .M _ _ M  ._ ' f.c.p.8.t.| M  ...|  .o.% t. . .)  ... .t. . .} t.t. .t.t.t.t.| t.t. .) t. .t. .t. .M  .| | t.t...%.:.n.' w - > @ ; > : 9 O > 2 2 5 5 8 1 ~ H.9 p t - e s f 0 0 0 r r d s [ 9.9.8.#.0 s 0 0 q : 0 : t q q t t > Y @.Y Y p l s U U R P K p l l i y 3 3 3 3 3 3 t 3 3 7 7 7 F 7 D B F i 7 4 3 k : 3 a 4 y i 3 4 4 F F z 4 4 t : 3 2 i 7 8 7 7 g g 7 g 7 4 7 7 7 4 4 g 8 4 4 8 4 7 4 8 g 8 8 ; 3 2 ",
"= 2 3 < ; 3 4 : : > q e @ q q q e $ q e $ # # # r $ # r h # # r # # $ $ $ $ r r r w w h x w x w e e e e w x w N M n c x h h M } } m } } T m T T T N } T T } } -.m } | -.t.-.-.-.| t.| t.|  .t.| t.} ' i.-.j : : 4 z y 4 4 3 3 4 7 4 Z F i I G G Y u e e s f r f r w s d @.[ @.Y #.s a f - t t a t 3 < - 3 3 t i L F k p 2 3 3 k 7 4 k g g 7 7 g g 4 7 g g D k F B F F 7 7 F g B V 7 7 B g g D 4 g k 4 g g g F D g g B g B 8 7 g B B F V B F k 7 g g 7 7 8 g 7 7 7 g g g 7 g 7 g 7 7 g 7 7 7 3 5 6 4 t < 2 y y y q q > q 0 e 0 $ e w @ e r w # # # # # r % # w % # # # $ $ $ r h h h h h M h x h r r r h M } % t.| | _ M % %  .t.t.t...| t. .-.t.t.t.t.t.| t.:.:.t.| t.t.t.t.t.t.} t.t.t.t.} | } t.| } p.-.j ; : ; 4 > ; 9 9 9 1 9 2 5 7 1 J F 7 p q - > 0 $ 0 e e f f w f b b p b f f e - t q t q t - - q 3 3 a &.K R I u q a l l l l G p l l p i y y i i p i i i Z Z 7 7 g k F 7 7 B F D g k k k F i F i 4 k F G k g B i 2 3 6 7 Z B B B i i 7 g g 7 4 8 k 7 7 4 g g 4 7 g 7 7 7 7 g g 7 7 8 5 ",
"2 3 2 ; 6 5 8 8 8 2 2 2 ; ; ; ; ; 9 - * 9 + + > + + + > > > + + O + O O + + : : ; = = ; ; * * - - + - q q > e e > z q : y > N N n v m w e y y j z j z z l v n n T N T m m T -.t.u.T -.t.t.T | T $.T } T v y y 4 k k k 7 k g 4 i Z i F Z 4 l u p q q q e 0 e 0 0 f q 0 e s s s b b q f q : > : k 3 3 3 3 3 3 i B 4 7 7 7 7 7 7 7 V 7 B 7 7 7 V 7 D 7 g 7 8 Z F B B D D D D D D D D B B D D F D J J F D J D J F D J J Z B 7 D F D D B V V V D F D F D D B V 7 B D D g 7 g 2 g D g g g D 7 7 D D 7 7 7 7 5 V B B 7 g 7 7 2 ; ; ; ; 9 - + 9 9 + > + + + @ > @ > + + + O O O + + : 3 ; - ; ; 2 - * - - - > w > > N j e w y > w w N M } ' $.x w x N N w N n E T } $.$.-.$.-.} M T t.t.t.-.} t.t.t.-.} | T m T v y ; 4 3 4 8 ; 2 2 9 9 2 5 V 5 2 2 ; 3 > + > + + @ X - - - + ; > > > a a e q - > - > y : : : 2 q 3 t y 4 3 3 y i 3 3 t i 4 i y i i y 7 7 7 i 7 4 i Z 7 Z Z F F D D D D F D V B Z F D F F F g J F k F F F J F 7 7 7 B 7 B B 8 V B B B B F D D V 6 6 B D D g 7 7 8 g g D 7 g D 7 7 B B 7 ",
"5 2 5 2 8 8 7 8 7 4 4 6 3 2 2 2 2 2 ; ; 9 9 9 9 9 * 9 ; ; - 9 * * * 9 9 9 * O * 9 * & 9 * * O & 9 - + 9 ; * ; 4 k 4 4 4 ; y ; 4 p z y - > 3 4 y 4 y 4 > > : : y y y y : > e z L n N n $.T T z N j y y j z 4 g z y k F k 7 k 4 F Z 7 i Z Z p 3 O > - q e q q + > - - - : - p u p x y > : - ; : G 2 = ; 2 : 2 7 2 8 3 5 5 5 8 8 7 B B 7 5 8 B B B B 8 V D V 5 B V D D D D D D D 8 V V B B B F V A H F J D D 8 D D D J D D D D D B D B D D D D D F D D B B B B D D D B V B V 8 8 D 8 D V D D V V B B D 8 7 B D D D D 7 7 7 4 8 2 2 8 2 2 ; 9 9 9 9 9 * * ; - ; 9 * * * 9 9 * * O * 9 9 * 9 * O O & 9 + O O O ^ O 9 9 9 > 9 ; ; > > y y q + @ - ; > @ @ > > > q y z z j z y > z N E T P L u.T -.w N z w y y : ; 4 ; 8 5 8 2 2 5 9 5 5 , 5 5 1 = * X ; O O + X O X X X X     * - + - > > - - - = ; 4 = = : < 2 ; ; < 2 = 2 ; 2 ; 2 2 2 6 & , & 2 2 7 4 6 7 4 6 2 7 6 B B B F B B D 8 V B B V B F V F H F F F D 7 D B B F Z B D B D D D D B D D D D D D B B B B V B D D V V B 8 8 B B 8 D B B D B V B ",
"6 B B i i i Z k i k i 7 7 7 5 8 2 8 8 4 ; 4 ; 2 3 3 ; : : 4 ; 2 ; ; 9 9 9 9 9 9 9 9 9 ; & & & = & ; 9 7 7 ; 3 4 4 g 7 y 4 g 9 3 4 4 * & k k k 7 3 4 4 4 3 ; ; = 9 - 9 ; 2 8 3 3 ; 4 : 4 @ * 9 * 9 * ; : 4 7 7 i D F Z B B 7 7 k i 4 4 A Z p : & - > t : q : : y : : - - z u v K R 5.3.R 2 ; 2 g 4 3 : l I Q I l i 3 4 p F p k k p G i i i 4 F k G k J ! W G I W S.! UXS.! ! D.H.T.D.S.H W ~ H.4X3X;X3X;XY.T.T.W Z B Z F Z i 7 i i i Z A D ~ Z Z F Z J J 7 6 6 3 7 7 5 B V 7 8 V 5 8 V B V B V V V D V D V V F F F Z Z Z B 7 8 8 5 8 7 2 > 8 ; 2 4 3 : 3 4 ; : 2 4 ; 9 9 9 9 ; 9 9 * * ; * & & * * ; * O * ^ ^ 9 * 9 1 1 1 1 * 9 & &   ^ ; 2 4 4 ; 4 9 4 2 ; = = & = ; ; ; 4 9 4 ; 4 3 > * + 9 * 9 O 9 9 ; 2 8 2 8 8 8 1 1 1 9 2 = , 1 2 1 1 * O ^ O O O - * O * X X     = - ; > 4 i p k = ; ; 2 3 ; = 3 k G i 4 3 : 2 4 4 4 4 4 3 4 3 3 3 2 7 7 4 7 F I J F J K Q W ! ! ! ! G.H.H.S.! ~ ~ H D.Y.;X;X;XY.Y.H.H.W F Z B F F i i 7 i 7 Z J Z ~ F Z Z Z J F 7 6 6 3 7 6 5 V B 7 8 V 5 8 B B V B V B ",
"G J J J J G I H G G G p Z V 7 8 5 8 D 8 1 2 8 5 2 2 2 4 2 2 2 2 8 1 1 ; & & ; * * * O O - - O * * * k g 3 4 8 = = & 4 g 7 ; * 9 & 4 = & 2 ; ; ; 3 ; : * = : = = 9 9 ; ; 9 2 9 2 9 9 * * * * * 9 & 9 1 7 7 B Z B F F V F F D F 7 i F Z Z F G 4 3 i 4 3 q 3 : t u t p > - p a p U y.6.U I ; 2 4 g ~ G k H.L.I.Q.~.~.~.~.L.4.&.L./.~.R.R.E.~.I.OX$X;X+X:XxX2XcX3X<X<X3XBX2XBXJX2XBXBX3X}.J.-X;X<XxXJXKXJXLXPXKXCX,X X;X~.L.L.@X*X X^.!. X>X.X|.>X<XpX,XaX3X|.XX~.I.J.2.A a i B V Z V B B V 8 V B V C D V V B J B 7 7 Z B 6 B V V 5 5 5 D 8 8 2 8 5 2 3 2 8 3 2 2 2 4 9 1 9 & = = O O * O O * - X - * O ; 9 & * * ^ ^ ^ & 9 9 * ^ & & 1 & & 9 8 8 8 8 8 ; 9 ; 2 ; 2 ; 9 2 8 1 8 2 1 9 1 * * 9 * * * 9 9 & 8 1 5 8 1 C C 1 8 5 5 5 2 2 7 2 1 1 1 1 * 9 * * * & O * & * &   . O * & 2 7 6 4 3 = & 2 3 g 4 3 I E E R R R R U E K l E 2.R R R &.2.Q u.K.P.K.Y.OX|.:X;X;X:X;X2X2XcXBX2X2XcX3X|.K.-XOX;XcXBXBXHXJXJXVX2X{.Y.I.a.y.a.}./.~.R.R.}. X~.|. X>X:X$X>X,X|.~.~.P.J.2.G a i B B B V V B V V C B V ",
"K G L G n K L.L.=.*.7.i.c s p p i a 3 3 3 5 = = ; ; ; = < 3 ; 2 3 : 2 3 : : w i.p.r.r.0.0.z.M.h.1._ s e u p v p q q G G l y 3 : 3 t : = = 2 3 4 3 3 3 ; < = = = = < 2 2 2 1 2 9 & 9 & & & & 9 & & 9 2 5 V 7 i 7 B F F J J D F B Z H J J J H J Z Z Z a t i : a a a t q q a d U 8.D.! G p , 5 5 J Z K J.L.L.L.~.{.*X*X&X>X=XQ.(.(.!.oX/.'.oXoXwXlXjXNXlXaX.XR.L.P.6.7.^.}..X,X,XpX,X~.~.|.{.1XhXhXdXhXZXhXxXcXgXvXvXrX8X8XzXDXvXDXvXDXDXyX0XqXeXeXzXfXsXlXfXDXNXuXSXzX).`.t.[ j m Y l y k A Z Z 7 V B F B F l ,X X7.;.h.l.h w p p i a 5 3 < 2 2 = = ; ; * = 2 = = 3 : 3 4 > > w g.d.v.l.j.h.N.C.z.h.[ e e 0 0 > - - : 3 3 < * = - < q 3 = , < 5 C 5 5 5 1 1 , , , 9 5 5 1 1 2 2 1 1 9 , & & & 9 & = , , , , < 2 , 2 5 5 5 5 5 C C V B 8 V 8 5 5 1 , , * & & X * ^         * * = < 3 3 , 3 < , , 6 7 4 G I L I E ! ! ! Q UXQ E Q R T R &.3.4.4.L.^.^.*X%X/.^.F.8.J.9.4.~./. X$X,X,X.XI.I.Y.I.,X<XbX&XaXjX,X<X<X.XpX>X^.!.!.oXfXhXhXvXNXlX&X].oXrXrXwXaXeXlXfXZXNXyXSXzX).].<.' x m K p i k A Z Z B ",
"R.R.7.7.7.=.@X X_.!.).`.j.t. .c c v x x w q q w u e w w e a s s x v c x N  .m.C.N.8XoXqXC.oXoXoXoX9XB.{ ) ( r c c c x m n n m P n l p y = : 3 4 4 4 2 = ; = 2 2 = & , & , 9 2 2 2 5 , , 5 6 < < * 3 G U U 2.5.H.5.Q H Z Z V 6 B J Z J A A H A H K p A v p d K P &.@.b Y &.5.J.J.5.S A K 3 6 < I J u.P.a.Q./.$X&X%X+X(.(.U.m.Q.d.Q.!.c.x.x.oX#X_._.0X#XoX#Xc.8.8.x.(.'.wXwX*X#XoX&X}.J.P.-XBXHXjX#XqX0X_.rXsXlXzXuXuXSXnXSXtX9XN.b.N.B.k.qXuXN.M.9X9XqX5XN.tXoXA.9X9XiXMXtX9XN.o.{ l.;. .[ [ c h S d S d d c sXzXnXuXMXiXB.j. ._ [ c x u e e e e u e w w 0 f s a d x x x M  .M.A.oX8X9XuX9X9X9XuXiXuXB.o.( r r r r r s a u s x b x p p i ^ 5 < 5 5 5 , , 1 & 2 5 , , , , , 5 1 2 1 5 1 < 5 6 < = O < i K K I Q 6.Q F 7 5 5 5 8 C B V C 5 5 1 5 9 & * * = - < 2 3 k y : u t p A A J i < 6 < < , 7 5 F H k L I Q R Q T E T L E L L L R T @.&.i.x.f.n.yX*X0X*X!.v.p.R.^.'.&XwX#X].'.%X~.L.P.OXcXZXdX'.*X].n.'.#XpX#X#X].rX#X#X).c.z.z.b.l.h.8XqX`.N.5X0X9X`.N.qXC.5X9X5XiXuXqX9Xb.o.{ h.:. .[ ' c s ",
"vXwX[.'._.M.rX8X#Xz.v.`.9X8XM.( [ c r r r r r s r r r r r d [ r [ [ _ | r.iXiXB.9XN.M.oXoXj.z.M.5X9X9XuX9Xb.j.X.( / [ r [ M c d b s v p : : 4 4 4 7 3 3 < 3 7 y 3 3 : = ; i a y i y i p p K G Y J.>XaXjX(.m.v.!.!.!.!.s.9.7.4.&.a Y 6.&.2.5.J.{.}. X}.*.*.7.7.4.d.7.7.x.^. XL.7.8.#.S p i 3 B J 5.L.a.d.~./.{.^.(.Q.L.Q.Q.(.(.p.p.:.>.<.j.m.m.n.).b.z.N.8X9X`.5XyXuXn.qXzXeXeXzXwX*X{.4.L.BX>X[.rX`.M.qXuXuXzXuXzXzXuXtX9X9XiXN.9XA.B.7X9Xb.O.C.9X5XB.k.b.k.C.C.N.B.A.C.9X9XiXB.b.A.C.C.A.V.e.o.{ { [ ;.>.X.b.5XA.9X7XiXiXMXC.( / / r r r r r r r r r r r r / r c [ ( ..z.iXiXN.iXN.N.9X8Xz.Z.A.9XiXiXGXiXB.V.O./ # h # r [ r s b s v G & 5 5 5 5 1 1 8 , 5 y k 4 3 2 ; < Z i y 3 i p l J Y K Y J.pXkXlX!.h.r.c.n.!.^.x.7.i.i.$.q v 3.Y U Q u.U.Y.{.~.Y n Y U R 2.&.P } $.&.&.&.9.&.Y A i 6 7 7 F G k G H H H L I G l I E I E H G n m m t.!.].oXoXoXoXoXqXyX8X0XyXzX`.qXzXeXyXfXwX@X^.4.I.VXpX'.wX8X).qXeXzXfXqXrXqX8X].`.M.`.b.8XC.k.C.9XN.0.5X9X5Xb.k.B.k.N.C.N.B.A.C.9XA.iXB.N.9XC.C.C.V.e.) ",
"vXVXzXfXNXqXrXyXuX).).`.`.M.5Xv._ [ c r r / e # # e # r r r r ( c c } b.`.oXyX9XN.h.O.h.h.j.C.N.N.N.9XuXtX9X9X9Xj.{ ( ..[ [ r c c b x l : 3 k F Z i 7 i 4 l v v n b v j s x x T @.m x x m P $.Q.$X#X$X[.).x.n.c.l.'.0X_.#XNXvXhXXXpXlXxXxXCXCXbXhXzXmXeXv.7.8.p.8. XvXlX.X7.7.8.8.6XE.U a t p y.}.a.L.Q.R.L.s.a.d.(.=X/.oXn.m.m._.n.n.j.n.z.N.N.z.M.M.oXeX0XrXuXGXyXqXN.uXSXzXeX.XhX%X4.$XgX%XzXuXrXtXuX8XoX`.'.`.`.eXuX8X9XB.z.9XN.C.A.k.O.k.9X9Xz.j.B.N.N.B.k.k.j.C.C.C.N.k.B.9XN.B.N.B.C.V.k.9X9X9XuXMXiXiXiXtXiX9X5X7X5XiXb.) ( / r r r r $ # $ $ r / r r / / r  .N.9XoXuX9XN.V.O.k.j.k.iXA.C.N.iXuXuXiXiX7Xk.o.e.` / r / r [ d d l & 1 V C C C V C 6 G L Y P P b v x x v m @.m x n m m -.^.*X#X@X!.!.m.n.n.b.rXuXrXyXFXFXZX#XjXHXVXVXHXHXHXDXVXDXzX;.' } @.m f.dX=X(.%.@.*.s.fX[.#.s s n L 2.U I Q U W I H I E I I E E I E T &.i.m.m._.oXoXoXoXrXwXfXyXeXyXzXuXqX8XuXvXzXeX#XdX>Xa.:XgXpXzXsXeXtXuXqXqXoXrX#XoX0X0Xn.n.r.z.N.N.N.C.b.O.k.9X9Xb.z.b.N.N.N.k.k.V.C.A.C.N.k.B.9XB.B.N.B.C.j.B.",
"ZXxX%XwX#X0X0X8Xn.n.oXN.M.B.j.A.k.>.h.h.c.9XN.N.b.z.h.) r [ ....] ..X.h.j.9Xz.N.B.V.B.B.j.N.N.k.b.N.9XoX`.j.j.B.M.b.B.m.>.;.` h ( c x s y i k F F F 4 2 p l n x v m M b m m ' m m M m m m x t.dXoX*X(.d.d.Q.i.<.m._.(.x.oX0X=X_.^.'.>X&X>XhXaX0XtXzXzXsX_.r.l.8.!.zXzXaX^.).1.).'.rX#X(.@.x Y ^.i.p.x.f.x.x.Q.Q.^././.!._.(.!._.`.oXN.oXoX9XA.oXoXoX8XyXqX9XuXuXNXuXNXuX8XqXrX].].&XpX{.P. XaX^.eX9XtXoX8XuXN._.0Xb.`.5XM.C.j.C.j.V.j.k.k.0.C.C.N.j.j.k.b.N.j.b.k.V.C.B.V.O.B.V.k.C.C.Z.V.k.Z.7XC.MX5X7XiXiXiXtX9XN.9X5XZ.Z.B.iXZ.O.B.v.M.9X9XC.N.B.0.) # ) X.X.o. .V.V.j.9XB.N.N.V.C.B.k.A.A.Z.N.A.9X9X9Xj.j.B.Z.N.B.B.O.X.) / / ( s s 3 5 V V V V 8 * 7 L P L m @.} m m m m M m c M } ' h g.AXoX#XoXm.m.oXm.t._.wX=XM.yXNXyX8X0X%XfXdXdXlXkXuXzXSXuXSX].} _ M | oXfXDXyXoXr.oXzXNXNXqXm.:._ %.@.@.@.U &.Q R 3.2.3.Q G L E E L T =XdXyXyX0X0XwX#XwXyXlXyXyXuXNXNXNXNXuX9XqXqX#X].pXgX|.I.:XaX.XeXqXuX9XqXuXoXoXqX].0X8Xn.M.h.M.j.j.j.k.k.j.N.5XN.k.j.B.B.N.j.B.B.j.A.B.V.V.k.V.k.C.5XZ.k.k.Z.7X",
"xX,X:X'._._.!._.c.n.N.N.N.j.iX9Xk.N.N.b.N.oXqXqX9X5XA.z.j.0.0.b.M.z.M.k.j.N.N.k.k.k.A.C.B.N.k.N.8XB.N.`.M.N.z.N.A.C.A.N._.N.0.` / h c x w u p k k p 4 = y x j n m $.' T $.T T m m U P b x } #XyXyXyXn.p.p._.x.%.t.m.m.z.oXoXz.m.v.n.!.p.8.v.'.0XzXlXzXfXeX[.v.#XvX#X X#XrX%X(..XrX.XrX Xi.4.aXfXm.n.n._.!.!.m.n.!.).)._.#X_.0XuXyXqXNXNXuXNXAXuXyXuXyXuXNXNXzXNXAXVXFXFXDXSXNXNXNX*X/.s.4.~.^.W.).nXuXuXzXtXN.N.l.0.qXN.C.uX5Xj.Z.Z.k.O.O.k.O.B.V.O.O.V.k.k.Z.B.B.k.B.k.V.V.O.V.B.k.C.C.k.Z.A.Z.B.N.C.C.iX5XB.C.5XC.Z.k.B.B.iXiXV.k.Z.B.5XiXMXuXiX9XiXB.k.k.k.C.C.b.N.j.k.Z.N.B.k.k.A.A.A.C.Z.A.A.k.C.9XN.A.B.A.9XA.iXC.9X7XO.o.e.( h s : a 4 8 B 8 , ^ 4 L n n m T m m T m T m m @.P x s [ yXuXyXyXz.r.h.oXm.t.r.b.N.A.qX9XN.n.N.5X9XN.b.M.iXzXSXSXSXuXtXM. .h.yXoXuXNXzXyXoXlXNXzXZXuXzXwXzXuXv...| | _ m $.' $.[ @.v L E E E K.BX*XdXjXjXlXAXlXfXwXyXfXNXAXNXzXZXDXDXDXNXNXNXNX*X/.L.7.~.^.'.`.zXzXuXNXuX`.8XM.c.qX8X9XuX8XB.C.C.B.j.0.k.j.B.k.O.O.V.j.B.Z.B.B.k.B.k.V.V.V.V.B.k.C.C.k.k.A.C.",
"}.:X$X}.!.).n.h.q.W.0.0...b.qX8X5X9Xk.N.iXN.j.h.j.O.j.0.>.0.0.>.O.X.h.O.B.B.V.j.C.B.k.t.b.n.`.8Xj.j.`.j.z.z.oXN.r.j.j.j.j.j.j.h.` ( ' } b v H v G k i 4 z L T } } -.-.$.T m } m c } ' %.p.oXNXqX#XoXm.(.n.oXm.p.m.r.g._.oXm.M.(.z.oXoX!.oXn._.'.#X.X#X#XwXwX#X'.(. X X^.L.a.~.~.^. X~.{.4.Y xX#X=XqX8X0XoXoX_.oX_._.oXoXoXyXyXlXNXZXDXZXNXZXNXAXDXNXAXZXNXDXDXDXFXFXKXKXKXFXZXNXNXzX#Xg.@.).oX`.9XuXuXSXNXDXSX`.k.C.9XC.j.0.C.C.5XB.B.C.Z.Z.C.Z.k.+.k.Z.Z.C.k.k.k.j.j.V.V.o.V.V.j.k.B.O.k.k.Z.Z.Z.B.N.B.C.C.N.j.0.0.+.+.X.b.7XB.Z.A.O.k.A.7Xk.O.j.O.j.k.+.b.0.0.O.X.j.O.k.B.O.k.A.Z.B.V.N.N.A.iXB.j.9Xb.j.b.8X9Xj.B.j.k.k.B.B.B.o.( ( c q 3 6 7 V 5 5 , 4 G v M M m } T m m m x x ' } | l.oXSXeXqXoXm._.oX#XM.M.A.g.N.=XiXN.oX=X`.qXuXoXyX9XuXuXSXuXNXuXuXuX9XC.M.qXzXyX#XoXyXuXyXkXoXsXyX0XfXyXqXqX8X8XoXN.z.j.N.z.l.=.T T E R OX:X$X&XdXdXfXjXlXfXlXlXZXNXZXZXFXZXFXKXLXKXZXNXNXfX#Xd.,._.0X`.8XsXzXNXZXDXnX9XM.].qX9XM.N.8X9X9XN.C.C.C.C.Z.C.k.O.k.Z.C.C.k.j.B.j.j.V.V.o.j.k.0.k.B.O.k.k.C.B.",
"5.5.s.4.i.p.d.:.0.z.>.X.j.z.j.N.iXN.N.C.9XN.j.k.j.O.O.N.b.b.j.j.{ O.k.k.Z.O.X.B.k.j.V.j.j.j.N.j.B.8XM...h.z.b.z.M.B.N.N.N.b.z.z.h.l.p.*.T L E E ! E E L Y $.:.%.| :.>.t.:.:.,. ._ t.oXqXyXGXqXn._.f.(./._.m.z.m.m.j.m.n.r.m.n.p.m.n.l.m._.M.!.oX!./.'./.^.x.m.p.x.7.s.J.5.y.J.a.&.R 4.y.v K.CX<XkXkXuXfXeXwXrXyXyXeXyXzXNXfXlXNXNXDXFXFXFXFXFXFXDXDXFXFXKXFXKXFXFXNXFXKXJXZXAXZXZXlXfX%X[ R.W.5XzXM.sXzXqXyXzXn.b.9XB.k.j.X.o.{ k.N.k.B.k.k.B.B.k.V.j.j.B.B.O.0.j.O.B.k.+.O.O.O.0.O.O.O.+.V.k.O.k.b.5Xk.j.O.O.X.0.k.o.o.O.V.O.k.A.k.Z.C.C.Z.V.B.k.+.O.C.N.Z.k.O.o.+.k.V.B.O.+.B.k.k.V.B.k.k.C.V.b.iXN.{ j.z.N.b.5XZ.C.C.C.N.Z.B.0.N.c.' p V V V C C V 8 3 n m _ [ `  .| } ` :._ ( t.A.uXSXSXuXM.oXl.m.oXoXA.N.N.oXB.A.N.N.A.9XA.8X9XN.9XuX9XiXGXuXNXGXuXuXoXA.A.iX8XyXoX!.oXjXwXn.n.yXyXoXNXNXNXNXNXzXuXzXNXuXSXSXSXnXNX/.g.R Y.+X+XVXNXZXNXZXZXfXlXZXNXZXZXDXFXZXAXZXFXZXZXxXVXVXlXfXwX#.!.[.6XzX`.zXNXyXfXlXoX8XqXN.`.).z.h.>.b.N.b.N.k.k.C.B.j.j.V.k.B.b.O.h.j.O.b.k.X.+.O.O.O.j.O.O.+.k.k.k.",
"%.^.&X@XdX*X_.t.z.v.k.j.k.N.5X7XqXA.C.5X9XZ.N.j.j.k.N.A.N.z.0.N.b.k.k.k.O.k.k.Z.C.b.0.k.j.0.o.{ b.h.O.z.j.>.{ >.j.h.z.M.N.M.).M.c.v.t.p.:.P E ! ! E E E n T t.p._.oXoXN.A.N.A.M.M.yXuXyXuXqXyXoX].p.:.!.).x.r.r.`.C.oXt.t.m.V.V.n.M.n.oX_._.oX_.).'.n.[.!.'.'.Q.-.=.Q.d.~.+X{.d.3.&.3.&.K >XxXdXfXeXfXyXwXyXyXlXNXzXfXlXZXNXAXFXKXZXFXKXKXFXFXPXKXFXKXKXFXKXKXKXKXDXKXFXZXZXAXZXNXkXVXdX5.:XpX#X6XqXMXeXzXn.].eX5Xz.>.{ o.+.O.o.k.+.0.k.V.V.k.Z.Z.k.B.Z.Z.0.o.0.k.j.B.o.o.V.V.k.k.V.O.k.O.Z.Z.V.Z.Z.V.O.+.) ) O.k.O.+.+.O.k.k.A.7XZ.Z.Z.7XZ.Z.Z.O.B.9X7XC.k.+.k.0.O.V.V.O.k.V.Z.Z.Z.k.B.V.O.+.o.N.V.O.b.k.0./ 0.k.z.B.N.5XN.5X5X9XN.X.j.r : Z V V C D 8 : x _ >.m.N.A.A.A.A.iXA.A.SXSXGXuXuXuX9X9Xt.| m.n.h.t.V.B.A.A.t.t.A.V.m.A.iX9XuXiXiXGXuXuXMXuXuXN.`.9XqXz.t.N.t.z.oX&XyXoXM.yXM.qXhXdXhX%X X^..XwX#XuXNXfXwXeXhXQ.I.K.U.u.<XBXCXJXZXZXKXAXKXFXKXZXKXLXKXKXZXKXZXZXZXAXZXVXjXZXgXL.>XdXwXqXuXzXzXlX.XrXzXeX`.v.j.l.b.N.h.B.O.j.b.k.b.b.k.C.k.b.Z.B.O.{ 0.j.k.B.+.X.V.V.k.V.V.O.Z.O.Z.Z.k.",
"*. X+X*X*X&Xx. XfX_.z.N.N.C.N.5XN.5X5XB.N.z.b.N.M.qXtXrX`.N.C.5XN.C.k.O.V.V.k.B.k.C.C.B.7Xk.0.O.j.k.j.N.b.0.k.h.h.C.N.8Xv.>...%.t.s.!.!.,.3.u.u.3.3.Q T P t.g.oX_.n.m.M.oXoXA.=XqX9X9XqX8X`.oXN.m.<.h.'.oXoXn._.!.#XqXm.oXM.g.oXoXoXoXn.M.oXoX*XwX#XwX#XpXfX^.s.i./.~.~.@X&X/.U.T T R L U $XdXfXfXyXyXlXzXlXlXNXNXNXNXVXZXDXKXKXKXKXKXKXPXPXPXKXKXKXKXFXKXFXKXKXKXKXZXDXKXKXZXAXZXZXZX:XL.OXgX'.N.uX9XtX_.!.`.b.>.j.+.) ) V.C.B.B.0.k.k.V.Z.Z.C.O.O.Z.k.k.{ +.k.O.+.o.V.k.k.o.O.V.Z.O.O.+.Z.V.V.O.O.O.+.+.O.k.C.O.o.o.V.k.k.k.Z.O.Z.A.Z.Z.k.Z.Z.B.7XMXiXB.k.B.B.Z.A.V.O.V.+.V.Z.k.C.Z.Z.A.k.O.V.k.B.j.C.B.O.B.0.k.C.9X9Xz.>...>.M.`.eX.Xu y F D D 1 5 7 y -.t.oXA.N.N.A.A.uX9XuXuXuXuXuXuX8X9XN.m.V.h.C.`.oXz.k.N.yXuXB.A.m.V.A.yX9X9XA.9XuXqXAXuXiXtX`.qXuX].b.t.h.r.t.oXoXN.N.z.oXM.r.'.0X#XoX).n.8XoX8XyXoXoXM.h.0XoXQ.~.Y.OX1X2X<XAXZXZXZXKXKXHXKXKXKXKXKXKXKXLXFXZXKXKXZXAXZXZXZX<X~.:XcX*XoXzXqXzX0XoXwXoXc._.z.h.0.`.qXC.C.k.N.b.k.C.C.C.0.0.Z.Z.k.X.+.k.j.+.o.O.V.B.o.V.k.Z.O.O.+.Z.O.B.",
"=.}.pXdXxX1X>XdXjXfX0X5X8X9XiXN.5X9XN.j.j.j.N.M.`.`.`._.b.M.N.uX9XN.A.C.Z.N.k.N.B.B.j.oXz.9X9XB.B.B.j.j.k.`.M.h.h.:.h.;.| _ ] %.} t.}.'.a.a.K.3.u.! L l i.m._.(.n.z.M.oXoXoX=X8XoX8XoX`.oXA.8XoXoXm.n._.c.p.r.!.oX8XoXz.r.r.t.r.n.M.h.j.n.n.M.oX)._.].#Xx.:.:.i.x.R.-.-.i.4.=.a.d.P l P R :XgXlXzXNXzXNXNXZXZXFXDXKXFXKXFXDXKXKXKXKXLXPXKXKXLXKXPXKXKXFXFXZXFXCXKXDXDXZXAXAXZX=XfXkXVX$X3.J.,X%Xn.X.5XlXqX8XM.t.k.N.{ o.O.k.k.k.k.Z.k.o.V.k.Z.Z.O.k.k.C.k.O.Z.k.O.o.+.O.V.k.A.Z.V.O.k.Z.A.V.+.O.+.+.Z.Z.V.o.j.O.+.V.k.B.Z.A.Z.k.Z.C.Z.O.V.O.V.Z.C.C.Z.b.0.0.C.MXC.Z.Z.Z.Z.Z.V.Z.Z.Z.k.C.Z.7XiXC.C.Z.k.k.B.7X5Xj.j.>.l.>...[  .X. .r.oXW.s : 7 D 5 D D - -.!.=XC.m.B.A.=XuXuXAXqXiXuXqX9XA.A.iX9XoXB.9X9Xb.j.t.oX=XGXyXA.B.m.B.j.N.A.j.m.A.N.N.A.oXoXC.qX5X>.;...V.n.h.z.oXoXM.z.r.z.h.`._.`.n._.n.M.`.uXuX0X8X9Xb.8XuXuXn.=.Y.JXBXBXZXJXHXKXJXJXLXKXKXHXLXKXLXZXKXKXHXKXAXCXFX*XjXxXVX>XJ.U.1X>X].l.qXZXzXyX8Xn.8X8Xz.z.b.9X`.N.B.C.B.O.k.Z.Z.Z.O.k.Z.Z.k.O.N.k.O.o.O.O.V.B.A.Z.j.O.k.Z.A.k.O.O.",
"d.%X/.dXgXhXpXxXxXhXwX9XqX8XqX8X9X5XN.N.b.b.N.`.N.z.`.h.0.).uX5XN.iXiX9X9XA.N.C.9XN.N.b.j.j.k.C.5XB.Z.B.k.N.V.X.j.t.` _ [ :.l.:.,.p.!.%X4.Q ! I J H R 3.(.'.n.N.oXqXoXN.N.z.oXN.M._.M.N.oXqX8XoX8XzXn.z._.z.n.M.n.n.r.r.h.t.t.z._.r.z.M.M.m.C.M.M._._.t.:.,.:.M _ ,.<.m c m @.u.}.P.U R u.*XvXjXNXNXZXZXZXDXKXKXDXKXKXKXKXLXLXLXKXKXFXKXKXFXKXKXFXFXFXDXKXFXKXDXZXKXZXZXFXKX=Xd.dX^.{.I.5.H.<X$X!.oXtXrX8XoXj.j.b.b.j.O.B.V.V.B.iXk.O.+.V.Z.Z.k.Z.O.0.+.+.O.O.+.X.k.k.+.Z.B.Z.C.k.Z.0.k.+.+.V.O.V.Z.V.V.O.V.O.O.+.+.V.B.Z.Z.Z.Z.Z.Z.Z.0.Z.Z.Z.A.k.B.Z.0.0.B.tXZ.Z.A.iXiXA.A.A.A.7XC.C.k.k.Z.B.C.A.B.C.Z.V.C.O.O.j.0.{ ( ( X.z.j.j.l.'.x.t 7 7 D D D 4 z =XoXN.k.A.yX9XN.A.A.A.A.N.N.N.C.9XuXqXN.A.GXiXC.9XN.N.uXyXA.B.N.B.g.g.A.9Xm.n.A.B.N.A.N.N.iXiXj.h.j.h.) ) t.N.V.X.h.h.n.8XoXoXyXyX_.8X_.).lXyXoX_.M.uXuXM.9XqX8X-.u.Y.2X2X;X3XBXCXHXHXCXJXZXJXZXZXKXKXHXZXKXFXCXKXKX=X{.jX X$X+XJ.T.cX&X@X0XzXyXyXwX'.`.8XoX`.M.oXN.oXC.iXk.k.j.b.C.C.Z.Z.O.0.0.+.O.O.+.o.k.k.+.Z.B.B.C.B.k.k.k.+.+.O.V.",
"@XlXvXkXhXjXgXdXdX>X&X8X9XoX`.`.z.`.).5X9X8X9X8Xb.h.z.b.M.`.`.v.7XrX5X5XiXA.iXC.N.{ >.b.`.N.z.N.k.C.N.A.9XN.z.j.0.j.M.>.` ..l...t.x.Q./.2.-.G E ! Q R (.Q.m.n.oXoXN.n.N.m.j.N.A.N.oXN.8XyXqX8XoXqX=X)._.0X`.oXoXn.h.r.t.| r.z.m.m.j.B.oXoXN.oXC.8XM.z.| p.t.=.<.=.p.:.} %.M $.=.y.6.2.Y 5.gXjXlXDXZXDXFXKXFXKXKXLXLXKXKXKXKXKXKXKXKXZXKXZXZXKXKXKXZXZXKXZXFXFXJXDXKXZXZXwXf.N m.!.%.s.&.Q W OX$X0XuXN.8XuX`.N.M...j.j.B.B.B.B.Z.A.Z.Z.A.A.A.B.V.+.O.O.+.O.O.j.j.B.B.V.B.B.k.V.V.O.C.Z.B.+.{ { k.k.O.+.e.e.O.O.+.e.o.V.V.Z.k.B.k.V.k.k.Z.7XA.A.C.k.O.0.k.k.k.0.0.6X7X5XC.A.A.MXA.Z.+.O.Z.iXZ.k.A.B.A.A.A.iXA.k.j.0.j.N.X./ X.B. .X.r.n.v.u G 8 D D 8 4 {.m.z.oXiXA.A.m.A.N.m.N.N.C.9XC.8XGXuXiXA.uXNXiXuXuXqXuXuXA.B.B.m.V.m.A.oXA.A.A.A.A.A.iXiXiXA.A.j.A.n.N.j.M.A.V.j.A.B.j.n.N.M.yXoXh.7.v.s.'.wXyXNXzXNXSXyXyXqX].%.m P u.;X;XY.,X2X;X|.,XcXBXBXHXHXHXHXZXLXKXKXHXZXdXQ.$.(.'.p.~.5.y.H.,X>XfXzXoXyXNXeX0XoXx.`.N.oX5XN.8XA.9XB.C.iX7XC.Z.0.O.O.k.+.O.O.j.k.B.Z.V.B.B.B.V.V.O.C.Z.B.O.+.+.k.",
"xXfXfXdXjXgXdXdX@X X}.rX`.`.n.j.z.b.`.`.8X8XqXN.`.M.M.M.z.<.v.`.W.b.5XN.8X9XqXiXC.b.b.M.b.z.N.j.B.`.9XtXiX`.b.j.<.0.;.] ..>.z.z.M.oXoX(.n l J E Q 2.~.+Xm.n.oXoXN.m.m.m.M.oXN.oXoXoXqXyXrX#XyXlXqX=X=X&X/.n.oX_._._.n.z.t.h.m.m.m.oX8X9XA.9XoXz.r.r.:.:.| t.:.:.<.,.:.t.-._ m =.J.L 5.2.L.hXdXzXvXDXDXDXFXKXLXKXKXKXKXKXKXDXHXDXKXZXKXKXKXHXZXHXHXKXKXKXKXKXKXFXFXZXZX/.m M ..l.] %.*.3.I K D.d.R.M.N.9X`.`.b.:.N.0.X.A.C.k.B.B.Z.Z.Z.V.V.Z.B.V.+.k.O.O.0.+.j.+.B.V.V.o.V.V.k.V.B.k.O.X.O.k.Z.j.+.k.O.O.O.o.O.k.V.O.V.B.k.V.V.V.O.O.Z.Z.A.Z.C.N.B.Z.B.k.o./ { M.b.b.M.C.A.A.A.MXC.Z.C.C.C.k.A.V.A.A.iXuXuX7XM.k.0.j.{ { { 0.j.b.iX9XoXn.x G F D B D Y.+Xd.M.N.A.B.B.B.B.N.iXA.A.oXoXuXGXqXoXyXSXSXSXNXDXyXoXuXyXyXyXqXN.m.N.9X9X=XuXiXuXiXuXyXA.B.j.t.j.z.M.j.t.B.oX*XqXoXm.N.C.N.oX8XM.t.:.1.x._.m.x.kXNXDXDXfXx.} ' c @.i ~ +X2X+Xu.2.U 2.5.}.;X1XcXgXBXZXKXHXHXHXZX,Xt.-.s.m.,.,.7.a.2.3.P.{.'.oXqXeXwX0XoXm.oXM.M.tXiXoXoXN.C.9X5Xk.k.k.B.k.O.k.0.0.O.O.j.O.B.V.V.o.V.V.k.V.k.k.O.X.j.j.b.k.",
"ZXvXlXjXxXgX1X1X>X@X&XwX`.M.M.b.z.>.v.8X].c.h.r.b.oXN.z.h.z.z.b.0...0.5XuXqX9X5XtX8XoX`.N.N.M.N.`.`.M.M._.z.0.>.h.h.;.] ;.M.h.t.m.p.R.,.w v u.H UX4X+X@X&X=XM.yXoX=XoXA.=XyX=X*XqXoX_.0XoXfXyX*X=X*X&X@X@X#XoX'.oX!.n.M.oXz.M.j.C.8XqXoXoXoXoX(.r.t.:.:.:.| } t.:.-.-.%.' $.-.4.u.G Q }.hXjXlXDXDXDXDXDXFXKXKXDXDXDXFXFXZXZXDXHXCXAXZXZXVXVXAXAXKXHXKXLXJXKXJXFXZXZXlXw _ ' t.m.| :.x.i.z G Q &X&XoXuXoXM.M.z.N.5XC.j.N.C.A.A.N.A.B.o.V.Z.Z.Z.Z.V.O.) e.e.+.k.k.V.o.o.+.+.V.o.+.+.o.+.0.X.o.+.o.X.0.V.O.j.j.k.V.o.+.V.V.k.Z.Z.V.0.+.0.C.C.k.b.k.N.7Xk.+.o.+.O.0.+.{ O.5XMXiXiXA.MXMXiXA.A.A.7XiXiXiX9X5X5XN.j.0.h.O.{ / { b.0.1.m.v.x.*.a v 3.F ~ Y.3X1XkXoX9XuXA.iXA.m.9XiX9XuXuX9XA.qXyXAXNXyXyXzXZXNXAXNXNXuXkX9X=XiXuX9X9XN.iXyXuX9XiXuXuXA.m.z.t.N.B.t...N.oXt.M.M.m.n.oXoX8Xm.qXqXM.M.z.M.oX&XNXzX&X).s.[ s w M b a 4 ! ;X3X{.n P &.&.&.4.K.K.{.}.OX:X<X>X*X<X:X@.=.-.t.x.%.%.d.J.I H 3.:X*XoXzXoX]._.x._.0X0Xn.oX8X9X9XN.9XC.X.k.C.N.B.Z.k.+.o.) e.+.k.V.V.o.o.+.V.V.o.O.+.X.{ 0.o.o.X.{ ",
"HXHXHXVXjXgXwX*X%XwXdX%X'.N.).oX`.`.`.M.z.r.>.z.r.>.h.l.N.N.N.N.N.B.C.tX9X).b.9X`.M.qXM.9Xb.b.z.z.h.t.<.1.1.p.<.%.....{ ` 1.%. .[ [ $.b q 3.{.UX+X:X<X+X*X=XoXM.oX9XM.8XoXM._.A.).oXm.r.!.!.m.(.*XdX/.(.~.(.%X'.m._.).oXN.oXoX9XoXoXoXoXoXn._._.n.m.z.oXl.r._.oXm.t.:.-.m $.n ! E I Q :XbXaXzXnXmXDXDXDXnXDXDXDXVXZXZXDXZXVXZXVXAXAXAXAXkXgXdXAXCXCXCXCXCXAXCXCXZXZX/.w } :.n.h.r.r.x.=.y k UX>XwXtX9XC.N.l.t.b.b.z.b.B.N.7XiXj.Z.C.k.A.Z.Z.V.+.+.o.o.o.O.Z.Z.B.+.+.V.A.Z.V.k.B.k.) o.o.o.) ) { X.0.+.o.o.o.k.B.+.V.+.Z.V.+.V.Z.b.k.Z.0.X.X.o.X.X.) X.X.k.k.k.B.B.B.B.7X7XC.Z.MXiXA.MXA.iXA.C.C.C.B.k.<.h.X.l.0.{ { ` ( [ ;.{ ;.M r r m - i.3XH.;X2XBXY.yX=X`.z.A.yXA.yXqXA.oXN.N.qXn.r.N.N.m.N.yXNXkXwXwXwXAXyX9XqXyXGXuXuXuXGXGXuXGXiXuX9XyXqX9XqXA.GX9XA.NXuX9Xm.m.m.m.oXm.=XyX&XzX#X).).f.eXzXzXZXc.[ c h r r # e $ w 3 G.3X3X+XU.u.%.=.p.i.f.d.L.~.I.~.Q./.@X}.d.x m ..x.t.p.t.x.&.u F Q $X#XrX8XM.n.r.:.z.v.h.l.h.z.`.N.j.N.b.0.C.B.B.V.o.X.+.e.o.V.B.B.B.+.+.k.A.Z.+.k.B.k.o.o.o.o.` o.O.",
"JXvXgX%X>X&XaX%X&X#X%XaX0XM.N.).oX9XoXC.M.z.h.>.h.).`.M.`.C.8XiX7XA.9XC.j.N.C.9XM.oX`.oX9X`.M.z.B.j.r.X.` [ ;.%.] ] ) ..;.] [ [ _ [ x w w R ! Y.;X1XgXwX#X!.oXoXoX_._.`.wXwX=X_.n.m.z.oX_.n.(.oXpX@XR.d.!.!.).v.#X#Xn._.'._.oX0XrX#X_.'.n._.n.c._.).(.'.x.Q.#Xx.d.%.$.m x w x l H H 2.<XfXuXzXSXDXDXZXNXSXDXFXZXNXSXSXVXvXVXZXVXlXjXlXfXpXwXwXkXdXxXjXdXdXjXvXfXlXlXv.r | t.h.r.n.p.,.T i H.H.gX&XrXtX`.M.h.b.z.0.j.O.b.b.C.N.N.b.j.B.N.0.k.N.Z.O.O.O.k.A.Z.Z.+.V.B.k.B.V.V.A.B.O.O.+.o.+.+.o.o.+.+.e.o.o.+.+.o.o.k.Z.B.k.V.k.k.k.A.k.V.O.+.) e.V.k.j.z.b.B.C.iXA.A.iXZ.V.C.A.iXC.iXuXiXuXiX9XC.C.B.k.O.{ ) ;.` [ ) r o...` ( ( r / h x ; ! S.4X3X2XxXaXwXoX9X9X=XA.A.=XyXqXyXyX#XN.n.qX9XA.oXqXNX*X=X].yXwXyX8XDXNXqXyXzXuXzXDXSXNXyXzXqXuXuXtXuXyXuXNXqX8Xn.l._._.R.p.} | r.n.m.wXzXoX_.oXyXKXvXzX[.( / # # # # $ + + g C ~ 3X:X{.{.wX=X&XyXyXQ.x.Q.L.L.^.^.Q.^.@X,.' :.r.r.z._.m.i.&.G K.H.<X&XrXuXoXn.z.M.B.h.z.h.N.b.N.5X8XM.b.N.N.j.j.C.C.O.O.O.Z.C.C.Z.+.V.B.k.k.O.k.C.B.O.O.+.o.O.+.+.e.",
"gX:X$X>XdXdX&X}.%XdXjXlXfX0XqX9X9X9XoXqX9XM.b.M.5XM.z.z.`.`.8XtXN.9X9XN.5XN.B.N.`.`.M.`.`.z.j.M.z.h.h.r....._ ` ` ) X.X.{ ) ( ..] ( c m w H H.+X+X2XxX%Xm.n.oXoX#XoXoXoX_.t.n.m.r.m.oXoXn.oX#X@X!.d.d.^./.x.p.m.oX_.n._.n._.!.!.'.).(.n.x.Q.(.x.d.p.n.oXm.p.x.,.m x w w e x n y.Q F R hXzXlXnXnXzXSXNXzXvXNXVXZXZXZXNXkXjXVXVXvXlXkXhXeXwXwXjXdXkXlXjXhXfXfXdXdXfXeX| _ _.oXM.j.m.x.R.l k ! UX:X X_.qX8X8Xh.B.N.C.k.0.C.C.B.j.0.k.j.iXN.b.k.b.9XA.A.C.C.k.B.V.N.Z.B.B.k.O.B.k.O.0.O.+.V.V.O.O.V.+.o.+.+.+.V.k.O.Z.k.Z.Z.B.k.Z.Z.C.N.Z.A.B.V.V.B.N.B.0.j.b.C.7XiXA.7X9XN.C.A.B.A.7XiXC.C.iXA.C.9XB.z.k.j.{ ) # e.( o.o.o.o.e.( ) ) ( h x k D ~ ;X;XBXCX%Xz.N.=XqXuX=XA.yXA.m.A.N.j.j.uX9XN.=XyXyXoXA.!.0XfX0X`.#XNXuXrXyX8XqXyXqXNXyXqXqX8XyXlXyXqXoX8XuXoXn._.s.[ ] _ _ ] v.m.n.8XoX0XzXZXFXFXVX%X).] h # # # # # # $ > ; 8 S.3X4XY.U.>XyXdXkXjXjXlXkXdXpXyX&X#XwXyXx.l.oX&X_._.!.!.~.P J UXH.1X=XoXyX8X0Xb.N.oX8XM.b.8X9XoXoXM.`.N.uXoXN.B.k.9X5XC.A.C.k.B.V.C.Z.k.B.k.V.B.k.O.0.O.+.V.V.O.V.V.",
"|.|.pXpXjX&X XdXVXVXjXlXZXAXfXuX9XuXuXqXoXoX9XN.j.z.0.h.`.`.qX8Xz.N.).`.8XN.N.A.M.h.z.n.<. .l.h.r.h.>.>.{ ] ` ` ) X.j.X.O.X.o.X...` ( c u R Y.Y.;XcX>XdX'.oXn.oX'.(.'.!.!.oXoXn.n.0XrX_.wX=XoX@X*X~./.&X'.x.p.f.'.n.'.!.:.!.oX'.).oXm.f.s.p.i.R.d.!.@XwX(.v.-.$.} x s x w w l u.I G 5.lXlXzXzXzXlXSXNXvXlXvXlXjXfXlXfXVXlXlXlXfXjXzXfXyX#XpXfXfXfXfX#XwXzXjXfXzXfXeXn._ t.t.z.m.p.i.a.l 4 G.UXy. Xx.l.oXn.t.c.`.).b.M.b.z.k.0.k.b.N.b.N.5XB.k.j.Z.Z.N.9XC.N.B.C.k.C.Z.Z.Z.A.V.Z.Z.O.Z.C.V.V.k.k.V.V.B.Z.Z.B.Z.Z.A.C.C.C.C.Z.Z.C.N.A.9X7XC.A.A.k.O.o.o.0.k.B.9X9Xj.N.`.5XA.B.B.A.C.B.b.5Xk.X.N.k.j.b.0.X.( ) ( ( % X.V.O.X.O.+.V.X.) r h q 4 Y.4X;XJXgXhX=X8XoXoXyXA.yXiXyX9XyXA.`.uXuXoXNXqXqXuXzXyXyXlXeX8X_.8XzXqXNXeXz.yXuXlXqXuXyXoX*X#X'.fXfXzXNXNXrX8X_.x.n.` | >.t.n._.0XyXyXzXzXDXZXFX'.' d M r # # # h w % w q 4 7 D 4X;XU.~.>X$X&X>XdXkXkX1XdXhXjXjXlXjXfXwXx./._._.(.d.f.K.T G H.H.U. X!.c.#X).v.).oX`.M._.b.).].oX_.).5X).`.9XN.k.j.B.N.C.5XN.N.N.N.B.C.Z.B.k.7Xk.B.k.0.B.C.V.V.k.V.",
"5.XX,XgXgX>X>XhX>XdXxXjXhXhXfX#X!.oX#X8XyXuXqX9X9XN.j.t.b.M.z.j.z.N.j.N.C.iXyX9XM.M.r.;...<.h.` >.h.>.| ..;.] ( ` j.j.k.V.C.N.j.O.X...<.m R Y.{.:X>X{.'.=XoXn.oXoX_.oXoXoXoXm.m.m.`.p.m.oX=X@X/.a.Q.}.$X/.f.t.t.t.n.oX!.r.m.t.:.<.(.p.,.,.t.f.i.p.d.(.,.7.m.t.M c x x w y w l J J F y.bXfXzXuXuXzXzXlXvXlXjXfXfXyXwXfXfXfXjXlXjXlXfXwX0X0XyXdXfXdXfXlXlXNXlXkXyXeXlX).h  .| | t.m.i.&.z k H ! T.~.c.c.).1...).z.q.b.1.0.{ { { { 0.X.0.{ b.C.j.B.O.X.O.j.O.j.0.X.V.V.B.B.k.j.k.O.O.0.0.k.Z.Z.Z.V.B.Z.Z.B.b.k.j.B.k.Z.A.Z.B.b.k.j.X.b.b.M.9XiXC.B.Z.k.+.j.j.V.0.O.j.B.O.b.C.iXiXiXiX9Xb.0.X.j.k.X.0.b.0.) ) ` ( / / j.V.k.k.Z.C.k.O.+.o.z.e k 4X;X2X3X+X#X#X8XM.iXyX9XyXGX9XyXA.m.M.8Xj._.qXyXwXwX!.#XfXzX#X_.M.n.M.eXSXqX`.8XoXh.t.#XC.m.M.oXwXoX#XwXzX_.oXzXoXX. .` >.>.r.l.n.n.wXuXzXNXNXzXNX<.r ..) h # % % h e $ w y 3 ; ~ Y.Y.z K.>XdXdXdXdXdXwXyXdXfXjXkXhXlXZXwXx.!.(.m.m.!.d.4.L G ! UXI.}.).).].p.>._.).l.M.0.l.<.l.l.l.v.j.z.>.b.`.b.b.O.X.O.k.0.j.j.X.k.0.b.Z.k.j.k.O.0.0.k.k.Z.Z.Z.V.",
"Y L..XI.|.:XI.}.}.}.}.}.~.L.~.XXx.1.x.c.0XyXfXzXlX`.c.z.n.M.M.N.M.B.j.B.oXoXoXM.v.,.:.<.<.1.<...| .._ ) :.<.[ [ [ j.j.j.B.A.N.N.N.N._.'.u.U.+XU.3X{.=.x.'._.oXoX8XoXoX!._.(.oXm.'.n.!.].!.d.s.s.*.-.a.R.d.v.t.r.x.p.r.' _ r.l.m.m.m.:.d.f.<.%.:.} ,.f.,.g.-.,.%.M x e e w > k k F k I.dXlXSXNXNXzXlXlXfXpXhXfXfXwXrXwXfXlXkXfXzXkXyXwXrXwXwXfXwXdXfXVXlXNXlXzXdXkX0X} _ | :.r.m.s.f.4.4 G ~ F H.&Xm.`.;.X.h.M.h.h.X.j.0.j.O.X.k.X.O.B.k.5XN.N.z.k.j.j.V.k.j.V.V.k.5XC.k.O.O.O.{ X.j.b.0.0.k.k.X.V.Z.z.j.j.k.b.0.O.0.0.X.0.) { { { ( 0.q.`.8X8XuXSXN.z.N.j.k.k.N.B.j.V.k.A.9X8X`.N.z.0.+.q.0.0.{ ..X.( / { ;.[ r ) j.j.k.C.9XC.C.A.A.iX0XP J.;XY.2X:XR d.oXoXoXqXuXyXuXoXA.iX9XN.].`.5XeX0Xv.l.p.,.,.).'.].8XM._.qXoXM...| N.oX9XiX=XB.#X8XoXM.oXl.n.oXn.yX`.qXqX:.) _  .` :.:.t.oXN.=XwXwX8X`.oX` _ _ _ M _ h M h h w z y 2 H.T.Y.z {.1XdXjXlXhXkXjXVXZXZXZXNXVXZXlX/./._.oX/./.(.(.L.K ! ! E U.>XQ.`.r.>.z.N.h.h.>.l.j.b.j.r.M.0.k.b.j.8XN.N.b.z.j.j.k.k.j.V.O.k.9XN.k.O.0.O.{ { k.b.0.j.k.b.X.",
"@.&.2.5.4.3.2.5.a.5.7.L.R.R.R.7.-.#.@.;.8.s.E.^.s.p.0Xn.`.z.M._.M.`.`.`.j.:.:.%.[ r b [ [ | ;.[ ` | _ ` _ ` ;.( ` >.o. .j.j.z.z.`.8X^.#XOXy.T.Y.,XI.L.Q.x.n._.N.oXn.p.!.oXoXoXn.oX_.[.p.p.p.p.,.@.7.i.i.d.n.p.!.'.v.h r h t.r.r.c.r.p.l.t.<.<.} _ ,.t.:.%.} ' m r w w h w j n y y U <XVXNXSXzXfXwX*X*XwXwXfXdXwX#X_.!.0XwXfXwX@X#XwXwXeXwXwXdX@X#XlXlXjXlXVXfXVX'.m [ _ :.oXz.g.-.=.4.p G ! T.I.{.!.`.l.v.b.h.>.N.M.z.j.h.0.O.X.O.N.N.b.0.j.b.N.0.b.N.V.k.k.B.B.k.0.b.j.{ o.o.O.k.N.k.k.+.0.j.b.A.B.j.B.k.k.j.j.0.o./ +.O.{ +.O.0...>.X...l.^..Xl.p.rX8XN.j.k.z.N.N.5XN.j.:.<.>.[ ( ( [ ( ..../ ( ( ( ( ( ( ` / ) O.) o.j.j.k.z.A.tXaX/.I.H.Y.4XIXY.L.n.n.b.9XoXoXN.j.A.yXyX=XA.uX9XoX0.:.t.<.;.1.M.n.j.M.qX9XNXSX8X .% ) M.C.oXyXoXqXqX8X9XN.j.X.N.j.N.oX`.rX_.' ( _ M (  . .j.z.n.oX0XzXrXn.N.N._ _  .[ [ c h N N N j i 4 ! u.y.K.1X1XOX=X%X>XdXlXZXZXZXVXAXZXdX^././.=XwX_.!.d.L.U.&.Q H.Y.|.$XoX].l.c.n.v.l.n.`.M.l.l.h.h.j.z.N.N.N.h.j.M.M.0.N.b.j.k.k.N.k.k.0.b.j.{ o.o.V.b.Z.k.k.X.0.j.k.",
"b @.#.@.&.*.&.&.&.$.4.=.$.-.$.$.$.[ [ @.@.@.#.@.%.| | [ <.).].'.n.v.r.%.[ ] c c _ c c _ ] ] [ ] ] %.] [ v.t.) ..X.j.j.o. .X.r.j.n.p.d.&XP.L 3.I.+XU.f.<.:.m.N.oXoX`.!.m.m.n.t._._.n.p.,.:.<.!._.!.'.%X_.i.oX/.p.t.r.:.r  .n.z.z.t.h.m.oXn.t.d.m.t.t.-.} h c h w q w h N w q Q l I Y.BXZXlXuXrXyXlXwX*XwX#X=XoX0XqX#X8X'.oXyXwX*X#XwXdXfXfXeXyXoXoXlXjXfXoX!.!.Q.| _ M _ | ..| %.} &.R i k ~ H.Y.y.-.p.:.:.<.] ] 1.:.| h [ { X.>.0.1.X.0.v.......>.<.j.M.`.`.h...{ ) ..l.b.b.Z.N.0.{ 0.X.h.{ k.z.A.B.z.X.0.j.h.+.o.+.b.b.0.j.q.0.{ { ` ] ] 9.#.;.%.] ..` ;.h.b.v.l.h.<.>.` ] [ [ | ) ( ( ( [ ( [ ( ( ( # j.>.( { X.0.j.) o.X.0.h.).M.s. XK.! T.;X3XU.f.:. .z.oXqXqXoXoXm.N.A.j.9X9X].h.1.] .._.8XuXuXuXoX8XuXNX8XoX8Xz.h t.uXqXiXA.9X9XuXuXqXuXiXiXC.h.r...h._.r.r _ ( _ _ _ :.t.g.oX_.qXqXyXqX8XoX..h %.' _ _ M M M T n G 4 G y.y.U.1X+X1X&X&XwXdXVXjXkXpX$X&X#X!.R.i.p.d.p.g.g.i.a.a.Q 6.H.Y.|.K.4.f.p.<.l.1.%.r.i.;.' #...1.>.q.1.1.0.j.;.;...>.0.v.c.N.8Xj.X.X.` ..v.c.N.Z.N.0.X.0.>.0.X.j.b.",
"] ;.%.$.$.&.@.$.$.@.$.' ' } %.' c m ' b ' | %.} ' ' ' [ ,.v.!.Q.7.%.| m ' b _ c c _ M ' _ _ _ _ [ ] %.] l.:.X.j.z.M.O.j.z.z.z.m.h.l.x./.U.3.H.Y.U.y.&.t.v.h.m.oXoXM.n.m.x.p.t.d.s.=.:.,.t.x.!.R.d.d.d.=.d.p.t.t.<.p.!.t.r.m.m.m.m.r.M.oX_.p.t.,.t.t.:.x x N x h e h $ w w m T G H.:XhXlXlXlXzXfXlXlXfXuXqX0X#XoX*X8XoXoXoX=X0XwXwX%XwXdXfXqXqXqXzXoX).r.c c [ [ c c _ }  .| | | } &.R t i F ~ H.l v ' @.d h c r M _ ] ] r [ / [ { ;.{ [ / [ / / ] ..%.%.1.>.| _ [ ....<.b.).k.X.0.0.X.<.0.N.N.>.X.j.M.h.<.{ ( [ / { X.( { { >.;./ ( [ [ [ ] ] %.]  .` ` ` ;.>.p.:.;.%.] _ _ _ ) ` { ) o.( o.( ( / ( [ [ l...o.0.k.N.O.0.j.z.j.b.b.c.:./.+Xg.4X:XY.y.$.<.z.r.B.iXqXA.A.m.N.t.t.m.v.] ` ] ..v.'.M.0XyXoXN.uX8XoX`._.0XuXoXA.MXGXuXiXiXuXSXSXiXqXiXyX9X8X ._ >.z.| r >.` [ [ ` t...N.oX8XqX`.M.`.M.X...} h M _ ` _ _ M m n L l ! T.H u.+X{.xXgX>X<XgX>X>X$X/.^.~.Q.p.=.p.m.r.r.p.t.u.d.y.Q W ! ! H.Q $.%.*.@.' ] ' %.:.<.:.] ..] ] 0.;.;.[ ) [ ) ) %.;.%.1.r.t.%.` ` ;.1.0.b.N.j.0.0.0.;.0.0.M.).;.",
"L P m m n M c n m m N N x r N n m n P m b m m n x x x x m v b b n b ' ' [ m m m _ _ M %.M [ c b ' ] ' [ ] ) :.h.:.] l.z.l.>.>.| ;.<.Q.%XL.I u.! I 4.4.d.i.f.!.!.d.x.p.L.R.i.p.s.,.%.%.,.t.d.x.d.$.=.-.m *.$.b @.*.1.t.x.n.z.p.r.r.r.p.m.t.r.:.m _ h x h w x x e e $ e q > 5.G i 2.2.:XcXgXgXCXKXVXlXjXNXzXlXzXyXqX8XrXyX0XwXeXwXyXpXdXdXlXkXkXzXNXz.# ) h ) ) _ _ _ m ' %.m.| -.$.-.L : k F H ! L l x M h h r h h r / ( / c h _ [ [  .[ r # % h r c [ b c m c ' 1.:.;.[ / [ ( [ ....[ ..l.z.( r [ ` ] / ( h / r / / # / r r [ ` ] @.%.' #.%.*.%.' ] _ _ _ ] ] %.;.;.] ] ] _ ] ` `  .o.` [ h / / [ [ r ( ` ( X.k.>.) r.z.l.X.X.` ..;.x.hX{.! T.H.Q u.4.x.p.r.n._.j.m.r.l.).;.:.v.| [ ( | ..l.l.h.c.rXM.M.[.l.;.8.c.'.0XzXSXNXuX9XqXiXuXuXqXyX9Xc.b.X.{ ( (  .) h h | ` _ [ _ :.t.z.N.uXj.j.] h [ r _  ._  . .m.j. .( _ | $.4.L E 2 ! u.E y.a.L.{.$X~.d.R.L.d.f.i.f.U.Q.K.i./.i.t.=.i.Q G E E ! T.3.P &.} | } } _ ' _ ' ] ] [ [ } ' | ;.] h ( h h c [ ' [ b m M ' 1.1.1._ [ [ ( [ ;...[ ;.v.v.] r ",
"4 y k z z z z y j y z : > ; w a q t q u u q y q q z j u y l l z l l v m N x x x j x c M [ M [ | ] ] [ _ ` _ l.<.l.!.!._.x.x.x.v.s.=.Q.$Xa.G k G L v n x m ,.@.b ' ' ' P L n m m m @.=.4.7.4.4.$.b 6.=.U K m m c m *.i.f.i.t.t.=.-.t.=.-.:.} M x w w w $ e w @ e @ @ @ + y K p G G W G Q U R J.}.:X>XgXpX*X/.#X*X@X&XwX@Xm.d.R.Q.^.}.'.@X$X@X X X#Xt.e h ) ) )  ... ...-.%.=.$.t.-.-.T : 4 H ! H 4 i i q q w e $ e w w w w w w q w s w x x e e e w u a p a y y z u j l q e a u w q q q s s w e s s s r x w r r r r r d r d / [ [ [ [ [ [ [ c ' ' m m m m x P P Y P m m ' _ m m x c M M _ ( h h [ [ ( / ( ) ) v.1.r.!.)._.b.v.l.l.l.| /.aXa.G ! W R R m x M x.| c M } } | %...:.;.` h >.>.>.>.>.t.;.' ] p.;.1.;...<.M.].uXqXoXrX9X`.qX9XoX8X9Xl.>.` / / # / h h # h ( h _  .` ` ..M.qXh.m.>.r ( c _  ...=XyXC.A.iX9XN.N.eX0Xs &.2.4 > j T $.-.%.=.,.$.x c _ M M _ ' ' @.} $.$.} &.&.&.T y k H ! J 7 i z p y j j j x x x x u x x j j n n x x w w e u u a p u y y z a j l u u a u u w q u c x x w s ",
"= 9 9 * 9 9 = = ; ; = ; ; - ; > = = : 3 3 3 4 4 4 3 4 y y k g 4 4 y i k k 4 k 3 i k k z l v v v n v x x m c %.=.=.f.a.7.4.=.-.m n &.R E I 3 4 ; H L y v P 4.m u s u u u t q j u w w ' @.' @.x u v U j K P L x v v n l v n T 3.4.u.-.T -.T N w j > e e > q @ + > + - @ 9 = ; I F H J 3 6 4 Z a 2 t A I K i l z v v L T v u j v v x v l l p i p i v j w j N M x M ' U P v K L L T n L y : g H ~ D 5 5 7 7 4 1 4 4 7 4 4 8 y 8 7 4 4 3 2 4 ; ; > > 2 : < ; 2 ; 2 2 ; : 3 y 3 4 3 3 4 a 3 t 4 : t t w y y y u u G a a t u d u a p a u u a d t i p i i q k z l Z p i p p l z z k k 4 z l l z u j j v x x x x c c %.t.,.f.f.t.i.,.%.' s $.P L I 2 B * 2.3.u m *.R.@.c c r h c ( ( _ h r r ..;...:.( h [ [ d ;.,.1.{ ;.1.1.] ] *.v.oX#XwX0XM.yX`.z. .| / r ( # # # % % r # ) _ ( h ) | n.M.n.n.c.h.) ( h ` :.!.kXuXNXqXzXzXSXfX=.e u z ; O O N N N x x M M x x c M c x c m b v n v n n n j y > z G H g 4 7 y i y 4 4 4 7 i y 4 k 4 k 7 4 4 : k > : : 3 : 2 ; < < 2 2 3 ; : 4 y 3 4 3 4 i 3 3 t y 4 y y ",
"* * * * * O * O * * * & = & & * = ; 3 6 y i 7 4 B g 7 B 7 7 7 7 D F B i k i 7 7 7 g k i F F k i 6 i i 7 y y t z y y y y 3 t : y y y l 7 4 7 4 4 y k 4 : y y 3 y : q > q y q w x w x x x h x x c w w u u y t q q : > q q y 4 y y z w z z q k q y 4 > y 4 > - ; ; 8 4 7 k 4 g 4 8 7 7 7 i 7 4 7 k i y : 3 y 3 ; > : : : = - - : 4 3 4 4 4 i 7 F 7 6 2 ; 3 3 : 4 4 4 i B V B B 7 B 7 7 8 k G.H.~ V B F 7 4 g 8 g g 7 g 7 g J J 7 F F B 7 k 7 7 4 4 7 4 3 3 3 ; 4 4 2 2 2 3 3 4 3 7 4 4 4 4 i k 7 B g k 7 i F Z A A J A i H J G p G F k G F G F F F J F F F F F D B D F F F F i k 5 4 k k i G G Z Z i i i i y y q k u i y y q y e q q y p y 3 2 7 3 i z t - u q q q > > @ e e e w h h h h ( ) h ( ( h r r f r e $ $ + $ e s s s b -.-.' :.t.[ M h ( ( % # ) # # # $ # r ..r.r.h.| ` h.r.m.r.>.h.` / r r r ` b.#XyX=Xd.#XdXyXp.- O = 9 O   y z q q q y > q w y q w 4 q y a 4 i i y k i i 4 k ! UXH 4 7 k 4 4 k 4 k 7 k k 7 i J J 7 k F k g F 4 7 7 4 4 y 3 2 3 2 3 8 ; 2 2 3 3 3 3 y 4 y 4 4 i k 7 7 ",
"; & & 2 9 & & & & & & * * & = < < 3 i i i 6 3 3 6 7 B B B Z B B D i B Z i F Z i 4 B B Z H H F B F F F F J F Z 7 g k i g 4 4 4 4 i 7 k g D 8 8 2 2 2 ; 2 & * : ; ; ; = + * > > : w q e e w w w w x e e q q : t : : 3 3 4 3 ; = > 4 : : : 4 : 4 ; ; > 4 4 3 ; ; 7 4 ; 2 7 D 7 g 8 7 7 2 7 7 g 7 7 2 3 3 4 ; ; 7 8 ; 4 3 & ; 4 4 4 4 4 4 3 7 7 2 5 5 5 5 V B V 8 D 7 5 g V 8 C g 8 D F 8 8 J ~ G.8 B Z F F g g k 7 g F F J ! F F F F g F F k F g 4 7 4 3 3 2 7 8 5 2 2 2 6 7 2 8 7 7 7 Z Z Z Z Z Z B Z F J A D Z Z D J Z B Z Z Z p S Y W Y K A t 6 7 A A J Z ~ ~ J J F F F F F J a y Z A A J J J Z A J Z ~ J F k g 7 k 7 g 4 3 3 4 k 7 g i k 8 2 9 ; * & & X O - * - O + O + + @ @ e e $ # $ h $ r r r $ $ $ $ $ + $ w e w q > > @ y e e @ # $ # $ # r r % % # # # $ # h t.M.oX..h h h % h M M h x N M h M _ _ } M N T $.d.w + O * & O 9 9 = * + * * - ; ; : ; 4 4 4 > 4 4 8 8 8 8 7 k 4 8 F J E g 7 k F F k g k k g F F J E F k F F Z k k g k 7 7 7 4 4 8 3 7 7 8 2 5 5 3 7 2 5 B 7 7 Z Z Z Z Z Z ",
"& = = = = 2 2 9 ; 3 3 3 < 3 p G U U U Q Y I I Y K A i p Z i 4 4 7 J J B F Z Z 7 B Z B ~ J J ~ F J F D Z F B D F g D g 7 g 7 g F 7 7 7 F k g 8 3 4 2 ; 2 & = = ; & ; & ; ; * * ; : : > : w e e q q 0 - q > : : 5 3 5 2 2 2 = , 5 5 2 = & & * - = 9 4 4 9 8 2 2 2 2 8 8 7 7 4 7 7 6 7 B 8 D 7 7 8 7 8 8 8 8 8 4 9 9 2 ; 2 k 7 g 4 g g 7 8 7 7 2 8 7 5 5 5 V V V V D D C 5 8 g 8 8 8 9 g F 7 J ~ g Z B B V B B B B V D D D F B ~ F F F J F F F D 7 7 i 7 8 7 2 1 5 1 5 2 5 5 V V V 5 V 6 V Z Z A S Z A A Z Z H S.~ ! D.H.D.6.6.6.J.-X%X.X-XXXP.F.F.5.2.Y I A A Z a 7 D Z Z F F A V B F D D ~ D D Z D D D D F D F F D D F 7 g g D F 7 7 7 F F D 2 3 4 2 ; ; * & * * * & * & O O O O @ + + > @ @ $ @ @ + + + @ + $ + > > - * + O O + > + + O + + @ @ @ e $ @ @ @ + @ @ @ $ $ $ e s s h # $ w w $ @ > > @ > w w w @ > > @ u u t - : ; ; 9 ; + = ; 9 ; & 9 ; 9 9 ; 9 2 8 1 1 1 2 8 3 8 8 9 4 g 4 k H 8 7 B V 7 7 8 V 7 g D D D F D H F D F J D F F D 7 7 i 7 2 5 5 9 5 5 2 2 5 5 V V 6 5 5 V V Z Z Z A ",
"p l p d v L P n P @.&.&.@.U @.7.8.a.4.*.4.8.8.8.8.4.4.7.7.5.9.7.$XJ.*.6.J.2.L z a i Z W ~ W H ! ~ ! W H H J J F F F D 7 B B B B B B Z B g D F H L H G k k 7 i 4 2 2 ; 4 k g z k 4 3 a y 4 z L l l l k k G k i F g 4 2 * * = 2 3 = y i i G l 7 k k g 4 2 9 * & , 1 2 7 7 5 i E g 2 k 8 9 B 7 8 B F D 8 2 8 8 9 9 1 9 * , 6 8 8 8 B 7 7 8 7 8 2 9 1 5 C 8 8 8 V 8 1 V B V 8 8 G ! H.! H.4XT.4X4XY.T.! ~ ! W ~ ~ ~ H H J J J J B Z J J Z 7 B V B 7 V 7 3 5 2 1 < 5 1 < 3 6 3 Z A A I 2.D.XX|.XX,X-X.X-X.X|.XXaXbX.X,XbXbXaX.XW.8.%XvXaX6X[.6XrXaX6X6X.X.X%XaXaX.XXXL.8.6.#.I W J B B B B Z D ~ D Z J J J D D J F D F F F B g 8 B B F 7 Z B i D D 7 5 4 2 ; & & & 1 * & & & 9 * * 9 O O O + @ O + O + X X X - 9 = ; * * * ^   ^ * * ^ 9 9 ^ O O O O O O + - 9 O - * O O O + @ 0 q w e + + + + @ 9 9 ; > 9 O 9 > + 9 9 9 9 ; = ; ; ; 9 8 9 9 9 9 9 * 9 9 ; ; 2 & 9 9 9 9 5 5 5 ; k H ! H UXT.H.T.T.K.D.! I ~ H H H ~ J J F F J F B B F J Z 7 B 7 V 7 V 7 7 2 < 1 < , , , 6 3 4 Z A A I Q D.XX~.XX$XXX",
"@.@.%.%.:.<.<.1.1.p.8.<.1.;.<.8.1.l.<.l.q.v.v.s.q.E.v.E.[.[.[.vXeXE.[.[.v.W..Xv.7.8.E.P.D.J.D.6.6.D.6.W W ~ H ~ F 7 D 6 F B 8 7 5 7 J I ! E 5.! ! ! L I L l H 4 7 i i 4 n G z z z z z k 4 : 4 4 3 = z H H H R ! y.U.y.3.3.3.3.R v R E 5.J.y.Q u.y.u.y.y.Q k i ! ! ! 3.I R H.U.! H.Y.! ; 2 7 7 8 8 8 5 8 5 2 8 1 1 1 , 1 5 5 V D B V 5 8 B B B 6 7 Z Z I u.Q G z F l p k F l 3.Q ! H.H.H.H.Y.+XH.H.6.u.Q u.! 3.5.! E ! H.T.H.3.T.J.H.J.! 4 V V 5 5 7 5 , 5 < 6 t 3 a #.2.8.8.v.W.[.[.W..XW..XsX.XXX[.XX%XvXmXvXaXrXaXsX6XXXXX6X.XF.[.6XsX6X6X6X6X6XsXsXvXmXmXmXmXvXmXbX6X6X6XW.v.8.F.6.2.W S H W ~ Z A J ~ D D J B 7 F 8 F D 7 V 5 7 Z 7 7 2 8 2 3 6 * 2 * & & & & 9 & & 9 9 * * & O O * O * * ^     X * * 9 & * O * ^ ^     ^ X * ^ O 9 9 @ 9 O O ^ O 9 ^ O * * O O O O X O O O * 9 * ; 9 9 ; ; ; ; 4 8 9 ; ; 9 ; 8 > - : ; ; 4 8 3 4 ; ; 3 ; ; 2 3 3 k k k 4 > : 4 4 y k y R I E ! ! H.! T.T.UX! R Q I Q Q &.! E H ! u.H.H.R T.J.5.H.E 7 8 V 5 7 7 2 , 5 < 6 a 3 a #.2.7.8.v.E.[.W.W.W.W.XXaX.X",
";.] @.;.1.;.>.<.r.p.v.v.v.v.8.1.<.s.8.s.s.x.R.W.E.).E.).^.E.sXhXW.W.c.W.W.v.E.].0X.X6X[.[.E.v.v.R.v.F.L.8.8.9.8.5.8.2.2.6.6.5.2.U 5.6.6.K.Y.-XT.L.3.&.U K K K i a i i A K G K G G l l i y t i t : = > a z y p y a P I.L.L.f.$.$.-.4.&.P @.U v T &.3.3.4.4.3.5.4.u.3.T N u u q z 5.K p : : = 2 ; < < < 6 3 3 3 3 = < 3 t 6 < 7 V V 8 V D 8 V 5 7 p G l 3.+X+Xm.i.m M x w w j w q q u x u u u z n l n v m m m n m n ' t.i.4.d.,XAX}.f.U.P.4 6 3 7 5 5 5 < 6 3 t a w.f F.W.W.7XW.sXsX7XW.sX6X6XW.W.F.q.F.F.6X6XbXbXsXsXsXsXsXmXF.F.5XXX6X6X.XaX6XbXbXmXmXmXLXmXmXbXbXmXsXbXsXsXsXsXsXsXsX6X6X6X.X6XXXF.8.R.F.9.9.9.9.F.8.9.8.D.L.4.9.D.2.w.2.6.J.D.6.I Y A i 3 3 < < < < , , , , * < ^ ^ * , ^ ^ ^ ^ ^   ^ O * - - O X + = y z + O - = : ; - > q + O O O * & * * ^ ^ , ^ ^ ^   *   O * & * ; 9 9 9 ; 9 9 4 2 2 ; 1 8 9 8 9 8 ; 4 4 2 8 2 2 2 9 9 2 3 2 3 z L E n n e y q q e e q : : q u y q y z z z l j n n n N n x m =.u.=.f.OXgXQ.i.K.J.7 5 6 6 2 6 5 5 6 3 t a f w.F.F.F.6X6X6X6X6X6X6X6X5XW.F.",
"%.%.%.;.%.%.1.1.7.v.c.E.s.8.8.l.1.@.[ @.@.9.9.1.8.E.E.E.[.W.eX0X.X].).].`.[.W.W.c.W.v.)..X[.rXsXzXzXaX6X6X6X.XrXrXaX.X[.W.^. X|.|.XX|.%XbX-X.X|.L.8.s.7.9.4.6.@.Y n p P @.@.P P P P m n v v l y y y > n d.m.t.i.g.d.d.x.i.$.=.4.s.d.,.*.%.-.-.%.P U v x &.4.4.&.$.} m N M x x j m N T T e e q > 3 : : = 9 ; 3 : - * - t < = 2 5 5 8 V 8 C 5 5 7 G U 3.~.OX=X+Xf.x c x w x j j q x j j n n n L T U.~.$.-.u.t.Q.x.'.(.x.Q.Q.(.U./.(.Q.(.y.3 7 6 5 2 6 3 2 6 t a t f f w.q.F.W.6XsXsXF.F.W.W.F.7Xq.q.5X5Xq.F.F.6XW.6XsXmXsXXXXXF.6X1.w.w.w.w.9.F.q.6XbXbXbXbXmXmXmXmXmXsXmXmXmXsXbXsXmXsXbX6XsX6XbXsXsXsXsXsX6X6XbXsXbX6XaX%X%X6XaXaX-XXX,X,XXX.XF.8.9.5.#.S #.#.K a t - q f a < - < - < & , , ,   ^   . = f.(.i.t.g.d.m.*XDX1X-.M g.d.m.@XkXfXdX+Xd.Q 4 9 2 2 , & 1 , , ^ ^ ^ ^   * & & 1 1 1 1 1 5 1 1 9 9 1 1 8 8 1 1 1 1 1 1 8 2 5 2 , , , & & ; 2 3 G E T R z : : w q z y y : u j y x l n l n y.d.m &.=.-.d.f.(.R.f.x.d.~.U.Q.(.m.(.3.2 7 5 3 5 3 < 2 6 t a t f f w.q.W.F.6X6XsXq.F.W.F.F.5Xq.",
",.,.,.%.*.,.<.1.v.x.8.*.@.7.!.<.1.q.<.1.1.1.1.<.v.v.>.v..X).).[..Xv.q.v.q.l.c.5X].5X0X5X).].iX6X6XeXtXtXtXtXsXsXsXrX0X]..X[..XXXR.XX.X XXXq.9.8.8.1.*.9.*.1.1.7.*.' ' %.*.*.%.[ ' %.b ' P l l : y j u /.yX*X*X=X0X=Xg.-.%.b *.p.x.d.t.,.,.:.-.$.&.$.@.&.$.-.-.,.i.:.} } | :. .} } } t.t.c e w e e q - - y : y : - - - - - * * , , V B 8 5 2 < l z R 4.T T T n m m m c j u y y v n m N N x n n d.@Xi.$.L.(.@X*X@X&Xf.x.@X>X=X*XyXyX&XjXi.- 4 5 5 6 6 t 3 t q f d f w.F.q.W.mX6XsXW.W.7X6X7X6XW.Z.7X7XW.q.q.7X6X7X7XsXW.F.w.F.mXW.q.F.F.F.F.q.q.5XaX6X6X.X.XbXvXmXbXXXF.aX.XF.aXmXmXmXmXmXbXmXmXbXnXmXzXsXsXsXmXbXsXsXtXtXaX6XaX6XF.6X6X.Xq.1.9.w.{ w.d d w.] #.#.#.d f f S f d 0 f f 0 - < ^ ^         |.HXVXAXdXfXVXfX=X@XT m.=X&X*XkXVXZXAX&X=X$X:XK.l G p Z 7 1 & & & , ^ * ; * * & & * * , , 1 2 1 1 , , 9 & & 1 1 & , 9 9 9 & * = 2 & & * 2 ; 4 g 4 : 4 : q : e y e y q q j n j N z j j z u.~.3.P f.d.(.@X/.@Xi.d./.@XoX=X*X*X*XdX3.* 3 3 5 6 6 t 3 t q f d r w.F.1.W.sXsXsXW.W.6X6X6X6XF.Z.",
"x.d.x.v.x.x.c.'.!.x.v.p.l.,.8.x.v.v.v.c.W.c.M.v.q.<.<.v.].^.W.v.l.c.].z.l.l.v.c.].6XeXtXtXzXvXzXzXzXzXsXsXvXnXsXtXsXsXeX.X.X XW.XX.X[.XX[.E.W.[.).!.n.v.v.v.q.1.1.1.1.,.1.1.1.%.9.%.@.,.7.m v l l n n &X&XwXoX!.wXyXx.:.' -.,.p.p.t.i.p.p.g.%.-.-.' =.t.$.t.,.g.f.l.m.m.l.=.t.t.p.r.t.p.:.w w j e e e 0 e : e @ 0 - - + t > * 2 2 8 7 8 7 2 F U.Q.i.m T T -.-.$.m m m x v n v m v T T h x w t.oXg.f.@Xf.f.i.f.~.R.d.yXpX@X=X@Xm.=XyXBX3.* < 2 3 i a t a f f r f / b.6X7XW.6XsXsXsXsXsXsXmXmXnXnXsXMXsXnXMXmXmXLXmXmX6XW.W.F.6X7XsXsX7XsXsXsXsXsXW.6X6XXX6XbXaX.XF.W.aX6X6XbXaXaXaXmXmXmXsXmXmXmXmXmXmXmXsXmXmXmXsXmXmXmXsXsXaX6X6X6XW.E.E.F.W.W.W.W.v.q.q.q.q.;.#.[ w./ w.w.w.r f d f w.w.*     & * * IXjXkX/.Q.AXZX/.Q.p.=XZXdXjXlXZXlXAXdX&X$X~.T T ~.U.G p G 7 g k k F D z l T H.v y z k p i 7 8 3 2 2 & 2 2 2 8 2 8 7 4 9 G P.L z y * = < i y 4 : > y j z z j z j j j j l v x n N w j w t.(.i.i.(.i.i.u.i.L.J.p.&X#X/.+XoXm.@X&XjX2.- 2 5 3 a a t a t f r f / v.7X7XW.6XsXsX6XsX7XsXsXnXnXsX",
"R.8.R.R.E.W.E.E.W.^.W.E.9.8.9.1.q.W.XXE.E.^.8.v.[.[.5X0X6X].qX0XrXuXeXqX0X8XtXtXtXsXuXtXtXfXzXvXmXzXhXsXvXvXvXzXzXaXsXaXaX X[.XX X X^..X.X[.]..X.X8X#X[.].).M.).W.v.l.8.8.l.r.p.<.<.q.W.s.@.x n R z T gX@X@XoX=XyX*X/.(.(.(.n.m.f.m.g.i.t.-.-.,.%.,.-.c } ,.4.p.d.m.m.m.m.m.g.g.m.m.(.!.m.t.w N x e e e @ > e e 0 > w u K y O 3 2 5 5 D 8 ; E I.I././.{.g.(.~.a.i.=.T } $.m m m ' -.M -.i.m.=X=XoXyXoX,.-.t.m./.oX*XwX=X@X(.{.*X*X@XxXp < 5 5 3 a i d a f d r w.W.sX7X5XW.7XsXsXsXsX7XsXmXnXtXmXmXsXmXmXmXmXmXmXmXmXLXmXF.6XF.F.XXbXbXaXaXmX6XF.F.sXaXbX6X6X6XF.6XbXsXmXmXmXmXmXbXsXsXbXbXmXmXmXDXmXmXmXIXmXmXmXmXmXmXbXmXsXrX6X6X.X6X6X6X6X6X6X6XtXtX6X6X[.W.W.c.q.1.[ w.[ ] ;.{ [ 9.q.9.- X * 1 * 9 kX(.@X/.*XVXAX&XVXZXZXNXdXlXkXfXwXkX@X}.m.i.=.t.u.U.T a z L U I R T T -.&.dXLXfX$.x L K K L H H l k p Z G G k L H L l u.CXCXBXVX=XT u p L n T P T T Q 3.T T T v m m n n x n $.M -.t.i.oX/.(.oX(.-.%.t.d.(._.=X&XoX(.(.Q.@X#X}.gXp 6 6 6 3 i p s f s s / w.W.6X5X5XW.6X7X6XsX7X6XsXnXsXsXnX",
"E.R.x.E.R.!.R.x.^.[.8.v.<.;.9.w.1.8.E.[.6XW.W.eXrX].).).0X8XsXsXzXsXsXsXsXsXsXrX0XrXrXrXwXsXsXsXzXsXzXzXsXzXzXsXsXsXzXvXhXaX.X X>XpXaX%XaX>XwXaXwXdXrXrXaX0X.X].).).[.M.x.v.'.).v.v.!.'.s.' m U -.T (.kX'.=X0X*XyXyX&XoXoXm.m.(.(.m.i.-.&.%.$.-.$.} $.t.i.f.:.-.p.n.!.Q.m.m.m.m.m.n.oXm.n.m.} h x r h w e e @ @ $ e n T &.y O 2 2 5 5 8 8 5 G.1XOXOX:X}.<X1X1X*X@X~.a.&.R &.P f.'.*XyXNXkXyX*X=X*X*X@X@XoX&X*XyXyX*X_.oXyXyXkXwXdXZX~.* Z 6 5 6 i A a s f r 1.6X7X6X6XsXsX6X6XmXsXmXLXmXmXmXmXmXmXmXmXmXFXmXsXmXLXmX6XF.9.w.w.f D.F.6X.XbX.XXXbXbXbX6X6X6X6XaXmXvXsXbXbXbXbXbXsXbXmXmXmXbXmXmXbXmXvXmXIXbXmXmXmXbXbXmXmXvXvXbXaXbXsXaXaXsXsXbXbXvXzXbXbXsXrX6X].W.W.M.q.1.;.[.R.1.1.F.[.#.- ^ * 9   ! kX{.=X&XAXVXjXjXlXkXdXdXkXdX&X*X&XwXwX=XM.t.t.(.(.} i.&.n L L R T -.<XVXVXZXZXKX*X$.b P L L G L H J I L u j n n n 3.xXZXHXlXVXVXdXjXu.v &.&.R 3.3.y.a.a.a.f.u.&.T R R P 7.Q./.#XdX1X*X}.(.(.@X/.(.!.=X=XwXyX#X(./.yX1XdXwX>XAXQ.= Z 4 5 6 i p a s f d 9.6XeX6X6XtXsX7X6XmXsXmXmXmXzXmXzXmX",
"zXSXlXzXzXtXtXzXfX6X).8X`.6Xz.v.F.1.1.8.E.8.9.q.E.W.W.6XW.`.6XrXrX[..X0XeXfXaXeXrXrXtXeXsXzXsXrXsXeXaXsXsXzXsXvXaXvXbXhXbXaX,XaXbXbXvXbXvXgXpXhXvXhXhXvXzXsXpXwX0X#X0X#XoX]..X).!.c.).].s.,.u.a.U.+X@X(.*XwX=X=XkX*XwXoX_.n.m.=Xg.-.-.=.=.%.t.-.$.$.$.-.=.$.=.,.x./.@X=X=XoXn.(.n.oXoXoXoX*XoXt.t.t.} w # e e h } } %.$.L y O 9 5 5 5 V 5 5 T.T.I.+X$XI.|.I.{.~.i.a.I.a.&.3.a.*XwX@X*X*X@X*XdX&X>XgX*X@X*XyX=X&XkXyXjXjXjXVX&XwXjXVXR 3 Z 7 5 7 p p d Y 1.6X6X6X6X6X6XsXsX7XsXmXmXsXsXmXmXFXKXmXmXLXLXmXmXmXLXLXmXbXF.[.q.6Xw.F.D.f S w.D.w.w.D.F..XXX6X.XbXaX6X.X6X6XXXbXvXbXbXbXmXbXbXIXmXmXbXmXmXmXmXmXIXbXbXbXbXvXHXmXmXvXvXbXmXHXvXmXvXbXmXmXHXmXmXvXsXaXrX.X[.[.).v.E.W.q.<.9.1.XXd - ; 9 2 ! {.U.=XkX&XAXAXkXAXjXfXkXdXfXfXfXpXyXdX0X=XoXoXoXoXN./.Q./.-.n &.P L g.KXAXAXlXZXZXKX&X$.n T R L L L I v v {./.=.| m.&XZXVXgXjXCXVXjXhX&X*.P R &.3.Q u.2.u.u.&.3.y.3.&.R u./.@X'.oX}./.@X:X$X&X1X{.{.=X*XoX*X1X*XyXfXkXlX#XwXfXjXT t p 7 6 7 Z p d Y 9.[.6X5X6X6XtXsX6X6XsXmXmXsXsXmXmXmXFXmX",
"DXmXnXDXDXvXsXrXW.].W.).[.5Xv.#.8.w.q.E.8.1.[ w.@.#.v..X.X].6XrX].[..X].#XrXfXfXtXsXzXaXsXsXvXaXhXaXsXeXsXbXvXbXaXbXhXdXbXcXbXIXHXxXxXIXxXaXbXvXvXhXhXvXhXvXaXaXwXwXwX#X.X'.[.[.[.'.[.!.d.L.d.U.&XkXU.I.dX&XwXAXkXkXyX*X=X=X*X(.x.t.t.t.%.m.t.m.m.:.,.%.| i.x.d.s.x.^.oXyX&X=X=X(.*X=X=X=XoX=X=X=XoXm.t.t.m t.g.m.,.%.$.=.y ; 8 5 8 V V V F T.U.+XI.I.I.{.@Xu.=.d.Q.d.(.i.d.1X@X{.%X^.=.f.U.d.d.L.K.L.$X+X$XdXgXZX1XdXkXVXVXhXwXxX>Xa 3 B V 8 7 i p S 9..X[.6XaX6X6XW.6X6XsX6XsX6XmXmXmXmXnXLXKXFXmXmXmXmXmXmXbXF.F.9.[.W.W.w.f w.f w.F.w.w.0 f f S D.F.F.-X-XXXXX.XXX6XbXbXbXmXbXbXbXmXmXmXLXmXHXHXIXmXHXmXLXmXbXmXHXmXHXHXmXHXLXHXmXHXmXHXLXLXHXmXHXmXvXbXaXaX6X.X^.E.q.q.1.1.9.<.<.w.q < 2 8 Y.JXUXu.gXdXVXZXZXVXAXlXVXvXfXjXkXhXvXwXdXdXlX*X*XoX=XoXoXm.!.-.%./.d.x.AXVXAXDXNXNXDXNXKXNXp.} ' U &.$.$.-.T fXNXjXNXNXNXfXfXfXjXxXxXgXkXCX$X&.4.3.&.2.3.H.2.R 4.i.u.a.3.g.@X~.~.}.U.-.f.a.f.f.y.f.d.+X{.+X&XpXAXyXdXdXjXxXpX%XhX$Xa 6 B B 7 i p p S 9.6X[.6XaX6X6XW.5X6XsX6XsX6XmXsXmXmXsXKXmX",
"mXvXmXmXmXaXsX6XeXrX[.eXsXq.8.q.v.1.F.E.F.1.w.#.#.9.1.w.q.E..XE.!.[.[.W.[.[.^.aXhXeXwXpX6X%XbXxXbXhXvXvXDXmXvXhXvXvXbXbXbXcXcXIXvXIXvXHXvXbXvXvXvXvXCXCXvXlXfXeXfXfXaXwX.XoX].0X0X.X[.^.~.J.U.1XcX>XL.L.*X&XdXyX*XyX&X#X+X=XQ.m.n.d.g.l.t.-.-.t.| r.n.m.m.p.t.p.!.oXoXoX=X*XoXoXoX@X=X*XwXwXwXwX*XoXoX_.m.d.).n.t.p.,.=.d.G ; 4 2 8 7 V 5 3.U.Y.OX/.@X/.}.@X}.}.1X#XoXQ.!.*X@X$X@XwXwX=Xn.t.| -.:.,.%.M !.&X_.=X&X=XyXwXjXhXa.2.P.6.< i B 6 6 3 S F.6XsX6XsXsX6X6X6XsX6X7XsX7X6XsXsXsXmXsXsXmXsXmXsXmXmXmXbXsX.X6X6XW.sXsX9.9.9.q.w.9.q.F.w.f f f f w.f w.q.D.d w.w.D.D.w.D.D.F.-X.XXXbX-X-XbXIXbXbXIXHXLXLXLXbXvXHXIXHXHXHXHXLXHXmXHXLXHXmXmXmXmXLXLXmXmXvXsXaXsXaX6XXXv.v.8.c.q.F.w.a a & ~ 3XJX,X3.3.<XdXVXVXVXZXkXVXlXjXjXjXyXdXyXwXdXkX*X=X=XoX(._.oXm.!.-.f.yXyXfXAXVXZXVXVXVXZXVXDXZXZXwXd.| yXjXyXkX*XkXAXNXNXlXfXdXVXlXjXgXdXjXhXCXdX5.y.4.y.y.a.J.y.a.L.L.d.f.d././.}./.*X*XoXm.,.:.-.-.:.$.M Q.%XQ.oX*X=XwX&XjXdXa.2.P.2.3 i Z i B 3 S F.6XsX6XsXsX6X6X6XsX6X6X7X6X6XrXsXsXmXsXaXsXbX",
"tXtXnXvXmXnXsX6X6X6XW.E.v.W.b.c.W.1.5Xq.v.q./ q.{ q.W.;.9.9.W.<.1.1.8.v.x.s.v.'.rX!.rX^.9.9.F.F.8.9.5.F.XXXX[.XXF.D.-X|.|.-XcXHXIXIXIXvXbXbXbXbXvXvXHXvXvXfXaXaXzXaXwXrXeXwXeXwX.X!.}.}.a.3.+X<X1XI.g.t.oX&X*X&X*X=X@XoXoXQ.m.t.d.i.t.g.x.r.%.} t.p.m.m.n.x.m.m.n.=X#X=XoX&X*X&XdXjXdXhXjXkXdX&X&X1X*X=XoXoX'.(.x.f.f.a.K.z & 8 2 V 8 J S.;XT.H.{.{.+X+X@X&XpX>X*X1XBXZXZXAXVXVXVXVXVXZXZXDXNXkXAXNXfXn.x.jXdXdXwXdXdXkXdX*X&.v l L i i Z B i i F..XXXbX6X6XXX6X6XsXsX6X6X6X6XXXW.F.6X6X6XsXsXsXsXsXmXmXmXmX6X.XF..XF.F.1.F.q.q.q.w.F.1.1.9.o w.r q.F.d w.w.9.f f f f o f f f D..X8..XF.f S w.D.S.S w.D.F.D.F.D.D.F.bX3XbX-XbXHXHXHXLXmXLXmXmXbXHXmXLXHXHXsXbXbXaXrX.XXXW.E.W.W.1.d d 2.< < T.2X;Xu.v b /.1XkXjXkXdXgXfX&XwX#X&XyX*X&XwX*X&XwX=XoX=XoX/.p.d.oX-.p.kXyXNXfXNXlXkXdXNXZXZXVXVXVXZXZXkXkXkXVXyXyXNXZXAXAXjXyXAXlXdXfXkXgXgXdX>XpXd.3.i.u.a.a.K.L.L.L.~.OX&X<X>XdXhXgXjXjXAXAXVXkXyXyXAXwXx.s.dXdXwX&XwXwXdXdX@X$.p v K i i i Z i p F.F..XbX6X6XW.6X6X6X6X6XsX6X6XW.W.F.6X6X6XeXsXsX",
"mXzXmXmXzXzXaX6X.Xq.E.W.W.mXv.c.6Xq.nXsXsXW.] E.[.vX1.q.q.1.<.9.1.1.8.8.q.E.v.[.[.[.).).1.@.1.1.9.1.*.1.9.#.#.#.s #.XXd S Y 5.XX,X,XbX-XaX-XaX,XbXbXbXvXvXxXbXzXfXaXwX%X%XpXwX X.X^.R.J.3.K.,XgX*X}.~.(./.=X&X1X*X=X@X=Xm.d.f.i.g.t.d.t.-.t.t.t.-.} -.t.%.t.g.g.s.t.u.i.d.x.Q.U.~./.@X@X@X+X*X&X&X=X}./.(.{./.Q.d.i.a.3.3.; ; 5 8 V 1 G.;X4XY.Y.+X+X>XdXdX>X+X*X<X>X:XcXCXVXAXAXZXZXVXCXAXyX&XAXfXyXjXkX/.~.dX=X&XAXjXjXwXdXwX~.P L 3 i 6 B i W XXF..X6XsXsXsXsXsX6X6XsX6X6X6X6X6Xq.q.6X6X[.mXsXmXmXLXmXmXbXaX.X.Xq.F.F.F.sX1.+.F.1.mXsXsXF./ F..XmX#.q.q.w.#.r f f f f f w.f F.8.#.F.q.f f S f f f f S S.A a w.f w.-Xf f S D.F.bX,XvXIXbXbXbXbXbXbXIXHXHXvXvXbX%X.XXXF.F.v.9.@.[ f f a - F 4X3X+XK.L././.dX&XgX>XpXgXgX1X=X*X&X*X#X*X*X#XoX_.oXoX=XoX_.oX=XwXc ' VXkXVXNXdXkXkXZXZXVXlXkXZXlXkXdXAXAXAXVXAXNXAXAXAXyXyXdXyXwX&XwX/.Q.*XpX&X>X+X4.a.K.U.K.L.K.U.I.~.I.|.:X&X1XkXVXAXkXxXlXwX*XdXyX&XdXfX!.~.>X=X*XkXjXhX>XwX%XR.P n t i i Z B U -XF.XX6XsXsXsXsXsX6X6XsX6X6X6X6X6Xq.q.6X6XW.zXsX",
"sXvXmXvXsXaXmXmXmXzXtX[.E./ w.6X6XaXmXvX6X9.q.6XW.1.w.#.#.[ d d d [ ' [ d <.1.<.W.].v.8.E.9.1.#.9.v.1.;.1.1.1./ [ 1.#.d S W S D.D.9.D.XXF..XF.8.2.9.8.F.XX.X>XdX X X>X.X X X.X^.^.R.^.L.a.{.,XgX~.=XyXwX#X(.d.d.m.m.{.d.g.$.t.%.-.-.| h m h T i.g.M m m $.t.t.g.g.%.} x.m.} u.x.@X@X{.~./.@X}.(.(.(.(.(.Q.L.U.f.i.u.&.T 3.k 7 2 D V D Y.4XH.T.Y.;X:X:X&X<X>X>X:X$XxXCXBXcXxXgXCXBXgXAXZXZX1X1XkXdX=X!.*XyXoX(.@X&XkXwX@X#XoX#X*Xd.p < Z B F 6 5.-X-X6X6X6X6XsXsXsXsX6X6XsX7XW.F.5X6X5X6X6XW..XaXsXbXmXbXaX6XbXmXmXsX6XF.F.f f 6X6X6XmXbX.Xd 9.6XF.w.d w.w.f f 0 o - f f f w.f w.E..X@.9.9.f S f f D.f f f f d d S f w.f S S w.D.w.S D.F.F.-XF.D.w.D.w.W F.F.F.6XF.8.8.S S f d d d Y @.K 3 D.Y.IXI.:XkXAX@Xp.u.i.a.}.dXQ.'.dXyXyX*XyXqX=XwXoX=X=XoXoXoXwXuXlXdX,.w wXlXzXjXfXlXNXVXfXlXjX&X*X&XwXAXDXFXZXAXZXkXZXDXfXyXZXlXyXfXjXdXpX&XwXfXdX>XpXL.4.a.a.L.K.L.L.U.|.:X:X*X:X$XgXgXgXgXVXCX$X>XdX&X=Xn.=XwX(.Q.+X*XdX%X'.oX!.@XoXf.p 2 Z Z A 6 D.XX-X6X6X6X6XbX6XaXsX6X6X6X7XW.F.5X6X[.6X[.W..X6X",
"w.q..X.XbXmXmXbX,XaXD..X6Xd 9.6X6X[.XX8.9.#.] ;.f f d / w.c 9.;.#./ [ ] ;.1.l.v.v.!.W.,.;.#.d d b #.1.1.1.] [ [ ] ;.1.@.#.#.U U &.U Y 6.D.J.9.#.#.9.5.8.8.E..X XXX.X|..XXXXX^.E.R.R.XX~.K.+X2X1X*X*X/.@X*Xd.!.oXQ.x.t.m.:.l.p.t.=.$.m m M M N N M %.i.$.-.m } m M %.' b P @.x P 7.4.4.7.J.y.4.4.a.a.a.a.a.y.y.&.P P x L 5.I.B 7 D D G.;XT.H.H.U.OXgXkX1XdX<XdXdXgXxXvXCXxXxXhXxXxXlXZXVX/.&XCXlX&X=X0XyXwX*X#X=XpXlXpXwXAXlXjXx.|.R 3 B A V < D.bXbX6X6XW.6X6X6X6X6X6X7X6X6X7XW.5X7XF.F.q.q.{ w.w.q..X.XbXmXbXbXaX-X9.W.6Xf w.6XXXF.F.w.d f r w.0 0 0 0 f f #.#.d o 0 0 f w.f / #.q.F.#.w.w.0 f f f f f s r d r f f r 0 f f S w.b S S #.F.F.w.f f w.f f f w.8.9.d r f / d f d r d d #.U 3 UX;X2XY.OXa.Q.@Xi.Q.@X XQ.b i.jXyXyXwXqXoXyXqXn.oXyXyXyXqXoXyXoXm.*Xx.w Q.vXjXfXjXNXDXDXZXNXjXjXdXdXjXAXZXVXVXVXVXlXlXlXNXNXZXZXZXlXjX*XpXlXVX&X*XpXjX Xi.L.d.L.U.U.I.{. X$X:X:X:X$X>XdXgXCXxX^.%XxXkX*X@X=XyX#X=XoXoXaXjXwXrXkXfXdXf.~.U 6 B Z B < D.bXaX6XW.W.6X6X6X6X6X6X6X6X6XsXW.7X5XW.q.q.q.[ w.",
"9.#.d 9..XXXP.W S w.S .XXX.X.X#.#.#.w.[ d f r 0 f r d [ [ d M.].1.[ ( 1.>.;.0.z.b.c.l.1.#.#.[ [ [ w.[ d [ d [ #.#...;.@.#.8.9.2.6.v #.S 9.*.8.8.1.8.8.v.R.R.E.XX8.6.9.@.&.@.@.&.#.5.P.4.P.OX,X|.I.{.@X%X@XoX&X/./.*X/.m.r.g.r.%.t.t.-.M M h w @ w %.m %.t.} h $ e e x w e w w c x ' =.d.,.i.7.-.T P &.T n N n x q e u Y L 4 = 7 G.H.3X! ! Y.Y.H.I.;X,X}.$X{.$XdXgXdXgXVXCXjXZXZXCXdXCXgXQ.ZXVXAXAXlXAXNXdXlXDXwXfXhXjX>X@X X<XkX<XT.7 F V V < D.3X-X6XF.6X7XsX7X6XsX6XsXsXmXsX6XW.q.q.7XW.W.W.q.9.9.w.9.aX-XF.w.f S S XXXX.X.Xw./ f f f f f o o o f 0 0 r 0 W.6Xw./ o r f o f w.8.8.9.9.[ w.0 f f w.w.f w.f s f f f r f f f f w.#.d [ w.8.9.{ w.f f / f f / 9.9.f f f f d r d [ r Y Y 3 E 4XBX;XY.~.L././.@X@X/.#XdX@XlXVXNXoX=XAXwX*XNXlXAXfXuXNXNXyXNX'.oX&XQ.$.,.*XdXpXyXlXVXkXAXZXVXlXfXdXlXxXZXZXZXjXNXlXkXkXkXlXVXzXdXyXkXfXxXCXjX%XVXdXpX&XU.J.a.a.f.L.(./.{.}.>X<X$XdXdXgX&XjXdXQ.VXAXAXAXyXAXAXwXlXZXwXpXdXpX%X'./.%X<X,XP.i Z V A 6 2.3X-X6XW.6X7XsX7X6X6X6XsXmXsX6X7XF.q.q.5XM.W.W.q.",
"q.8.8.d a a a S f f d d w.#.d f f 0 f f d r 0 0 0 f d d s r 1..X;.1.v.[ [ [ 9.<.8.l.8.1.1.1.[ ] 9.[ r r [ [ #.[ #.] 9.b b 2.J.L.&.K U &.d U Y Y d d d S b v b p q 0 f w s s d d d 2.6.G Q y.I.6.3.a.7.Q.s.u.L.Q./.d./.u.f.m.t.i.m.g.t.t.| | t.t.t.g.=.:.M m  .| _ M } | h m %.t.-.-.=.t.-.-.t.u.-.T -.T T T m n x w w z z I Z 2 UXY.4X4XH.H.T.UXQ T.<X2X<X}.>X$X$XgXgXgXjXdXwXkX@Xf.@XQ.dXKXVXAXVXVXAX>X<X.X~.gX<XpXcX<X<XcXBX{.T.S.~ B V 6 6 A HXmXmXsXmXMXmX7XsXsXsX6X6X6X6XF.W.6Xq.q.Z.7X6XW.F.W.F.w.f f f S f S d w.w.9.f f f f # f r f o # o $ 0 r r 0 1.aX{ q.E.f f w./ q.F.R.q.8.q.9.f f f w.f f w.d f 0 f 0 d f f f f w.[ d 7.q.d 9.w./ o # o f f / [ w.0 o f r d r [ w.d J.I.L H.+X2XY.I.~.(.dX$XQ.@X&X&X$XHXVXjXVXdX*XjXyXyXZXZXNXwXyXoXoX0XlXoXwX'.@XyXp.'.yX*XAXVXkXNXZXVXfX&X*X%XkXZXZXVXwXwX&XkXwX*XfXNXkXdXkXlXdXdXlXgX*XpX&X%X&X>X}.d.L.L.K.Q.U.I.{.+X@X%X X*X*X(.f.(.Q.&XZXvXgXBXVXkX*X,X}.I.>X>X,X,X,X,X<XcXY.T.S.H Z Z V 6 A HXvXbXbXsXsXsXsXsXsXsX7X6X6X6XF.W.5Xq.q.q.7X[.W.",
"8.8.9.d d d d f f d f r f 0 f f s r s d f f f 0 r f s s t f d 5.#.9.a.q f b Y &.Y d Y b Y 9.f f s s d d s d b s d d d d A P.-X2.L Y Y 5.A d p a t q a i a f a p f 0 0 f f w s s Y 2.U U ~ E u.R 4.=.i.a.4.i.u.y.y.4.Q L k n z R R l E -.R UXE u.UXu.Q 3.u.3.u.u.i.u.5.5.5.a.d.u.-.} &.$.&.$.T m n n x v E T -.n x j v R 2.y.Z Z G.4XT.H.UX~ ! W F I ! K.T.{.*X1XdXgXjXxXlXjXhXdXpX*XQ.u.$X}.I.P.H.J.T.Q I A A K Q Y.|.K.Y.T.D.D.D.D.W Z Z V V S IXbXaXaXsXmXsXmXmXmXmXsX7X6X6Xq.7XtXW.Z.W.F.F.+.q.q.9./ / f w.f d f f / r $ f d / f / f / f f f f d d d f f S E.8.8.W.0 f 9.F.aXXXF.8.9.w.q.f w.f f f w.d r w.0 f / r f f F.6Xd f d #..Xw.d w.f f f f / / f d / f f 0 d r s c d 9.D.6.! H.T.1X~.*X&XkXlXwXwX=XdX&X$XL.$X%X*XVXlXAXAXAX&XdX&X&XwX(.(.oXyX#X#X@X*XwXQ.=XdXVXFXFXZXZXZXjXlXdX%XwX&XpX#XdX@X&XfXwX!.*X#X'.*XfXjXkX&XkXgXdX&XdX*X&X>X}.}.7.4.y.a.L.U./.}.$X%X>X>X>X$X%X}.L.u.OXOXI.J.5.D.H.Q I A A K Q I.|.J.Y.K.D.6.D.D.W Z Z Z Z S IXbXsX6XmXMXsXMXmXmXsXsX6X6X6Xq.6XtXb.W.Z.W.q.>.",
"R.1.[ d d f d d d d f 0 0 r r d [ d s p p f t a s x s a a f d U a a 0 - d K A p a a f u d v s w 0 - a a p d d t p K p d K I.D.2.&.U S S p p p a q a a l p s s s d f 0 f 0 e 0 s 4.3.2.G H.T.UXQ I R R &.R u.u.UXu.I.u.g 7 5 7 7 7 4 7 4 7 i 3 3 4 4 4 7 i Z i F J B Z F k k 4 z y t y u l x j x x x u u q p k y y G J F 7 4 5 ~ ;XT.! W F H F J k F G A G I I ! D.H.H.D.D.T.I.P.I.}.OX|.I.v Y Y Y P P Y L l Q R K E G G G K I G J J Z Z D D V 2.bX XrX6XtXsXsXmXmXmXmXnXnXsXMX7X6X6XW.W.W.q.+.1.w.w.f f / f / f f / f f $ # r / / d d d f f f f d [ d s s 0 d 9.d f 0 0 9.q.W.8.9.d f f w.w.#.d r d d d w.S [ f d d d s d W.8.f f d w.[ d S d f 0 o f f / f / / w.0 0 f f f / w.q.F.H.I T.,X:XP.L.}.%X*X!.=X&X@X}.ZX>XQ.,.1XlXCXHXZX>X*XdXdXfXkX=XwXfXoXg.=XoX=XwXg.n.ZXlXZXZXZXlXAXVXAXdXyXlXNXNXyXyX_.#X0X#XwXyXkXNXkXNXkX(.*XfXVXhXjXhX>X:X+X{.$X~.P T R Q Q 2.D.H.D.6.K.P.J.P.{.+X{.L.b Y Y Y K Y Y L l R I L R K G K K I G J A J Z Z Z Z 6.gX.XrX6XrXrXsXmXmXmXmXsXsXMXsX7X6X6XW.W.W.+.+.q.",
"F.9.@.#.@.d d r r r r f 0 0 d d d d d f f q a d s d d p a w a a 0 f t f U L L l i p d a a d a q - q s p Y Y a t d d p p 9.6.a.5.2.4.2.v a p t a a w a i u s s a #.p 0 q e 0 r %.9.5.E H.u.Y.6.y G U R R -.u.u.Q y.a.J g 8 7 4 3 7 k G H k G H G H z k z y i A t k J 4 9 2 8 7 8 2 5 < i 3 : * O = = = = a 4 < 2 i i i g g F 8 ! Y.4XT.T.UXu.~ F F 4 k A p Z A Z 6 X   A J S G G K H T 2.R L U P K Y G l n G R I E I J G G F F F 7 Z Z B D ~ < D.HXxXmXzXsXmXmXmXsXmXmXsXsX7XsXsX6X7X6X7XW.F.q.q.q.+.# f / / f / / f f # f f f w.w.d d d f f d / d [ [ d d f f f 0 0 0 f q.F.8.w.9.9./ f f w.#.[ f w.@.b 9.8.d 0 @.w.d r d f f f f r d d f [ r f f r 0 r r / f / #.d o f / o / 1.F.D.6.Y.Y.;XP.p &.L.!.Q./.&X&X*XdXkXVXjX*XQ.jXKXCXgX$X&X/.d.*XyXwXdX=X(.(._.*XwXyX=X/.VXNXkXjXkXVXKXZXZXAXjXNXkXAXZXZXAXlXNXNXZXVXNXfXNXjX=X%XVXVXjXVXZXhXgX>X X@X@X$X3.L K L J A < & A H L G K I L E Q R L U K K L K z l l I L I L G J G G G J i J F F F H , D.vXhXsXsXsXmXmXsXsXmXmXsXsXtXnXsX6X6X6XW.W.W.F.9.",
"1.@.w.[ #.[ [ d / f 0 r r s d d d S S d d d 9.@.b b b d b Y f q f a a s Y 3.&.&.Q R a a a a t 2.9.5.XX9.P *.U m 8.L.8.J.L.L.L.L.L.s.L.L.*.@.b b x b b d @.' d d ' r 0 d r r 8..Xs.i J.! H Q K.4.L.y.3.a.a.f.d.{.{.K.H.3.Y.3XI.{.;XOX{.OX+XY.;X;X$X+X~.~./.}.~.U.P.OXU.! F 9 9 ; 8 3 ; 2 ; 4 & X ; - & 4 k k v H F ~ ! ! ! ! ~ T.3XJX3X2X3X;X;XH.3.E Q l L L G G 4 * = I A J I I J k 7 k p G i i p l Z k i l z l F k l F i F i i F D B F D D D ~ ,XbXbXbXmXsXMXnXsXsXsXmXmXsXsX7XmXsX6X7XW.7Xq.q.w.f # / / f f / r r $ r / r / d d d w.d f 0 d w.d d d d d s f f 0 f 0 f d w.#.W.sXW.d / d d d w.#.9..X9.d 8.d f [ [ d d r r f r r r r f $ / [ 0 # o o $ f / f 0 / r # / / / F.mXW.f T.6.~ u.Y.L.&X X/.*X%X@X@XkXVXgX&X&XdX*Xd. XpX$X~.@X+X!.x.Q.i.t.m.Q.*X*XwXkX*XwXjXyXpXVXZXjXVXZXVXZXZXAXVXAXKXZXZXjX&XlXlXkX#X@XpXkXwX&X>XdXdXfXvXVXkXkXfXyX&X>X=X~.a.-.T T l > t U L E 2.! Q H k z k L i a k l p i p l k k F l l G k l k p A p Z F J D Z H -XbXaXsXsXsXsXsXsXsXsXnXsXsXsX6XsXsXsX7X7XW.q.q.",
"d [ b b d [ / d d d r d d [ w.Y #.@.Y #.@.#.@.9.8.7.9.4.8.8.&.9.4.*.*.7.7.a.~.|.I.K 0 q a a p 9.2.8.L.@.s.~.L.8.J.L.J.F.2.2.4.9.7.a.7.p.d.i.v.7.7.#.@.8.R.8.] ] W./ # [ [.eXzXvX7.y.Y.6.U.4X5.&XdX~.d.L.U.~.{.=X^.,X$XP.{.$X:X|.I.P.J.y.y.I.|.|.OXU.4.=XHXKXZX}.a.I.K.Y.Y.UXH z 9 ; L a.f.U.+X>X{.a.I.U.K.Y.|.P.D.|.JXJXJX2X4X|.;X;X;XJXJXJX3XP.{.:X2X<XcXgXa.u.U./.+X&X,X<XxXjX1X1X=X/.}.{.~.|.:X&X@XQ.U.}.|.;XOX|.P.I.I.2.3.P.H.6.W ! G.~ T.Y.P.P.cXvXsXsX7X6X5X6X7X6X6XsXsXsXsX7X6X6X5X7XW.q./ / f f f / # f f r f 0 f f d d d d d f f f d d @.d d f d d f f / f f r d / #.E.F.9.0 f [ d d r @.8.[.r 1.W.d d d d d w.f 0 f 0 r f r r r f / 0 f 0 f f f / r / q.# o / 5XsXsXmX#.W Y.W H.Y.Q >XxX(.a.f.i./.@X@X'.*XoX&XdX&X4.v 4.5.~.&X@X*X*X-.-.u.t.=XwXAXkX=XkXAX>X&X X%X~.wXdXdXZXZXZXVXZXZXdX*XyXdXdXkX'.!./.#XlX*X#XkXfX*XpXdXkXCXZXZXAXdXdXlXAXxXAXkX@XQ.(.}.=X1XkXdXdXgX1X*X/.(.(.(.U.{.OX@X{.L.K.I.{.{.|.I.P.P.K.2.3.P.H.2.I ! S.W H.T.H.T.bXsXsXtX6X7X5X5X6X6X6X7XsXsX7X7X6X6X6XW.6X+.",
"r d d d d d r f d [ [ d w.Y #.Y S @.Y @.#.9.9.&.7.9.9.9.4.Y @.#.#.b Y @.&.7.a.5.5.d - - f Y 5.4.4.Q.7.@.R.L.L.#.9.5.2.6.2.9.#.2.6.7.2.1.&.@.*.9.@.d b ,.1.1.@.1.q.f { sXDXmXzXvX@.P.H.! Y.Y.2.U.s.u.Q.f.f.R.^.L.a.d.a.3.6.a.a.5.4.&.3.4.4.~.^.}.L.5.L.:XhXgX~.*.3.U 3.J.;X3X3X;X|.OX1X1XY.P.I.OXI.P.}.Y.P.P.T.K.T.K.I.Y.{.J.H.H.D.H.P.P.K.D.D.H.Y.I.|.|.+XOX:X*X$XgXgXdXgX>XgXcXAXBXHXHXHXLXHXHXcXxXvXxXCXLXgX<XgXI.~.$X$X}.dXxX~.3.P.H.U.G.Y.4XH.A J.bXbXsXmXmXnXmXnXmXsXmXnXnXsXsX7XW.7XW.q./ / f f / / / f f r d d d d d d d d d d f d f d d w.b d d d s s d d f f r w.9.8.#.f d 0 0 f d @.#.#.XX9.d  X[.R.d d Y d w.f f r r / / 0 # 0 # o f 0 0 $ / f / f 9.q.o w.tXLXnXmXmXs H.G.H Y.T.E U.a.-.Q.i.f.@X/././.(.@X@XjXVX#X4.m -.(.U.d.d.Q.i.t.t.{.dX@X&X=X/.&XdXkX*XyX/.c %XVXlXNXNXAXjXyXkXaXwXkXyXkXoX=XyXlXAXkXyXyXAXuXkXlXNXjXlXjXkXdXhXxXhX>X X$XcXgXdXdXkXgXfXgX$X>XhXgXgXxXxXxXHXHXxXcXgXbXgXvXJX,X X>XL.L.}.}.^.>X>XE.3.J.y.T.H.T.4XH.i D.pXrXsXsXsXMXzXmXsXMXnXnXsXsXsX7X5XW.7Xq.w.",
"W.8.] d d d r r f @.b @.[ b d d S d d @.@.d b 6.6.2.&.2.9.d b Y d a d v Y Y x v a 3 t a p H.~.D.a.bX9.#.8.L.F.S &.9.L.8.2.8.6.9.#.@.*.9.9.9.*.@.d c [ ,.@.;.;.1.] [ 6XmXDXrXvXvX9.6.H.I.y.Y.OXL.i.~.a.Q.~.Q.Q.Q.s.a.a.4.7.L.~.L.5.7.7.4.7.p.d.i.&.4.~.:XI.5.2.5.2.L K H.Y.G.G.3X3X;X+XH.H.5.5.6.D.6.! K.J.K.H.J.P.P.J.H.D.D.J.J.J.J.J.J.P.P.~.+X$X|.~.R.~.OX+X,X,X>X>X:X,X>X<XgXcXcXcXbX,XHXJXHXHXgX:X$X}.>X>XdXdXL.L.^. X@XwXpX~.Q. X:XK.UXH.H.H K K 4.aX6XsXsXsXsX7XsXnXmXnXmXsXsXsXsX6XF.f q.W.q./ 0 f f 0 f r d [ d d d f d d d f f [ f d w.#.S f d d w.d d r f s w.@.] d r d f f d S #.#.#.9.aXb d 8.XXF.0 d d 8.#.$ f f f o f f r 0 f f $ o r $ o o / / +.{ { MXLXLX7XmXLXY E ~ H.UXT.OXK.i.L.f./.*X~.*X&XyX*X/.=XkX>XdX(.$.-.i.~.d.Q.f.i.Q.wXdXQ.p.=X@X@XwXdXdX/./.p.e (.DXNXZXAXNXfXfXvXNXAXZXSXyXyXzXNXNXzXNXZXNXNXjXNXdXkXlXVXZXxXjXxXjXgX%X$X&X*X$X>X>X,X>X>X$X:X<XpX>X>X<X,X,XcXcXJXcX,X;X{.~.:X}.>X>XL.L.~.^.}..X$XL.J.|.}.H.6.G.H.I G Y 6.aX6XtXsXsX6X6XsXsXsXsXmXsX6X6XsXW.F.f q.",
"8.8.#.d d d s s d d Y d d d s d r f s d Y d Y Y #.Y d d Y b d d b s b Y [ d Y b Y f Y &.6.8.P.8.P.>X8.s.s.7.9.&.XX^.R.*.#.9.*.7.Y #.@.@.@.@.*.[ [ d %.1.p.`.[.].sXDXmXKXaXsXmXbX2.K 6.H.Y.|.;X3.7.U.u.f.{.@X/.Q.Q.a.Q.U.L.^.@X/.R.a.i.i.7.i.4.i.a.J.s.a.u.a.4.u.R i 1 4XS.J H.3XY.I.;XU.u.u.4.y.5.u.y.y.y.y.K.y.y.J.H.J.J.J.J.J.D.y.J.a.I.|.$XgXhX<X<XgXdX{.*X,X>XcX>XJ.P.|.|.|.{.-X$X|.-X-X;X3X3X-X-X|.~.P.}.>XbX%X$X%X X'.R.!.@X&XxXHX;XH.J G.T.H.I < XXbXsXsXsXsXmXmXsXsXsX6X7XsXsXW.q.w.+.q.9.1.[ f f f f / d d d d d d s f f 0 r d d d b Y b d d d d d d r d f d d d d / d d f f d d Y Y d 9.bX9.9.E.1.d d aX.XE.d o f f r f f f 0 f 0 / f f r r +.q.7XnXFXKXLXLXPXsXmXLXbX#.< ! H.T.OX1XL *.~.4.g./.>XkXdX@X=X/.@XdX@Xi.u.=.%.t.g.g.i.x.=X&X=Xx.x.AXVXZXVXjXjXNXlX^.m u x.ZXAXDXNXVXAXZXKXDXZXAXNXNXDXZXZXzXAXDXZXFXAXVXVXkXjXkXjXxXkXVXxXhX>X>XcXgX*XdX>XdXBX1XL.L.}.|.P.I.|.|.XX|.4X-X;X,X-X|.|.P.P.~.OX>X$X X.X/.^.x.d.~.}.:XcX|.! J u.T.H.K 3 P.bXbXsXsXsXmXmXsXmXsX6X6X6X6XW.q.w.w.q.",
"d d d r s r d d [ Y [ d b d r s f r d [ Y [ b d Y d b b d d @.b s d c c d d [ m v w b 5.6.5.D.6.8.R.R.^.E.8.Y R. X8.s.#.Y @.@.Y @.&.Y [ @.b @.f d [ x.rXeXqX0X.X[.6X-XXXF..XXX8.Y p I H.+X1X|.v *.=.i.u.t.i.L.I.a.a.L.d.~.~.L.L.d.f.i.x.~.d.L.a.a.s.a.i.s.i.3.i.G < V S.S.~ ;X4XI.:X2XkXL.4.4.5.5.y.u.y.y.J.y.K.y.5.J.K.J.J.J.J.J.a.J.y.L.gXcXgX,X-XI.J.J.Y.:XcXHX;X}.:X$XE.J.L.~.|.XXD.6.D.D.5.P.|.^.~.L.~.XX~.:X$X<X&X%X&X%X$Xa.L.OX,X|.S.~ F T.Y.T.H 2..XaX6X6XF.6XF.[.F.F.F.F.F.F.w.w.f F.q.r 0 f f r r f r d [ d d d f r e r 0 d @.@.d d d S S S b d d 9.d r d d d d d d w.w./ r d w.S w.Y #.XXW..XW.8.f E.aX1.1.r 0 f f 0 f d f f f f f o o r v.FXLXLXLXmXmXbXsXF.F.bXF.F.d < D UX;X2X|.a @.R a.=.$.-./.&XdXAX*X#X&X^.^.#XyXm./.!.t.'.*X@X(.(.d.-.=XZXyX=X&XwXyXkX*.c m Q.kXyXjXVXNXjXZXDXVXyXZXFXAXZXZXFXDXZXZXFXAXAXZXVXVXAXkXxXgXVXgXgXgXgX>XR.|.$X>XgXCX|.~.{.~.a.5.s.R.XXXX5.6.5.5.D.P.~.L.L.P.R.L.L.|. X:X X X@X}.^.6.s.{.:X{.! ~ J T.H.T.K 2.|..X.XW.F.W.F.W.F.F.F.F.W.q.9.{ f q.q.",
"[ s 0 r d d d d b S d d p d d f e s d @.@.P b v d b b b Y b #.b d b d d s r b d w a d U 2.2.d 2.2.8.5.8.8.4.*.XXR.*.E.J.7.s.*.@.@.@.@.[ #.' ] 1.c.rXzXwX X.X.X).8.1.1.9.#.[ d d p 3 3.Y.;X2XP.u L.i.s.d.4.i.d.L.L.K.a.K.K.U.~.Q.I././.~.}.L.^.~.J.s.s.a.i.i.y.L.I 4 7 J ~ S.T.T.T.;X+X(.$X~.=.3.4.4.u.H.y.J.H.H.P.P.K.y.5.P.L.d.a.K.K.a.a.P.|.{.8.&.4.=.4.*.&.7.J.6.6.J.J.J.P.I.a.|. X~.6.=.L.&XbXL.^.{.~.^.d.d.s.~.^.&XxXgXcX:X~.:X$X{.Q T.H.5 ^ ~ T.;X|.6.|.R.8.q.q.8.q.W.[.[.[.q.q.9.0 1.E.8.w.0 0 r r d s d d d a f d d f f 0 s s b P b d d d d S S d d 1.S d d f s f r w.#.#.d f f @.w.d [ b #.#.#.9.9.d .X9.+ 9.9.@.9.d f f r r f f $ / { b.mXLXLXmXmXmXsXq.1.w.w.w./ f f - * ! Y.3XJXH.: L.,.p.U.-.M n u.$X*X*X&X+X~.@XkX<XjXNX'.'.@X/.Q.=X@X!.=.:.&XwXlXjXlXjXR.m } g.yXwX*XfXZXlXVXZXZXdXkXVXZXjXVXZXHXVXHXZXxXxXVXlXCXxXgXjXgX>X%X>XdX>X*X@X/./.^.s.{.~.&.6.5.5.5.a.L.a.~.}.L.&.&.J.$X>XJ.R.I.~.L.a.a.a.R.~. XaX$X>X}.s.^.}.~.2.K.H.7 * ~ T.Y.|.2.XX8.8.F.R.q.q.W.[.[.W.F.<.9.f 9.E.<.",
"d f f d d s s f d d f f d d d f f d d [ d d b b b b Y @.@.Y b s @.@.@.$.*.*.$.%.Q.=.u S Q U U 2.U 9.*.9.#.@.7.L.9.*.L.R.E.E.8.*.4.R. X X X%XzXzXvXwX.X.X^..X'.W.[.'. X[.8.[ Y d p i u.H.Y.<XU P 4.4.L.d.Q.~.{.L.a.d.L.I.~.L.I.I.{.}.+X~.L.L.P.L.P.J.s.J.L.R.{.U.3.: = B V B S.T.Y.I.+X&X&XdX$Xa.4.3.4.7.a.y.P.K.H.K.y.I.-X.X~.a.i.a.a.K.}.~.3.&.5.4.4.4.7.4.-.&.T @.@.$.&.6.4.3.&.7.6.&.$.U 7.L.a.a.R.L.~.$X&X X'.(.x.}.R./.~.L. X~.4.6.R Y.UX! , Y.UX;X3XD.p S w.9.#.XX.XXX8.9.b w.9.b w.XXE.#.f 0 0 0 f f f f a d f f a d f f f d d d d s s s p d d #.#.d d f s d f s d s d d b d a s d #.#.d d d d a d 0 #.9.f f 8.F.q..Xv.d 1.W.sXsXbXvXDXKXDXmXnXsXbXvXbXsXsXsXnX6X9.r f s f < ! T.4XJXL j &.$.d.d.x.Q.x.$.i.@XU./.=Xm./.*X=XwXoX(.oX=Xn._._.m.t.!.s.%.VXCXZXjX.X=.c ^.AXdX&XwXlXAXjXVXKXZXVXhXZX%XhXZXvXdXpXhX%X$XhXxXAXwX&XwXjXjXdXdX>X}. X$X$X$X}.R.L.p.@.m ' ' -.&.*.&.&.4.*.&.&.@.4.s.a.5.L.a.P.}.$X^.^.Q.d.^.L.~.E.s.}.~.7.7.&.Y.! ! & I.6.4X;X5.p #.#.9.#.R. XXXF.8.w.w.8.w.#.[.F.#.",
"a 0 d b d u e a a e t t w a y q a p p p d v v s p x v P b K x Y &.R P T P m P $.L.&.p i Z K I p d P Y Y &.@.&.*.*.&.#.9.@.&.*.@.#.@.*.s.d.XXXXD.8.2.9.5.E.L.8.4.4.E.R.s.7.@.@.@.Y L U.H.I.+XR 3.$.&.7.a./.~.R.L.I.~.{.~.~.I.I.L.d.L.I.R.L.~.~.{.~.~.P.XX}.~.d.L.4.* * 6 Z H.S.;Xu.+X1X<XkX<XCXCX*X{.<X<Xa.K.J.J.U.H.U.HXLXHXIX,X@X{.$X,XcX*Xd.y.a.a.y.u.y.5.4.4.=.T } -.,.a.y.4.4.*.=.-.$.R.Q.4.$.7.a.%XhX&XpXpX^.Q.!.d.Q.^.R.{.I.D.4.m u.U.H R D F ; ! -XJ.S Y p a p K A a t a a a t f d S d d f 0 f d f q q q f - 0 - q f q q f a a d a a u y u a a p u a : : e f w f a q q : t f t f a a a 0 0 0 q u a f a d a f f b f Y @.d d d 9.J.XXXXXXD.D.w.w.F.XXF.F.8.9..XXX8.w.0 f w : a T.H.Y.;Xl Y s u T =.=XVXdX&XQ.=XoX(.=X#XwX#XfXAXkXfXfXVXNXNX=Xn.n.n.oX%.c L.%XpXbX^.d.hX$X^.*XfXkXvXDXHXKXKXVXhX%X&.*.$.7.}.hX>X&XlXhXfXkXdXlXVXVXZXZX>X}.$X$X X X}.{.}.~.L.*.P m -.%.=.=.4.4.&.-.=.&.d.R.=.&.=.7. X>X X$X XQ.R.^.L.~.^.~.}.^.d.a.&.a.~.R 3.I G 2 6.-XP.S &.S S d Y S A a p w.a d p Y Y #.b ",
"u u a u u u t i t < < a y 4 : > : 3 3 4 y p y y u l p p l l v L l z T R L L K L y.2.t 6 Z J i y p j v n n v P P @.T Y P P P U m b b b b s f a a a S #.U U @.Y Y Y #.U 4.4.2.&.&.R U P.K.K.y.4.a.4.&.-.3.4.I.L.~.^.~.K.a.a.a.a.d.L.~.~.^.|.~.~.{.~.P.P.L.5.d.a.U.y.= 6 8 H Y.S.UXH.,X:XcXCXCXgXHXHXCXxXBXBXxXcXcXJXLXKXPXPXHXLXLXLXPXLXKXHXBXgX+XL.a.L.J.y.J.L.H.5.4.3.J.7.a.f.i.L.Q.u.=.$XlXpXpX@XQ.hXCX%X}.^.^./. X X XpXgX>X>X}. X~.f.+XI.Q T.Y.J F u.W i p p z a p a a 4 < < < < t 3 : : : y t - 0 f t t q 3 3 - < t : ; ; 9 ; ; = , 3 3 : ; : : 3 t = = = 3 2 = 3 2 > = ; ; < - = * < 0 - X + * - ; < < : 3 3 a t 3 t p a q : 0 - 0 o - < < < < A A A A Z p < S A U S 0 > - < < Y.Y.H.u.Q 5.R l n L E |.xXCXxX/.gXpX*XdXjXZXVXgX&X1XgXhXcX$XlXAXAXNXZX!.q w a 4.5.6.6.J.n {.>X,XxXHXcXBX,X&X,XhX{.a.=.-.dXAXdXkXBXVXCXKXKXHXKXLXLXLXxX X@X~.~.P.{.|.P.P.P.a.4.&.&.4.4.4.u.i.s.d.=.=./.dX#X$X^.L.>XgX}.~.R.~.Q.^. X}.pXpX%X>X}.$XXXL.}.{.6.T.Y.I H J.! K K K G p K K p p 4 y a t a 6 a a a A ",
"p 7 3 3 7 4 7 7 i 6 4 7 4 8 4 8 k g 4 g z z z z z z z l k z z L l z n F z T P &.f.n q 2 F 7 i G 3 l n G T n n L E L L T P L R L Y v x s v j j z n m P n P n v n P L L T R T T L R G K.I.Q Q 3.3.4.R Q -.Q a.L.d.a.a.K.L.R.Q.Q.Q.~.Q.L.J.J.s.L.R.R.J.~.XX~.4.4.u.u.; ; 9 H ! ! Y.K.1XgXOX-X,XvXIXHXBXvXHXBXHXJXLXLXPXPXJXPXPXLXLXHXLXLXLXLXHXJXHXBXgX*X~.L.y.f.u.y.y.4.5.{.~.s.a.~.}.i.i.>XdXlXxXHXvXpXbX&X$X^.d.^.'.'.&X>X>X$X+X>X{.Q.@X>XJ.G E Y.! g ! F G p 7 k 7 4 F k g 4 4 3 4 3 2 4 7 2 2 3 2 ; ; 4 4 7 6 6 6 5 2 2 2 9 2 8 4 2 1 8 ; ; 4 2 ; 3 2 ; ; ; 2 2 2 2 1 2 2 2 8 < < = * * * O * & = ; ; 8 5 3 7 7 7 8 k g 4 i 4 6 - = O - t t : < f = : 3 ; y 3 a 3 3 3 : : = 3 D , T.4XJ J H R R k G l G I H R y.J.5.P.6.5.5.L.5.R I U 2.I U 2.J.~.|.P.2.2.l l G G l G G l k Q u.6.3.6.5.H.Q I E R I 4.5.T.T.D.T.J.D.D.T.T.I.XX|.-X|.-X-X-X}.{.{.I.P.y.3.Q R R Q 2.R 2.K.a.a.7.R.~.4.4.@X%XaXpXxXbX@X:X X}.R.7.L.R. X$X%X%X$X$X>X}.~. X,XJ.K Q {.! F UXG J J l p k i G G J l k k F 7 4 i k 7 4 ",
"7 7 8 7 B 6 5 2 7 7 V 7 7 8 7 2 g k G z G L T L T E L R T R 3.R R ! 3.u.3.R R L.=Xu.- 7 V ~ G F i G L L H L L L R L L E L R T L L L L L T L I T T L P L v L z n P L n L R R L R R L H.Y.R R T R Q R R R Q u.L.U.~.}. X X{.(.~.~.Q.a.L.L.{.~.R.L.R.~.{.R.8.a.i.u.n = 3 5 ~ G.S.u.! 2XcXcXcXgXcXbXxXHXJXHXLXLXJXJXJXJXJXJXJXIXJXLXLXJXHXHXJXLXLXLXKXJXCXVXkX{.~.&X/.u.f.d.^.$X@X>X>X%X@X$X X/.}. X X>XgX>X>X%X XR.!.R.^.d.s.L.a.}.gX$X+X}.$XK.R K.u.; F H J H H H p Z i 7 7 2 2 ; 2 = 5 8 8 2 7 7 3 5 2 8 5 5 2 1 5 V 8 5 8 2 2 2 8 8 7 7 7 8 3 8 3 2 3 8 4 8 5 2 2 8 8 8 5 2 2 2 < 5 , , = * = < 2 2 3 1 2 9 9 2 7 2 2 7 7 7 7 8 5 5 7 2 7 B J F 6 6 3 6 3 7 2 2 < 6 = 2 2 4 2 3 8 1 G.4XF D 3 4 k i i 8 7 7 3 2 2 3 3 2 p G i i G p G G J G 7 3 < 6 < 5 6 < 7 g k 4 5 = 6 6 B i B i Z k k k F p 4 k p Z 3 3 i i F G F F H L I Q ! D.5.H.P.P.I.~.I.I.I.K.K.3.4.K.4.P T 3.J.L.L.{.{.~.~./.~.~.~.~.{..X>X X}.}.~.L.L.d.~.L.J.P.J.}.:X~.}.}.+XP.Q I.D.2 G ~ E I J L Z Z F 7 B 7 7 8 2 3 7 7 6 6 B 7 ",
"3 4 k E E F g 7 7 5 7 B 7 B 7 2 5 6 F L E I L G k k K L I R R E E Q I E H E I y.I.Y ; F ~ J 5 6 7 G L L L L L E L L L U E L L T T T T T L G G L L T L P T l L L L L L T R R Q 3.3.Q u.y.3.Q Q &.&.Q u.! u.UXU.@X&X$X~.R.L.L.P.a.s.~.~.{.}.}..X%X|.~.J.a.s.~.d.u.T 3 2 2 F ! H u.H.cXbXBXHXcXbX,X,XCXIXbXcXCXLXLXJXPXJXLXJXJXIXIXJXHXcXcXvXBXxXCXcXCXHXZXjXCXHXZXxX/.@X&Xa.7.R.}.R.x.s.L.R.i.R.%X~.~.&X X>X>XpX%X&X X~.s.4.a.a.{.{.&XgX$X~.|.I K.;X;XY.Y.Q 7 l U U I I J I E k E R G i 3 i ; 3 3 3 i 7 H ~ F 7 2 5 5 5 B B B V 9 2 6 7 B 7 7 2 2 2 2 8 8 2 2 8 2 2 2 2 8 1 1 5 5 1 5 1 , , , , < , = , 5 1 2 < 6 5 , 2 7 7 8 8 7 7 i 7 i 7 i i 4 6 A V i 4 4 2 4 3 5 3 4 2 7 8 D B D ~ H.H D g F 7 k 7 g F 7 4 4 4 5 ; 3 Z i 6 3 4 4 : 3 2 2 5 6 B 7 6 8 5 8 7 8 1 9 & 1 9 1 ; 2 , 2 & ; ; 3 ; 7 4 D 7 6 4 7 4 6 7 7 Z F g F J n H R R 3.6.5.H.H.J.P.{.~.I.~.+X+X~.a.a.~.*.&.4.L.i.4.4.a.s.4.L.$X~.~.$X}.:X$X$X X%X{.s.4.3.4.3.K.P.}.:X X~.{.K H.Y.;XY.U.! 4 G I R W L G H E l R Q G k 3 i 4 3 2 ",
"I.~.U.@X+XK.H.E 7 6 B 7 B 8 7 1 2 5 7 7 k F k G k k F l k L J E I G L E J k G R &.u 4 F S.F F < 3 k L I L H L L I U L L L v L K L L P L n p L U L I L L L v P L L L l L U 3.! 3.3.2.! ;XOXY.u.3.u.H.u.H.y.U.=X+X~.L.L.P.L.R.R.~.{.}.{.~.|.OX-X~.J.D.I.}.$X@X/.4.Q t , C D H.Y.k ! JXxXcXaXgXxXcXxX,XbXHXHXHXJXLXJXLXJXLXJXJXJXIXbXgXvXJXJXCXHXCXCXHXCXCXHXKXKXCXvXHXCX<XdX}.d.4.=.s.d.d.s.^.Q.^.aXpX%X>X}. X~.d.R.L.s.$X$X&Xa.~.~.{.{.L.{.P.J H.H.T.2X1X3XU.L.U.{.+X$X*X+X:XHXgX:X$XOX{.U.y.a.K.I.~.~.$X$XK.H.E 6 3 7 8 8 8 5 1 9 1 8 8 8 5 1 5 2 5 9 2 9 1 2 2 5 5 1 5 1 1 5 5 1 1 , 1 1 , < * < < , 5 < 2 5 , < 5 1 2 < = 6 = < t 6 3 3 < 3 5 6 6 < 6 2 3 3 5 = < & < < 5 B V B V V 3X3XH.D 7 7 D F F D 7 7 B F F F F F F i 7 6 5 3 2 = < Z B 5 5 < 5 7 D D D 5 & & & ; ; ; & ; 4 2 4 4 8 8 7 7 2 3 i 4 4 4 4 7 k 7 B k F F G G I W ! D.6.J.J.P.I.~.{.{.$X X|.}.:X X{.}.R.a.4.=.s.s.d.L./.(.^.pX>X>X,X X X~.L.~.R.L. X X+X4.L.P.~.{.J.{.J.K H.H.H.3X3X;XU.P.U.{.}.+XOX{.:XCX2X$X+X|.{.K.y.a.a.",
"~.}.@X}.}.,XxXcXG 8 B 5 V V V 5 , i A S K L l L H n K G G G A G G K K v G p j x u = i i ~ S.J A 2 l I K L Y L L U P m 7.p.p.p.7.i.i.i.s.p.s.i.p.7.,.7.*.&.*.4.&.&.4.4.-.7.7.i.L.I.{.{.:X,X>X XT.T.J.J.6.D.P.L.P.J.L.J.P.{.L.L.L.~.L.L.P.P.J.J.J.J.P.|.gX,X;XI.5.E ; 2 8 F Q u.k +XcXkX1XcXbX<XcXcXIXbXcXIXJXPXJXJXHXHXIXxXxXvXIXHXHXLXHXHXHXHXCXHXHXHXLXLXJXLXLXHXHXvXgXpXjXjXdXjXlXlXkXoX%X#X/.jXxXbX>X>X#XQ.@XoX/.#X X X X$X|.}.$X{.~.I.J.F E ! 4XcXOX{.}./.7.Q.{.$X}.|.-X|.K.J.L.I.R.a.L.L.Q.~.}..X$X X<XHXcXG 5 5 1 V 5 V 5 , 6 Z i i p 4 Z Z 6 B 6 V Z 6 Z Z A A B Z A i a A A a i a Z a 6 6 6 < t < a 3 : a y w 7.8.x.v.x.7.p.s.8.s.R.s.q.,.8.8.9.#.2.2.Q Y 3.&.&.$.v l U D.|.|.2XJXJX2XD.6.2.Q p U 2.W J J G i t l i K a.i.d.p.v.,.@.x w b 2.2.6.W a A A 7 2 5 & < < , < < 6 7 < 3 6 2 B 7 2 5 8 8 7 B D 7 7 g 7 k k F l H E E Q }.}.%X%X>X>XgXvXvXHXmXHXvXxXxXaXaXkXlXfXhXlXfXfX#X#X#X/.hXhXgX,X>X%X!.#X'./.#X X X'. XXX}.$X~.~.I.K.G W ! Y.cX+X}.}.^.i.R.}.$X XXX}.-XJ.J.I.~.L.P.L.L.L.",
"Q.Q.Q.Q.Q.}.cXcXR F 5 V V 6 V < i K S K Y K Y P L &.3.&.P v v Y P Y K Y Y b x x v y 4 i ~ ~ H A i a Y Y P P @.*.x.d.x.'.[.'.'.'._.'.'. XR.x.!.'.[.[.x.x.x.~.^.^.E. X.X Xs./.hX&XaXgXpX,X,X}.XX|.^.~.~.XX XR.P.I.P.I.R.I.J.R.I.{.}.}.-X}.|.|.P.P.{.|.{.{.T.5.5.J 7 2 7 7 7 ! T.Y.Y.kXBXCXvXxXgX<XgXcXIXcX2XIXJXLXLXLXJXHXHXcXIXHXHXHXJXHXJXHXHXHXIXHXHXLXLXHXHXCXHXHXHXcXHXvXhXVXZXCXVXjXlXkX@X$XdX$X}.}.{.^.$XfXjXdXwXpX>XgXaXxX>X$X~.f.Q.K.K i H.Y.2X:X>X&X&X~.f.d.s.7.8.a.~.U.Q./.+X@X@X@X(.Q.Q.~.(.Q.~.}.BXcXQ F 5 V C 6 V < 6 S a a S A I K G K K K S A a S A A A A S S a t D.8.a a p A S a a f f a q f s #.!.E.).lXnXzXzXzXzXzXzXmXaXeXrXzXzXzX.X[. X.XbX,X.XbXvXhXs.<.ZXlXKXLXLXLXJX3X,XbX>X>X$X%XgX|.E.|.|.~.E.L.pXdXzXZXDXDXzXSXzXuXiX9X9XuXtXqXq...v.uXM.v.b 0 f < V , 6 6 5 Z 6 6 7 5 6 6 2 B 7 2 7 i 4 7 4 7 k F F H E ! E H.HXgXdXlXjXvXvXvXcXvXvXxXvXxXxXgXhXhXpXhXxXzXhXpXhXdX X$XpX:X X|.^.XX$XdXjXaXwX>X%XpX,XgX>X}.^.f.Q.L.L p H.{.3X$X%X$X&X^.L.d.L.J.a.a.U.Q.Q././.@X/./.^.Q.",
"oX@X@X'. X@X:XI.I ! F 8 Z Z < t K f d P 9.*.9.b @.Y P m Y b b d b Y ' *.$.s x x u y i F H.H.S.6.2.f d P 4.8.s.[.W.!.[.E.(.).'.[.[.!.!.R.a.x.[.!.!.x.v.x.x.s.E.s.L.^.XXs.#. X%X#XpX.X|..XXX2.#.L.~.E.[.%X.XJ.P.P.L.P.XX}.}.}.|.|.|.|.}.;X}.|.T.P.I.T.U.T.H.5.F 4 8 8 V V 1 UXT.4XY.cXJXCXHXcX,X2XxXHXJXJXLXLXJXJXJXJXJXHXHXJXHXIXcXJXIX3XIXLXLXJXHXIXcXcXJXHXHXHXIXxXcXvXHXKXKXZXjXlXVXjXCXxX&X}.%X|.~.L.L.~.{.}.~. X>X:X:X,X~..X>X$X}.~.L.Q.U.t 6.;X,X+X{.$X>X@XU.(.(./.>X*X@X@X/.&X=X'./.=X/.oX=X=X@X@X%X$X,X{.L ! Z 5 B Z = t S f d @.#.9.*.d Y d S A A a p a d d S 8.9.a #.w.#..X8.d f d a f f f f f #.1.q.6X6X5XtXeXrXtXtXnXuXiXiXtXiX6X7X6X].`.b.W.W.E..Xq.^.aXaXE.r W.aXsXsX,XXXaXXXS f F..XXXaXvXaXr #..XrX.XaXsXwX.XrXzXaX5X`.rXuXsXzXSXzXuXzXnXtXmXDXzXvXlX%Xt - : a a a S p a p A a p A i p i i p i p i l i 4 7 F Z J J ~ 6.T.;XpXpXbXaXbXaX,XvXvXhXxXpXgXaXhXxXvXvXvXdXhXdXhXlXhX%X/..X}.^.R.I.R.^.}.^.|.>X$X$X$X^..X>X X^.~.L.Q.I.a 6.;X3X+X{.$X&X+XR.(.^. X&X*X*X/.}.=X@X/.(.@X(./.",
"/.@X@X$X X$X:X:Xk T.! 5 V a : n d 7.1.E.W.E.!.v.p.*.@.P b b @.7.*.v.!.c.1.c x x u y p ! Y.H.~ H.6.t p Y 7.8.8.7.8.s.L.x.x.L.E.R.R.a.7.5.6.y.E.x.x.p.7.,.7.*.$.9.8.L.s.*.s.L.5.8.D.8.2.@.d &.9.2.6.8.D.L.8.H.J.P.|.P.Y.I.|.Y.Y.XXXXXXI.Y.T.J.J.H.6.D.6.! I H 7 D V 5 5 D 8 S.G.H.H.|.,X1X,X,XcXcXIXcXJXJXLXJXLXLXJXLXIXbX3X3X,X;X|.-X|.-XIXbX,X,X,XxXcXbXIXbXIXIXbXvXHXHXCXVXCXCXKXKXVXCXlXdXkXdXQ.Q.~.L.L.a.a.~.~.{.&X%X$X8.~.L.~. X}.~.d./.$Xl < T.<XOX+X}.*X*X&XwXpXhXaX&X$X@X*X/./.@X/.@X/.$X'.@X#X&X@X>X<X,XZ Y.S.5 7 i < Y d 8.8.W.[.[.[.E.R.9.#.w.f d #.R.8..XsXrXW.p w.6X[.6X[.q.w.f w.9.f f d / v.W.W.W.v.[.6XrX7X6XsXtXrXtX6XiXrXtXtX6X5X[.M.M.W.<.1.<.[..X[.q.6XrX]..X[.E.1.d f w.8.S 9.q.F.F.1.f ;.wX].eXaXpXrXrXaXzXsX6XeXsXaXeX.XrXsXzXZXlXzXzXsXbXbX%XXXf 0 s s f f d d b d d d Y d S p S S Y v p v K l ; 3 F Z B k F I D.D.P.^.XX^.&XpX,XaXaXaX,XaX,XbXpXaXpXdXkXvXvXjXlXdXwXpXwX~.Q.^.d.L.s.a.~.~.^.%X.X.XJ.~.R.R..X}.^.J./.@XK 3 P.1XOX/.}.$X$X&XpX&XhXpX$X@X*X#X/././.^./.^.*X",
"}./.^.~.U.}..X{.k H.H.D 7 * 4.xX XrX.Xv.c.W.W.(.#X^.!.,.%.%.1.p.1.%.,.8.1.M r x j v K I I G F E F i G U &.*.*.8.7.=.7.a.a.J.a.3.I H F J Z J 3.s.a.s.7.a.4.=.7.s.L.7.&.9.8.R.s.5.6.@.4.4.$.7.=.#.Y d K d H H I ! 6.! ! W H F H ~ ~ H J A J A Z Z Z 7 Z B 5 V F F D D V D D ~ T.T.5.3X<XcXcX2XcXJXJXJXLXJXJXLXJXJXLXIX-X-XOX{.Y.I.|.1XcXHXcX:X|.,XgXxXgX,X|.|.|.,XIXHXIXHXHXHXxXxXvXCXCXCXHXKXHXZXgX%XgX>XgX>X&X>X$X{.}.>X$X~.$XQ.J.~.~.~.^.}.%XR G ! {.Y.~.$X/./.=X@X@X&X/.oX#X@X/.Q.Q.}.*X$X}. X X}./.^.Q. X>X|.p H.G.D 7 = 4.vX.XaX6Xv.W.W.W.6XvXfXaXc.8.1.v.W.q.q.E..X6X8.1.^.[.W.6X6X`.>.v.].#./ c.6XW.W.c.5XW.W.6X6XsXsXrX6X6XsXtX0XrXtXsXtX7XiX6X9XW.M.].qXeX].E.v.6XrXrX[.v.q.M.).0.b.z.>.[ f f s d r q.6XW.[.).rXsXaXsXsXrX[.^.[.^.c.W..XvXzXsXaXaX6XsXbXsX8.0 f f f w c d d @.b d S Y Y S #.S S Y @.b E.8.b Y - 3 i i 4 F J ! :XJ.*.*.L..XwX.X.XXX^..XE..X-X%X,X:X X.X%X&XlXdXdXZXHXCXvXgX&XbX>XgX>X&X*X$X~.}.$X.X~..X~.J.L.~.R.^. X$X&.K ! {.Y.{.}.}.^.@X+X@X%X}.'.=X X/.R.Q.^. X X^.{.",
"@XQ.f.f./.&X}.J.i E H H.H.J.pXvXwXv.c.c.v.[.[.0X[.).c.p.:.p.p.c.v.1.@.' %.m n v u y l G L J L i 7 i l A G I 2.4.6.6.2.&.Q Q G J F D J J J J Q 5.a.s.5.7.5.a.a.J.y.5.a.7.J.J.4.7.5.7.i.&.3.&.*.6.-.P n L F J J G Z Z H ~ J J H A J B F B V A Z B B 7 F F F F J J J F D B D 8 T.T.I J.P.a.Y.XXP.T.3XIX-X-X-X|.4X-X2X4XT.2XJXcXcXHXHXHXHXxXgX:X+XbXCXbX>X,XbX<XgXgXbXcXbXgXgXvXcXgXcXhXvXKXvXpX>X$X}.}.{.CXCXCXcX}.$X>X,X~.$XVXgX*X X!.x.Q./.~.{.G 3 ! :X{.~.U.{.}.$X&XdX~.d.*X=X/.(.*X'.{.@Xx.^./.*XR.f.d.+X1X}.K.7 ! ~ H.H.P.hXCXpXc.W.W.W.].rXzXaXlXfX[.q.W.).eX6X^.8.1.E.c.v.XX[..X6X6XrXtXqXrX5X5X5X[.5XW.5X6X5X7X5X6XsXtX6X6XrX7XtXuXsX6X6X5X6X6X].[.`.].].rX].].6X6XsXrX[.c.).].].W.c.v.W.).v.{ [ ] #.r W.sXaX].<.q.[.[.E.[..XF.W.XX.XE..XrXaX^.XX XXXpX.X XR.f 0 d i.;.%..X#X%XaX[.1.d d d @.@.d Y b b #XhX8.b x u l k F J E Q y.{.J.s.7.v.^.%X.X#XpXpX X}.XXXXE.~.XX,X.X^.}.bXbXZXhX.X%X X}.^./.xXvXxXgX|. X-X$X~.+XjX1X@X XQ.x.~./.~.~.L a 6.;X~.R.~.}./.*X*XwXQ.s.*XoX/.!.@X/.(.@Xf.Q.(.",
"@X/.%X=X=X/.1X:X; ! ~ H.T.$XcXbXq.q..XrX.X]..XW.].d.<.@.*.,.x.c.x.R.,.m v j l p p i l G J J i 2 F i 7 F g J F F I ~ F i 7 H F ~ J J F J ~ J H 2.8.D.D.8.a.J.R.P.P.J.D.5.a.D.5.5.7.5.6.&.&.&.*.4.a.4.4.U J J H J F J H J J J J F J H J B 5 H Z F F Z F F 7 F B D g D F D 8 H.T.E I.K.3.4.4.5.5.5.D.D.D.D.I.P.I.{.J.J.,XCXcXcXcXcXCXkXcXHXHXHXLXHX-X,XgXhX:X:XxXgX,X|.$X$XpXCXaXgX>X>X>XR.L.~.s.a.~.~.^.s.i.L. X|.5.:X$X}.{.$X<X&XdX&X@X$X&XxX:Xp * J.|.|.pXgXpX*XdXdX*X^.pX&X@X&XwXwX*X@X^.@X>X&X@X/.&X*X&X@XAX1X; ! ! H.Y.,XHXhXE.v.6XsX6XpXrX6XaX6X.X1.q.q.sXsXsXsXW.v.v.v.W..XW..X.X.XrXaX6X[.6XW.W.5X6X5X5X5Xc.5X6X7XrX7XeXtX6X5XsXsXtX5X5X6X6X[.5X].6X0XvXzXsXrX6X6X.X.X.XW..X).W.1.q.v.F.).5XW.c.p.8.c.6XzXzXsXzX0Xq.W.F.E.q.E.XX8.q.q.^.E.v.q.].%X6X Xd f f d $ [ oXeXeXeXeX].0XrXrX.Xv.q.[ d [ | <..XlXR.).,.@.Y p i F G I E d.>X X.XwX^.R..X'.%X.X.XaX~.^.E.L.R.XX%X}. X X%X XR.8.L.a.J.R.E.^.a.7.P. X{.7.:X|.{.~.$X<X$X>X%X@X$X&XxX:XS = H.|.}.>XpX%X@X&X1X@X~.&X*X'.&XdX&X*X X~. X&X%X",
"~.+X@X@X/.+XkXY.4 E ! Y.T.cXhX.X}..X]..X.X[.E.E.8.9.Y #.8.<.s.L.=.Y G 7 3 3 i 3 i i Z 7 Z 4 J ! T.! F Z F F F H H.H.S.W G F F H J D F F H F J J 5.5.8.4.2.J.5.5.4.5.6.8.5.s.R.D.5.5.4.5.s.J.L.L.a.J.a.W D H J J F J J F B F F F Z F V Z F F J ~ ! W Q UXUX! Q ~ ! H.UX~ ! H.H.U.OXxXgX@XR.i.Q.|.XXP.T.IXZXKXHXKXVXgXcXgXcXCXCXvXBXBXvXIXvXHXIXgXcXgXgX,X%X>XcXxXBXCXxXCXHXjXxXxXjXxXlXdX%XpXpXAXkXdXjX%X@X+XgX>XgX$X|.>X}.$X@X$XgXgX>XgXcXCX~.=   D.2XgXgX@X#XfXjX@X(.dXgX=XkXkX&X>XkX@X$X>X>X%X^.*X*X@X=X$XBXOX4 ! H.4XY.vXHXaX.XrXrXrX6X6XW.XXF.F.8.q.rXrXuXsX[.1.q.XXE.XXpX6XF.9.9.q.1.1.q.[.6X6X6X6XW.5XqXsXsXmXmXsXrXsXsXsXsXeXaX6X[.[.[.6X6X[.W.W.q.6X6X6X.X[.E.[.5X6XrX6X).!.W.[.rXrXtXtXrX9X8XqXuXzXlXmXzXzXzXsX[.8.#./ 1.1.w.1.9.q.XX2.9.L.E.E.W.8.0 r d d [ R..X#XpXaXrXaXaX#X0XaXzXzXoX0X].rXeXaX].'.[.8.[ t : l G J E ! OXxXaXwX%X%XaX^.^. X X}.~.W.%X>X%X%X#X/. X%XpX%XwX%X/..X#XhXdX>XdX@X}./.<X X,X}.R..X}.$X}.}.gXdXgXgXcXxX~.<   D.<XgX>X X XpXfX/.(.wXdX*XdXdX&X&XgX@X X>X%X$X",
"Q./.>X*X{.+X<X! 5 ~ H.T.Y.bXbXaXaXaX6X[..X.X6X.XE.9.#.%.7.s.x.7.$.n p u y j b &.&.&.9.U Y 2.-X,X|.I.H.K.J.J.J.|.|.OXY.;XY.T.H.! ! Q E L G L E 3.5.8.7.4.5.R.8.7.7.8.4.a.s.4.8.7.a.D.s.J.J.J.P.P.I.J.3.H J J H H J H E L H R H.D.! 6.OX|.U.Y.;X3X;X2X2X2X2X3X3X2XcX3X;X4XY.Y.Y.;X|.,X:XjXjXgXcXCXCXgXIXLXJXJXLXJXJXLXJXHXHXcX,XgXBXHXHXxXxXxXcXcXHXHXZXHXcXpXgX<XxXHXHXJXHXCXCXHXcXHXCXvXCXvXCXVXZXKXZXZXLXZXVXkXpX}.*X>X>XxXxX$X|.:XbX<X,X~.P.- . T.3X>X}.:XxX>X}.U.>X&X$XpXdX@X&XxX>X*XhXpX$X/.~.@XdX&X&XdXHX! 7 ! H.4X;XJXvXbXbXsXaXrX6XaXsX6X[.W.W.[.6XeXsXpX[.[.b.q.W.[..X8.w.W.E.q.W.W.6X9X7X6X6XeXrXsXvXmXnXmXmXmXsXsXsX6X6X6XsX6XaX6X5X[.q.q.1.9.W.6XW.q.q.z.[.6X6X[.[.c.W.6X6X6X6XrXbXvXsXeXrXrX5X.X.XXXaXbXsX6X%X.Xq.8.8.;.<.[.E.r w.r f r w.w.d S S w.&.[ *.[.E..X X.X%XaX.X.XpXrXpXaXzXfXzXzXsXyXtX[.[.].c.s > G F F ! y.gXpX}. X.XbXvXvXgX.X,XE.R.J.R.|..X:X.X.X}.%X%X>XpX&XpXpXhXjXCXVXZXVXHXjXjXpX$X/.@X$X$XxXhX X~.$XbX,X-XXXP.= . T.,X:X~.$XhX>X}.L.*X$X@XpXdX}.$XhX&X$XgX>X X~.",
"@XdX>X&X@X$X:XG 6 H S.H -X<X%X>XaXaX,XpX6XaXpX0X0X].!.v.[.].[.^.[./.x.d.Q.@X^.q.,.*.s.R.XXR. XE.L.~..X[.XXR.XX}..X.X X:X,XaXbX.X~.XX}.R.F.E.~.*.d 8.1.1.F.v.8.R.E.!.[.^.!..X[.E.8.,.1.8.E.[.XXx.v.L.J.4.2.3.u.u.&.@.T $.&.&.5.~.}.J.P.a.6.E.D.J.T.+X,X,X;XT.I.H.T.|.-X3X;X4XT.Y.OXgXgXcXCXVXHXHXHXLXLXJXLXLXJXPXLXJXJXLXCXHXHXHXCXxXcXHXHXIXHXcXcXcXHXHXHXIXgX,X>XgXcX<X;X|.I.XXY.|.-X<XcXHXHXHXJXKXHXJXHXZXCXCXCXjXgXkXgXdX>X$X>XxXgX<X,X$XI.- . -X,X;X,XpX&X>Xa.U.hXpXdXkXwXdXjXdX*XdX<X*X>X$X*XdXdXdXwX<XcXG V ~ T.~ 3XHXbXaXbXsXhXbXsXvXsXeXeXtX6X`.rX6XaX6XsXvXtX6Xb.q.{ { M.b.`.6X7XsXsXtX6XaXaX6XrXsXbXsXsXbXzXsXsXsX6X6XF.5X[.[.F.q.W.q.q.q.q.W.q.1.q.v.W.).8X9X5X6X6X6Xq.1.q.W.6XaXsX6XE.].W.q.9.1.8.F.q.w.w.8.E.[.W.W.1.1.q.q./ w./ / [ / / / w./ / [ [ d v.E.c..X^.!.E..X.X.X.XrXvXzXzXzXlXbXzXNXvXzXzXzX#Xs l H E W H.;XcX>XL..X X X X.X,XpX.X.XE.J.P.E.XXP.P.5.D.D.D.P.P.}.%XcXcXHXHXZXxXCXHXvXxXgXjXdXdX>XdX>X$X X,XgX>X>XpX$X~.*   |.:X-X$X>X$X:X5.I.gX&XdXdX&XdXkXdX*XdX>X*X&X@X",
">XdX>X X X$X{.G A H.T.I xXbX#XhXbXaXbXbXvXvXvXsXaXrXE.E.q.<.q.v.v.1.[ [ #.` / / / [ / [ ] ] ` %.q.q.1.1.<.q.<.q.q.8.q.1.1.#.[ [ r [ [ [ [ [ / ] ;.0.<.q.v.0.<.l.<.<.l.1.q.h.>.;.1.<.q.8.v.W.8.;.#.[ c r [ h _ [ h h ( h [ [ h [ [ s r d [ r c c s d s d [ s w s b &.P.|.! 6.H.Y.+XJXvXcXCXHXHXHXJXJXLXLXJXPXPXJXJXJXJXJXJXJXHXHXLXHXHXHXcXcXbXcXcXcXcXgXcXcXIXJXHX,X|.I.I.P.I. XOX}.|.:X$X<XvXcXxXHXLXJXJXJXCXJXJXHXCXxXxXxX<X1XgX>X*X>X>X X$XO . {.3X|.~.5.2.p R $X>XjXAXdXdXjXlXdXgXjX&XdXpX XdXxXpX>X1X&X+Xl 7 D.T.S HXbX6XvXvXbXbXbXvXvXvXvXvXvXsXrX.X6XrXaXsXrXrXsXsXsXsXzXzXrXtXtXrX5X6X6XtX6X6XW.6X6X6X6X6X6XsXsXsXaX[.W.5X6X[.q.q.q.q.q.v.0.q.q.z.c.W.W.[.[..X[.5X[.v.q.q.[..X[.sXsX6Xv.9.1.F.E.[.5X6X[.c.q.1.W.W.q.v.l.q.v.q.[ 0 q.W.1.v.W.q.] / r r r ] <.].v.].'.#X[.[..X.XaXaXlXzXhXvXvXvXvXvXvXvXbXaXvXR.Y Q ! ! UX<X2X:X(.^..X^.[..X.XE.XX|.}..X XXXL.5.4.6.4.5.L.L.L.L.XX~.>XcXgXbXvXHXCXIXvXcXcXHXvXgXgXgXgX>X>XpX,X@X:X$X/. X+ . |.3X|.I.5.2.u &.+X&XkXjXdXwXhXjX&XdXjX>XpX&X X",
"dX>X@X}.$X@X,X3.Q |.6.I.xX[.].].6X6X.XaXaXaX.X[.[.W.<.{ ] ( ( ( / / [ ) ( ) ) ) ( ( ) ` | 0.z.c.z.0.0.b.l.l.>.0.j.v.h.l.l.>.{ ( ( / / ( ( ` ) { { ) [ ..0.h.;.<.>.<.l.<.1.1.0.l.l.0.l.h.<.<.>.` ( / ( [ ( ( ) ) ) o.) ) ( ) ) ( ( ( ( h ( ( ) o._ [ [ ) [ ` `  .;.' 7.~.Q S.T.Y.OX2XgXxXgXcXIXHXHXJXLXJXJXJXLXJXJXIXJXHXHXIXHXxX,XgXxX>XgX<X:XgX,X<X<X,XaXcXxXvXcXbXgX,X,X&X$X%XpXdX@X X~.a.}.$XOX<XbXcXbX,X<XcXcXcXcXcXcXxXgXgXxXcXxX,XL.gXgXq * T.H.6.Y 2.L P.:X|.>XdXjXhXxXjXpX>XhX>X>XhX>XpXjXdX%X&XpX&XOXH Z T.I D.vXXX.XwXrXrX.XaXbXaXbX6X6XbXaX.X.X.X.X.XrXaXsXvXzXzXmXsXsXaXsXeXsXaXrXtXtX6X6XrXsX6XW..XeXaXaX6X6X6X6X6XrX6X[.[.6Xb.W.W.W.5XW.b.W.5Xc.c.c.).6X[.W.W.6X6X6X.X6X6XW.XXW.9.F.W.W.W.6X6XW.[.[.6X6XF.<.] W.q.c.6X[.W.c.v.W.5X6X[.b.z.0.1.r ] W.W.n.6X8.x..X[. XwXfXlXvXvXzXbXxXvXZXvXHXDXHX^.aX.X4.&.U ! ! T.3X1X~.{.^.^.R.^.d.^.^.^.XX~.~.XX~.XX~.R.R.R.v.m./.#X!.R.L.s.}.}.|.:X,XgXpX-X:XgX2XgX,X<XcXgXpX>XgXgXgX$XL.>X>X: O T.y.2.K 2.Y P.$X{.&X>XgXfXxXhXdX>XhX>X%XdX$X&X",
"gXpX>X,XgX:X1XQ G J.Q .XE.].6XqX5Xv.W.6X[.E.1.1.q.1.) ) ( ) ) ) ) ) o.) ) ) ) ) ( ) o...>.v.l.h.0.v.q.j.0.;.0.l.h.<.l.h.q.0.1...( ` ) ) [ ) ` ) / / / / o.;.>.<.>.<.0.<.0.v.v.<.0.W.v.l.<.| _ ( ) _ _ ` _ _ ) _ ` _ ( _ _ _ _ _ h h ( [ _ _ ) h _ _ _ ( (  . . ._ c c w a H S.2.;X1X<X:X:X-XbXcXJXLXJXIXJXPXJXIXcXIXIXcXIXcXgX|.:X<X,XgX,X%XgX<X,XaXvXCXxXHXHXbXhXcX$XdXvXjXvXDXVXVXlXjXkX*X^.d.~.>X}.~.|.<XcXcX,X|.$X+X,X*X,X:X$X:X$X}.,X>XgX3   Q Q Y G y.:X{.Y 3.,XxXcXbXxXIX<XcXgX<XvXxXgXxXxXgXxXxXjX1XcXE Z H.W ,XXX.XrXtX6XE.W.5XXXF.q.q.E.W..XXX.X.X-X,XhXvXHXvXbXbX6XaXaX6X6X6X].aXeXrXrXsXrXrX6Xc.6XrX6X6X6XaXrX.XXX.X.XXX8. X.X6X[.6X6X5X[.W.W.W.[.).v.W.E.c.6XsXsXXX[.bXsX6X[.F.9.q.6X6X.X].[.W.W..X[.W.F.1.q.E.q.8.c.W.W.6X[.`.W.c.v.q.q.l.1.<.;.<.<.<.v.1.9.^.^. XpXaXaXwXaX%XbXhXHXHXvXvXvXZX[.s. X'.8.&.2.I ! Y.;X,X$X{.x.7.c.R.x.x.}.}.E.^. XR.^.^.L.E.^.^.@X*XaXwX&X&XpX*X^.d.I. X^.L.{.:X,X,X-X~.}.|.$X$X:X:X}.$X}.|.:X>X,Xt X Q Q Y l 4.$X~.Y 3.,XxXcX<XcXIX,XcXgX,XBXgX>XgX",
";X,X;X-X;X,XI.L I 5.~.s.7.W.c.`.W.[.rXW.`.).6X6Xv.v./ h ` ( ) ( ( ) ` ) ) ) ) ( ) ` t.c.W.v.r.<.q.0.>.<.0.<.0.0.q.0.l.q.] r d r / [ ) ) [ ) _ ) ` ) [ ( ) ` ..;.q.0.>.<.l.v.v.l.s.v.<.] ` ) ) ) ) )  ._ ) ` `  .` ` [ ( ) ) ) ( ` ( ( `  ...t.t.r.r.>...h.j.V. .) M c s q X = D.CXHXvXpX XgX<XgXIX|.~.,XIX-X4X4X,XcX,X,X,XpX<X>XdXxXjX,XdXhXlX>XhXhXaXHXLXvXCXCXcX X:XvXgXvXLXHXKXLXLXHXZXZXHXZXHXkXgXgXjXgX1XgXgXxXgX1X>X1X~.|.+X,X1X<XgXbX5.X X I R L P 4.R K L T.|.D.T.H.D.D.D.T.XXT.T.J.T.|.,X,X2X,X:X3XY.7 F ! -XJ.*.v.v.E.v.W.rX].6XW.aXrXW.6X[.W.6X%XF.F..XbXCXvXmXIXsXbXaXbXbXIXvXbX.X.X.X.X[..XW.[.W.^.6X.X6X6X1.f d f f S f S 8.F.9.F.[.XXF.q.[.b.z.W.[.b.b.].6XaXaX.X.XaXXXF.E.E.8.E.E.F.W.XX[..XW.E.q.9.9.q.8.q.1.1.q.v.q.E.W.W.W.v.W.[.z.q.z.v.0.z.M.).v.c.[.8.x.}.%X%X%X.X XhXbXZXvX.X%XaXhXhXx.8.aX.X#.4.J.H.{.OX;XcX,X8.d.x.c.x.x.!.v. X.X}.^. X^.8.d. X^.%XpXbXjXxXvXxXxXlXCXlXCX>X>XbX>XpX%X>X<XpX>X>X:X>X~.{.}.:X,X1X<X>X5.X ^ K W K P 4.R K I P.~.D.P.D.D.D.D.T.XXT.T.J.T.{.",
"Z V 6 Z A J J J H.|.y.4.,.@.*.#.@.*.<.<.p.r.<.,.@.] ) ( h ( [ ( ) ( ) ) ( h ( ) ) <.p.1.9.] 1.1.1.l.8.<.v.v.v.v.v.v.q.1./ r r r r r [ ` ` _ ` ` ( ( ( ( [ ( ` ` | ;.| ;.1.%.] %.] h h ( [ ( [ [ _ _ ` _ ) ` ) ) ` [ ( ) h ) ) % ) ) ( ( ) | ;.h.l.j.l.>.>..._ ....[ [ / e < Z Y.<XHXHXvXvXHXcXbX,X:XgXxXHXbX3XbXdX X+X>X$XxXgXbXcXcXbXpX X$XcXxXcXcXxXJXcX,XxXIXHXIXcXcXcX3XXXT.|.-X-X.X,X.X,XcXxXgX-XbXIXcX$XOX:XcX,X<XgX<XgX$X{. X~.J.D.5.6     < 2 3 : y t 3 i & 3 Z 7 V Z Z B 6 B B V V V Z B Z 6 Z Z 6 3 2 G.Y.Q I Y u b x d @.*.*.1.*.1.9.@.9.#.w.S S f f S S D.D.F.-X,X,X.XbX-XF.F.D.XXE.XX.X.X.XaXaXsXsXaXaX%XXXd f f f f 0 r [ d d F.F.1.8.[.,XsX6X.X].6X[.).].6X^.F.E.E.#.S a a 9.XXXXE..X.X.X.XXXv.F.8.F.XX^.E.E.E.R.R.v.q.8.x.^.W.[.E.c.W.v.W.v.v.c.W.v.c.v.1.*.7.~..XpXaXwXaXaXlXbX XE.bXvXvXhXR.'.fXE.@.*.5.OX;X,X<X2X~.J.8.7.R.!.R.R.XX X}.L.XX~.}..XXX}.}.XXP.XX|..XXXXX|.|.$XbXgX,X}.,XcX,X|.|.}.gX:X,X>X>XgX$X{.}.R.J.D.6.a     < 2 3 4 y y 3 i = 6 F i 6 B Z Z 5 A B 6 B Z Z ",
"i 6 B B Z i i J W ! E K l K n K u P b m @.m m [ @.;.` # h h [ [ d h c r ( ( r / [ d d r d r s d [ s [ @.*.1.8.1.;.#.d r r r r _ / / ( ( ( ( _ _ ` ( ( / ( ) / [ [ h _ c h h h r r r r r r h r c h M _ c [ _ h h ( h h ( h h ( # % # ( h [ [ ] ..] `  .` ..| _ _ _ h h h e t ~ W A 2.<XcXbXxXcX,XD.,XHXHXxXIXIXbXCXHXCXcXCXhX$X~..X:XP.L.|.XX~.|.-X:X,XT.T.T.P.D.|.,XP.P.|.2.W U U U 2.5.H.J.T.J.H.|.-X3X3X,X,X|.|.}.-X,X<X:X|.6.5.P.;X|.W S < . ^ , * * 2 4 8 4 8 9 7 7 i i 7 7 6 7 7 B 7 Z Z Z B < B Z 6 2 6 V F ! G 4 3 y i l t p t w u q w t u a d w.d a d A f f f f S S S S w.W A f a a f S w.S U 5.E.XX|.XXL.8.w.d d r r 1.#.r d ] [ d d d d S 9.9.8.9.9.5.E.XX.XL.d d d d d d f d p a S 8.E.6.D.F.6.9.5.5.9.D.XXP.XXXX.X|.|..X.X|.J.P.XXE.L.R.s.R.E.W.!.x.i.p.l.<.,.8.D.a.7.s..X%X XpX,XE.4.}..XE.E.8.7.wXaXR.8.5.|.:X;X|.;XY.Q 2.=.-.*.4.s.s.J.6.#.2.2.&.D.P.3.2.D.U Y Y #.Q 2.6.5.a.P.D.D.I.-X;X,X,X-X|.|.|.|.:X<X-X|.2.6.I.-X|.&.A 6 .   < * * 2 y 4 7 8 2 g i B k i i 6 Z 4 i i F Z Z ",
"V Z 6 < 7 7 Z F G I E G k y z 4 z i z z p l G L l m t.X.` _ c r d c c [ ( ( ( h s c r w r r s c d c r s r s s d c c r h h h h _ _ M M ) ) `  .t...` ` ` _ ) ) ) ) _ ) `  ._ ) ) ) h % # # # r r r [ c c r ( [ ` ` ` ` ` ( h % % # % % % ) h ) ) )  .)  .` )  . .) _ h h e + t t p Y R.|.R.*.7.2.2.J.{.P.|.-X|.|.|.-X,XbX-XY.I.6.2.&.L Y P P 3.4.5.J.K.y.6.6.6.3.H.y.H.Q Q Q R Q R T R Q R 3.! 6.6.D.H.P.6.! H.Y.I.Y.3XOXI.5.Q 3.5.5.E L y : * X & 5 & , 5 1 8 8 2 8 7 8 g 8 8 8 4 4 8 7 8 V B B D V 5 5 2 8 8 8 D H ! g 7 2 3 ; 4 2 4 3 4 4 4 4 4 4 i z : k > z > > q u p p y y p l y y u q p d S p a u p S p p v Y v x x s h $.$.x b d v s w s u s d a f e f f S #.#.S d x u s v v v v G p G v K K l K L H T T L L K I U U U I S W Q 2.D.2.#.#.*.&.2.*.7.8.7.] @.x.<.*.%.Y 2.9.9.7.x.^.R.1.7.#.@.7.4.&.*.8.4.R.a.6.&.D.;X;X4XY.H.R G z l v K L U 2.R Q Y E I I Q Q ! I I T E E E T T Q R Q 6.! 6.D.H.H.6.Q u.Y.P.Y.;X|.T.6.Q 3.6.5.E L y 3 * O & 4 & , 3 5 4 4 2 7 7 8 7 4 4 7 4 7 7 7 8 D D B ",
"Z B ~ W UX! H z H.I.! T z y z j y z l l p z j l n $.=.z.h.( h h h # r / h ( h h w w w w e w r w w s s w s w u w s w w r w r e h h h N h _  . ...| ` )  .`  . .)  . .o. ... .) ) ) ) ( h % # / ( ( ( ) _ ..X.>...` o... .( % h ) % ) ) `  . . . . . . .) ) ) ` ) _ _ ) _ r > : 3 a U #.@.U &.P Y S Y p A I Y W K J I W W W Z J Z k i G J p A G F G F J J H H H ~ Z B F F k k g g G H k F H I ~ ~ H W ~ W ~ ~ J I H W ~ J H H F H H W F = 7 5 ^ 1 , 5 B 8 8 8 5 g D 8 8 B V 8 7 V 8 D B 5 5 5 V F D g ~ UXH.! E J T.4XUXE 4 4 4 4 4 4 7 g i 7 7 4 4 4 4 7 4 ; ; ; 4 4 8 8 4 > > 4 > 4 4 y 4 3 3 2 3 3 a t 3 y 6 3 y a 3 q t u q q q : q : : > q > : : : t q > - 0 0 - f 0 * X * : p l z l L L K H G G G z K z F H L I L L K I K I U I L G S J I K I v Y x b b b x ' m b b x u u p l Y U b Y P P Y K v p S K G L G G p G H.H.H.T.H.! F F p 6 i 3 y 4 4 i 7 i F F F i 7 g 7 7 k 7 z k F k F H H H ~ J H H ! W ~ J ~ H ~ W H H H F J J W G , 7 2   5 1 5 B 7 8 8 5 B D 8 8 D V B V 7 8 B B 5 8 8 V D ",
"K.4X;X;X+X;XY.;X+XI.Y.H.l i i z i i p k G l k i K p n %.;.:.:.) [ ` ` ` ] ` M x x x x w w x x u x x x x j j x x x w j w w w w w w j j h _  . .|  . . .)  .) ) _ o. .)  .)  . .`  . .o.) ) ( ) ( ` o. .)  . . . . . . . .) h ) ) )  . . . . . .|  ._ _ _ ) ) _ _ ) _ _ ) ( e - : y j i 2 4 : : 3 2 = 3 6 3 4 3 i i 3 B F V Z V B B B F F B B g 7 F F g 5 V B g D B B 8 D D B g g F F H J J J J F ~ D J B D H H D V 5 7 D J B V 6 7 B 7 5 V 7 & 5 V 5 V V D 5 5 5 7 8 5 C 5 , C 1 V 8 8 D ! G.H.T.Y.;X2X2X;X;X;X3X;X4XY.T.F 5 4 8 5 7 7 7 B B 7 5 B 5 B 7 2 8 k 4 4 7 7 D 7 7 4 4 4 k k 4 4 7 7 4 4 4 4 7 4 3 4 3 2 2 4 3 3 2 2 : 2 > ; ; * ; ; = = & = = = O * - O - = * O X & 7 G J J H G I I I I I G E G G E L H L Q E I Q I I W I H L L L I G l v n j u m m N M M m M x q - y y u y y y y y i y 3 i 7 i 4 4 4 k 2 J ! UXG.H.G.S.H B Z 7 7 7 5 8 8 8 2 5 7 5 B D 8 V B D V 8 7 D F J F J J F D J Z D D F H D D V 8 B D J B V 7 7 F 6 5 g 8 & 5 5 5 C V V 5 5 5 8 5 5 5 5 9 8 8 8 2 8 F ! G.H.T.",
"2XBX2XY.y.T.OX3XY.Y.OXOX{.u.R G l i l z i i F G v K K @.| :.....X.h.z.;.| | m v n N N x m x n x x x v v x x x j j j s x w w x u w j j N M t...:.>... .)  .o. . . . .`  . . . . . .X. . .) ) ` ` {  . .o.) ) ) o.o. . . .) (  . . . . . .....| .. . ._  .}  . . .) h _ _ h j - > 2 3 ; * 9 ; 4 2 i 2 3 6 7 4 g 7 7 D i g V V < 7 H H H H ~ ! H 7 7 7 k D g J D H H J J J 7 J g 9 g F D B ~ ~ ~ H ~ J D.! E ! ! ~ ! ! ~ H D 5 F F F D B D 7 2 * ^ ; * H H.E T.I.T.U.Y.;XY.T.T.Y.4XE UX;X3X2XIXJXBXBXJXJX;XK.Y.3X2X4X4X3X3X4X5.E i 4 2 4 3 2 5 B 7 7 2 7 V 5 7 8 9 6 7 B Z B V C 6 D 6 2 8 7 8 7 4 5 5 2 7 2 8 3 5 ; 2 2 2 2 2 4 6 2 9 ; ; = ; & 9 9 9 9 & & O & ; = = = < , ^ 2 G y.T.U.H.U.5.R u.3.R u.R -.&.&.R R &.R R 3.6.5.3.5.J.P.J.R &.T 3.=.f.u.=.=.-.%.%.-.| } } M n u z z l k 4 i p z i G k k l p g G L J F 3.H.T.H.G.G.H.UX! H J F g 4 4 2 4 7 7 7 D F F F J D 7 F 8 8 i D D V H ~ ~ J ~ ~ S.! E ~ ! ! ! ! H J Z 6 D J D D B F g 1 ^ O 2 * J H.! K.I.T.T.Y.Y.T.H.T.Y.Y.! UX4X3X3X2XJXcX",
"I.H.D.W D.7.&.7.4.*.R.~.d.d.i.%.-.m $.P m v &.-.@.b m m ` r.oX9X9XuXqXA.t. .-.%.$.} t.} M M M N n x b P v P v x x x x s x x x v x v v l n :.:.<.t.:.........X... .|  . . ....... .X.....` ] ....` .. . . . .|  . .| | ..|  .| | | | :.%.-.:.%.%.:.%.:.:.| :.}  . ._ h h x m t t 4 4 2 1 1 2 2 3 2 2 & , 2 C 5 5 7 7 B F D ~ H.4XBXIX2X3XcX3XY.H.U.4X;XOX;XBXJXBXBX1X3X1X;X1X{.;X1X2X;X1XcX3X2X3X3X3XHXJXJX2XJX2XIX2X4X3X4X6.H.! F ! ! B ! E z H H H ;XLXJXJXJXJXBXIXJXIXJX2XJX3X4X;X4X4X3XIX4XT.|.XXP.2.P.5.&.i.-.=.L./.Q.x.i.-.$.m @.m m x -.-.b x u l v l 2.U z z G Z Z p &.R L m u.N w y y 4 3 3 6 6 6 a 3 3 t 3 : : 3 3 3 = = , = , , * & * * & & & & & & 2 & , 2 & & X 3 +X2X(./.{.d.i.T i.f.g.-.M M m x m T P x v n v j u v L P L U u.Q.*X/.~.Q.oX/.i.x.!.!.x.t.i.t.i.&.2.Q E E ~ Q ! u.u.5.Q R Q R Q Q 3.3.3.y.K.Y.Y.;X1XJXJXBX1X<X3X|.y.T.I.+XU.+X3X:X:X3X+X4XOX4X+XY.+X;X;XOX;X2X3X3X3X3X;XJXcXJX2XIX2X2X3X4X;XY.S.H.! F ! ! 7 ! J J H H J 3XJXJXBXJXIXBX2XJXJXIX2XJX;X4X4X4X4X3X2XY.P.",
"P L b @.9.*.-.-.-.*.,.t.%.| | %.| %.%.:.%. .:.%.%.:.:.<.m.zXDXDXNXNXyXuXr.:.oX_.n.n.oXM.M.z.z.l.t.| [ ' ' [ ' } ' ' M ' [ M } } } M m M b $.,.<.:.:.:...:...:.....:.....| ..| .. . . .` | ..| ] | | |  .....:...;.| | %.%.%.=.-.-.u.=.=.,.-.-.=.=.=.-.=.-.-.-.%.$.} _ h M P a 2 7 2 2 2 2 8 4 k y 7 k E ! H.D.Q F F E ! H.G.3XPXJX2X;X4X3XcXcX:X,XcX1XcXLXcX1X;X:X:XBXJXJXKXKX+X;XBX<X2XY.J.Q P.;X2X;XI.Y.Y.;XcX3X;X,X,X;X-X;X|.{.2X,XI.;X~.H.H.I.{.T.I.3X3XcX,X;X3X2XcXJXJXJX;XS.S.Y.T.Y.;X+XR Y ' Y 9.1.=.&.$.-.-.,.p.*.| | | | | | :.| ] ....] ] ] | ] | c.n.m. .h _ r.NXFXuX8XqXGXiX9XoXoXN.l.@.x x d p x m b x x x x n m n j z u y : - 9 - - - - - - * = & & & 2 2 & * 2 ;X3.3.u.U.Q././.(.'.(.m.(.!.d.-.=.Q.*Xd.-.i.~.4.-.=.f.=.m i.(.L.d.Q.a.d.L.Q.(.(.(.(.(.x.d.d.L.y.2.Q R ! W E 3.u.u.H.y.U.Y.Y.{.Y.Y.K.P.OX3X:X;XcXJX2X2X2X3XcXcXgX;X|.1X,X2XJX<XOX,X*X1X2XHXZXJXJX/.OXBX<X2X{.K.2.K.:X3X;XT.Y.|.;X2X3XOX;X3X;X|.|.Y.Y.<X,XP.;XU.y.H.U.{.T.U.3X:X2X3X|.:X3X2XIXJXJX4X~ G.T.T.T.3X{.&.",
"m M [ M $.$.$.%.*.,.:.%.:.;.| %.] ' $.%.%.%.%.:.<.r.n.m.m.m.^.^.d.*.9.@.t.l.!.n.oXoXoX`._.`.oXM.n.r.:..._ ( _ ` ` ' _  .} } ' |  .} | } %.%.=.%.=.:.%.| | | :.....;.:.| %.] ..| |  .` | | | ] ` ] %.| | | %.=.:.$.%.1.-.%.-.*.:.| %.-.%.-.-.=.=.=.=.-.*.-.&.-.$.@.[ m [ b $.L 3 Z 7 7 & F ;XK.u.L.L.~.I.+X:X;X1X1X*XOXU.L {.cX|.2.! E Y.cX}.&.a.L.d.:XJX>X~.{.y.$X1XKXJXCXxX{./.,X^.u.R 4.4.i.:X>X{.a.J.;XY.|.L.y.J.y.a.U &.Q a.L.L./.K.d./.(.d.f.d.i.7.t.*X<X/.a.{.gX>X4XH.|.H.S.T.T.T.H.u.a.$.' M } } %.' -.-.=.=.:.%.<.:.}  .] } ' %.' } } M _ _ _  .)  .qXC.N.uXiXqXFXPXNXNXFXDXFXFXFXSXGXFXuX`.z.V.( h )  ._ } ] } } } } } } M } } } m m m x x w w q : : = , & < 2 , & * E L P &.u.4.d.~.(.a.4.a.J.y.a.d.}. X{.~./.L.i.a.~./.@X/.d.d.=.&.-.4.7.a.a.L.L.a.a.7.7.a.7.6.4.Q K L J J J ! OXT.y.I.L.:X|.1XcX<X,X<X<X,XI.3.T.-XT.6.D.D.|.,X{.a.P.L.P.+XcXOXI.|.L.:X>XKXCXCXgXU.~.>X{.y.3.u.7.a.>X>X{.a.J.$X~.{.P.J.a.a.y.T R &.a.L.L.{.L.d.(.(.d.f.d.i.4.=.*X&X/.J.{.:X:X4XH.Y.H.! Y.T.H.D.D.y.%.",
"m m T } } $.t.-.:.| r.oXp.| _ ] >.] ] | <.n.M.n._.l.r.<.:.c.!.p.:.| X.X.X.r.<.<.n._.[.!.n.n.m._.z.M.`.`.j.` _ _  .' ' ' | ,.' ' ' ' ' M [ @.%.%.' [ ' _ [ _ _ ] ] _ _ M ( h [ _ h h _ _ _ M _ M c _ m [ m %.$.' ' @.@.' %.@.@.m n T } T } &.-.*.&.&.R $.&.&.$.@.' m m x c P t y ! F 7 2 E ~.i.d.Q.Q.Q.(.+X}.~.{.}.@X@Xm.x.LX*Xv &.u.oX&XQ.i.f.i.f.@XHX&X1X&X*X/.kXBXAX<X>Xd.dXKX}.L.4.f.@X*X&X&Xi.-./.~.8.4.=.3.3.f.{.a.=.$.-.(.x.f.AXoXx.=X&X&X*X&X&X*X*XCX$XI.P.K.H.5.T.D.! A ~ T.4X4XY.G : T ' } } | | %.t. . .} r.qXz._  . .>.] _ _ :.N.N.N.M.>.....o.oXSXqXqXNXDXSXzXrXXX^.hXZXDXzXuXuXyXuXiXzXSXSXN...` _ ] | ] @.%.x.%.m m _ ' M M _ _ } _ M h M x n y ; ; ; , , ; * O ; n u.T m T $.$.T P T P n P L P P P L U L v G U L U 2.5.J.7.=.4.=.$.-.4.4.=.&.U &.&.U @.P b &.K L y.E E H u.I.y.a.L.a.J.I.I.I.L.J.K.P.P.a.a.,X~.Y R 2.L.^.a.f.a.i.a./.BX*X=X$X>X*XVXBXBXAXgXQ.dXKX XL.i.d.@X&X&XwXi.-.^.~.a.-.3.3.4.f.{.i.=.$.=.(.R.p.jX'.x.@X*X=X=X&X*X$X*XAXOXU.P.K.D.5.H.D.2.k ~ T.4XY.4XF t U ",
"b m @.P } l.yXqX#XoXuXuXqXoX9XiXqXz.j.z.oXqXrX9X8XoXM.N.N.8XoXM.v.:.:.:...:.<.r.l.v.r.r.!.).c.n._.!._.`.].M.v.h.:.......m.].r. .[ $.' m $.%.%.%.%.%.} | ' c ' |  ._ _ _  ._ _ ] M M _ _ ' ' ' ' m m m m b [ _ c [ [ ' ' [ $.' m @.@.' $.$.T $.&.-.&.-.$.&.$.$.m m m ' ' m p y i 4XT.Z 7 i y.1X&Xa.R.+X,X,X<XVX&X+X'._.!.lXPXs.p.*XdXVX&XoX(./.(.f.VXkX{.~.(.{.*XBX&X>X&X:X1XBX+X+X{.&XdXgX>X{.(.(.K.U.4.$.u.-.-.U.@X=Xt.=.-.(.*Xi.yXFX/.dXAX>X@X$XR.L.{.}.{.5.y.3.3.u.d.+XY.I.I V S.S.S.T.H B n ' ' *.$.@.m.NXyXyXiXSXSXuXiXiXuXMXj.V.B.GXFXSXFXSXGXiXiXuXGXGXFXDXzXeXrXn.v.p.n.].oX!.c.eXtX8XuXuXzXvXSXSXuXC.z.X.>.X.>.8XDXz. .r ' ' c ' [ M c @.x b x v s u 3 < 2 ^ 1 2 & * : L P $.&.&.$.$.T $.T m m m T T T v x N T m M m } v m ' v m m m T } $.T } -.} $.} m ' T ' @.K l H Y.T.G G G 5.{./.i.u.L.~.I.~.}.I.L.d.d.a./.dXi.4.~./.=X(.Q.Q.~.L.f.kXkXOX{.{.{.$XxX1XgX,X*X,XcX$X}.OX:XdXgX&X{.~.~.L.I.4.&.-.3.3.U.=X/.g.:.t./.#Xi.wXDX/.pXjX>X@XOXI.P.~.-X~.6.D.3.4.4.d.{.I.T.I C S.G.G.T.H z m ",
"m b ' M Q.=XyXzXSXDXDXzXGXyXuXNXuXqX8XoXoXoX#XoX_.oXoXoX0XrXoX_.x.t.1.:.-.r.l.r.t.<.s.'.#X'.'.'.'.'.].'.'.oX`.oXoX_._.'.oX_.n.s.%.' [ ' ' [ :.%.;.%.%.%.@.] ] %.%.%.'  .] |  .} | } } | } ' ' ' ] ] ] %.] %.$.]  .$.%.%.%.| %.%.%.$.%.-.%.%.@.%.$.$.=.-.-.$.-.$.@.} } ' @.P 3 i H.H.H V t 1XZXQ. X&X*XL.OX&X*X/.*X*XyXZXLXAX'.&X}.kX&XL.d.oX&XkXkX&X*X$X>XkXHXZX<X*XwX+XOXgX@XK.L.{.<XdXgX@Xd.L.i.f.i.3.u.T u.(.(.f.g.g.oXdXNXm.d.LXkX$XpXI.I.P.I.6.J.y.5.d.a.f.(.*X&X$X/.3.3.J 5 S.S.~ S.G.4 x m _ [ ' !.yXfXSXFXFXFXFXFXSXSXSXNXGXSXtXuXuXSXSXuXNXSXDXFXFXSXuXuXyXtXoX`.M.`.M.v.<.c.zXDXfXlXyXzXzXSXzXzXSXNXDXDXNXzXNXFXlXwX_.%.c s s x h w h s b b v v u 3 2 2 1 1 1 & 9   u.I.n -.*.*.$.$.$.| } T N T m n N x x x T $.$.} -.$.} -.$.$.@.$.} } m } } } $.} $.$.$.} ' $.m u l 3.u.I k p }.>Xd.Q.(.Q.a.L.~.L.a.L.d.Q.@X&X}.L.~.L.+X~.f.f.~.}.=X&XOXOX*X>XgXCXAX&X$X$X{.OX<X+XK.L./.>X<XgX+Xd.d.a.i.i.=.=.-.t.(.(.m.g.g./.wXAXd.d.LXjX@X<XI.P.P.I.4.a.u.4.d.f.i.~.=X&X=X(.u.6.I V S.S.! UXH.y N ",
"4.@.c h oX'..XwXlXzXfXDXNXqXoXoX8XqX8X'.oX_.m.v.<.p.v.W.n.).c.v.z.:.:.:.>.h.h.h.h.l.M.).c.c.n.!.).).'._.'.[.'.'.oX].).[.'.).c.n.`.M.h.>...| ....;.:.......| ` ) ` o. ...X.|  . . ....... . .| | | | ;.;.,.:.=.:.,.:.%.%.%.@.} | %.$.' %.%.-.@.%.@.' %.' %.| %.-.-.$.$.@.T T y i W ! ! Z D.2X1XL.(.@X&XdX{./.Q.@X&XyXAXDXZX%X@X>XjXhX{.}.&X>XZXAX}.@X>XgXgXxXjXBXCXcXgXcXgX$XL.~.a.$XgX>X$X+X}.g.a./.d.$.-.-.f.&Xf.Q.=X/.AXkX(.@XKXVXwX+XJ.H.{.I.5.$X@X/.*X/.Q.=X*X<XxX:XK.y.K.J V S.S.T.H.H.&.d.p...( h 9X*XwXeXNXuXNXKXFXuXqXuXuXGXSXuXGXyXrX).h.c..XrX0XeX9X5X8XoXN.M._.B.z.z.b.M.eXeX.X].=XyXfXzXzXhXNXvXvXvXZXZXzXzXlXfX#XrXNX9Xz.h. . .} } s m m $.Y U p 2 1 1 8 & 2 8 * U.a.i.-.-.&.$.-.&.u.t.T T -.$.T } m m x m $.-.-.-.%.$.} $.} } } } ' $.-.$.$.@.} $.%.$.$.T m T j l I ! Q F ! *X}.a.d.Q.~.(.d.f.i.i.f.R./.=X@XR.d.(. X+XL.L.(.(.<X$X}.}.+X,X>XpX<XxXBX1X<X<XpX+XL.L.a.}.<X&X+X/.{.i.i./.L.-.t.-.y.*Xf.U.=X}.AXkXQ.=XKXAX1X'.s.a.{.~.5.@X@X{.@X/.U.=X:X<XxX$XK.y.K.G V S.G.H.H.H.u.d.",
"!.!.p.t._._.#X#XoX#XoXoXx.m.(.oXR.7.i.7.i.p.-.%.*.p.s.<.,.7.,.<.%.} x x M } :.>.r.l.v.<.<.,.p.,.p.s.d.x.d.s.p.p.s.7.7.p.x.!.n.M._.oX`.rXoXM.:.%.;.:.:.| | ] _ _ _ ` ] ` | | ` ] | | | | | } } ' } } -.:.:.=.-.-.$.$.m m m $.-.$.m v v b Y P P P @.P P L P U U Y L v v K l K F B S.S.! UXH.|.<X=X}.&X~.$X$X/././.AXZXVXHX@X'.@X1XAX&X X*XdXfX=XU.hXCXBXBXgX:X}.gXAX1X>XOX$X*XkXCXZXJXgX*X~.OX+X>X&X{.g./.*X/.cX>X=X*XgXKXdX/.&XKXdX=XdX&X&XyX=XoXdXVXAXKXgXU.{.cXcXOXJ.J.! y.3.k 6 A S.G.H.u.I.pX#X9Xz.B.qX8XyXuXyXyXqXyXoXoXeXfXoXm.8.x.n.!.,.;.p.).`.).W.W.c.b.l.z.z.r.h.z.z.B.`.`.5X).z.m.n.m.#XrXwXwX%X'.^.^.[.!.R..X%XyXeXNXGXDXnXFXSXFXDXuXyXc.p.%.[ ' v : 2 2 5 1 2 9 7 Q P L.-.$.-.-.*.-.T T } t.-.m M T T $.m } %.%.%.-.-.} } m M m m m } ' P ' $.$.$.T T T m m n P K l ! ! Q 5.u.L.@X~.L.^.d.U.U.d.i.i.!././.@Xx.L.U.Q.@X(.L.(.+X@X(.f.:XgXpXgX:X}.}.gXkX:X$X}.}.@XgXlXVXBX<X$X~.OX{.1X>X(.u./.@X+XkX1X@X$XdXKXdX(.&XKXdX+X1X&X&X&X=X/.dXAXAXKX1XU.}.xXgXOXK.H.3.y.u.J i H H.G.H.y.~.&X",
"7.!.].#XoXdXwX!.^.x.7.!.R.*.&.@.*.@.@.@.P T &.=.-.=.' ' -.%.} :.| $.x u y m } %.%.-.,.=.=.=.=.-.,.t.4.=.i.i.,.-.&.$.=.&.4.-.4.=.=.p.R.!.!.7.s v v l u u q q > w j u s w s j x w x x x j v v l p j n n n G L v l p y y q > - 4 y - > 3 y i 2 k J G D Z J i F G F F B B 7 6 , V B J S.T.H.! u.I.&XgX{.~.I.}.}.(.%XkXjXDXHXwX>XkXdX+Xi.t.(.dXAX(.wXVXZXAXZXCXBXFX1X}.kXZXkXdXZXLXLXHXBXgXY.I.{.K.*X{.~.+XwX$X&X:X~.I.1XCX&X*XJXPXLXKXdX1XgXkXVX$XgXkX}.:X{.~.*XHXOXK.L.L.d.L.=XK.L 4 J G.T.4XY.+Xi.v.rXuXnXuXFXDXeXyX0Xn.wXrXx.8.8.v.,.1.,.:.t.p.x.m.m.V.t.z.j.h.M.r.j.r.j.h.z.j.B.M.M.C.oXN.M.M.M.'._.'.!.[.8X_.n.l.p.m.m.n.n._.!.`.].zXzXDXSXyXNXSXSXuXyXoXz.i.w 2 5 7 5 1 5 5 ; 3.3.i.P j R -.T T $.-.&.&.m m m T } M T -.m -.| } } } M N N N n m L m P L T T n n L l l k k k J H H.u.H.R -.K./.+Xd.i.u.d.d.f.d.Q.Q.=X@XQ.(./.(.d.=.=.d.@X=Xx.oX&XpX&XgXkX1XxX=XQ.>XjX&X>XxXZXHXCXgXgXU.I.I.K.*X^.U.}.pXOX:X:XI.~.1XAX&X$XZXPXLXKXdX1XkXkXBX$XgXcX}.*X{.~.$XHXOXL.L.d.U.U.$XK.I i H H.T.;XT.OXi.",
"Q.Q.7.n.!.4.*.@.@.&.7.d.=.-.@.m m $.&.-.-.T &.-.&.-.-.-.-.%.} -.,.=.$.v z P &.=.3.=.t.t.=.t.t.i.f.i.3.4.a.a.d.u.=.4.a.4.i.u.4.4.=.u.L.R.d.3.k k i y 4 3 3 i i k k y k y z k k k F F k D F H H H H ~ ~ ~ H J H k k i 4 ; ; & ; 2 * 2 7 6 7 B D 8 D F F Z F F F D J F F D 6 V F D ~ T.T.4Xu.u.2XOX{.i.L.+X~.~.$XpXfXdXKXlXjXAXVXAXdX=X1XZXkXAXKXKXZXCXZXHXHXKXZXVXkX<XAXCXKXHXcXcX1X,X1X*X$X~.{.(./.>XAX*X}.(.%X&XdX1X=XI.xXKXLXKXHX>XI.{.,X2X<X:XI.I.|.L.I.$X+Xa.L.*X*X*X+X@X1XU.4 V G.4X;X4X*XQ.'.8Xz.9XeXv.<.1.:.1.!.0Xl.<...| | >.r.r.g.t.t.m.m.j.t.z.z.z.V.z.B.m.b.m.z.r.m.m.l.N.N.M.n.C.A.oX9X`.v.).oXrX8XN.M.M._.b.`.].).)._.oXuXzXuXNXzXqXrXqXqXyXGXuXzXT - 7 8 C 5 C 5 I U.T &.b s L T T R Q &.-.&.-.T &.&.$.M m T T -.=.-.$.T N M N n N n P n T T L L L L L H J k J G F ! H.H.I.2.u.=XU.L.-.4.d.a.i.d.d.~.x.@XQ./././.@X(.Q.(.&X=X=XkXAXdXdXgXkXjXAXkX1X&X&XgXjXCXHXgXgX:X*X>XOXOX(.I.Q.{.>XAX*X/.(.=X&X1X&X$X~.BXJXLXKXCX,XI.I.:X2X<X:XP.I.|.U.~.$X+Xi.L.&X*X*X@X=X>XI.4 i G.4X;XOX$X!.",
"%.b ' c.d.[ b [ ' m m b m ' ' @.m -.-.=.p.i.i.i.i.=.-.-.$.-.t.,.%.-.$.n l P -.%.=.i.=.=.-.u.4.u.4.&.=.7.4.i.7.7.7.i.7.i.i.,.t.i.i.i.i.i.L.4.F F i i i i k a i a i p k H G F G F J J J J J H ~ H ~ ~ ~ J F J J k i 4 3 8 3 3 ; 2 8 2 7 8 V Z 6.H.! E ! Q Q K J i k 4 8 7 2 7 D D G.T.4X4XY.JXcXK.{.d.a.U.L.a.d./.%XlXLX&XlXdX#XdXjXkXCXZXAXKXZXZXBXCXCXdX<XkX<XgXZXBXgXxXBXcX<X|.~.@Xu.d.=X=X@X}.pXVX&X{.&XkXdX*X*X&X&XCXKXHX1XOXK.H.K.5.I.OXOX=X:XgX}.d.&X}.a.Q.*XL.K.$Xa.$X|.I.6 Z ~ H.Y.Y.{.i.<._ | 0X_.] [ _ ] ] _ ] %...%...| :.r.v.M.n.M.oXn.m.m.m.r.m.M.m.z.j.j.r.z.j.b.r.M.oXM.M.z.M.M.`.oXz.M.b.c.`.!.b.M.`.`.`.8XN.N.N.N.oXM.8XqXuXfXqXqXyXuXyXrXuXvX-.- F B V V 5 Z 6.u.-.M x v P T R R -.&.&.&.R T $.T T N m T -.&.$.T T T T T m T T T n T &.&.T T n n l z l z F J H ! H.K.U.U.1XOXy.L.i.u.g.=.=.u.f.d.(.@Xd./.Q.L.(./.}.&X&X@XkX1XwX>XgX<X$X$X:X$X:XBXgX&X<XcX1X,X{.I.+Xu.d.=X=X@X/.&XVX*X{.&XfXdX*X&X*X&XCXKXCX:XOXK.a.K.5.U.OXOX|.*XgX+Xd.&X(.d.~.$Xd.L.$Xf.OX|.I.B Z ~ H.Y.Y./.p.",
"d.).!.!.,.} ' %.=.*.@.] =.,.:.=.,.p.p.p.t.d.Q.R.f.p.f.x.s.p.a.,.t.t.r.,.%.:.r.l.z.v.c.r.p.x.v.l.p.p.v.f.v.v.x.c.x._.n.n.n.n._._.oX).n.!.x.f.4.i.i.u.7.=.i.,.i.i.d.f.f.i.$.&.R T Y &.3.! 6.2.Q E E E I H J J E ! ! Q E E E g 3 4 7 1 H.Y.4XcX,X:X|.5.gXCXxXcXcXgX2XOX{.Y.T.u.T.T.4X;X4X;X;X3X|.{.~.(.U.d.,.!.@X'.Q.wXDXjXkXdXZXkX&XdXkXgXxXZXVXAXAXBXCXHXgX1XgXBXAXBXxXCX:XOX{.OX<X*X{.+X(.=X*XkXZXAXpX*XjX&X*XwX>X=X1XKXCXgX*XI.~.{.@X+X+XI.H.f.L.d.d.kX@X*X*X*X~.a.@Xu.d.{.T.! 6 B D ~ H.K.+Xt.z.6X`._.<. . .| ] ] _ _ ` | ..X.h.z.j.z.z.M.oXoXm.m._.M.M.n.M.j.r.B.B.j.V.m.z.M.N.N.oXm.c.n.n.M.z.M._.b.M.h.v.z.M.oX`.N.M.N.N.oXqX`.N.`.[.oX0XyXyXuXuXqXtXiXsX7.3 a V F V 8 u.y.u.-.m x m &.T R u.R R 3.-.-.$.-.T n n T &.&.n n P P T T T u.-.-.-.-.i.i.d.U.Q.U.I.U.K.U.u.u.y.g.U.Y.T.Y.I.{.U.U.a.f.f.i.=.i.f.f.t.x./.Q.Q.(.*X/.(./.@X@X#XdX&X&X>X&XdXgX$X+X%XdX1X1X<XcX$X|.{.}.1X$X{.(.(.}.=XdXZXjX&X*XjX&X$XwX&X*X1XJXCXAX$X(.~.{.+X+X@XU.y.f.U.d.d.dX$X*X*X*XQ.s.+Xi.K.+XP.! B B D S.H.P.+Xi.",
".Xm.c.t.l.t...t.<.t.;.;.:.<.l.l.r.t.r.r.l.n.h.t.t.t.h.z.v.v.m.h.v.l.h.t.<.h.M.M.n.z.l.h.h.h.<.>.<.l.b.m.M.M.N.N.N.oXm.z.N.oX`._._.`.c.h.m.z.n.b.n.0X0XoXqXyXuXqXb.m.z.M.z.z.z.h.j.0.v.b.M.v.v.[.'.x.s.(.Q.d.(.*XxXdX@X#XaX,XI 6 B 7 S.T.IX,X-X.XXXXX6XbXbXaX6XbXvXHXLXPXLXbXbX;X4X4X4X;X+XH.H.J.~.{.gX:X+XVXDXjX&XDXHXlX>X>XpXgXdXkXdXdXVXAXZXFXCXZXgXdXgXvXcXxXvXkX>X&X@Xd.x.&X1X>XAXZXZXKXHXKXZXBXZXZXVXAXZXAXZXBXZXjX(.{./.&X(.+X{.(.=X*X(.(.*XkXAX1X+X>X{.{.}.$Xa.u./.OXU.Q ; g 8 G.Y.Y.}.@XwXv.<.| ..|  . ._ | ` ` ) ..X.h.h.h.j.j.z.z.r.V.V.z.m.n.B.n.m.j.z.z.m.X.V.m.m.B.h.h.h.>.l.z.v.:.r._._.n._.N.N.`.M.M.m.n.C.oXoX].`.].M.h.j.oX9X_.oXoXoX8X8X8XtX7.P l B V V ~ 4XT.I L p u P T T 3.R u.-.$.-.-.-.Q R T N N T -.M x v M m L $.&.-.-.*.=.7.s.d.s.s.R./. XpXaXpX|.;XY.I.K.U.U.K.u.UXu.a.L.{.U.d.'.@X(.d.}./.~.L.U.Q./././././.&X*XdXkXdXkX$X$X&X>X1X&XgX>X$X@X/.d.x.*X&X&XjXCXZXHXHXKXCXAXZXVXVXAXCXAXZXAXZXAX{././.&X(.+X(.(.=X*X_.m.=XkXAXdX+X>X{.}.+X$Xa.4./.OXL.! 3 D 8 G.Y.Y.}. X",
"p...| ..t.>.t.:...%.| | ..>...X.X.r.:.X.r.X.X.:.t.t.t.>.r.r.r...>.r.>.X.h.h.>.h.z.h.>.>.>.:.:.t.z.t.t.r.M.M.oXyX8X0XoX8XoXn.z.m.n.`.oX8Xb.z.z.x.oX_.t.oX=XqX=X_.qX_.z.`.M.b.m.h.>.r.`.M.z.z.b.j.M.M.n.t._.0X'._..X).!.x.1.4.P.! ! ;XY.H.3X|.XX.X.XaXaXmXmXbX6XXX6XaXbXmXIXIX4X3X4X4X3X4X4XT.3.~.8.y.L.+XhXdXwXjXKXKXpX$X.X}.I.R.}.>XpXjXLXZXZXgX1X:X~.$X>XgXxXxXBXkX&X&XgXkXkXVXZXVXVXHXBXxXCXVXjXdXgXZXFXZXKXZXFXZXKXAXkXCXZX1X}.}.1XCXZXZXAXZXVXgX(.U.*X$XOX*X{.{.>XjXgX&Xu.Q 8 8 8 H.;XI.~.'.,.| |  ..... .|  . .` ` ` >.t.t.t.h.t.X.r.X.V.t.t.j.z.g.m.B.h.V.h.h.V.t.j.j.r.z.M.j...>.h.r.>.p.n.r.<.z.M._.0XoX8X0XoXqXoXn._.n.).).8X9Xj.h.M._.oXN.A.9XN.9XoX%.U H F F ~ 4XY.7 ; p > q m m T $.T t.-.T T -.T t.u.T T N m $.$.$.$.T L v L T &.3.4.7.i.f.d.a.8.7.d.R.E.}.-X|.J.Y.T.K.Y.H.H.u.2.a.4.4.4.d.~.~.d.~.+X/.a.a.a.y.4.4.L.~.{.$XjX<X>X X+X{.U./.}.$XpX>XdX&X@X@X>X>X1XkXVXAXjXCXxXjXlXVXkXyX1XZXFXZXFXDXZXKXKX<XkXZXCX1X/.}.1XCXZXCXAXZXVXgX(.U.$X$X+X$X{.}.>XjXgX&Xu.Q 8 8 7 H.;XI.~.'.",
"%.:.;.1.;.:.X...| | ` _ `  .| t.r.t.V.t.j.t.z.j.t.V.h.h.r.h.r.V.t.O...h.z.j.>.l.h.h.h.h.>.z.).M.z.h.h.z.h.n.oX_.).n.!.).z.h.l.l.h.`.`.M.z.n.oXoX#Xr.8XyX8XoXwXqXn.!._.oXoX`.t.t.n.`.`.N.h.z.`.N.b.9XC.`.5X8XA.oXz.N.N.z.n.Q.&.|.3X2XH.T.,XP.XXXX.XbXbXbXbXaXbXaXbX6XaXaXbXJX3XT.4X4X;X;XY.! P.}.~.P.a.s.^.$X$XwXCX$XL.~.~.}.}.%X>X&X{.lXCXCXxXdXjXkXjXAXkXAXjXlXkXdXVXZXVXZXHXVXZXVXkXZXAXZXDXVXdXAXZXZXZXFXKXKXKXKXKXZXKXCX&XxXZXKXLXKXBXgXKXBXgX}.}.>X+XL.gX&X@X>XgX+Xa.U.y.E 8 V 1 S.Y.H.{.-.' ;.;.:...| t.| |  ._ )  .) >.j.h.V.X.t.j.r.j.j.z.m.m.n.z.m.j.j.V.V.V.j.z.r.t.j.j.h.z.j.m.!.b.M.z.h.l.c.<.h.n.(.!.E..X'.n.l.m.v.r._.yXoXj.N.N.B.M.N.C.A.9XN.8X,.j W ~ ~ Y.4XG.G.G = t l v n T m } T $.$.T } T } } u.-.N T N m T m T L n n L P R &.u.a.s.s.d.d.x.L.R.E.P.~. XI.y.H.H.U.T.y.R u.d.a.8.7.=.i.d.i.d.~.a.&.4.a.d.Q.Q.L.L.L.@X&X>X:X}.%X=X*X*X*X&X&X>X&X*XkXjXkXVXZXxXVXxXdXVXxXZXZXAX1XAXZXZXZXZXKXLXKXKXKXZXLXCX*XxXCXKXLXJXBXgXJXCXgX+X}.<X+XU.kX&X+X>XgX+Xa.I.y.R 2 g 8 UXI.H.{.=.",
"1.:.:...] %.:.%.|  .} _ } X.h.r.h.j.z.M.n.B.m.h.V.t.t.V.X.j.j.t.j.h.r.j.j.r.r.j.h.j.>.r.>.c.z.h.h.h.z.r.j.l.t.>.1.1.<.r.:.t.h._.`.n.h.h.n.C.N.8Xn.z.uXoXqX8X=XM.oXqXqXqXyX_.`.uXuX`.0Xc.z.M.M.N.qX`.C.8XqXqXyXoX].5XN.;.;.P a H.4XY.H.Y.<XP.XX.X.X.XaXaXsXaXaXsXsXsXbX%XbXbXD.D.4XT.;X3XY.u.u.cX,X%X~.d.R.@XkXHX>X^.*XwXgX%X*XAXAXdXkXfX*XwXZXFXFXAXkXAXAXAXVXZXjX&X$X{.$X&X=XwXjXkXdXkXZXVXAXyXyXVXAXdXKXKXCXAX>X@X>X>X>X$X{.BX<XcX1X+X;X1X|.Y.~.+XgX(.f.$X<X1XgXgX|.{.~.y.y.G 8 D C ~ T.Y.+X-.=.:.:.;.} | :.t.| | | _ } r.z.h.t.V.z.M.B.B.z.j.h.V.V.V.j.j.j.r.j.g.t.j.X.V.t.t.h.t. .t.X.h.v.l.l.<.j.X.X.....1.;.1.8.:.| :...M.oXM.z.0.n.z.r.X.j.j.j.N.A.qXrXN l H.H.Y.Y.;XY.Y.J.p > u : w N M T m m m m m } m T } | T } h x x M n m n P v n m P $.-.4.i.s.s.R.R.R.R.L.J.R.2.3.y.u.K.U.u.Q &.I.L.K.a.3.4.i.a.~.d.a.Q.Q./././.+X=X'./.@X(.}.&XjXAX&X&XdXyXdXdXpX>X+X{.~.}.&X*X&XkXkXdXkXVXAXkXdX&XZXAXyXKXKXCXAX*X=X:X1X>X}.{.xX<XcX1X+XOX1X|.Y.I.$XdX/.f.@X>X<XgXgX{.{.~.y.y.l 8 D C ~ T.Y.+X-.",
":.:.| | | %.:.;.%.| .. .t.z.z.j.m.N.N.m.B.B.j.m.m.z.z.m.j.j.j.m.j.t.z.n.z.t.X.t.t.h.X.:.n.`.z.z.r.z.z.j.h.z.r...t.t.:.p.p.r.v.v.p.r.c.`.).h.t.j.h.).9XrXoXrXoXeXzXyX0X`.z.oX8X9X`.`.N.`.qXqXqXyX8XoXqXqXoXoXoXM.8Xb.B.h.:.m q T.3X;XT.;X3XP..XXXaX6X6XaXsXbXsXsXmXmXsXaXbXE.t -XY.Y.4X4XT.S.E OX$X~./.*X}.Q.@X@Xi.Q.dXkXdXdXkXjXkXwXkXkXjXKXHXKXgXhXHXZXVXgX,X,X:X:X,X,XgXpXkXdXZXZXZXFXAX&XAXkXZXZXyX#XCXZXHXAXjX$X$X>XdX X@X~.}.{.@X@X}.L.R.}.dXVX>X=XwXHXxX*XxXBX>X+X|.OX2.7 C D 8 ! ;XT.~.-.-.:.| | :.:.-.:.%.;.:.} g.N.M.n.m.N.N.z.m.B.j.j.B.t.j.m.t.j.z.B.m.B.m.N.N.r.V.t.t.V.r.r.z.oXN.z.j.j.X.t.j.M.h.X.r.h.h.x.v.h.m.h.>.>.z.].oXb.z.B.C.oXA.9X9XSXrX@.l ! G.4X3X4X4XY.H.UX4 4 j y j m T ' n m $.} } -.| u.$.} } M h h _ } m ' :.m $.$.@.$.&.*.4.4.7.a.8.L.J.s.L.4.p y.5.u.H.H.UXE L a.J.5.y.a.u.4.u.i.3.i.Q.Q./.Q./.oX@X@X@X&X&XdX1XdX$X$XxXvXxXgX,X:X+X}.OX$X>X&XdXdXVXZXZXHXAX*XjXfXVXZXwX*XNXHXZXhXkX$XOX>X>X X@X~.}./.+X@X}.L.I.}.1XVXwX/.dXHXxX*XxXxX:XOX|.|.6.7 8 D C ! ;XT.I.%.",
"t.t.r.:.:.-.%.:.-...:.:.m.z.m.M.M.N.z.z.z.m.N.A.N.M.m.B.N.n.B.m.B.m.B.j.n.z.j.j.z.j.M.N.oXoX`.oXoXM.m.m.n.z.z.z.z.r.l.z.).).z.m.v.c.n.v.n.x.oX'.#XrX@X#XwXwXkX0Xx.r.x.s.).oX#XyXyXzXyXoX*XqX0X].).#XoXn.n.M.9XA.8XoXA.b.#Xf.3 D.3XG.S.2X-XP. XXX6X6XbX6X6XsXsX6XsXaX6X6X6XL.* XXT.T.3X4XT.H.+X+X~.>XOX1X<XBX>X$Xa.~.gXhX>X/.@XlXdXjXvXCXKXCXgX$X,XgX X}.}.~.P.~.I.(.dXjXkXAXVXKXZXVXZXCXZXKXCXlXKXZXKXPXAXAXKXKXVXVXVXx.d.Q.i.!.!.@X(.g.p.(.*X&XwX>X&XAXKXCXxX:XxX$X1XOX~.OXI 6 D D C G.3XK.Q -.%.-.:.%.-.<.=.,.=.:.| :.N.M.n.M.B.z.z.B.B.m.N.A.B.m.m.V.N.B.z.n.B.m.N.m.n.z.t.V.t.j.B.N.C.C.oXoXqXoXA.A.8X9X9X9XN.n.`.oXrX[.M.`.8XoX0XeXeXzXlXuXqXqXuXuXSXzX#X6.l ~ G.4X4XT.G.T.T.H k g 7 y z l n U n m T T T &.T T T m m x n c x b m $.T m m m ' T &.R &.2.4.6.5.8.7.J.J.7.v a.5.3.K.u.3.Q a.y.4.d.a.d.s.L.f.u.=.4.L.~.(.L.L.}.~.{.$X&X:X&X+XQ.~.$X~.I.{.~.~.R.L.(.1XdX1XdXAXZXVXjXVXZXZXKXVXAXKXCXKXKXVXjXKXKXVXVXAXm.x.Q.g.Q.!.=X!.f.a.(.#X&X>XdX&XAXHXZXxX:XcX$X1XOXI.OXL 7 C D 8 G.;XK.2.3.",
"i.t.t.t.%.:.=.t.<.t.:.h.N.M.n.M.m.j.m.A.M.M.M.M.M.N._.A.N.oXN.B.m.B.m.z.z.M.m.M.M.n._.M.b.z.m.h.z.n.z.N.N.b.b.N.j.h.h.l.n.).oX0Xn.z.).n.M.0XrXoXeX0XwX0X#XwX'.v.<.l.v.`.rXoXeX0X_._.v.'._.n._.n.!.n.v.c.).#X'.v.!.x.d.n.R.Y Z ~ S.~ S.2X-XP.XX6XaXXX6X6X6XrX6X6X6XpXaXaX.X|.H H.S.4X3X4X4X3XOX&.-.{.<X>XAXAX/./.~.~.gX|.}.%XkXkXdX&X>XkX>XgXhXkX>X XQ.U./.=X%XwXkXVXVXdXkXAXHXCXgXBXKXHXBXHXHXHXKXZXxXkXKXZXAXCXAX*X/.m.Q.&X=XfXNXwX*XyX*X&X&XdXjXdXAXHXKXCX1X1XOX4.f.K.a.5.p 8 D D D T.;XY.a.U *.,.-.| -.,.,.,.:.%._ :.M.n.h.z.g.j.m.N.B.m.m.j.z.B.N.m.N.N.M.N.m.N.N.n.N.n.z.M.N.N.A.N.C.oXM.z.n.C.N.oXN.M.oXA.b.j.z.c.n.'.aXzX.X8XeX].].fXlXNXzXuXuXzXuXfX^.K 4 ! T.Y.4XT.G.S.S.H D F B 4 6 4 i z z 4 y z z y y z k z u y l j e y l L y j z v v l K L E R 2.R 2.2.5.7.7.4.@.3.Q a.U.a.a.U.f.&.$.4.f.a.f.L.u.t.u.4.a.y.y.a.L.I.U.K.P.~.U.(.{.{.Q.L.J.a.L.(./.@X&XdXdX&XwXkXCXBX1XAXHXHXxXHXCXCXLXHXxXhXHXZXVXZXAX&X/.m.Q.*X*XfXVXwX=XyX=X&X&XdXlXdXAXHXKXCX1X,XOXu.a.d.K.6.Z 7 D D D T.;XY.y.$.",
"%.%.-.| %.%.=.:.| %.;.t.m.z.z.h.z.m.B.m.g.z.j.m.n.M.m.m.h.z.m.b.j.m.oXN.M.m.M.N.M.).z.z.n.z.M._.oXA.oXB.m.M.n.m.n.M.M._._.].].`.M.`._.M.M.9X8XqX8X8Xn.v.M.`._.j.r.j.M.j.z.8XoXv.n._._.oX`.n.qXoXz.j.h.M.n.j.h.>.h.j.t.V...b y F S.T.G.4X-XXXXX.X6XXXXX.X.X6XXX.XaXrXrX.X,X}.D.T.S.T.;X3X3X2X;X~.a.a.L./.@X(.wXjXxX^.>XaX&XkXjX&X@X*X&XpX}.&X<XjXkX&XAXkXZXVXVXZXKXZXCXCXHXCXKXgX$XgXBXcX2X{.OXcXBXxXBXxXcXBXCXVXOX$X&X>XAXjXkXZXAXyXkXdXFXDXZXZXVXAXCXBX,XI.|.gX+X{.$X(.{.3.7 D D C D Y.Y.H.&.@.:.-.:.:.-.%.i.-.%.%.| r._.N.M.n.m.j.B.m.g.B.m.N.N.n.N.B.m.j.B.n.V.m.n.N.N.n.N.N.oXN.oXM.M.n.z.m.n.m.M.M.z.n.M.z.M.M.`.oX.XrX X[.!.M.)._.).oX#X#XrXyXrXrXeX.Xs.I 4 ! S.Y.4X;XY.4X;XG.H V F 7 B i g 4 g 3 g 7 4 4 z 4 g 3 7 4 4 2 8 7 7 7 7 F 7 F g F G G L E L R R &.3.&.&.R L I H R 3.! u.y.&.R P n L T T L u.u.y.P 4.y.3.J.U.y.u.y.f.U.y.K.U.(.+XU.{./.:X*X*X1XxXgXgXgXcXkXBX1X}.<XcXgX,X~.;XxXvXdXxXxXxXBXxXBXOX$X&X>XAXjXdXZXkXyXkXdXFXFXVXZXVXjXCXBX:X{.+X1X$X{.*X{.(.3.4 F D D D T.4XH.&.@.",
"=.:.t.| :.t.-.:.| | ..M.z.b.z.h.j.z.r.r.h.z.h.z.n.z.r.z.M.z.j.r.j.g.h.t.t.z.oXm.z.M.n.M.M.`.M.z.z.z.M.j.z.M.M.M.z.B.n.M.`.`.c.).].].#X_._._.)._._.8XN.n.c.oXM._._.M._.M.`.qX8X9XqXqXqXqX_.oXqX8XoX9X8Xn.z.N.oXN.N.oXN.z.r.=.q F 4X3X4X-X4XXXXX.X.X.X.XXX[.E.XX[.XX.XXX-XXXP.D.S.~ T.3X3XHX1X<XcXgXwXkXAXyXyXZXAXhX+XgX,XgXjXdXwXyXyXdXwXhXpXgXxX*XcXdX,X>X:X,X X}.|.:XxXcXxX^.L.~.$X,X$X+XVXHXHX>X>XdXgX}.$X^.^. X*XlXZXlXfXjXVXVXCXDXZXCX$X>XxXhXgXxX{.L.L.>XZXjXVXgX(.:X2.4 D B D D 4X;XU P &.=.-.t.%.-.:.t.:.:.| ..`.M.z.b.z.j.j.r.V.h.m.h.z.z.z.z.B.M.z.z.j.m.j.t.j.<.l.oX_._._.`.).M.z.l.z.r.j.N.j.V.j.N.M.B.z.8XN.).].b.M.)..XrX`._.M.).0XrXoX).n.0XyXQ.&.D D T.3X2X;XY.4XJ D ~ D ~ D D D D D 7 g 7 g 7 g g g 4 g g 8 D C 7 D g D 7 k 7 k Z F J H ~ J I H I W Q I ~ K A J 7 H UXE u.E Q u.R &.R R R u.u.u.3.R 4.3.y.y.i.a.d.U.K.L.I.L.I.|.P.|.Y.I.{.I.{.U.P.P.{.1X<X>XI.L.I. X*X}.}.xXHXCX>X,XdXgX}..X^.~. X*XVXZXAXfXjXlXVXCXDXZXCX$X>XxXhXgXxX{.L.d.&XZXjXVXdX(.:X2.4 D B D D 4XOXI P &.",
"g.r.t.p.t.t.r.t.t.r.n.oX_._.`._.M.oXn.n.m.z.z.z.z.n.N.oXN.oXn.n.N.m.z.M.n.`.M.M.N._.M.oXn.n.n.b.M.M.M.m.b.n.M.m.M.oX_.oX).).'.[.).).c.).v.x.m._._.!.'.m.!._./.m.(.oX_.=X).x.'.oXyXwXwXqXn._.n.n._.oXoXM.n._.z.n.oXb.t.t.t.=.y Z S.S.D.2X|.XX.X,XbXbXXXF.F.XXXX.XXXW A a Y D.D.H.T.4X4X4XJXH.OX;XgXBXxX>XAXZXkX=X{.~.~.}.OX$XxXdX*X*XdXxX>X$XdX~.}.$X{.~.}.R.^.}.R.$X>XxX>X}.~.>XdXdXCXgXCXCXxX}.K.$XgX%XdXdXd.dXgX&XZXdX&XxXZXCXZXCXBX,X4.a.VXKXHX1X X(.}.jXZXCXdX>X$XdX>Xp 4 J D C ~ ;XT.H.a.-.=.t.:.:.-.t.,.-.| | l.oXM.b.M.z.m.m.m.r.r.j.h.h.j.h.z.M.z.N.z.z.N.m.V.g.h.M.b.z._.M.z.n.c.c.).b.N.oXM.z.h.b.oXM.M.`.M._.M.].]..X[.`.].qX0X`.'.z._.0XeXwXeX0X^.&.g C 4X;X3X4X4X4XY.G.4XG.8 D D D J F B D F J D g i i D g g V D C F H D D B B Z Z J F F J A J Z J J 7 3 < a J p J G E E E UXn R u.H.K.U.a.d.U.Y.~.~.{.|.}.+XOX<X+Xa.y.K.P.P.K.I.u.y.U.K.y.a.a.a.d.a.{.}.,X$X~.L.$X>X>XxXgXBXCXgX+Xa.$XgX$XgXdXd.dXdX*XZXpXwXxXZXCXZXCXBX,X4.a.VXKXHX1X}.(.+XjXZXCXwX>X@X<X>XZ 4 J D V D ;XT.J.a.&.",
"m.g.r.r.r.g.g.g.l.n.0XoXqX8X_.n.oXoXN.n.n.z.n.M.z.z.M.M.l.b.`.M.n.z.N.oXM.n.z.v.b.oXM.M.l.h.n.z.m.n.M.m.h.n.m.x.oXb.r.l._.).).v.v.<.%.1.x.c.'.'.'.#X'.'.'.oXoX(.!.!.'._.(.!..X X'.'.'.'.oXm.m.n.oXn.'._.m.x.m.'.t.t.l.m.m.a.z 7 S.G.! 2X-XP.-X|.F.D.9.w.9.9.U W S w.D.F.F.D.F.D.S.S.H.S.;XT.u.6.D.P.|.:X$XL./.}.~.^.y.R U D.}.^.Y.}.+X>X{.f.d.$XlXxXjXyXwX&X/.&X&X*X*X&X%X*XgXxXgXgX XgXHX<X~.a.J.>X%X$X$X~.jXVXxX>X$X}.$XVXHXZXhX+X&Xa.~.AXdXdX=X{.&X<XAXjX$X@X>X X>XxX-Xt Z D D C S.;X|.K.@.-.t.t.t.%.| -.t.| ..h.8X].qXoXm.z.M.oXM.h.l.z.z.h.j.r.b.b.z.b.M.b.r.V.m.B.j.0.<.0.z.v.l.v.0.1.h.q.l.n.n.z.>.l.h.l.].z.:.z.[.M.W.c.v.<.| <.c.).c.).c.c.'.rX.XW.1.4.H H 4X2X3X3X3X2XIX2X2X3X~ H V V F D 8 7 B k k H I R ! ! E E S.D k k k G G z J I E E W I W &.5.y.2.3.J.{.|.OX{.I.U.Y.{.OX2X<X1XOX<X,X,X,X:X:X<XgX>XgXgX:X&XcXHXcXOXH.5.J.u.R Q K.+X~.{.~.~.~.d.~./.{./.@X}. X>XgX<X1X|.<XIX<X~.a.L.%X$X*X@X~.gXVXhX>X$X}.$XVXZXHXgX X*XK.~.AXdX1X+X~.&X1XxXkX$X@X&X X>XxX}.a Z D S.C S.;XY.P.@.-.",
"t.r.p.r.t.t.r.h.oXoXeXuXqXoXM.M.t.h.M.n.M.oXC.M.n.z.b.M.M.`.M.M.M.m.B.m.b.M.b.M.`.M.l.z.h.c.h.p.z.n.M.h.r.>.1.<.l.r.z.r.h.c.<.] ] ;.;.<.z.!.!.m.!.!.c.).c.m.s.x.n.s.m.!.!.).oXoXoX#X#X].oXf.r.!.!.l.c.<.c.z.x.t.t.M.m...$.@.p i D ~ Y.-XD.D.S f f f S w.w.S S S w.D.8.F.D.6.W A S.S.W S.Q E &.y.3.P.OX,X$X$X@XR.d.g.T t.*.*.2.6.5.I.*X{.~.:XxXgXgXAXdXVXAX#X*X#X=X&XfXdXwX&X+X~.a.a.I.}.R.J.L.a.}. X^.L.s.Q.gX{. X@XL.&. XxXdXkX>X@X$X/.*XjXAX1X$XgXxX>XgXgX$X$XL.I.}.P.H.i B D S.D G.T.T.5.@.-.} | -.:.-.t.| t._.oXrXyX9XoXM.b.t.r.z.h.z.B.z.B.j.B.B.n.B.b.z.j.V.t.V.t.>.h.h.j.h.h.>.>.{ ;.;.;...:.z.:.;.1.%.%.r.:.v...0.c.l.{ #...[ [ ;.;.l.v.<.8.!.n.wXR.#.2.4 ! 4X2XIXIX2X2X4XY.T.4XH.E ! y.U.U.U.+X1XBXCXZXKXLXKXPXPXLXJXIX:X+X1X1XgX2XAXBXkX&X~.$X1XkXkX+X*XCXAXKXBX<X}.I.|.1X>X<X1XcX,XcXgXP.:X<XOX$X1X*X$X<X>X$X:XOX.X,X:X}.{.K.H.U.+XI.I.@X{.@X+XQ./.@X@X*XdX&X>X*X@XQ.a.a.~.XXE.L.P.a.{. X~.x.a.Q.gX}. X@XL.&.}.xXdXgX>X}.*X/.&XAXkX1X*XjXxX>XgXgX%X$XL.I.|.P.H.i B B C D G.T.T.5.@.$.",
"t.:.:.,.<.p.M.yXuXoX`.oX8XoX`.].C.oX8X`.8X`.N.M.N.9X`.`.8XN.N.b.z.M.oXoXB.h.z.N.`.n.z.h.r.h.h.z.z.l.l.>.1.<.<.,.%._ ;.v.;.1.<.<...] ;.;.....:.t.:.t.t.t.t.t.m.t.t.t.x.d.n.0Xn.oXoXoX8X=XoX_.l._.n.r.:...%.:.l.m.m.z.m.t.t.a.y 4 ~ D.3XD.p #.D.w.@.w.d 9.9.#.d d d f f 0 d d u a C S.D.S.{.}.{.I.{.U.a.a.4.J.L.(.g.m.} h h M m @.@.y.L.a.I.$X,XgX}.R.$XjXkXVXjXjXjXjXlXwXdXoXg.f.^.*X/.s.f.p.d./.#X*X'.oX=XjXyX=XQ.@Xd.(./.s.&X&X/.xXxX{.pX&Xd.I.Q.U.U.gXhX@X~./.~.gXf.y.3.7 B B C C 4XG.S.S.$.$.%.%.%.:.| r.M.yXuXoXN.9XqX`.oX9XA.N.N.N.8XN.B.M.A.oXN.M.N.N.z.z.j.j.M.B.t.O.h.j.j.0.X...] { ] ] ..;.;.{ ;.1.7.;.' ( ] q.{ 1.1.;.{ [ ] ] ..{ >.<.1.v.v.m.0Xs.*.&.; u.4X;X2XIXIXJXJXJXJXJXKXLXPXPXPXJXcXcXJXJXJXPXPXPXPXPXPXPXPXPXPXJXPXPXLXPXJXJXJXIX2XLXHXHXvXvXhXhXHXbX;X|.|.P.|.}.-X$X1X:X}.}.|.Y.:XOXOX$X1XgXxXCX<X}.}.}. X|.~.-X{.I.{.}.:X,X+X@X%X%X&XfXlXkXzXfXyX&XwX'.i.d.!.&X/.a.s.f.d./.#X*XoX(.oXAXdX@XQ./.x.(./.a.&X&X}.jXxX/.<X&Xf.(.Q.I.U.dXdX@XQ.}.~.gXd.y.u.7 Z D C D 4XG.S.S.$.$.",
":.| | :.h.8XyX9X9XqXqXiX9X9X`.5X9X9XN.oXM.M.8X`.oX9X9X`.`.`.z.j.M.N.N.M.b.b.j.z.N.M.j.r.j.l.h.h.r.......;.r.>.<.| | ..] ;.>.<.>...1.| ] :.X.t.h.r.n.oXx.!._.oX_.n.oXoXoXoXoX=X`.oXoXM.oXn.n.r.n.m.r.:.r.h.n.oXn._.z.z.r.r.=.u 3 D ~ 4XD.a S 8.9.@.9.1.F.1.d r 0 $ 0 f o 0 e w y < ~ ! W cXL.L.(.~.L.a.&.4.J.y.&.u.m.} w h e e q p b Y &.P G R 2.5.R.>X>XdXdXlXZXVXjXhXdXdX*XwX1XVXkXdX*X~.dXdXwXKXDXkXyXFXFXhXxXAXdXfX*X&XVX>X=X*XkX@X} &X@X=X(.=X/.wXdXg.i.'.@XfX*Xm.L.R 4 J B V G.4XT.! ~ d.:.|  .| ..l.9XuXqXtXuXtXtXqXqX9X5X9X9X`.9XN.N.9X9XoXN.N.9X`.N.j.j.j.z.z.j.j.>.` { 0.;...` ` [ ..` ] ` [ ` ` :.;.>.` [ ` [ ..] ] ] { 1._ ` ` ` ] ..v.M.r.oX>.%.-.&.4 UX;X3X3X3X2XJXPXPXPXPXPXJXJX2X2X2XIXJXJXPXJXPXPXPXPXPXPXPXJXPXPXPXJXJXPXJXLXKXJXLXPXLXHXLXJXCXIXHXJX,X6.P.XX|.-X:X:X:XgX+XI.J.J.~.|.-X;X,X<X<XgXcX<X$X}./.a.U 8.|.2.6.H.Q U 6.~.@X%X/.'.#XfXNXjXfXkXyXdX@X&X*XAXdXwX#X(.wXdXwXKXZXkXyXDXKXkXlXVXkXdX&X&XVX&X*X*XkX@XT &X@X*XQ.=X/.dXdXi.i.'.@XkX*Xd.L.T 4 F B V G.4XT.W ~ d.:.",
"h.X.z.iXyXqXqXMXuXtXtXtXiXqX9X8X9X9X8XtXqX8X`.`.9X8X9XN.N.N.N.N.N.N.z.j.N.`.N.oXoXoXoX`.z.h.r.r.>.X.>...>.h.n.h.>.:.>.>.:.1...] :.n.l.b.M.z.M.oX#X8XqX`.n.oX`.oX0XyXoX&X=XoX_.#XyXoXoXoX!.n.m.n.#X8Xz.l.oX0XoXm.M._.n.m.p.d.j l Z i Y.W a f 0 f #.E.q.1.1.[ d f $ 0 0 0 s v u = < ~ H.Y.;XL y.f.u.a.y.K.&.T &.-.-.m m x j q e w n v v @.n f.U.f.L.~.~.}.,XxXgXBXBXjXCXxX<XxX<XCX{.$XgXQ./.~.$XvXKXgX%XCXJXvX3X,X>XhXxX$XjXjX*XdXAXZXQ.m.&XyXyXdX*XAXZXkX*XjXAXwX&X$X=X$Xu.3 J J D G.4XT.S.8.[.l.t. .h.qXuXuXuXGXuXuXuXuXtXqX8X8XrXoX9XqX8X8X5XN.C.oXN.B.k.b.B.B.j.z.X.X.z.z.z.0.X.X.j.h...) ) ` ` ` ` ) { 0.h.:...[ { ] [ ] ] / ] <.;.>.h...z.M.z.r.eXqX_.!.i.P z Y.4X4XIXJXJXJXPXPXLXJXJXcX2X2XJXJXJXJXJXPXJXPXJXPXPXPXPXJXJXPXPXJXJXPXPXJXLXPXPXLXLXJXPXLXJXHXLXLXHX-X~.XX}.|.;X>X,XgXgX}.|.|.I.~.{.|.$X1X2XgX<X<X<X*X+X~.~.s.|.P.K Q y.K.&.7.(.oX/. XwXlXdXlXjXkXNXkXdXVXgXVX/.$XgX~././.@XBXKXhX$XvXHXCX,X,X>XgXjX$XkXjX*XdXAXDXd.m.*XyXyXdX*XAXZXkX*XjXNX&X&X*X+X*Xu.3 H ~ D G.4XT.6.a.[.l.",
"oXN.qXqXiXuXuXuXuXtXqXzXeXeXrXuXyXeXeXqXuXuXqXiX9X9XoX9X9X9X9XoXN.C.oXM.M.`.`.8XqXqX9XqX8X].z.h.z.M.z.>.j.b.oXM.b.>.;.>.>.<.h.<.h.l.qXqXoX8X`.M.oXoXoX*XoXyXwXwX!.m.Q.m.m.!.=XyX#X#X(.!.!.!.m.!.m.g.R./.(.Q.Q.*X#X=Xn._.!.i.l 4 p 6 T.A e f r #.[.c.;.1.1.;.[ 0 e w x ' -.n q 2 B V V T.Y.R &.T T -.d.U.d._.oX(.(.Q.} N h w N T x m n w t.(.(.&XZXkX*X<XjX,X~.L.U.1XCXOX$X:X,X:X*XxX{.*XjX1X>XxX+XL.<X>XK.U.|.}.}.,X$X}.BXAXCXCXVXHXu.{.=X*X&XAXZXVXkX&XdX%Xa.&.Q.~.I.:XQ 3 ~ ~ S.G.G.S.6.>Xx.b.8XN.uXuXuXGXSXSXSXSXMXSXuXuXeXzXyXuXsXqXuXuXuXtXiX9X9XN.`.9X9XN.B.N.N.z.j.B.j.j.z.b.j.>.z.N.0...h.k.0.{ >.j.`.b.h...) ] { ..1.[ { 0.`.8X8X9X9X`.qXeXn.p.].Q.&.K z 4X4X4X;XJXLXPXLXJXHXJXJXJXJXJXJXLXJXPXJXJXPXJXPXPXJXPXJXPXPXJXPXPXPXLXPXPXPXJXPXPXPXPXPXJXJXJXIXcXbXxXgXgXpX>XpXdX<XxXvXhXpXR./.{.$X$X>XgXgXcXgXgX,X|.~.~.L. X~.a.j L K.Q.=.@XZXyXwXfXlXdX@X(./.pXCX*X*X:X>X>X:XjX}.*XjX>X>XAX+XL.gX<XL.I.|.}.|.>X$X+XCXxXVXCXCXHXu.}.+X*XyXAXVXZXkX&XgX%Xa.&.R.~.~.:XQ < ~ H S.G.G.G.6.>Xx.z.",
"`.tX9X0XqXtXzXzXtXtXzXtX0XrXrX.X[..X.XrXwXeXfXeXrXrX`.6X8XrXrXrXqX0XqXyX0X`.`.yXrX0XeXwX0X0XqX8X9X0X8XN.z.h.>.l.c.).0.v.W.v.x.v.n.v.v.c.).'.[.!.v.v.x.v.x.v.R.Q.a.Q.R.a.!. X%X'.^.~.^.Q.^.Q.i.d.s.d.R.L.s.f.i.s.d.L.R.x.=.&.j 4 4 J T.y a s w 8.9.s @.#.[ E.<.r s [ $.$.n y = Z F ! ~ F UX-.R -.-.7.d.I.L.*XHXZXxX>X=X-.N n m m T L j m U.{./.xXOXa.I.{.~.5.5.|.|.:X|.K.J.P.|.K.}.}.I.|.:X}.|. XhX%X~.2.}.{.P.I.|.T.{.H.-X:X~.OXL.U v +XhXxXhX$XR.XX%X:X}.+X~.K.a.a.P.R z g D ~ T.G.~ W 3./.)._.iXSXuXzXnXmXFXFXDXnXmXsXsXsXaXpX.X.X6X6XeXfXlXfXtXeXW.6XiX0XqX0X8X8XqXyX5Xc.b.[.`.5X`._.9XoXM.`.].iX5Xz.0.{ ) >.0.c.;.<.<.;.%.,.v.v.1.8..X[.[.E.v.s.v.W.[.7.@.i H Y.4XG.Y.LXLXPXPXIXbXJXJXJXLXJXJXJXLXLXPXJXPXJXLXPXPXJXPXPXJXPXJXLXPXPXPXPXPXPXPXPXPXJXIXLXLXbXT.T.XXbXIXHXHXHXHXHXLXJXIXbXL.{.$X:X<X<XgXcXHXCXxXcXgX$XR.~.@XQ.~.J.p L Y.{.{.cX>XQ.'. X XE.Q.$X$X%X$XR.L.I.}.L.}. XI.|.:X}.{.$XhX>X~.4.}.{.P.I.|.I.|.J.OX;X~.:XP.R p }.hXjXhX$XR.XX,X,X}.OX~.d.f.a.P.Q g g D ~ T.S.~ ! 5./.).`.",
"c.).[.'.[..X.XE.F.8.R.8.8.8.7.2.9.4.9.s.5.8.7.7.9.9.#.9.9.4.*.#.9.4.s.L.R.R.}..X!.Q.[.^.(. X~.~.R.R.s.i.<.%.,.x.7.<.s.R.a.s.,.7.a.7.-.7.8.i.,.=.7.*.,.,.,.,.7.$.=.t.u.,.-.x.m.x.f.t.x.x.d.f.s.x.x.r.t.p.s.p.s.d.4.7./.p.-.-.w = k F G T v q s 0 f f w.#./ #.E.v.;.*.b a.~.: 5 J 7 ~ ! F z g n z x L y.U.a.:X$X~.Q.{.>X~.T T T m n T P T 3.&.&.R R 2.&.P 2.2.6.J.5.5.4.2.5.2.4.R 5.T.5.J.I.a.~.:XL.L.4.4.4.3.4.u.5.8.4.&.U Y K P Y K Y L.:X{.a.4.2.|.,X:X~.K.a.y.y.! 6.I 8 8 D D ~ ~ H.J.U &.s.c.).0XrX6X.X.X6XE.q.F.F.8.9.9.#.S w.9.9.D.2.8.9.#.Y Y S w.#.2.K d U U 2.2.5.6.2.2.U Y 6.5.9.6.a.a.7.*.@.P #.b b 9.@.[ @.@.Y P d d Y P d S Y d d d p d d f d a i 6 H.;X;XH.S.LXPXJXIX4XcXHXJXJXJXJXLXJXLXLXLXJXLXLXJXPXJXJXLXLXLXPXPXJXPXJXPXJXJXLXLXIX3X3XIXIXIXIX-XIX;XXX,XcXcXcXbXIXbX,X|.P..X,X}.|.,XJXIXHXvXcXbXgXhX<X,X,X}.I.{.5.A G 6.u.u.L.R.x.p.s.d.d.R.^.R.R.J.a.s.u.a.4.J.P.J.L.E.J.{.%XL.L.4.4.8.2.4.5.y.7.5.Q U P Y #.Y b Y I.:X{.J.4.6.|.$X:XI.a.K.y.y.! 3.U 7 8 D D ~ ~ H.J.R &.p.c.",
"m Y b b d d d d d v d s a d p d K K a a a - : a a Z i = - a J I 6.Q Q ! U 6.s.7.s.L.L.R.}.I.2.6.5.4.4.5.4.5.4.2.4.4.4.7.a.i.4.5.&.U @.&.U m #.P T n x t.t.m./.x.Q.L.d.a.f./.Q.i.f.d.d.Q.m.m.m.x.f.x.d.f.p.p.a.7.i.u.g.u.t.=.j 4 Z i = 3.&.w c f f d d [ #.d <.aXDXlXxXCXa.* A F F D H.T.H 9 g z t q l 2.5.P.J.5.5.a.P.y.l U U L U L U R n l n j n R L P P U &.U P R T U L U P U Q Y Y I K I L K G K L v p K L L v Y n P n K n n n K n I U I I I H Q W Q Q I R p y k g 4 g D D ~ S.S.~ H p p K Y d v a d f f a f f p f - - t t a A 6 - O * X X < < < < ^   , 6 6 J 7 F J 6 7 4 i G Z 7 8 7 6 6 B i 3 3 p i p Z a a a < t a i < i Z 6 t t 3 - = = < X   X ^ 6 Z J ;X3X4XT.D.4XJX3X;XbXcXHXLXJXHXLXLXJXLXLXLXLXIX-X3XD.T.T.Y.<XLXJXJXJXPXPXIXIXIXIXIXcX3X2X3X3X-X-X|.cXcXHX,XJ.|.;XbX-X-X|.|.:X3X-X-X|.}.-X,X<XgXcXcXBXHXcX,XP.J.T.P.6.J G Q E I 3.U.d.i.t.p.f.x.d.s.a.s.i.-.4.3.3.3.&.Q R U R Y L K L L v v K Y L n P K U n m n n n K n I U I I I H Q Q W Q I Q i 4 F 7 4 7 g D ~ G.S.W J k p Y Y ",
"u p u u q y : q q - : - : a y i t 3 : : t q > y p G k 3 3 6.u.K.y.u.K.K.U.~.a.L.~.L.(.}.}.{.+XJ.K.K.y.&.3.5.3.6.4.4.5.3.&.3.@.K T &.&.R R T U &.2.L u P L.Q.f.U.@XU.a.~.^.I./.L.p./.+X X=XU.(.Q.Q.^.Q.x.a.i.7.-.i.=.-.t.&.3.y 4 F J * ; 4.c w w s [ @.@.#.[ d &.bX,X$XJ.3 O J A F D H ~ E g g D y i 3 G I G G I I I K p : 3 t y y 3 2 4 4 4 ; 4 3 : y z q y l j l l l z y : 3 y 3 : 3 2 3 ; y 4 3 : 4 3 3 3 ; 3 3 : ; 4 q 4 : 4 k 7 8 4 3 3 7 4 7 Z Z 4 7 7 8 4 4 g 7 8 8 D C ~ S.~ ! F 7 V 6 = = 3 t : = - + * + X X X * < * 2 < & ^ ^ = * O 2 7 a V ^ ^ Z ~ UX6.! H.H.H.T.H.H.u.6.H.u.H.H.Y.J I Q G y i p a A i 3 a i t 6 3 6 3 3 6 7 a < 6 6 B X X < < 6 V D.3X4XG.T.Y.! Y.Y.Y.3XcXIXHXLXHXLXJXLXJXLXJX4XD.D.F.D.D.D.5.6.3XLXJXJX3X4XF.3XIXIXcX-X-XbX-XXXD.D.T.-X-X;X|.:X$XP.Y.|.1X,X,XgX|.L.<XcXgX;XgXgXHXHXHXbX|.T.2.! 2.5.D.I = 4 H E E Q 3.&.&.-.-.7.a.f.i.i.4.&.T v x l p a i y 4 4 i y 4 3 y 4 3 3 4 3 3 4 : : 4 4 3 4 k 7 8 4 4 3 4 4 7 i i 6 i 7 4 4 3 i 7 4 B D D ~ G.~ S.F B 7 6 < ",
"y l i z u : : > O X - * - 4 : i 4 i i 4 : y i k k k z u.K.Y.}.|.I.|.P.P.|.-X}.-X$XI.}.$X|.;X}.|.I.,X:XP.XX|.XXXXJ.XX4.5.P.P.a.~.}.L.L.L.4.5.D.D.a.6.R 2.~.L.J.}. XP.I.}.{.U.U.{.{.%X@X}.(.(.~.L.~.(.~.R.u.7.=.3.-.T u.-.&.P l 3 G J ; . g T x x #.&.@.&.@.Y P @.2.K p K * * D D g H D D D D D C 7 7 7 4 2 2 2 = * = = 2 3 2 2 ; ; & & 2 2 3 9 ; 4 9 9 ; ; 2 9 & * & & * O O = = ; 2 5 2 3 8 2 2 8 7 2 2 2 8 2 7 8 2 4 ; < 2 3 8 2 7 8 8 7 V 7 F 6 B 7 B 7 7 8 7 8 2 8 8 C D D g ~ ~ S.J 8 Z 5 , 5 7 3 2 ; & * ^   . ^ ^ * & & 2 , , 3 = * 2 2 9 5 9 8 UXG.4X;X:X|.;XXXY.3XbX3XbX2X|.,XcX|.;X|.|.T.bX,XJ.P.P.F.D.6.P.D.2.D.D.J.~.}.6.6.5.S D.2.6.2.J L I 2.6.6.4X3X4XT.4X4XT.u.OXgXVXDXZXHXKXvXHXJXHXLXIXP.5.J.7.D.D.4.7.4.y.a.;X2X-XD.K.IX3X-X-XI.|.|.I.P.J.I.Y.|.T.T.P.{.}.|.cXcXcXcX<XcX,X:XgXcXcXcX2XIXIXcX-X-XH.! 5.H.y.y.u.y.G 2 9 J UXJ ! ! Q 3.u.u.u.u.-.R R L l j z k z k k i i i 7 4 4 7 k 2 8 2 8 7 7 4 3 4 3 2 4 4 8 4 7 8 g B 7 B F 6 B 7 B 7 7 7 7 4 5 8 g g D D D ~ ~ S.~ 8 F 5 , ",
"t y Z y < : ; ; < : : 4 i 6 i 3 3 p i t i t i i 2 ! Y.4XY.;XOX&.2.2.Y #.2.P.P.I.2.K Y 2.S K S K Y 2.2.2.6.2.U 2.2.2.Y 6.9.2.6.5.J.J.J.D.F.|.P.E.E.P.R.XXP.L.P.|.Y.~.{.I.~.I.~.+X$X@X'./.!.~.Q.Q.L.L.a.4.*.&.P v z n N z K p : ; F 4 ;   . 4 p a K t i y t t t 4 y y i y X 9 D D D D D ~ J 8 D D D 7 B B & 2 7 3 9 , 9 2 2 ; 8 ; & 2 2 5 2 2 8 1 9 1 8 1 9 9 9 9 * * * * ; 9 ; 2 2 2 1 2 5 2 8 2 8 2 8 2 1 5 8 2 2 2 2 8 5 V 8 8 8 8 D D V V B B V B V V V V B V V D V D D g D Y.4X4XT.UX~ g 7 9 < , 6 2 , * & * * * , 1 2 < 1 , , 6 6 < 3 < 7 5 & ~ ;X3X;X2X<X2.6.2.Y #.D.3XIXIXT.S 2.6.S S S S 2.6.9.6.D.9.D.D.6.9.6.F.D.5.F.D.P.P.XXP.F.bXXXXX.XE.^.~.XX%X|.bXIXIXD.4X-XY.;XBXZXKXKXDXvXHXCXHXIXLXJXT.P.a.4.3.D.D.4.4.4.4.a.I.cX|.P.Y.4XD.-X3X;X:X}.|.|.:XgX1X<XhXgXpXcX<X,XaXbX2X,X2XcX-X,X2XcXcXcXJX3X3X-X-X-XY.XX|.|.Y.Y.P.H.F 2 9 D ~ g ! u.u.y.u.u.u.u.u.&.P T l G l n G k k 7 7 k 7 7 8 7 8 4 7 2 7 7 7 8 8 5 7 8 8 6 6 8 8 B D V B V Z B B B V B C B V B B D V D D D Y.4X4XT.UXE F B 2 ",
"y k i 3 4 2 3 2 4 3 3 y i 7 i 6 3 a 3 - : * 3 4 UX4XY.T.T.H.6.Q U U A p p Y 2.Y A a t a p d K p d A S f i A S Y A A S S S K K S S A Y U 2.U Y Y 2.#.#.6.4.Q R W Q 2.Q 6.J.u.u.K.~.{./.U.a.4.u.y.a.y.R x y p G 4 ; y y 4 3 3 7 F i D 9 * & & 3 ; < * 3 ; ; 2 = 4 6 2 2 5 * 1 D H D D H.T.Y.~ D D D D V B , V B F D B 8 B 7 8 8 8 5 5 5 5 5 9 5 1 1 1 1 1 1 9 & 9 9 * 2 9 & 2 5 2 & 2 1 5 7 7 8 8 2 7 8 2 5 8 2 5 2 D 5 5 6 6 5 6 B 6 D V V V V V B 8 6 5 5 7 5 5 g 7 B 8 D ~ Y.2X;X3X;X;X-X|.S.A k k 7 3 6 2 5 : 6 4 5 6 Z B 6 a < a 3 = = = 8 D T.2X;X4X4XY.K.6.6.2.Y S 9.P.XXP.w.S S d d @.#.S S S S S d S S w.S S w.9.#.#.Y 9.Y Y 9.9.D.D.D.9.8.8.8.F.XX-X.X-X4XT.D.4X3X4XT.cXJXKXLXKXjX$XbXJXLXIXXXJ.8.a.t.u.F.D.8.7.6.4.7.P.,X|.I.U.J.D.-XXX{.OX,X2XcX,X,X1XBXcX:XgXgXcXcX,X;X-X<XbX,XcXIXxXJXcXIXcX,X,X;X2X-X-X;X;X|.Y.Y.|.H.i 2 1 1 ~ ~ G.H.! UXu.u.u.u.Q Q R Q T l n G k i i i Z F F 7 k 7 7 7 8 7 7 6 5 8 F 8 6 7 7 5 6 B V B B B V V V B 6 6 5 7 7 6 5 g g V 8 g ~ 4X2X;X3X;XOX4X|.D.S ",
"U.I.K.a.3.u.a.d.K.L.I.K.L.y.5.L.J.y.L.7.L L z u.T.H.! UXS.6.! Q Y l G d G K K p p i p p d Y Y #.Y K S S d p S p d d p d K Y K Y Q #.U 6.S W U 2.D.5.&.6.5.Q I K G A i F J H J u.I.K.J.a.3.&.&.R T G i i G I H J H E H H F k F F F ! H.H.! g g 4 g y 4 4 6 7 7 F B V J B , B D J ~ ~ ! 4X;XT.~ ~ D D D D , B J D J D F ! G.J B 7 8 2 1 5 5 8 1 1 1 8 8 8 8 1 5 9 1 & 9 7 2 8 , 5 5 6 5 5 5 5 5 5 2 5 5 5 8 5 8 5 5 5 5 1 5 5 V V V V 7 5 H ! E W E ! 5.Q R H W 2.UXH.4XH.4X2XBXIX2XIX2X3X3XbX-XbXOX1XOXOXL.~./.}.+X$X>X/.@X|.XX-X|.~. XE.-.R z Y.4X4XG.T.T.T.D.D.2.#.2.9.9.6.D.#.Y d Y w.w.#.#.9.9.#.w.w.b S w.d w.d d S #.@.w.9.F.8.5.F.w.9.9.8.XXXX8.E..X-XXXD.D.S.S.S.4X4XY.JXPXPXLXKXhXbXHXxX<XI.4.8.J.a.y.f.3XaXaX/./.d.8.3.OXhX,X,X:X,X-XY.OXOX$XgX2XgXbX2XcX,XcXIXcXbX<X,X>X$X;XgXcXcXHXHXcXJXcXcX<X,XcX<X,X,X,X;X;XOX4X|.Q 6 9 8 1 D D UX! u.3.3.u.Q u.u.u.E E L L G z G l F F Z 7 F 7 7 6 B 7 6 B 8 V 5 2 8 V 5 8 V V B V B V 8 F ! Q W E ! 5.Q Q J E ! UXH.4XK.;X2X2XIX2XIXcX2X2XbX-X.X",
"P.~.P.R.F.XXXX^.XXXXP.P.P.XXE.P.J.L.J.8.d.s.7.J.P.D.S.~ S.! H.Y K p A S K p l p A p p A v #.9.6.9.2.Y K K d K S S Y d d d Y &.K Y U S A S Y I K 2.2.K 2.6.J G G L G G W H ! ! ! Y.T.I.K.T.H.6.Q I ~ I ! ! J E ! E ! ~ W ~ F J F E 4X4XIX3XE F H F F B F Z Z Z ~ F F F D 8 H Y.3X;XY.3X3X;X;X4XJ J H F F , 7 B J D H H.Y.T.H p 2 , & 4 g 8 8 & , 9 1 < , 5 5 2 5 , & 1 V < < < A a < < f < - f f - < f - 6 a a < < < f < < a < t t t a d J.E.^.E.E.XX[..XXXXX%X-X$X:XaX,X-XIXbX2XbXbX-X-XbX-XbX6XaX,X.X.XaXaXbXaXbXaX6XaX-XbX-X6XXX[.[.W. X^.E.}.-XH.T.S.S.D.Y.6.9.Y #.#.9.#.Y #.@.w.Y #.w.9.8.F.8.8.#.#.w.w.@.[ w.#.w.d [ #.9.w.9.9.w.w.S 9.W S F.8.S D.XXF.W #.2.S ~ H.S.T.Y.4XPXJXJXZXBXJX,XI.D.4.y.y.u.4.u.1XCXZXZXHXDXlXfX^.~.gXhX2X2X<XcXcXcX2XcXcXcXcX2XcXcX3XgX<XgX2XcXcXcXgXBXCXcXBXJXJXJXJXJXJXbX2X2X2X,X3X3X2XcX;X|.I.A 2 2 5 4 9 g ! ! ! 6.2.2.3.3.Q R R K P v K S K K p S p t t a f 0 t a a a a a a a < a a a a t t t a p S 8.XX^.^.W.XX.X.XXXXX.X-XOX:XbX,X%XcXIXbXbX3X-X.XbX-XbXbX",
"8.L.L.8.8.D.8.8.8.6.7.F.D.8.8.J.J.8.s.7.8.d.J.I.2.J ~ J J ~ ! A t i i K J A A A p p A K Y Y d p d S d S S K S Y 6.6.9.6.5.5.9.d a a a a a a a a p S p A A K Q Y A i J ! G.! E E U.T.U.P.I.H.6.Q 6.3.u.I.U.J.U.Y.Y.K.U.H.5.H.! H.+X2X3X2XIX:XH.J H I J F J J F H J J F J F Y.2X3X4X3X3X4X;X;X;XY.! J J W ~ E H.u.~ H.OXY.{.|.Q Q K.U.K.I.U.y.y.u.UX~ ~ E 7 5 , , C < , < < - f a f s f f w.8.8.9.#.d f f a f < f t t f < a f f 0 @.7.8.W.[.[.].[.W.c.W.q.E.q.q.XXW.E.F.XXE..X-X-XF..XbXbX6XF.XX6X.X6X6X6XF.XX[.F.XXF.F.XXF.F.XXW.XX[.^.R.E.[.^..X8.W S.~ ~ S.T.U a S S 8.6.#.#.Y S w.9.9.#.[ b d d w.Y @.S w.w.9.E.F.8.8.W.F.1.w.f f f 0 f f f f d d A a S S 9.#.S t Z H.G.H.S.! BXJXBXZXLXkX|.D.5.5.5.4.u.=.*XZXCXJXKXFXKXHXVXlX%X$X:X|.|.|.|.Y.-X3X;X2X3X,X,XcX3XcXbXgXcXbX<XgXxXxXBXBXHXHXJXJXJXJXJXIXcXIXHX2X3X2XgXcX<X,X|.|.3.I L I ! H H.;XI.y.|.4.n 2.&.2.5.Q Y Y S d b @.Y d d d [ v.s.8.9.b f f S a a a a a t a a f a f @.7.8.W.[.[.].[.W.v.v.F.v.q.F.W.W.E.F.XXF.-X-X-XXXbXbXaX6XF.XX.X",
"D.F.8.8.8.8.8.J.5.8.8.L.F.8.D.J.8.8.R.s.R.L.R. X&.A H Z J S.W i A G K K Y K A A A A Y Y U Y d S p p Y @.Y K 2.7.F.5.9.#.9.2.9.D.6.8.9.2.U 2.Y #.#.Y #.K 6.a.5.4.4.&.4.P.Y.I.Y.H.+X$X:X$X}.:X}.OX:X,XOX,X:X:X:X,X:X,X2XgXgX<X:X|.;X3X;X<X;X2XOXH.Y.OX;X:X;X;X-X:XOX:X;X,X1X;X2X2X3XOX3X;X;X;X:X;XY.OX|.Y.K.u.u.3.5.I.|.;X:XP.K.J.y.3.3.4.u.i.L.I.Y.P.{.Y.G & * 5 V < 6 A w.@.1.v.q.q.E.v.W.6X6X6X6XW.] d d d d a f s a f f 0 f 8.E.W.[.W.6X.X.X5X[.W.[.W.W.5X[.W.W.6X6X.X.XXX.X.XbXbXbXaXbXXX.XXXXX6X[.F.6XF.[.XXF..XXXXX.XW..X.X^.W.[.[.6X]..XbX8.H W Z ~ T.T.S w.9.7.8.8.#.Y #.Y #.8.8.9.#.#.[ b s [ 9.9.#.8.F..XE.q.#.#.w.#.9.S #.S d f d f S d f d d #.9.d d Y f i H.T.G.T.! ;XKXJXCXgXbX|.P.a.a.y.g.f.>XVXKXFXLXLXJXKXZXZXZXHXgXE.}.I.I.T.Y.{.|.,X3X{.;X3XgXgX<XcXIXcX<XIXCXIXCXHXHXIXxXIXHXJXJXHXJXJXHXcXcXgXgX<XgX<X,X:X|.U p G G I G 6.:XJ.}.}.4.P b v J.5.K p Y @.8.c.E.c.v.W.W..XrX0XrXrXW.%.[ [ @.d p a d d f a f d 8.E.W.[.[.6X].].].`.[.[.[.[..X[.W.[.6X6X6X.X.X.X.X6XbXbX6XaX.X.X.X",
"E.E.E.R.E.R.v.E.F.F.E.E.L.R.q.F.v.8.E.).[.W.E. X2.a Z 6 W H.2.I @.#.2.9.*.@.Y P @.2.6.#.*.4.s.s.7.4.7.6.d d 7.5.7.S 6.D.5.8.6.9.9.8.9.2.9.#.9.@.@.@.[ 9.R.a.R.d.a.J.a.J.I.Y.U.K.Y.OX<X<X.XP.5.a.7.J.a.u.a.a.5.a.J.~.{.L.a.5.a.a.K.+XP.H.U.U.P.K.L.I.}.+X$X$X*X>X$X$X@X%X*XOX}.OX{.U.~.~.|.I.U.R.~.~.7.=.=.T T u.&.3.2.2.Q 3.U K l p Y Y l v p p u L Q 5.G & 8 V 6 , A .XW.W.W.[.W..X6XaXsX6XaX6XrX6X^.c.q.#.9.#.@.%.9.w.w.d 1.6X[.W.6X6X6X'.[.rX.X].6X[.6X0X6X.X.XaXaX.X6XbX6X.X.X.X6X-X.X-X6X.X.X6X6X6X6X5X6X6X[.W.6X6XXXXXF.W.W.E.[.0XrX#X.XaX5.3 Z 6 S.T.! S #.8.8.8.9.@.@.w.Y 8.F.8.8.8.E.v.q.s.E.8.d [ 8.R.q.@.w.d d a d S S 9.w.S w.w.w.w.d #.d @..X8.8.*.@.*.J ! T.4XH.H.{.BXKXJXdXL.7.7.u.u.g.U.&XZXDXLXLXPXLXLXZXCXHXvXKXxX X:X>X;X|.-X4X-X3X}.:X,X,XOX:X,XcXpXcXcXxXCXvXCXHXCXHXvXHXIXcXJXcXCXIXcXcXcX2XgX,X,X:X:X:XP.p 2 i i a 3 J I.P.8.*.$.&.u P I.Y q x s.x.0XW.v.c.[.rX6XrX6XrXwXwX6X[.W.8.9.1.#.#.9.9.@.@.[ 1.6X5XW.[.6X6X[..X6XoX[.6X.XrX6XrX6X.XbXaX.X6XaX-X6X.X.XbXbX-X.X6X-X",
"[.5X5X[..X]..X[.W.E.W.W.W.]..XW.W.).6XrX.X].#XwXs.v W L ! y.y.7.8.v.q.<.,.8.1.p.v.1.8.1.8.E.W.E.XX~.2.#.6.8.F.6.S b F.9.9.#.Y [ S &.@.w.@.[ *.%.8.p.#.9.s.Q.pX}.R.~.s.5.Y.U.K.U.U.+X~.Q.d.Q.x.d.f.Q.Q.@X@X@X&XdXdXkX&X=X+XoXoX/.&X*X}.Q.y.3.$.&.&.=.i.Q.Q.Q.Q.Q.d.d.m./.}./.Q.{.~.Q. X(.Q.Q.!.Q.!.m.g.m.m.m.m.U.i.=.T n L P l v v Y p Y @.$.' t.f.f.u.a.u.2 2 C V 5 W 3X.X.X.X.XXX.XaXaXbX6X6X.X.X.XpXpXrX%XrX6X[.]..X[.]..XrXrXrX.X6X6X.X6X6X6X6X6X6X6X6X6X6X6X6X6XaX6XbX.X6X-XF.aXbXbX,X.X,X.XW.XX6X6X6X6X6X6XF.6XW..XXX.X6XXXW.6X6X6XrX0X6XaX6.t A 7 ~ ! 2.2.7.8.a.F.F.F.4.9.9.8.8.8.8.F.W.E.E.F.D.8.8.F.[.8.#.S w.d w.d d d d #.d d S d #.[ 1.q.w.#.9.9.bXXX#.D.W A H.H.S.H.T.<X|.+XP.R.d.Q.(.=X=XAXZXCXKXLXPXJXKXJXHXHXHXHXZXZX>X}.,XOX2X,X,X<X1X;X1X>X+X1XcXgX<XxXxXCXCXxXxXxXIXxXHXHXHXHXHXHXBXCXHXCXBXBXcXgX<X<X>X:X:XJ.i a 4 i l a 4.*XR.,.| :.Q.&.L.3.t a Y ~.%X[.W.W.^.6X.X6X6X.XpX.X[.rXpXwXrX6XrX6X].]..X].[.6XrX6X6X6XrX6X6X6X6XrX6X6X6X6X6XaX6X6XaX6XbX6XbX.X.XaX.X.XbXbX-X.X,X.X",
"].6XrX6X5X].6X6X[.W.W.[.W.E.W.[.[.[.6XeXeX6X.XrXR.Y L I u.y.y.7.s.XXs.q.8.1.1.1.1.;.[ #.q.q.1.#.*.F.9.2.D.6.9.W S U 6.#.#.*.#.@.9.E.7.;.7.p.7.8.<.E.!.7.E. X%X'.~.~.L.6.I.+XI.K.K.$X~.a.U.@XdXdXjXlXjXjXjXjXAXjXjXkXyXdXdX&X*X+X*X@X/.L.t.u.t.u.d.Q.(.&X#X*X@X'.@X=X@X'./.(.!.Q.Q.(.'././.*X*XoX!./.(.N.(.(.m.m.g.t.| -.$.n N } =.=.,.p.f.(./.=X/.(.x.{.J.7 1 5 D C S.F.-X.X6XaXbXsXaXbXmXbXbXsXaXsXaX6X6XaXrXaX6X6XsXsXsXsXeXaXaXaXaXrXaXrX6X6X6X6XaX6X6X6X6XbXbXaXbXbX.X6X6XaXbX.X-X6XaX-X6X.X6X6X6X6X6XF.6X5X6XW.6XW.6X[.F..X[.6XaXaXrX.X.XaXXXt 6 Z W 3.H.a.8.XXJ.E.E.R.8.1.8.9.w.9.9.8.@.w.9.9.9.8.E.D.F.9.w.w.d w.d w.d r w.c.9.[ [ @.] 9.9.q.q.d #.8.8.6.9.2.W < D.Y.T.S.H.,X|.u.L.&XZXNXAXZXZXKXJXKXLXPXPXPXPXJXHXHXLXLXLXPXI.I.|.|.{.:XgX2X$X:X:X,XcXBXcXhXgXgXcXCXCXxXIXHXvXxXvXCXCXCXZXJXJXJXHXCXBXBXCXgXgXgXpX$X XJ.v v L L R T L.#X(.!.p.f.d.i.J.K L p U XX%Xv..XaXsXbX.XvXaXaXrXrXwXaXaX.X6XsXaX6XaX6XaXsXsXbXaXaXsXaXaX6XaXrX6X6X6X6XaX6X6X6X6XsXbXaXbXaX6X6XXXaXbX-X.X-XbX.XaX.X",
"6X6XsXrXrX6X[.[.[.[.6X].W.W.E.W.].6XaX6X].].]..X XU L I 5.J.a.6.#.@.#.9.#.<.l.<.<.q.1.1.q.1.[ #.#.#.9.5.6.9.W S a 9.#.*.7.9.9.9.^.aX#X'.#X.X.X.XrXsXaX7.R.^.}.!.^.~.a.4.&.K.y.U./.U.a.i.f.*XjXVXgXVXVXxXjXjXdXdXdXdXdXdX*X#X&XkX&X@X/.(.g.t.r.g.!.(.=X&X&X&X*X@X@X@X'./.@X'.=XoX@X@X@X/.'.'.(././.oXoX*X*XoXn.m.m.m.t.:.t.t.p.p.m.m.x.t.m./.$X@X(.Q.L.a.3.i & V C J D.D.%X.X6XbXaXaXvXvXbXaXbXbXzXsXvXvXzXbXbXsXbXaXaXaX6X6XbXbXsXbXbXbXaXwXaX6X6X6X6X6XaX6XsXsXbX6XaXaX6XaX6XaX6X.X6X.X.X.X.XW.6X6XsX6X6XF.F.6X6XF..X6X[.XXXX6XrX6X6XaX6X[.[..X.XH B 7 ! UXH.2.Y @.#.w.#.9.R.8.8.F.#.#.8.9.d d d [ 9.E.F.8.9.S d d d w.w.d d w.E.aX.XE.6X[.W.[.6XaXaXd S @.9.#.7.2.9.a < S.! H.|.Y.u.u.T &XKXLXJXPXKXPXPXPXPXPXPXPXLXJXJXPXLXLXPXHX5.D.P.I.-X,X;X,X<X,X>X1X1X:X<X<XxXBXcXcXcXbXxXxXxXHXCXJXCXxXCXBXHXJXJXBXcXCXCXVXxX<X>X&XdX$X&.U P L Q T L.(.<.7.p.x.f.d.n z K v -.!.^.).aX.XpX.X6XhX.X%XrXaXsXzXzXsXaXbXsXaXaXaXrXaX6X6XsXbXbXhXbXbXaXpXpX6X6X6X6X6XaX6XaXbXsX6XbXaX6XaXaXaX6X6X6X.X.X6X.X.X",
"6X[.6X6X6X6X6X6X].W.[.6X.X].[.[.].rXrX6X6X0X6X[..X*.K l Q 3.4.s.] w.#.q.E.v.8.8.q.1.>.0.;.[ [ [ #.v.1.#.#.a d f f 9.v..XXX^.v.R.E.R.XX.XE.^..X^.[.pX.X*.^.^.~.^.Q.R.a.5.&.! y.U.U.*X&X@X(.yXdX>XdXgXkXkXAXkXdXdXwX&XwXwXfXkXfXyX*X_.(.m._.n.oXoXoX*XwX&XyX&X>X>XwX1X*X=X@X&X&X*X*XyX&X&X&XoX=X!.=X*X&X*X=X=X=X=X(./.!.m.n._._.oX_.oX0XwXoX&X$X^.R.a.2.Y ~.k D 8 J -XY.F.-X.X-X.XbXvXbXaXbXmXmXbXvXvXmXmXbXbXvXsXaXaX%XrXzXbXsXsXaXzXsXvXsXsXaXaXaXaXbXsXsXbXbXsXsXsXsXsXsX6X6XaXbX6X-XXX6XaX.X.X6X6X6XsX6X6X6X6X6XF.XX.X6X6X.X.X.XaXaXaXrXpXrX.X,XY 7 2 ! ! 2.D.w.S #.F.XXF.F.8.9.9.9.9.#.d d [ 9.E.q.1.#.f d d f d R..XE.W.8.8.8.1.XXXX8.8.W.E.W.aXW.f #.9.w.#.S Y S A 6 V D H.3.gXCXyX=XZXCXKXPXPXPXPXPXPXPXPXJXLXKXJXLXLXLXPXLX{.D.5.2.|.,X-X|.|.;X:X<X,X<X,XgXHXgX<XgXcXcXcXcXcXcXBXCXCXCXCXZXJXHXHXBXcXHXHXCXBXxXgXgXxXjXgXu.=.4.3.u.u.(.a.7.9.1.=.x.P d K 2.~.~.d..XaX[.W..X.X%X.X[.sXzXvXvXmXhXvXsXvXbXaXaXaX6XrXaXaXsXaXsXsXsXvXsXfXaXaXaXaXbXsXsXbXvXsXsXsXsXsXsXsX6X6XbX.X.X6X-XaX6X6X",
"aX.X.X6X.XE.[..X^.^..X.X.X6X.X.X6X0XrXrX6XsXrXrXrX&.d A Q H.a.L.*.#.;.<.1.1.1.1.1.8.<.q.1.;.] q.[..Xl.s.s.7.#.Y d 8.XX}.L.8.E.XXR.8.9.9.#.8.F.D.8.F.8.9.}.^.R.R.x.R.a.7.3.4.y.U.(.=XkXjXkXwXfXAXdXxXAXxXBXAXjXlXVXZXjXhXgXxXgXpX=XdX1X&X=X*XyXkXAXAXjXfXyXkXkXjXjXwX&XkXdX&X*XdXdX=XdXjXlXgXdXwXyX@X@XoX/.*X/.@X@X@X@XoX@Xm.n.*XwX#X%XrXpX#X'.^.!.t.=.d.}.L UX! T.+X;X-X.X.X,XpXbXmXbXbXmXmXLXmXDXvXHXmXbXmXmXmXbXbXbXsXsXsXsXmXmXmXmXmXbXsXmXsXbXsXbXsXsXsXbXsXmXmXsXvXmXbXbXbXsX6XsXsX6XsXaXbXbXaXsXsX6X6X6X.X6X[..X.X.X6X-X6XaX%XaXaXaXsXsXrXaXS t < J S.! D.P Y #.1.#.#.#.w.#.#.w.#.[ d d 1.W.[.W.E.E.q.1.#.#.#.F.F.9.w.9.8.9.w.S w.d w.F.w.6.8.9.f 9.9.d d d w.S p < H ~ ! H.|.JXKXCXCXKXLXCXJXPXPXPXPXPXPXPXPXLXJXLXPXPXLX~.2.J.6.J.}.OXI.~.+X{.OX$X:XcX2XcXcX,X:X,X1XgXkX2XgXxXvXBXxXZXHXHXCXvXBXxXBXBXxXcXxXcXjXxXgXgXvXL.3.5.5.D.4.~.s.,.| ' :.r.m &.=.U././.^.pX.X.X[.[..X.X6XeXlXDXvXsXaXsXvXmXvXbXsXbXrXsXsXsXaXbXsXzXvXvXzXsXbXsXsXsXsXbXsXsXsXaXbXbXmXbXmXbXsXsXbXsX6XsXaXbXsXsXsX",
"rXrX.X].[.[.W.8.E.[.E. X.X.X[.rX6X6X.XaXsXrXrXsXaX@.b K U u.P.&.7.v.v.1.1.%.1.1.1.9.#.;.;.>.q.<.q.8.8.8.P.F.s.8.8..XR.7.9.8.8.9.9.9.#.#.#.#.9.9.#.Y #.8.XXR.E.8.8.7.7.*.U J.y.{.U.}.AXVXVXAXVXAXjXjXdXxXCXCXZXVXgX>X>X>X$X-X}.~.@XOX=X}.+X*XfXAXjXlXlXxXAXjXVXVXjXhXxXBXVXxXxXvXxXdXxXlXCXlXjXjXdX&X&X&X&XoX=X*X=X_.@X#X=XqXoXoXwXwXyXyXdXwX#X@X/.oX=X(./.2.E Y.4X4X4X;X,XaXaXbXmXbXmXbXmXmXmXmXvXvXHXmXHXmXHXmXmXmXmXmXbXbX6XbXbXmXbXbXbXmXbXbXsXbXbXsXbXsXsXmXbXaXbXvXmXmXbXbXbXbXbXbXbXsXsXmXmXsXsXmXsXbX6XF.W..X.X6X6XaX6XaXaX6X6XaXvXsXaXaXpXd t 3 B ! H.I &.8.q.1.1.[ [ w.Y d w.@.w.] q.8.8.8.E.F.E.E.W.E.q.E.8.S #.#.#.w./ d w.f S S b #.S f f w.E.9.8.@.f s a t - H W T.H.T.JXKXKXLXPXKXJXCXcXJXPXPXPXPXJXLXPXPXLXPXIX-X-X|.3.y.J.|.|.OX{.+X+XI.{.:X,X,X2X2X<X2X,XgXcX2XgXBXIXxXcXHXJXHXHXcXHXBXCXBXBXxXcXxXgXxXlXCXjXdXa.4.y.u.J.a.L.d.,.r.p.,.t.$.P ~.{.I.L.$XaX%X.X[.6X.X0XaXeXzXvXsXhXsXbXmXKXsXvXmXsXbXmXbXaXrX6XbXvXbXsXbXbXsXmXbXsXbXsXbXbXsXmXsXsXsXsXmXmXmXbXbXbXbXbXbXsXsXbXmX",
"bX6X.X].[.!.!.E..X[.XX.X.X[..X.XE.E.W.[.6X[.6X6X.XY v v I 3.a.i.!.'.]..X`.W.v.<.<.1.<.1.{ 1.0.<.8.q.8.8.XXE.D.J.^.XXE.E.E.[.E.q.1.Y @.#.9.9.9.D.F.9.@.7.x.8.d.9.@.*.4.4.4.y.Y.+XI.L.CXKXZXCXVXVXZXxXgXvXCXxX>X,X>X$X}.~.~.~.I.5.a.a.y.i.I.(.oX1XZXZXxXxXvXcXCXxXxXxXcXgX$X:X$X>XgXgXhXpXhXpXhXjXdXkXfX&X#X*XqX*XoX(.=XoX#X8X#XyXyXjXyXkXjXhXpXwXdX@X~.R.|.u.! 4X;X;X4XH.,XbXbXsX6X.X6XbXbXLXmXLXLXLXmXvXLXmXmXmXLXbXbXbXbX6X6X6XbXbXbXbXbXbXbXbXbXbXbXsXbXbXmXbXsXbXbXsXbXmXbXbXmXbXbXsXmXbXmXbXmXmXsXbXsX6X6X6XaXrXaXbXsXaXaXaX6X.X.XaXaX6XsXbXaXd t 3 J S.H.3.}.%XeXeX.X^.E.<.8.1.1.9.9.q.q.<.q.8.E.E..X.XE.XXW.R.F.q.F.E.q.1.#.d d d w.w.w.9.8.#.d #.8.4.8.@.f a f - 2 V S.T.S.D.PXPXPXPXKXKXKXKXHXPXPXJXIX3XcXIX,X2XJXIX3XXXI.XXK.a.OX|.I.P.Y.I.U.P.J.J.~.|.|.|.,X2X,X3X-X1X:X,XcX<XHXJXHXxXvXHXcXgXcXgXgXgXgXgXgXgXgXcXvX,XL.J.y.J.y.K.a.Q.x.t.t.:.d.i.4.U.~.~.a.a.%X.X X[.#X'.rX].aXKXmXmXKXmXvXmXvXbXbXvXvXvXbXaX%XaX.XaXaXbXbXbXbXbXbXbXaXbXbXsXbXbXvXvXsXbXbXbXbXmXmXbXbXvXsXbXbXbXbXmX",
".X%X6XrX.X]..X.X[.^.6X6X.X.X[.[.[.[..X.X.X].6XXX.X@.d K L 3.2.^.^.l.v.<.q.8.<.;.1.1.q.q.q.0.1.9.8.v.9.&.4.7.8.9.XX[.XXXX^.XX9.L.[.8.w.[ 9.8.8.8.8.8.@.#.7.8.8.4.Y #.2.4.y.y.H.U.Y.f.BXHXVXVXVXjX&X>XgXhXhX,X:X$X$X*X+Xd.7.*.=.-.*.u.f.d.Q.(.(.m.x.(. X@X$XgXhX>X>X<X}.L.L.L.Q.>XxXdXpX>X&X&X>X&X^.~.(.@XwXdX*X'.(.Q.'.@X@XwXfXpX=XoX/.@X#XpXdXwXkX*X/.Q.~.y.7 H.Y.;XY.Y.,XaXbXaXXXbXbXbXLXLXLXmXmXHXbXbXbXbXbXbXbXbXbXbX6XaXbX-X.X6XbX6XXX6X6X6X.X6XXX6X.X.X6XbXbXbXbXvXbXbXbXbXbXbXsXbXbXbXmXbXbXsXbXsXaX6XaXaXrXsXsXaX6XaXaX6XaXaX6XaXaXaXaX6XpXS t 6 J u.2.{..XR.1.1.1.1.9.9.1.9.v.q.E.8.1.9.8.q.8.9.8.F.v.E.F.XXXXL.E.8.#.8.W.1.d d w.1.,.9.F.1.f d 9.9.1.Y f d p 3 3 8 ~ T.T.S.JXPXPXPXKXLXHXCXxXHXIX-X3XD.D.5.I.HXbXT.-X-XP.T.L.{.I.K.P.P.{.{.I.I.|.{.a.P.XXP.P.I.|.I.|.Y.Y.{.I.;X;X,X,X,X,X,X,X>X:XgXgXdX>X&X>XgXgXgXhX>XJ.3.Q 3.u.H.U.L.m.f.t.:.f.i.m 4.a.U.K.a.~.^.^.[.c..XaXsXmXDXmXmXmXvXbXbX.XaXaX6XaXaX6X6X.X6XaX.X.X.X6XrX.X.X6X-X.X.XXX.X.X6X6XaXbXsXbXbXbXbXbXbXbXsXbXsXmXbXbXsX",
".X.X.X]..X0X%X.X.X.X.X.X0X6XrX#XrXpXrXaXrXwX6XrXwX' n L R 5.J.^.[.[.E.E.v.v.q.;.;.1.p.l.q.v.v.l.<.s.*.9.D.8.8.6.L.8.9.9.9.4.F.^.E.XXR.8.9.1.8.9.9.7.7.7.L. Xv.Y Y @.U U 3.6.! |.;XY.}.cXcXgXcXCXCXCXvXxXjX:X>X>X@X&XL./.m.m.x.m.d.(.=XyX&XyXyXyXyXwXyX&X^.@X&XgXdX@X$XgXgXkXjXVXhXdXjXkX=X@X@X@X/.!.@X#X>X/.Q.f.p.^.^.'.%X^././.*X/.#X%X@XdXgXpX@X}.}.~.$X! Z Y.T.T.T.-X,X%XaXbXmXmXLXmXmXmXbXbXbX.XbX-XF.bXbX-X.XXX6XF.F.-X6X.X6X-XXX6X.X.X.X-XF.XX.XbXbXsXbXbXsXaXbXbXbXbXbXbXbXbXbXbXbXbXbXmXaX6X6XaXaXaXsX6XrXaXbXaXsX6XaXaXaXbXbXbXsXsXsXsXbXd t 4 J ! H.|.}.}.E.XXR.F.8.9.Y #.8.q.q.v.W.E.F.s.8.8.L.F.F.8.8.9.#.w.w.#.8.XXXXXXF.8.#.9.8.#.S #.@.Y 8.}.8.f f d t - 3 6 J T.4XS.T.IXJX2XIXJXJXLXLXHX-XF.D.6.L.wXZXVX~. XJ.y.5.5.P.L.L.I.~.I.~.I.+XI.L.OX}. X|.{.R.I.|.}.OXOX:X1X,X:X|.OX,X<X>X<XhXxXxXgXdXpXpXgXbXpXgXgXhX|.7.6.2.2.3.K.{.K.i.p.f.,.s.$.P K.y.u.a.L.^.~.E.[. XzXaXbXaXaX.XpXaX6X.X[.XX.X.XXXXXXX6X[.XXW.[..X.X.X.X.X-XXX.XaXXXF.6XbXsXpXaXaXbXbXbXbXbXbXbXbXbXbXbXbXbXaXbXbX",
"%XpX,X.X%X.X.X.XpXrXwXpXhXhXsX.XpXaXaXaXaXaX6XrX!.a v v R 5.P.}.7.s.v.v.E.v.8.<.<.1.0.q.0.v.v.b.W.v.9.&.8.5.8.5.8.#.9.8.F.%XXX8.b 9.F.XXE.1.9.4.9.7.E.a.F.R.5.#.#.2.d p R R UX+X:X;X~.;X,X;X X$XdXgXgX>XdX&X/.}./.d./.wX=X(.(.(.=XwXwXyXyXyXNXAXNXNXVXZXZXfXfXdXdXdXkXjXkXdXdXgX&X&X&X$X@X*X&X&XwX*X=XQ.p.!.p.i.p.s.7.p.x.m.n.@X'.(./.dXjXhX>X$X@X@X/.~.$XI 3 T.4X4X4X-X,X-XbXvXIXIXbXIXIXbXaX6XbX.XF.F.bX-X-XF..X.X-X-XF.F.F..X.X.XXXXXF..XF..XXX[..X.X6X6XbXbXbXbXbXbXbXF.bXbXbXbXbXbXbXsXsXbXbXbXbXaXaX6X%XbXbXvXvXmXmXbXbXbXbXbXmXbXsXbXbXbX X: i 5 J ! T.XX9.8.8.D.E.R.8.9.9.;.8.<.1.E.XX[.W.R.1.9.F.8.D.9.8.#.#.1.8.aX.X8.S 9.E.E.F.#.#.#.d 9.XX9.8.v.9.p f S : = i 7 D H.4XY.S.4X-XY.-X|.<XcXbXxXIXaX4.[.ZXKXKXCXHX}.5.2.5.5.3.~.~.I.}.P.~.I.U.U.+X~.I.U.L.I.I.I.|.|.{.+X+X;X*XOX>X>X,X>X<XpX>X,X>XgX>X>X>X>X>X>X>X&X&X$X&.&.Q y.H.K.I.P.a.p.i.t.d.$.v 4.L.y.a.L.R.R.^..X.XaX.X.XrX.X.X6X.XXXXXXXW.F.F.F..X.X.XXXE.E.XX^.6XXX.XXX[.XXF..XXX6XF..X6XbXaXbXbXbX6X-X-X.X,XbXbXaXbXbX,XbXbXbX",
"XXE.XXXXXXE.XX.XE.E.W.XXXX%X.X|..X.X[.^..X XE.E.@.u Y G Q 2.5.R.L.s.1.%.1.8.1.9.1.p.h.v.l.v.q.<.<.8.9.6.#.U 9.8.L.9.8.8.F.9.2.2.9.#.9.#.9.8.*.9.9.1.L.8.8.7.8.s.Y Y l L ! ! H.+XOXOXOX|.,XbX X|.}.|.{. X}.}.U.m.oX*XkXyX&XoX@X#XwXyXkXNXAXNXNXZXZXZXZXVXjXjXdX&XjXjXfXjXjXkX&X}.@X>X*X*X*X>XdX&X*X%X@X'.(.d.i.$.%.i.d.'.*XoXoX@XoX@X@XdXpX}.~.L.L.L.R.}.~.D.6 S.T.T.T.3XT.-XbXIXLXLXLXLXHXbXIXbX.XF.bXbXF.F.bX-XbXF.XXXX-XF.F.bX-X-X-XbXbX-XbX-X6XbXaX-XbXbX-XF.bXbXbXF.F.D.F.-XbXbXbXbXbXbXF.F.D.F.XXF.F.F.XX%XXXXXF.F.XXbXbX6XbXaXXXXX.X.XF.F.Y * i 5 J ~ ! I.J.8.#.d #.9.9.[ 9.<.8.v.F.E.q.8.F.F.D.R.4.9.9.8.8.8.8.F.F.2.9.w.S Y w.Y #.8.#.@.9.#.F.1.9.4.8.8.p d : : B D D H.H.Y.T.T.-XIX-XK.T.D.D.H.|.hXvXCXKXHXLXHX|.D.6.D.5.&.L.<XI.$X{.L.|.{.{.*X,X+X{.I.~.|.{.I.I.~.{.}.OX:X,X,X$XpX<X>X,X,X,XgX>X>X,X>X>XpXpXgXhXdXjXjX4.&.&.y.y.H.2.a.4.,.,.p.i.7.v 3.a.y.4.I.7.s.E..XaX.X6X%X.X.X.X^..XXX.X.X^.XXE.E..X.X.XW.W.XXW.XX.X|.%X,X.XbX-X-X6XbX-X.X,XbX-X-X-XbXbX-XF.F.F.-XbXIXbXbXbXbXF.D.",
"S #.2.#.9.@.9.9.#.w.w.#.w.9.#.#.9.9.#.#.#.w.@.d s a v K I y.a.Q.E.v.s.8.1.1.v.q.c.c.W.[.W.W.q.q.q.8.6.Q 9.2.9.L.R.8.q.R.8.*.9.9.9.6.6.9.9.*.7.s.L.1.9.d.s.8.E.R.7.4.L l E ! u.T.OX|.P.{.}.~.{.}.}.L.L.}.{.(.=X1X&XdXkXyXdX0X*X*XyXfXAXZXZXZXZXAXjXAXxXhX<X>XgXdXgXjXgX&X}.d./.$X*X>X:X>X+X$X$X~.L.^.J.5.9.P &.6.a.d.~.Q.d.Q.@X/.*X=XpX%X}. X^.}.^.$X,X|.P.Q 7 ! 4XT.T.D.S w.w.D.F.-XF.F.9.w.9.8.F.F.F.F.F.F.F.F.F.F.F.D.F.F.F.F.D.F.F.F.F.F.F.F.XXF.D.w.w.S S.S S A A A S.V S f A S.w.S S.S S S f f S f S S d d f d S f S S S f f w.S d S S S a t < 4 5 B H.D.I.R.8.E.7.&.9.8.s.c.).[.].W.E.E.q.8.8.F.P.8.9.L.q.8.q.8.R.8.9.w.2.9.9.9.#.#.#.@.9.1.#.d 8.9.9.8.1.w.A < 2 8 D C S.T.D.S.D.-XT.5.P.P.2.2.D.H.T.3XJXcX3XcX:XY.6.6.6.2.2.{.{.~.}.~.{.{.Y.|.+X|.~.}.~.L.a.5.T.J.H.U.Y.OX|. X|.|.P.P.I.I.~.XXI.5.J.~.|.,X:X1X,X,X>XxX<Xa.3.6.y.6.5.Q L.7.f.d.p.=.$.l &.a.y.a.2.d @.9.9.8.8.L.q.#.#.9.9.1.8.8.F.F.R.F.F.F.E.8.9.q.XXL.XXF.F.F.F.F.F.F..XXXF.D.w.D.w.S w.A S.S S S S f S S w.D.w.w.w.S A ",
"@.&.#.&.*.#.@.[ b [ [ d ( [ ] [ [ [ #.@.[ ' m x j j L z p y.K.a.7.2.7.9.#.1.8.7.v.8.<.*.9.%.q.s.9.1.2.2.2.2.6.XXa.5.8.8.8.9.#.9.9.9.5.8.7.7.7.8.J.XXF.5.8.8.5.5.9.R Y K U Q 6.K.;XT.y.I.I.~.R.d.4.4.i.K.Q.~.L./. X XwXpXdXfXaXjXlXvXlXlXhXhXxXvX<X>X}.|..X:X:X,XgXbX$X&X'.{.>X$X}.|.I.J.5.6.3.&.t 2.L - - a p K 4.J.}.$XdX>X@X~.$X>XJ.J.6.L.J.5.5.8.W Y J 3 B ~ T.T.T.A f d d a a a A a t t : 0 a a a : t a q t < f f < S f f f t 0 a f < f f f f f f f r 0 0 f 0 f 0 0 f 0 0 @ o f f f 0 f f r f s f s s s w f 0 f r f 0 r f r 0 r f s r w e q q 2 8 2 8 H.H.H.5.2.2.2.#.9.8.8.P.F.8.9.#.9.E.R.J.F.XXJ.J.F.s.R.F.9.9.8.5.9.Y #.#.Y 9.2.#.Y #.9.D.F.8.#.#.#.#.&.p p : < 4 Z 7 ~ T.~ Z D.3.2.&.&.#.P I R Q I I D.6.2.6.2.&.U I I W 2.5.D.J.P.D.5.P.L.J.J.P.J.I.P.D.5.5.5.6.5.H.J.I.K.6.2.Q Y K Y p Y Y p p S K W D.D.~.XX|.|.~.P.J.6.H W K Q Y 2.@.&.P P P v n L y.4.7.b c c d s d c d s s p s w a S d a p d p S d a s f @.#.#.Y S f a f f f a f f S f a f 0 0 f f f f 0 f f 0 0 # f 0 f r f s s ",
"s s d d b P v x s e w x s s c b x b b Y b P n p y K K y i 3.L n K Y d s Y P b P #.2.Y Y d Y 2.2.2.&.Y W I J 6.H.A Y 2.2.Q U I @.2.2.2.2.6.2.#.2.2.8.8.6.5.5.7.5.L Y L K U ! ! H.I.T.2.L.a.&.Y b P P K Y 2.L.P.~.~.J.6.8.{.$X,XvXvXCX,XD.|.|.J.6.5.2.G K Q Y U L.P.}.,X{.}.:XP.2.6.H.XX|.|.|.2.U p K R Q a i A I 5.Y.I.J.R L K S J.I S W 6.U = - - 3 t 7 7 8 , ! 4XT.S 6 3 t 3 a t a t < 4 3 6 3 3 6 Z 3 < 3 6 8 < < A a < < f < - * * * ^ ^ < a f a a - + - O O X X - O o + + e f f 0 f 0 o - o X > e 0 0 > > = + + O + @ + + + + + @ @ > - = : 2 2 5 5 5 H.J G l L S p K K G I K I K I S H D.! D.2.D.T.D.6.2.Q H Y U U Y K A d Y K Y R U #.U &.w.6.5.2.2.2.Y @.u a - - i g D J ! J & I T l P T Y U L I I L K U U Y S A i z p p p A K v p S Y d Y Y K d d d v v K Y I K Y I R L K J G L S G p p a i G G i i k G W 6.2.Q Y K K I Q Z Z F H K < 3 t w u s v l l Q K.u.m u u s x x x s j a j y u j p d p i y i i t 3 i i A l a a a f = , & * + : 3 a f f 0 - 0 o O X X + X o + - q e r 0 e f 0 - + ",
"d a w w w w q q q q a s s u q n a u p p K K p q v I G K p 3.u.y u p l v p p x l Y I L L K p p S p p G F 6 Z H H.G 6 3 i G G G G G p G A a Z G G K A A I K I I E I G 4 Z G ~ J ~ ! K i A y y n m K v y q y p A v d i 3 3 a A Y ! D.W H A W I W U W Q W W W A Z a i U 5.U Q I a < 6 6 Z Y I K k : y k y k 3 k Z F Z F 7 7 6 B Z 6 Z 7 7 Z i g 4 4 t 2 6 7 2 8 V ~ Y.G.B Z i 4 4 2 = 2 2 2 8 8 5 8 B < 5 3 7 5 8 V < C V V < < 5 , * 4 9 & ^ . . .     O * * X   X X ^ * X   X ^   < < o - X X * X X = * * * , & & & * * * = O * * - - - = = - * * * & , 1 1 G.H.7 g 4 k k i p F B J J F F H Z g H V Z A Z B Z g k Z i 6 i i i 7 4 4 i i p Z Z J A A A J K A A J G k i = < 8 F D J ! F 2 3 z z E T T L L l z G G L L y t p k : 4 4 4 4 y 4 : y p l l l G K G l l l G i 3 3 7 3 2 ; = = 2 2 3 2 9 & 2 2 3 2 = 2 2 3 < 5 < 5 5 6 7 B B 6 5 6 7 i : - : > q q q q y I u.2.l p u i i 3 : ; ; 2 4 2 2 2 3 2 3 3 4 2 8 5 5 4 7 i 2 3 4 = * < < * ^ . .     X ^ * = X X ^ X * *     * X X - - : - O X & X ",
"v j : q w q q q w q e w u w a q q q u a y q y j K p i l 3 u.y.u.n u u p l j z E R T G L l u a i y p i g Z Z H D.G t i i y 6 3 i a 6 6 i i 7 7 Z Z Z Z Z Z i 7 i 6 3 6 4 7 Z Z g Z Z 3 y y 4 4 4 q : : q : : 3 = = 2 t 4 3 5 6 5 V 5 6 A 6 6 F k Z i p i G Z p Z F D B 7 7 6 6 7 6 Z 6 6 7 7 7 7 7 7 7 7 g 7 D k g k 7 D 7 6 7 7 7 F i 6 8 5 2 8 8 2 6 5 V 8 5 H.Y.S.H.H.F B 7 5 5 5 8 2 5 8 1 5 5 6 5 2 5 8 5 7 , < V < 5 < , < 8 3 3 & ^   ^ ^ ^ * = * = & * & = = * O   *   ^ ^ < < * * * * * & 7 * & ; 9 9 ; 9 & * = = * & * * * * & & * & & & & , 5 1 H.4XH.H 7 7 D Z F z E I J G H F B V g B Z B Z F J J g Z 7 7 i 5 5 6 7 6 6 V 7 6 5 6 V B B B B Z Z 7 F 7 5 7 6 D D D D D F B 7 g g z z z k y i z g 4 ; ; = ; 3 ; ; ; 2 ; 2 2 3 2 ; 3 2 > ; 4 2 3 ; ; 3 3 ; ; 9 & & & = , < 2 ; & 2 = , 9 9 9 & = 2 ; ; ; 2 2 2 5 < 5 8 5 6 7 7 7 6 * * & - - & ; ; & G H F J J 2 2 ; 9 9 2 2 ; 9 9 9 9 9 9 2 9 1 2 9 2 & , 2 5 2 2 & 2 3 5 < , ^   ^ ^ ^ & = * = * * & = * = *   *   X * = * - * & 9 ^ ",
": 3 ; : : : y q : q t q q q t q q : : : = : : = : 3 t a : y.OX+XU.f.y.U.U.U.+X;X+X{.Y.Y.+XY.I.I.K.u.F D D g J 7 2 7 4 6 7 4 3 7 7 2 2 4 7 6 4 4 4 Z i 7 G G i i p 4 7 4 k k D ~ i i g 4 4 > 4 > 9 3 2 2 4 ; 3 ; ; ; 3 4 4 2 2 2 3 7 k g 8 i 7 4 F k k k k F F F D F F D V 8 5 5 5 B 7 V g D 8 8 g 5 2 5 2 8 7 D J F 8 1 4 2 ; 2 6 ; 2 1 9 B B 5 7 2 2 , , 7 5 Y.3X3X;X;XUX8 5 5 5 5 1 5 1 5 8 7 7 F J D Z Z B Z 6 p G G K Q W B 5 5 3 * 9 * 1 9 , 9 9 , 1 9 & , < , * * * * ^ * & * * & 2 9 & ^ & 1 & , 1 2 9 9 9 , = , , 9 , = & * * & & 9 , * & , 1 5 & Y.JX3X;XY.+X4X;X;X2XcX2X3X;X2X3X;X;X;XY.T.! H D D F 8 5 8 7 8 7 7 5 B 6 5 7 7 7 B 7 7 B Z F 7 F W Z Z F 6 7 7 Z D D ! D F k 7 2 4 4 4 ; 4 2 4 7 3 3 ; 9 ; 8 ; ; 9 9 9 9 9 , 9 9 2 2 ; 2 2 ; ; & ; ; ; ; 2 8 5 & , 2 , , 9 , 1 2 1 9 1 9 & & & & & 2 2 3 2 9 9 9 9 ; 2 2 1 5 2 2 5 9 ^ * O   ^ X * O D ! ! ! ! g * 9 9 1 , , , , 1 2 2 5 7 i 6 6 5 2 6 2 3 4 i Z G J 6 < < 3 * & * 9 1 1 9 1 & 9 1 & , 9 9 & * ^ & * * * * & & ; 9 9 ^ ",
"2 = < 6 2 ; 2 3 3 3 3 2 3 < = : 3 = < : = : > ; : 2 3 i y P.|.~.{.+X+X;X,X,X|.I.|.{.{.OX;X|.:XOXH.Y.u.G.UXG.K.UXE F 3 ; 2 3 2 2 7 7 7 3 7 7 D F 7 F g 7 F J F 7 B 7 7 F D g g g H H 3 ; 4 8 8 3 3 4 4 2 2 8 1 ; 9 2 2 2 2 4 8 7 < 6 7 7 3 8 8 B F 7 B B 7 7 F F F D D 8 D 8 g 8 5 V 8 7 8 2 g 7 J E ~ 6.D.! H.T.;X|.u.! UXu.! y.D.H.H.D.! F Z I F k I k 2.T.J.,X;XY.;X;X;XK.u.Q J Z Z F J I Q I G F Z Z H K W I G H K L W W H.Z 6 7 6 & 1 * 1 , , 1 , & , & * & , * * , & * ^ & , , & , , , , & & & & < < 9 , & 1 1 & < < < < , , = = , * 2 2 * < 6 5 i 7 ,XBX2XBXcXBXJXJXJX2X,X<X,X1X2XcX3XBXIX4X2X;X;X4X;X;XT.u.E g 8 2 4 2 2 7 B 7 8 7 V F F Z F F D J ~ F V F B B J F F g g ! ! 8 8 4 8 7 4 2 8 7 5 2 9 , 2 & 9 = & & 2 & & , & , , 2 & & & 9 2 & 9 9 , 1 2 1 2 2 9 1 9 , 1 9 1 1 & & & 9 ; 8 g 7 g F B F J ! ~ F g F F F J J ~ J J D 7 & * O O & X * 3 2 H ! ~ E ! ! z k k 7 2 5 5 7 7 k i 4 6 6 3 6 7 i i 4 4 y k F G Q 7 5 V 5 , 1 & 1 1 & 1 1 & , & ^ & 9 * & & & , ^ * < & , , , , , * ",
": y u p a k z k k y a z z p l v l v v j n l n z n l l v P &.$.4.4.&.u.U.L.J.7.7.7.=.@.*.s.u.U.|.D.! W H.H.Y.Y.OXOX+XY.Y.H.p i 4 4 4 6 2 2 : 3 i y g 4 4 7 7 7 B B B D 7 4 8 J z H E L J k ; 4 8 2 8 5 2 2 2 9 2 , 2 7 2 2 7 7 5 5 5 8 6 B 5 V V B D B V D 7 D 7 8 8 3 8 9 D V V V J B 7 H T.+X;X;X{.{.I.5.2.I I 2.P.Y.~.I.Y.T.J.H.J.5.y.I.L.J.y.4.u.U n &.y.a.5.H.K.J.3.y.K.4.P Y v K Y U K p t : 0 - - < : y u u z l L R 2.U < 5 2 5 5 , 2 4 y 7 y 2 ; ; 4 4 q y y t t 4 > : q u q w q u q : > q y u x t j j j j j u u x v v N n n Y m m N m n L n v T R t.u.d.R.8.L.>X$X}.E.R.R.v.=.p.E.R.}.gXT.T.H.3X3XJXCXHXJXBX<X:XT.G i 4 i i 3 2 3 < 3 i 4 k 7 7 7 7 7 B Z Z F B 7 4 E H E Q 3.E z 3 8 2 2 2 2 2 2 2 * & & & 9 & & & & & & & & 1 2 , 9 & & & & , 1 2 1 1 1 1 1 1 1 1 9 1 1 8 F F ~ H.Y.Y.K.3.y.3.K G k p l I Q Q W Q I H ~ ~ J J ! 5.Q R R E l : y p l p G H l k G z y 4 3 3 3 y 3 t 3 = = = * * = - < = 3 3 : k l L k = < , 1 1 , 2 4 4 8 4 : ; ; 3 4 4 z y q y 2 > > q y y q q y u w q ",
"u j x v n x x v b n n b b n v n m m P P m m P m m m m b m =.p.i.7.i.,.t.,.,.d.x.g.%.,.v.d.Q.(.U.3.u.G.! H.Y.-X{.I.L.u.a.5.2.3.5.3.5.5.a.a.L.a.d.L.(.(.L.a.3.R l y t q l L u.+X{.U.U.U.H.Q 4 4 2 2 2 < 2 6 5 5 8 2 5 5 2 7 5 6 5 7 5 V V C C V V V V V H ! ! ! T.T.K.+X:XY.8 B V B Z 5 H 2X3X;X+X~.f.4.x s x v m y.7.6.U Q L K T R L L $.U U @.n v m T a.f.K.a.4.2.L.L.a.i.&.m j j j q y : q > : t : t - q q : a w j N N &.P l 3 6 4 5 8 F E $.-.-.$.n m } m -.$.} %.$.| | } } %.} %.} M _ } } ' _ m [ ' | _ ] ' _ [ | [ _ ' _ | ..%.:.| %.| | %.| }  .| } z.oXM.M.z.z.n.b.l._.`.M.h.j._.`.rX%X@XK.Y.;XG.2XLXKXxX,X}.I.XXR.8.a.L.5.s.L.L.~./.!./.'.*X*X/.Q.a.3.P i y q n R y.:X:XOX:X1X+XK.k 3 2 8 2 9 2 5 , 3 2 = 2 2 , 2 < < < 2 5 < 1 & , 2 1 5 2 5 5 6 6 6 5 6 7 Z J J 5 5 2 W ! F L T.K.K.u.U Y L x u w x j T T L n n p S K K z p l Q R v i p L n R 3.u.&.&.T &.3.T -.Q T G l y a 4 3 ; = ; 2 = < : = = = q q q u y l k a ; 3 6 5 5 k P m &.-.T n m m m $.$.T } | } } m } $.} ' ' [ _ } } ' ",
"| %.} m M N x n b x m T } m P &.T n T L L n n n n m m m m f.x.m.m.p.p.m.g.g.d.n.t.t.m.p.m.n.Q.~.Q ! D.~ H.I.5.6.#.#.K b b b m b m N M m.yXNXzXyXrXeXyXtXrX0XeXoXoXn.M.oXyXjXlXlXhX%X@X.X'.' e u y y i p i i Z i p i a a y i k i p Z i i i K J I W 5.D.|.|.pXCXHXLXLXHXHXHXZ 5 B F B B Y.|.y.U.~.d.u.-.n m N w } i.=.$.m } m m m m T t.-.T L n T m &.-.=.d.a.i.=.&.i.a.4.-.t.N m N w w > N j w j v x j x N j j w u v L R T U I 7 Z V B G R R -.4.3.&.&.-.-.-.-.} t.t.T -.} } } } T | | } M } :.} M M }  .} } } %.} } } m } M } } | -.-.| $.} } } } } } | | _.oXoX9XoXA.oXA.n.A.iXN.B.A.N.oX9X*X*X5.I.T.5.<XCX.XF.9.*.#.[ ] @.#.[ 9.] V.A.GXFXFXFXSXSXSXSXSXMXnXuXiX9X9XuXSXFXFXDXDXDXvXzXzX..e s u p p p p p Z p p i f s w u a u p p a q q u j u a j j x b *.!.!.s.-.&.Q 6.7 7 H.S.J 2 L U v @.$.P n x j j w e x T m n x x x x x s x m v j u u w u w j x U $.P m m T U m m m x x x q q w w e w q w u w w x u u w u j v K n K G 4 Z 8 B G I R &.3.&.&.&.$.&.$.$.| } t.T T | } T M } } $.} m $.%.] ",
":.z._.b.m.x.x.m.x.x.m.r.t.:.:.:.:.t.:.%.t.<.=.:.t.,.,.t.p.M.oX_.M.oXoXN.8X0XoX!.M.oXM.M.'._.&X^.Q 3.! ! H.5.Y K $.b b M b [ h h M t.N.yXkXuXqXrX#XrX0X9X8X8XrXtXzXzXzXzXzXzXzXfXwX X^.^.[.8.e s l l u l p A G A p p p a u s u d a a f a &.L.7.*.^.%X!.!.[..XaXaXhXxX:XgXcXZ B F B V ~ ;Xy.a.K.4.4.=.$.=.-.i.d.(.g.i.-.-.3.t.u.$.-.t.u.i.g.t.} m T m } -.=.4.-.-.=.u.3.T -.u.i.i.g.u.T t.t.T t.-.3.=.=.-.&.n m T $.P P P R L U 7 B B F F 2.3.3.=.&.&.&.' m $.-.} } } M } } T _ T } } $.| } M } | | }  .M m | } | } } | | }  .} } | -.-.$.| } } } } } | | | m.qXoXoX9XoXA.yXuX*XoXA.*XN.N.#X9XkX=XR T.T.4X<X.X1.[ %.] %.] ` ` ) ( ) h.A.GXFXFXGXGXuXnXnXuXnXuXMXSXFXFXFXFXDXDXDXDXvXfXeXeXtXc.r c x K d v G K K K v s s w s r s d f s s w c c s s s c [ r.[.tX9X0XtX).1.2.! 6 F G.F 6 Z R L U P n v n v n N m T $.T m n m m M m x x m m T m m n w w w x x m M N c m } m x m m m T T M N M M N N N n n m m x j j n m n v n n v L i B 7 F k Q &.&.=.-.&.@.P m $.$.} m } m } m M m } } } } | } | %.} ",
":.>.<.v.).c.c.v.c.v.p.r.;.<.1.;.%.:.:.:.p.t.| | ,.<.<.h.h.z.`.b.n.oX8XN.`.`.`.M.N.oXoX9X6XrXfX X2.Q E E ! R v v m ' c [ c r [ z.oXuXlXNXNXuXeX0X].0X6X6X].8XtX9XqXqXtXeXeXfXsXaXaX.X[..X^.'.c s x s u s s x s d d r r f r s w s w d m %.v.).[.[.).`.rXrX8X6X0X8X.XaXhXHX$XJ ~ V B V H.;X6.P.K.d.a.i.=.=.g.d.Q._.Q.m.t.=.i.g.t.t.t.i.i.i.i.t.t.t.-.} t.g.p.i.t.u.=.-.m T -.y.f.d.(.(.(.m.g.g.t.-.,.i.t.-.m P 3.&.x u P P v L G 7 B D 5 I Q R *.4.=.&.&.@.$.} $.} T M M M M } | | | | } } m t.} } } | T T | %.-.| | } } T  .| %.| -.-.| | } } -.} m } t.M | m.qXoXoX=XqXoXqX#XyXA.A.A.=XyX8XeXzX~.3 ! T.H.|.s.@.] [ ....]  .( X.A.uXGXFXFXFXFXGXGXsXsXsXMXtXuXnXMXuXSXnXnXnXSXDXvXmXzXsXzXeXeX[ s b x v x x Y Y d s s r r r e d r d d r # ) h.X.X.` j.9X9XqX9XN.N.5XrXv.3.W i ~ F 2 5 I R v R T P m n n n m $.-.$.} T m m m T T M m m m m m } M M x x M M M M M M _ m c x N m m } %.| -.} T } c v m m m v x v m m w w x n v v l i Z F 5 G U R &.4.&.&.-.T $.$.$.T } m M } M } M M } } } T | %.} %.",
";.] | <.:.<.<.1.;.%.<.t.;.] 1.;.] <.r.<.1.:.:.:.1.:.:.<.>.r.n.n.C.N.oXoXoX`.M.N.M.N.M.M.).#XsX~.n J.Q ! 2.L u p m b m h h _ _.zXuXuXuXsXzXqX6XW.M.).5X[.N.`.5X6XqX9X0XrXeXqXeXaXwX[.'.6X`..X<.r s s s w s s d s r e r / r h c r ] 1.>.;.l.).).W.0XaXrXeXrXeXqXrXeXzX%X>XT.t W B D V Y.Y.R &.$.u.i.u.3.$.u.t.d.(./.(.m.f.f.d.d.d.d.f.i.i.g.g.g.g.p.g.d.m.d.f.p.d.f.=.-.u.i.g.g.U.(.m.Q.d.g.u.i.i.=.=.-.T m n $.} m n v l v R G i F F V G 2.R &.&.&.*.*.$.$.$.$.} | -.| t.:.} -.} -.-.-.-.T t.-.-.} } | t.t.:.-.-.| T t.t.-.-.=.-.$.%.-.| -.| -.| t.} M t.| t.oX8XuX9XuXuXuXyX8XoXoXoXN./.0XfXZX|.2 ! T.K.XX*.r c [ ] ] ( )  .iXFXFXFXFXFXFXSXzXiX5X7X7X6X7X9X7XuXMXtXsXzXzXzXnXzXzXhXaXzXrXzXl.d c u x c s x / d r # r # e.r r / / ( ( ( B.A.C.9XA.A.N.C.iX9X5X5X6X0X7.Y J 5 J F 2 5 ! R l n n T P m x v n m T -.-.-.$.T T $.} T T m M m m m m M } } $.} m } } $.m m N b m M m } -.$.-.m P n n m n n v v x j m m b x x j u L l k F F 7 G R T &.&.$.&.-.} $.} } } $.} $.%.} T t.T -.} t.-.-.-.%.$.",
"t.:.t.:.<.<.r.<.t...:.:.%.:...X.p.m.r...t.t.t.t.t.r.t.| ..V.M.oX9XoXoXoXoX`.M.M.`.`.8XoX8X].lX-.s 3.3.G R u u l x x h | h.oXuXqXqXuXuXqX0X5Xc.v.b.b.v.b.b.b.b.N.`.).5X5X5X5X6X0X.X).[.`.W.6X).d c s b r r s d r d r / r r ] ] ] ;.1.1.0.q.W.[.^.6XpXaXrXsXzXzXuXuXyX#X.XD.3 ~ D D B Y.T.I R $.T =.i.u.f.f.f.i.g.d.Q.Q././.Q.Q.d.d.d.f.f.d.(.(.(.(._.(.m.x.d.f.d.x.L.(././.Q.m.d.d.f.d.d.u.i.7.p.f.i.i.%.} T -.$.m n m n P &.L 4 J D 2 ! 3.U &.4.-.u.t.M %.-.$.-.M T t.m -.| } T -.%.T t.T T -.-.t.-.-.} -.-.| t.t.-.-.-.-.T t.-.-.-.-.-.-.$.-.| M } }  . .t.oXiXyXiXyXuXyX9XoX9XrXoX0X8XeXwXKX3.2 H T.! U.M r ( _ [ h X.N.iXFXGXGXSXFXSXnXrX5XW.5XN.5XZ.C.5X5X7X7X5X9XqXrXtXtXsXsXeXrXqX6XtX0X[ d x c s r d r d r r r # # r r r r ( % j.A.A.9X9X5XC.5X5X9X9XiX0X9XoX%.P G 6 B D 8 F 5.E p v n n m n n P U $.$.P m T $.-.-.$.$.T } m M T $.| T -.-.-.:.-.} T m $.$.$.&.-.-.&.$.T $.&.T P K n n K m m P m v x n x x v j x v L L 4 F F 2 Q 2.P R -.u.t.T } t.} T } %.} T } } | } t.} -.t.t.=.$.-.*.",
">.>...| | ....| | | | | | :.:.t.<.r.t.:.>...h.m.j.j.t.V.r.r.A.N.N.A.A.9X9X9X9XqX9X9XM.n.`.8X0X' [ $.K.l Q l q a &.m m oX8X9XqXuXqXyXsX8X).[.b.0.v.j.l.z.b.b.N.z.M.N.M.[.N.[.`.].).`.].).W.5X6X[ d d c d s r r r r r r r / ] ;.1.;.{ 0.b.v.z.b.M.W.[..X6XeXtX9XuXsXzXaXvX%XZ ~ J V ~ ;XT.&.3.3.=.4.4.a.Q.Q.}./.+X@X{.~.{.+X/.+X~.U.L.Q.~.(.d.d.d.d.m.(.(.(.^.(.Q.Q.d.d.Q.L.~.U./.U.m.g.u.i.i.=.i.f.f.i.3.-.t.%.m } $.m n T &.z 3 J D = Y./.$.@.%.-.t.} t.} $.%.:.t.t.t.m :.| t.t...-.t.t.} t.-.N T T t.t.-.-.| -.} } t.} -.t.T -.-.-.%.-.t.-.-.-.t.T t.T  .t.oX=XqXuXyXyXuXAXyXNXyXuXoXoX#XyXhXu t J H.E :X} $ h c [ V.uXGXGXSXSXFXFXFXuX7XiX5Xb.5XB.b.B.C.N.C.C.9X9X5X5X5X5X5X0XrX9XtX9X5XtXeX[ d [ d r r r r / r r r r # 0 # r h h  .C.C.N.9XC.N.9XC.9XiX9XtX5X5XqX8.2.2.6 F J 2 Q H.R n m n b m n P $.&.=.=.=.=.-.T -.-.-.-.$.T T $.$.-.m m m m $.=.-.-.-.%.%.$.} P $.&.&.&.&.T T m m m m m m T $.T n N m n x n x j j v P k : F g ; U.~.$.@.%.T t.} } N T t.t.%.-.} t.| -.M t.-.} } t.%.:.%.} ",
"t. . .t.t.z.h.h.m.r.V.t.r.t.t.t...| ....>.l.l.r.t.r.r.t.V.t.oXoX8X8XC.8X9X8XqXqXqX9X`.8XrXqX#X| %.-.i.n &.l p v u.=.g.#XqXyXqXtXrXrXrXM.c.z.0.0.l.j.0.0.>.j.b.k.Z.k.j.M.k.c.).W.b.M.N.`.5XM.[...r d d r r r r r r r / #...] ..;.1.<.b.].[.b.5X5X5X6X8XuXuXuXzXzXnXvXzXwX.XA ~ S.~ ~ 3XT.R 4.3.a.y.u.a.L.~.I.~.~.~.Q.(.{.U.Q.{.(.U.~.~.Q.Q.(.d.g.d.d.d.d.Q.Q.(.(.L.f.f.f.f.f.f.(.~.Q.d.g.i.,.u.p.i.=.=.=.=.-.i.t.} m $.&.R z 3 i H F 7 E a.v.:.| ..m.N.m.M.h.m.m.m.t.t.t.t. .t.t.t.t.t.g.t.} t.t.t.M M t.m.oX(.m.j.t.t.t.} t.t.t.} $.} %.-.-.t.T -.t.N t.t. .qXuXyXyXyXGXuXyXyXuXuXqX8XlXfXlXwXs y F D.Q {.s s [ _ | ].NXNXSXSXFXnXnXnX6X5X`.z.k.C.b.b.k.j.N.C.b.5XZ.b.5Xb.[.5X5X`.5X9X9X9X9X9X:.r r d / / r r r # 0 r r # # % h / h h.9XN.A.A.A.C.9XN.7XtX7XiX5X].].8.&.Q 4 J H 8 H.;XR v n m P m P P R &.-.&.&.&.&.&.$.R &.-.$.$.$.-.} } -.m m m $.$.$.-.:.-.$.$.m m T P m U =.-.T m n m n m T m b m m m m $.m v x n P n j 4 i J F 7 L i.p.;.] t.j.N.m.m.t.m.j.r.t.t.t.t.t.t.t.t.t.g.t.t.| :.:.",
"z.j.j.N.N.n.M.C.N.N.N.z.j.B.z.M.M.j.r.t.r.r.r.r.l.r.r.t...t.oXA.N.9XoX9XoX8XqX9X8XoX8XqXqX8X8Xr.[ ,.s.$.{.a.3.T t.p.oXN.rXqX0XqXqXqX`.n.b.v.1.{ 0.q.0.0.0.0.0.b.b.0.0.q.q.b.).z.c.).M.b.N.M.M.v.r / r r r r ( [ d / ] ;...0.0.>.0.b.rX9X9XuXtXzXnXuXsXuXzXmXDXDXZXVXlXkX&XU F D.S.T.;XH.R 4.=.&.i.a.L.R.L.~.R.R.{./.{.+X+X(.Q.d./.(.~.d.Q.U.L.L.U.m.Q.U.f.f.d.d.Q.(./.(.Q.L.d.d.d.L.d.U.a.a.=.4.=.=.t.-.t.f.i.-.$.$.&.R n l l F Z B B K.a.'.n.B.N.9XqXyXGXoXuXqXyXyXA.=XoXN.N.N.oXiXqXA.B.A.=XA.N.n.A.=XqXqX=XqXyX=XyXj.t.z.m.m.r.:.%.-.=.t.=.-.t.m t.t.M t.yXyXyXuXyXiXyXyXuXyXyXqXyXuXNXuXfXa.; ! ! l I.%.b  ._ X.qXyXNXSXNXzXMXnX9X5X5Xb.0...0.q.0.k.0.j.k.Z.Z.0.b.k.b.b.].N.).9X5X5XC.5X9Xn./ ( r r r # r r / r r / r ( ) e./ o.N.A.9X9X9X9X9X9X9X9XtX9X9X9X5X[.x.=.3.A Z J H Y.;XP j n m m m m T $.@.$.$.-.-.=.-.-.-.-.T T &.-.-.T $.T m | @.%.$.$.$.$.$.$.-.&.-.-.$.T $.T T T $.3.&.=.-.@.b m m m m $.&.m m v P n l j p k Z 7 k H.a.!.z.z.N.A.yXiXuXoXyXyXyXqXM.oXN.n.g.B.N.oX=XA.n.oXoXoX",
"M.M.oXC.9XN.oX8XN.N.N.`.N.oX9X8XC.oXj.j.M.j.h.b.m.j.t.V.t.z.oXC.9XoX8XiXqXoX8X8X`.oXqXqXqXoX`.>.c 7.a.&.4.I.4.&.7./.*X`.qX9XtX0X0X5XW.b.v.1.1.{ ;.X.0.0.0.0.j.0.0.0.0.0.0.z.b.0.h.j.j.z.N.N.N.N.{ r / / / [ ` ] ] [ ] ..;.N.9X5X5XtXtXtXsXsXsXnXnXnXnXtXnXzXzXDXmXmXLXLXLX6.6 S.UX4X4XK.T -.3.i.f.d.U.~.L.~.}.}.}.$X}.{.OX@X+X+X/.=X(./.+X/.~.L.Q.f.=.t.a.g.g.U.(.{.{.(.{.U.Q.L.~.{.~.-.7.i.-.t.=.t.=.$.p.i.=.=.-.=.-.&.R R k 7 D D J Y.*XoXoXyX9XwXyXyX9XoXqXwXyXqXyXyXuXuXyX9X8XyXuXuXuXwXiXqXoXuXyXuXyXyXAXyXyXqX9XqX9XqX9X9X8XoXt.t.t.g.t.m.j.t.t.t.r.N.zXuXyXyXyXlXzXyXzXqX8XwXzXNXzXfXjXf.: 6.S.Z K 6.c [ ) m.uXtXuXuXuXtXMXtX5XN.M.q.0.{ 0.O.0.0.j.j.k.j.0.k.k.0.V.b.N.b.b.B.j.N.A.A.C.8X;./ / r # r / / [ r r r e.k.Z.V.V.C.A.9X9XiX6X9X9XiXuXiXtX9X9X9X9X8XE.s.I.J V F E Y.5.T l m b m T } &.-.$.-.-.=.=.=.=.&.=.=.-.-.-.-.-.-.=.=.$.' $.$.m m $.' T &.&.-.&.&.3.R 3.&.-.3.i.i.i.p.,.-.m m m b $.m P m m $.m L T l y 7 F D J U.@X_.M.qXoX#XyXyX=XoX*X*XwXqXqX#XqXyXqX8XoXyXuXuXyXqX8XqX",
"B.b.8XoXoXN.).`.`.).`._.b.b.8X9X9X9X8X9XoX9XoXoXoXM.m.A.9X9XqXoX9X8XN.8X8XqXqXoX8X8X8X9X9XN.N.h.[ $.@.*.*.a.6.&.4.'.#X9XqX9X5X].`.c.c.0.0.;.>.0.0.0.0.X.X.O.0.0.0.0.O.0.0.k.j.q.h.>.>.j.z.M.M.N.0.( [ ` [ ` ] ] 9.;.;.1.0.5X5XM.b.W.6X6XsXsXaXaXzXvXmXzXmXmXnXuXzXKXDXLXCXJ.B ~ G.Y.OXK.3.3.-.4.a.a.a.Q.{.(./.~.}.~.I././.{.$X$X=X{.~.(.}./.(.(.L.i.i.i.i.f.d.d.a.i.a.L.Q.(.L.d.(.~.f.i.Q.i./.f.=.,.=.L.d.g.f.t.,.t.-.-.4.u.k g D D J 1XkX=XoX9XyXuXyXyXoXoXqXyXwXyXuXqXuX=XqXqXyXzXuXuXuXuX8XqX=X9XuXAXuXuXqXyXyX9XyXyX`.A.uXuXuXuX8XA.yXuXyXuXyX=XA.A.NXzXNXyXNXzXyXuXzXlXyX#XrXyXzXzXuXuXlXa.3 I S.H.R 7.r c } C.iX9XiXtXqXiX5X[.b.z.j.X.>.0.0.0.0.O.O.X.j.k.k.0.j.0.k.Z.z.b.B.r.j.n.N.A.C.8Xj./ r ( / h h r c h r r  .B.C.B.Z.C.A.C.).7X5XC.9XqXtXqXuXqXiX5X8X#Xx.L.J.H 7 7 J E U.R l n n n m T T $.-.&.=.-.=.&.-.-.-.&.3.=.=.3.-.-.4.=.3.$.$.T } $.} T } &.$.n m T $.i.f.i.=.&.-.f.~.f.Q.i.m m m &.-.$.-.$.m $.P m T R y 7 7 D F ;X>XoXoXoX9XuXqXqXN.oXqX9X=XwXyXqXyX8X=X8X9XuXuXyXuXyX0X8X",
"8XoXN.M.M.z.m.b.z.j.z.z.j.h.z.M.M.n._.oXN.oX9X8XA.9X9X9X9XoXN.9X8XoX8XoXoXM.`._.oX9XrXoX`.`.`.v.[ ,.4.@.&.-.$.n $.n.oX9X`.5X9X9X5Xj.h.<.1.0.0.0.>.X.{ X.O.0.O.O.O.X.0.0.>.X.>.0.h.X.>.h.z.z.k.b.z.>.) ] [ _ _ | <.1.X.0.N.b.z.q.q.{ [ 9.q..XaXsXsXsXvXDXmXeXsX0X6XzX>XvX,X5.6 J Y.Y.+X! T -.-.=.u.i.f.L.{.}.+X~./.{.~.U.L.I.~.~.}.{.{.~.{.{.~.(.~.Q.Q.Q.d.L.(.(.~.d.d.(.~.(.~.~.L.d.a.~.d.4.=.i.d.Q.(.^.(.U.~.m.g.i.=.&.u.3.F 7 D D D OX/.M.A.oXA.oXn.m.M.8XqXyXyXyX#XqXuX8XuXNXuXyXyXqXyXNXNXNXNXNXGX=XwXoXoXuXuXyXqXqXoXoX8XuXyX9XuXNXAXuXlXuXyXuXyXAXuXoX8XqXqXqXwX0XoX_.0XqXyXzXfXyXzXyXlX~.< Q H.! J.&.r h _ N.8X9X9X9XiXqX5Xz.q.0.h.h.h.j.O.X.o.+.X.V.V.V.0.O.0.0.X.>.O.j.j.j.j.k.N.B.N.N.k...h ( r h r r  ._ # ) B.B.k.k.b.B.z.j.N.N.8XtX9XrXqXuXtX5X5X].8X#X7.5.6.H F J W K.|.v j x x m M T T -.-.4.=.-.=.=.&.&.T &.T &.-.3.4.*.4.-.$.-.$.*.-.-.$.-.-.-.$.m P &.&.f.d.u.=.i.&.i.L.7.i.=.$.=.=.4.4.=.=.-.$.$.T m -.Q k 7 D B F |.(.n.M.oXN.N.m.z.n.oXyXyXyX9XoX0XqXoXyXzXyXyXyXqX9XNXNXuX",
"qX8XqXqXoX9XN.N.N.N.b.N.N.5XC.N.`.`.N.8X9X9X0X9XqXqXyXqX9XoXA.oX`.oX9X=X`.n.n.8XoXoXrX8X`.5X`.l.b %.=.4.s.' s r <.oX8X8X5X9XtX9X`.b.l.j.z.j.0.>.X.0.X.j.j.O.O.>.X.O.0.X.X.>.0.>.{ j.h.h.B.j.b.z.b.0.X.` ` ] | ..>.b.N.M.b.b.b.v.b.b.z.v.0.v..X6XbXmXmXvXvXrX.X6XvX.XE.bX,XK 6 J G.T.+XR &.=.t.i.i.f.d.U.{.@X(./.~.{.}.L./.{.{.{.{.{./.{././.I.L.Q.^.~.R.f.U.d.U.Q.d.d.d.L.d.d.d.i.4.=.Q.d.a.i.d.Q.d.x.Q.Q.d.d.g.f.i.t.R 4.u.I 7 J D D +X(.M.N.oXA.n.B.M.M.oX8X=XqX0XqXwX#XoXoXoXyXuXyXyXNXNXfXzXGXyXyXyXqXyXuXuXqXyX9XqXyXuX8XyXuXyXyXuXuXyXuXuXuXuXyXyXyXoXoXoX*XqXfXfXwX#X=XyXyXyXkXNXfXfXjXd.2 W ! H.K.m r h X.oX9XiXiXiXtX5X`.b.z.k.z.j.0.X.X.X.X.h.V.V.X.X.+.X.0.X.{ X.0.....j.j.j.B.r.j.j.j.0.o.r ( r h h h V.j.k.V.k.k.V.k.j.j.k.z.N.`.5X8X8X9XoX0X`.).5XaX[.&.H.6.B ~ ~ J Y.H.l v N m m T T $.&.=.4.3.u.=.3.4.$.-.3.-.&.3.=.=.=.=.&.T @.$.-.=.$.$.-.-.$.$.T ' P $.7.f.i.i.a.i.4.@.P P -.=.=.t.=.=.=.=.$.&.-.$.T 3.3.G k F F k Y.U.m.N.oXA.n.m.N.z.oXN.oX0X8X8X0XoXoX_._.*XyXyXyXlXzXyXAX",
"8X8X8XqXoX9X8XoXN.M.N.5X5X9XqXqX9XqXuXrXrXN.`.0X8X8X9XN.oXoX8XoXoXoXA.n.oXoXoXoX].oX_.`.).N.).<.[ 4.=.a.4.b r r ,.'.qXrXqXuX6Xb.M.b.z.h.k.0.0.j.h.j.j.B.z.O.O.0.O.X.>.O.>.0.0.>.h.j.j.k.0.j.j.j.j.j.j.o.X.......z.M.5X5XN.N.`.5X6XtXrXrXsX7Xq.8.F.XXvXmXvXaX[.b.1.f v.aXP., B ~ S.T.4XUXy.f.R.~././.(.~.~.~.~.I.+X@X}.:X{.Q.Q.U.L.Q.~.Q.L.d.L.Q.^.L.d.x.Q.d.K.d.i.i.d.p.=.u.t.u.f.a.a.i.i.d.(.d.d.d.m.~.f.g.p.i.p.t.4.4.y.u.G 7 D D B ;X/.oXA.N.A.=X9X9X9X9XyXGXuXyXwXqX0X8XqXyXyX#X0X*XqXfXzXzXkXNXAXzXuXuXuXyXqX=XoXoXuXyXNXuXyXyXuXyXyXqXyXuXAXuXyXqX=XqXqX*XqX*XqXwXyXyXwX0X0X=XwXfXfXeXfXK.< I I H.3.[ r r >.9XuXuXtXuX9XN.b.N.z.z.j.V.V.X.0.j.k.k.V.V.V.X.X.X.O.{ X.O...X.>.h.h.j.V.t.k.V.j.k.V.% e.) ) e.o.k.B.k.V.V.V.r.k.b.b.N.N.N.k.z.l.z.b.].W.M.`.`.).[ 9.6.I 5 ! H ! OXK.T P m -.-.=.=.=.-.=.3.3.&.4.=.4.i.=.&.&.$.$.-.-.-.$.@.$.$.&.$.$.$.=.$.} &.m N ' T m =.i.f.i.i.u.i.-.-.t.$.t.p.d.i.t.i.=.-.,.-.&.&.4.2.G 7 Z B Z |.~.!.N.N.M.oXoX9XoX9XyXuXuXwX8X8XoXoX0X#X0X#X0XoX0XfXfXzX",
"8XoX9XoXC.C.A.A.qXiX9X9X8X`.8X8X8XoX`.M.N.).5X`.`.8X8X8XA.N.8XoX9XoXM.oXoX0XqXyXqX].M.M.N.).`.n.m =.4.&.d.@.e s <.#X].qXeXrXN.W.M.z.z.k.l.j.j.j.z.N.N.b.j.0.h.0...0.>.;.0.>.1.>.r.0.0.l.0...0.h.b.k.b.j.V.j.V.h.b.5XN.5X5X5X5X`.W.W.W.F.W.W.F.9.w.w.w.6X6XrXzXtXtXW.v..XY 5 ~ B S.T.Y.u.L.~.^.~.~.~.U.U.L.J.a.a.a.a.L.L.Q.~.~.~.a.a.i.f.d.a.a.i.i.a.f.f.f.g.i.g.a.i.f.i.t.i.f.i.i.a.K.a.a.d.U.Q.U.m.d.Q.d.f.d.d.f.4.7.i.4.R k B D H F |.(.oXN.oXA.A.9XiX9XqXqXyXuXuXyXuXqXyXfXzXzXzXuXyXfXfXfXwXqXyXyXuXyXuXyXuXuXuXuXNXuXyXyXuXzXNXAXuXyXNXyXyXyXuXuXyXyXoXqX#XwXyXyXyXyXdXkXjXNXlXjXfXfXfXVX$X= ! ! E P.:.r h >.qXqXtXuXuX`.[.M.z.b.j.j.j.j.h.j.k.B.k.V.V.V.o.X.X.{ ` { X.>.X.V.X.X.j.j.V.j.V.j.V.V.V.o.o.o.o.j.k.j.V.V.j.k.B.b.b.b.N.`.M.j.0.q.{ 1.q.q.b.5X5X5X,.@.U p 5 ! ~ T.Y.H.&.&.-.-.&.3.=.&.&.-.T $.&.3.$.$.&.-.-.-.-.$.$.$.$.$.$.m m ' @.$.$.%.$.} T m } -.-.-.=.u.L.a.a.s.d.f.f.d.g.f.d.m.m.d.f.i.t.i.-.=.4.&.R p 7 F F Z |.!._.M.C.A.N.9X9XqX9X9XyXyXyXyXyXrXwXyXzXfXyXfXwXfXyXeX#X",
"8XN.oX8X=X9X9X9XoX`.`.`.8X8XqXoXM.b.N.).`.5X5X`.`.).N.oX8X8X8X9XqXoXA.oXqXqXqX0X8X8X8XM.).`.`.!.c $.3.2.}.m e x p.#XoXrX`.).v.c.v.z.h.h.j.B.z.k.N.N.b.j.j.O.0.O.{ ..) [ ] ) { [ ..;.| ..;.0.j.j.k.z.b.j.j.M.b.M.N.5X6X5X8X).`.`.5X5X5Xq.b.0.{ 9.1.q.9.w..XsXsXvXmXbX.X.X0 6 D V ~ Y.T.H.y.L.s.a.a.u.u.5.4.3.K.U.K.f.a.f.L.d.f.d.L.Q.a.a.a.i.i.7.i.p.d.d.d.i.f.d.d.f.f.a.i.=.i.f.f.i.f.f.{.*X@X@X@X(.(./.Q.f.d.x.d.s.i.u.4.2.J 7 D D F Y.=XN.9X9X9XqXiXqXqXyXqXuXyXNXzXzXlXuXuXuXuXzXzXzXeXfXfXyXwXoXyXkXNXuXuXuXyXyXyXuXGXNXNXyXyXyXuXlXNXzXzXzXyXyXqXqXuXzXyXNXNXfXyXyXfXuXlXlXlXZXvXfXfXfXvX+X* I ! ! 1Xm r h h.qX9XtX9X5Xz.N.b.z.j.h.j.j.k.B.N.Z.N.B.V.V.V.V.X.X.) o.{ o.{ { ....X.X.V.t.t.V.k.B.B.j.V.B.k.V.z.B.j.j.N.B.B.n.b.b.N.b.k.j.0.0.0.0.;.] z.M.M.8X].R.4.2.< 6 ! G.H.T.3.E P T @.T P T P Y P 3.u.i.f.i.&.$.$.$.$.$.&.-.-.@.P @.' m m } $.&.-.-.$.} } i.d.f.d.s.$.-.4.a.s.d.U.(.d.d.d.x.(./.x.f.d.d.p.7.4.=.3.R G 4 F D F I./._.8X9XoX9XiX9X9XqX9XyXyXuXlXyXyXuXqXrXqXfXzXfXwXyXyXwX",
"N.oXoXN.9XoXN.oXN.N.`.`.N.M.`.M.M.5X).N.N.5X`.`.5XN.M.oX8X8X8X8XqXoXqXqXyXyXyX8XoX].8X8X8XoX).x.v L 3.y.$X} r r !.qX#XoXc.).c.z.0.b.h.h.j.j.z.j.z.B.B.j.0.X.X.) ( ` / ( [ / [ { ..( _ ` >.j.>.X.0.j.h.O.h.j.h.h.v.b.W.W.).).6X6X6X5XW.b.q.1.1.q.q.q.].W..X.XF.W.XXF.%XD.a Z J D D 4XH.E a.a.4.u.y.u.4.4.5.L.L.~.{.@X=X@X~.i.a.i.4.=.4.4.i.i.p.x.!.x.s.i.t.d.m.L.d.p.i.f.i.i.i.=.4.i.L.{.@X+X+X&X/.=X}.Q.Q.~.Q.Q.x.Q.d.a.y.u.l 7 D D F ,X1XoX9XuXqXiXuXA.uXuXuXuXNXuXAXNXzXzXzXzXzXyXyXyXyXyXqXwXqXyXuXyXuXyXkXyXuXuXuXNXNXNXGXyXyXuXyXyXyXyXAXuXAXuXyXAXAXuXfXzXlXyXuXAXAXNXlXlXlXfXfXlXvXvXlX{.; F u.H.cX$.h h oXuXqXuX5X5X[.z.0.b.h.O.j.j.j.B.B.N.N.B.t.V.V.) o.o.) { { ` ) ` _ ) |  .V.X.h.V.j.B.B.V.B.B.B.j.j.j.0.V.t.V.B.m.N.N.N.k.b.k.0.h.0.;.1.>.q.c.v.W.F.#.6.K , V ! S.H.Y.3.L $.@.$.R &.T L P R i.i.f.d.f.f.i.-.$.$.T @.m $.P m @.$.-.-.@.m ' ' $.$.-.f.(.x.f.p.i.-.n b P 3.u.f.u.f.Q.Q.Q.Q.d.R.(.!.m.d.f.i.i.u.3.k 7 D F F ;X%X'.8XqXqX9XqX9XyXiXyXuXyXyXlXfXfXzXyXuXeXyXqXwXyXwX0X0X",
"8X8X`.oX8XN.C.8XN.N.C.oXM.8XN.z.`.`.oXN.C.oX9X9X9X9XoXC.oXoX8X].oX8X0XqXqXyXqX9XoX9XoXqX0X_._.p.p L E 2.$XQ.r.r.oX8X].].M.c.M.q.>.0.{ ..0.+.0.0.j.k.b.j.>...` ` ..` ` { ) ) :...` ` ) ` X.h.X.j.h.X.0.z.j.h.>.;.X.1.0.q.W.W.W.5Xq.v.v.q.v.1.W.5X5XW.[.6XeXW.W.E.XX9.S a A i J V ~ 4XS.I &.-.4.4.i.=.t.f.Q.~.Q.~.(./././.=X$X(.Q.d.d.a.f.d.L.s.f.Q.f.g.f.=.4.s.~.~.d.a.i.i.i.g.f.d.f.I.~.{.$X:X|.~.R.~./.}.~.^.{.~.g.i.u.2.3.F Z ~ V W 2X{._.oXoX8XuXuXuXuXuXyXzXSXNXNXZXNXSXzXzXzXzXNXvXNXlXzXNXuXAX9XyXzXqXuXuXqXuXNXNXuXzXlXqXuXNXAXuXzXzXlXlXlXlXlXyXuXwXyXyX&XjXfXfXzXAXjXlXZXzXlXZXZXZXCXJ.t 7 H ! ,X@XM.M.uXuXiXtX5X5XC.b.j.k.+.0.j.O.k.j.B.B.B.h.V.j.X.X.V.X.X.X.o.o.V.o.o.V.o.V.V.V.V.V.V.V.V.k.j.k.j.h.V.V. .h.j.j.B.B.B.N.N.N.N.N.z.k.j.h.h.l.).b.[.[.8.S a 3 6 2 ~ G.T.Y.R n &.$.$.$.T T m T =.f.f.f.d.R.Q.d.d.i.=.-.-.-.$.$.-.%.$.} $.} m } m } f.&XwX/.d.s.p.=.t.-.@.T &.-.=.d.~.~.L.a.d.R././. X/.~.f.4.4.&.-.F k F F E 2X(.oXoXoX9XyXqXyXyXeXeXyXNXlXzXAXlXlXzXaXaXzXzXlXzXzXfXzX",
"N.M.M.N.9X].8XoX].oX8XoXoXoXoXM.M.M.oX8XyX9XoXoXoXoXoXqXoXN.oXqX8XqXqXwXyXyXuXoX9XuX9X8XiXqXqXg.j v L 4.R.'._.%XuXeX0X5Xb.b.0.j.q.{ [ X.X.0.0.0.0.j.z.j.h.>.X...{ { X.>.X.X.j.X.` { { X.h.0.j.b.j.k.j.j.j.1.>.1.] ] ] ;.q.q.5Xv.b.W.W.M.`..X5XrX6XsXvXbX.X9.9.8.F.9.Y t : 7 D V S.4X! R 3.a.a.a.i.u.u.d.R.(.(././.{./.{.}.}./.Q.~.Q.^.{.}.$X/./.d.i.=.=.p.i.a.d.d.i.a.a.f.a.L.K.K.y.J.U.{.}.~.s.a.i.d.x.R.Q.Q.d.f.t.u.-.R 3.H Z ~ V T.;XgXfXuXuXyXuXNXNXNXzXzXyXyXfXzXvXvXDXDXvXlXaXwXuXzXfXzXzXNXuXqXqXuXzXzXzXyXfXNXAXAXAXdXdXfXfXlXNXNXZXlXNXNXlXNXNXAXfXlXNXzXuXuXyXyXyXlXlXvXZXlXfXhXhXvXD.< 7 J ! {.rXqXSXSXuXuX9X5XC.z.N.b.>.{ O.0.j.k.k.j.B.B.k.j.V.j.j.O.V.k.V.+.o.V.V.) t.o.V.V.t.t.V.j.k.j.B.N.j.z.j.X...X.j.k.k.z.k.N.A.9XA.5XC.N.N.b.M.`.`._.l.v.W.9.b a : 2 2 ~ ! T.Y.E T U -.=.-.-.} } $.s.f.p.f.f.d.d.d.Q.a.u.-.&.=.-.=.4.4.4.-.&.-.} N i.(.'./.Q.i.i.t.a.p.u.s.&.m &.=.u.L.K.i.4.t.d.Q./././.L.f.t.t.3.&.Q H F J B H.OX1XyXuXqXuXuXzXNXzXuXyXwXqXyXyXfXlXvXvXzXfXwXwXwXfXyXeXzX",
"N.`.9X8XN.`.9X8XqXyXrX`.oXqXqX#X_.yXqX8XoXqXuXqX9XoX8XyXwXqX9XqXqXqXzXuXuXuXNX9XNXGXzX9XuXuXwX*.m R R 3.~.!.!.].zXwX5X`.z.0.q.1.X.{ { { X.0.X.0.0.0.h.j.0.<.h...{ >.0.0.b.b.j.X.{ X.X.j.b.k.N.z.z.j.0.0.X.1.;.{ [ [ [ 1.b.[.c.c.5X5X6X9XtXtXsXsXvXvXbX.X8.8.0 f S 8.D.- t Z J D ~ H.6.u.y.i.i.a.d.U.Q././././.~.L.L.R.~.I.~.{.{.{.~.~.{.{.R.L.i.,.i.i.,.i.=.7.=.3.-.-.i.=.&.Q &.3.3.4.a.L.~.{./.~.~.Q.L.s.d.L.a.y.i.t.T R Q G B J B T.T.+XfXuXuXuXuXuXNXuXzXzXyXuXzXzXzXvXzXjXwXeXyXfXzXzXzXAXzXyXyXzXNXzXkXNXlXNXAXVXkXkXZXHXZXkXZXZXAXjXNXVXZXAXAXNXxXVXAXjXlXAXNXAXkXlXAXZXlXjXlXdX#XwXaX,XS = F F K P. X0XsXnXMXiX9XC.q.b.q.0.>.+.0.0.k.O.j.z.B.j.z.N.j.j.V.V.B.k.k.Z.B.Z.V.o.V.V.V.B.V.V.V.V.k.V.k.h.j.h.>.X.X.O.k.B.B.N.B.N.A.9XA.9XA.9XN.5X9X].`.b.c.>.<.b Y K = 5 5 D ! G.H.! &.&.&.$.T u.i.u.t.Q.f.a.7.=.7.4.i.i.s.u.=.=.4.4.3.=.&.&.$.m } t.f.!.m.x.,.i.p.Q.p.-.-.-.=.=.T T -.4.L.L.L.Q.(./.!.Q.Q.R.d.t.u.i.-.&.R H 7 J D T.T.+XfXuXNXuXyXyXuXuXzXzXqXeXuXzXfXzXfXdX.X#XwXfXfXyXyXkXuX",
"rXyX0XqXyXuX8XeX9X`.oXyXzX9X0XqX#XqX8XN.8X0X8XoXoXoXqXqXoX].].oXrXyXfXzXuXuXSXNXDXFXFXDXvXNX'.&.3.2.2.Y 4.E.v.).eX).c.b.0.] { / { { { +.O.>.X.0.>.0.>.0.h.j.....X.{ O.0.b.0.O.X.O.0.j.k.B.b.z.N.N.0.0.0.O.0.X...+.0.h.k.0.b.z.E.W.sXeXeXsXsXaXbXsX.XXX1.XXXXd f a 9.E.< 6 Z B D V S.H.3.4.a.i.f.i.f.f.~./.(.{.(.U.d.L.a.u.y.5.3.2.2.4.6.&.-.3.&.3.=.3.u.i.=.u.u.y.i.g.L.f.f.f.L.Q.U.L.K.K.L.L.I.L.U.~.~.R.Q.Q.d.t.u.-.3.=.3.F B J ~ H.H.+XkXfXzXyXNXNXuXfXzX'.`.0X].6XaXrX0X].].zXzXlXlXNXNXNXNXZXNXAXVXFXNXwXzXVXlXZXZXKXKXKXDXVXNXAXNXNXZXmXbXfXlXVXlXkXjXlXZXNXNXZXDXZXNXlXhXlXVXZXfX%XjX8.t a 4 6 < &..X`.0XtX5X5XN.b.+.{ ) { X.O.O.k.O.0.z.j.j.j.B.j.B.B.k.V.k.V.V.Z.B.V.V.V.B.B.B.B.B.B.V.V.V.O.V.j.h.O.0.j.j.j.k.V.B.B.B.B.9XC.C.C.oX`.N.5XN.`.N.9XrXc.<.s v Y < 5 V V S.G.I Q U T @.@.-.=.=.t.f.f.=.=.=.4.7.=.-.-.&.*.P m P T P P n n n N -.f.Q.m.d.d.x.Q.d.x.Q.y.f.t.d.(._.g.-.i.u.d.Q.{./.@X/.Q.^.!.L.&.i.u.-.3.3.K F H ~ u.H.+XdXaXfXyXuXzXzXeXfX[._.oX'.[.rX.X'.`.).eXlXlXzXzXjXzXjX",
"v.[.^..X'.x.9.9.,.q.!.c.v.].yXqXyXqXrX0XtXuXtXsXzXzXyX].oXqXoX0XrXaXlXwXmXmXzXvXFXFXmXHXDXvXF.2.2.l G p E.%X1.!.!.`.v.0.0.{ ] { { { { { +.0.0.0...X.X.h.j.0.h.>.0.0.0.j.O.o.X.X.V.h.b.b.N.b.B.B.b.0.0.k.j.k.b.N.5X9X9X`.b.>.<.R.R..X.XaXaX6X6X.Xw.9.8.XX X8.7.9.s.E.D.- < 7 F D D ~ u.3.u.a.d.L.d.f.Q././././.~.Q.L.f.i.a.y.4.&.U T &.3.3.3.&.U u.L.K.a.u.f.a.d.x.L.d.U.~.U.}.+X@X{.I.a.y.a.y.4.a.a.a.J.a.d.a.a.u.4.=.i.4.2.3 J D ~ Y.T.T.F.XXbXzXhX%XXXR.1.#.9.] [ #.R..XaXzXbXaX%XsXbXbXhXbXbX1XhXgX<X.XXX#.D.F.9.L.XX$XHXHXhXZXDXDXLXHXmXmXHXZXZXAXNXvXmXCXDXZXZXZXXX%XlX X%XvXhXbXvXjXaXY i i = < = |.zXq.5X`.5X5XZ.0.O.+.0.+.{ +.O.j.B.z.k.0.O.h.V.j.B.C.B.B.B.k.V.V.V.V.V.V.V.B.B.j.k.V.k.V.o.o.V.V.V.V.V.B.B.B.B.B.B.B.B.k.A.N.iXiXrX9X6Xb.N.].5XqX5X[.q.#.@.K = < 7 B ! W F E T P m $.=.t.=.i.t.u.t.-.t.t.4.=.=.-.&.-.P n m P U T P n v m u.Q.Q.Q.Q.Q.x.L.i.d.4.a.L.Q.*X*XdX@XU.a.Q.U.d.L.Q.L.L.L.R.d.i.3.i.7.4.4.2.p H ~ ~ Y.T.|.F.XXaXhXaX.XE.x.1.9.1.%.9.#.v.XX%XbXaXaX%XhXbXpX,XpX>X",
"@.[ @.[ 9.[ [ [ *.p.v.8.1.[.eXaXuXyXzXhXlXVXDXKXFXfXfXvXuXyXuXNXfXDXyXrXvX%X XaX>XXXXX.XXXF.5.#.p i I : L.R._ <.l.l.<.0.>.{ 0.X.{ / ) o.+.>.X.{ X.X.j.X.>.0.0.j.N.B.B.b.{ X.j.j.z.B.N.b.B.B.j.h.j.k.b.b.j.b.`.5X6X9X9X9X5XW.[.W.<.F..X,X,X.XXXS w.F.w.XX8.S F. X,XXX8.t p Z Z B V D ! 3.a.~.L.a.d.f.d.x.x.a.L.d.f.L.K.a.a.i.4.-.$.U T &.&.&.4.3.&.-.3.T =.4.i.a.u.u.u.K.K.L.}.|.|.L.L.K.K.U.L.U.U.Q.a.4.4.=.=.4.u.i.a.y.3.p p F V S.4XH.Q Y #.@.@.1.#.[ ' [ [ ' ' ' b ' S U U Q 9.Y 2.U 2.9.2.9.7.7.9.9.*.@.2.#.&.&.@.@.d R.aXbXCXHXHXCXbXbXJXLXJXKXKXPXHXHXLXLXDXPX X8.aXL.XX:X.X}..X.X X8.&.K < ^ 6 O |.].] b.b.0.0.0.q.+.0.0.{ { X.+.O.O.O.O.0.O.X.X.k.B.k.k.B.V.V.V.V.+.V.B.B.B.B.V.V.V.V.V.O.V.V.B.o.V.k.B.N.Z.Z.A.A.A.B.C.N.N.N.qXtX0X`.z.v.].[.rX.Xv..XE.7.&.G = 2 3 2 J H 4 L n T -.m @.$.m } &.t.-.$.3.-.&.T &.$.T U m v v v m n v n m j n 4.i.s.d.d.u.=.a.a.a.a.L.{.:XpX$XL.7.a.U.R.U.~.~.U.a.u.*.6.3.4.u.a.u.3.l G J Z S.Y.H.2.U U @.-.-.&.[ #.@.@.@.@.' ' @.Y Y Y Q 2.U 6.#.2.9.9.9.",
"m ' [ b [ m m <.%.7.R.s.a.7.&.9.4.7.8.E.E.P.XX-X.X|.-XbX,X.X*X&XbXaXL.E.F.2.2.#.S S K Y U S S a 3 3 K i a.%.[ #.1.X.;.0.....{ ` { { ) { ..{ { { X.0.X.0.0.b.`.b.N.5XN.0.k.z.j.b.N.8X`.M.N.j.b.j.b.b.N.`.`.`.6XiXtX6XW.[.q.v.l.9.9.L.E.XXXXXX2.#.XXD.d D.5.Y U 2.Y Y U Y 6.Z = 2 V Z ! &.i.d.a.a.~.~./.(.Q.}.@X{.U.~.(.L.a.4.$.P P &.4.3.3.u.f.L.4.3.y.g.d.U.~.{.~.U.P.P.J.~.P.J.J.a.a.4.=.4.4.5.4.u.u.3.&.3.2.&.3.2.2.3.R G 5 J J S.S.! J U 2.$.@.T P ' @.m @.m m T T Y Y L I R I L &.&.&.$.*.-.@.*.*.-.&.-.$.Q.i.R.%X/.Q.R.2.6.D.8.J.D.S.D.F.-X3X-X<X<X3XbXcXcXBX<XXXIX~.a K S A K W #.b S p i & , F 6 K.,...;.0.X.O.0.+.O.{ { { X.o.O.V.o.o.O.O.X.V.j.k.N.C.B.B.Z.Z.B.V.V.V.V.B.A.B.V.B.B.B.V.V.B.B.V.V.k.k.Z.C.C.A.C.B.C.B.B.N.N.oXA.`.N.b.z.`.).v.]..XW.F.@.a a i t G 4 = 7 k F L n T $.P $.3.=.u.=.a.a.a.i.3.=.-.$.&.m x x x n m n n n T T x v 4.a.~.{.~.P.L.a.2.5.3.J.D.5.H.2.6.&.3.a.a.a.a.y.4.2.&.2.&.Q R 2.6.2.R G 6 J D S.! Q G U &.T $.P P m &.m @.n m $.P T R I E 3.W U R R &.&.2.&.",
"n b K K K L K H.2.4.J.7.7.U d v A S S A S A S A A S A S S W Y W S S S A a t y 4 t t < - - - - < X 2 3 Y a.[ [ ] { ;.;.;.1.{ ] ;.0.;.{ 0.X.X.{ X.0.{ X.0.O.N.b.`.5XN.b.C.5XN.5X5X9X9X8XN.M.`.`.n.b.z.b.c.).b.W.W.c.1.1.q.;.#.@.#.Y #.9.W S A S 6.W f d b Y S p t p d S K Y 2 6 7 F 7 L K.K.a.R./.U.f.d.L.a.L.{./.~.~.I.a.=.U T =.i.a.f.f.f.a.d.L.Q.~.~.I.d.U.i.i.a.a.5.5.D.J.a.y.a.3.Y T 3.&.&.R 2.u.2.2.R R Q Q U R Q U R G 2 F D ~ ~ B A F I I R U &.2.U Y U R a.5.! I H I E E W R Q Q U Q U Y Q U &.Q 2.2.2.:X{.OXpX,XpXJ.b @.Y U 2.U S S.S.A S.S.~ W S.A S.~ H A ~ A V Z J Z Z B * X X X * <   < 2 I I.[ ] ..{ 0.+.{ 0.X.{ X.X.X.) { O.O.+.X.O.X.O.O.V.B.Z.N.Z.Z.Z.Z.V.Z.Z.B.B.B.B.B.B.B.B.B.B.k.B.V.B.V.k.B.Z.B.B.B.B.N.B.N.N.N.N.j.j.h.q.v.z.q.v.v.v.8.&.e a 3 3 t i < 3 7 i 3 y T T T $.3.-.T &.3.R Q 3.3.3.3.&.T m n m @.@.$.$.&.&.R &.-.3.3.u.a.4.3.R U U R U Y R R R R U U K L &.R R U Q Q Q R I U Q R I R Q U U G 2 J J ~ ~ J F G J I R U U &.Y L Y R 5.3.Q J K I E Q Q Q Q U L R Y K ",
"p i k k F k F 4 4 k k G 3 4 i i p k i k k k k k Z F i Z k k 7 k k 7 i 4 7 F J z i i ; O O * & 9     & S.{.$.%.] { 1.>.1.1...1.l.1...>.>.0.h.X.O.+.0.0.O.j.z.z.).M.c.M.M.c.W.!.).).W.c.v.M.l.0.<.;.] ..1.<.1.1.;.] ..;.' #.[ d x s l v l u y G l a A i t 6 y a 2 - : a A a 6 B Z k g k u.J.5.y.J.4.U Q I Q 2.D.D.u.3.3.U T 2.K.T.K.3.3.5.J.y.P.H.5.6.D.P.D.D.4.6.Q Q W Q Q Q Q Q E E H n E H L H H L I H L I G H H G L J H 8 7 H H ~ ~ D J F g F g 4 i 7 4 y l R l F i F 6 B D D F k i * 3 i 3 l G G G Z F Z Z a 6 Z A J a 6 p Z A A F G J F k F F G k F F g g J F F D J k ! ! E J G 2 .   O & 9   . , G.;XQ <...{ 0.X.X.;.X.;.{ o.{ X.X.{ +.o.V.O.O.V.O.V.Z.Z.N.N.C.Z.k.k.B.k.k.B.B.j.j.B.j.V.k.V.O.V.k.k.O.O.V.O.k.Z.k.k.k.O.k.k.k.k.z.0.{ X.<.<.1.;.1.9.,.p : * = 2 t 3 2 8 4 4 4 4 G L L I I I G G G H G J L L H H l z G R Q E L L L T R R R L L I U E U L L G l G G G G J F G I G G H G G G G J G J G J F J J J H J J 4 6 H J ~ ~ H F F g F k 4 k k 4 y l U G G Z F D J J J J L F 3 4 y 4 z ",
"L H L H I W W E ~ ! J G J G F 4 F F k F k k F F F F J I H W ! E p Z k J J E ! ! ! ! E L i ; * 2     9 UXJ.L | ] { ) ` { <.;...] ] ......X.X.X.0.0.0.0.j.0.j.l.h.l.r.<.<.1.>.;.;.;.%.;.1.;.*.%.] 9.{ | ] [ [ [ [ h x f s e w u u u p p y y 4 i k i i 7 4 3 2 3 ; & 9 = : < B B V 7 J ~ 8 G I U I H K I J I ~ H J H J L G l H J F H G H k G G J J J F J Z Z J F J F J H ~ ~ J F J F H F H z J F J H J H ~ H ~ H E ~ H H J J 4 2 J H ! ~ J J J J J F F F 4 i 3 3 2 3 3 7 7 F 7 g g k G G I a.K.y.3.Q R 3.R 5.6.H.u.6.H.U I W K H 4 G G i z k k L H I H Q UX! H.T.T.H ! W H.T.Y.;X;X-X|.K.6.F = O ;     , G.K.T %.{ { o.) { >.;.{ { { X.X.X.+.X.O.V.O.j.Z.k.O.Z.B.B.N.N.k.b.k.k.k.O.V.V.V.j.j.j.O.O.j.V.O.j.V.+.V.V.k.k.O.Z.0.0.k.k.j.z.z.0.[ { ..| %.%.@.] %.$.q - * * = , < 5 7 5 5 k F 8 k k G G k F G F F F F F i k k k k k k 7 7 i k g 7 4 i 7 g D i Z 7 k k k g F k D F k g 7 8 F D F k F D J J J J ~ ~ E E E E E E H H 7 7 J ~ S.~ J H ~ H H J J F k i z k 4 4 7 k k H L H H I I R 2.U.U.f.y.",
"i F k J ! E ~ H W W R ! Q I I L E ! ! 3.! ! ! R Q ! E ! 6.6.! H F J F G H J F G G k G G G P.Y.3 1 8 1 ! y.4.-.| ] ( { ;.:.] ` ] ..] ........;.X...0.0.0.>.h.v.h.,.r.t.<.<.;.;.1.;.] } %.#.@.] ' ] %.' ] } m v b q + + + - u j z k z k 4 4 k k 7 B 6 i 7 4 4 8 4 3 ; = < 3 V B Z D D G.G.F F F H H F J ~ D J ~ ~ H H J J J H H ~ H H ~ H J ~ F J ~ ~ ~ ~ ~ H ~ ~ ~ ~ H ~ W ! ~ ~ H F J H H H H ! ~ J J J ~ F ~ ~ ! ~ ~ W ~ F 7 ~ H ~ G.T.! D F H J D F 7 g 2 7 7 g D g g 3 4 4 E H.2X{.:X:XR K v u Y L n a.3.E I y.u.J.U.P.3.2.3.H.Y.U.Y.Y.I.U.H.P.P.H.P.|.I.Y.P.3.u.6.6.3.3.I 2.Q U 2.&.U {.;X2 9 8 9 ! H.u.:.| { ) { { X.{ { { X.{ X.X.O.V.O.O.O.O.0.k.V.k.C.N.B.B.k.k.k.j.O.j.V.V.V.V.0.0.X.O.O.O.O.O.O.+.O.V.0.O.O.0.k.O.0.k.j.j.>...] ] [ [ ' ' ' ' $.P - ; ; * & & 2 3 5 6 7 8 ~ J 7 7 7 k k g D D i g F k F F D F D D D 7 F D J D D J F F H H H ~ H J ~ ~ H J F H F F F F D g F H J ~ ! ! Q W I ~ E J ~ ! ! ! W ! W J 7 ! H ~ G.T.UXF J I H F F D 7 4 7 7 k i k F 4 k k ! K.2X{.,X&X6.T P ",
"G p G 5.|.K.! G i 4 p G H l k H E E ! I Q E I E R E I G H J J J F G H k k y i p l G I Y l R ,XI 1 C 1 H Y.y.' @.] ..{ X.` ] ] { ....X.>.>.0.X.....>.>.h.0.p.t.r.t.,.,.=.%...| | ' m ' %.@.] $.} [ } ' ' } N m m w > u u a j l l l i i 4 4 7 7 Z Z 7 7 6 8 8 2 2 8 5 5 5 B 5 6 B F D ~ ;XH.G.G.S.W ! H J D J J H H J ~ ~ J ~ H J ~ J ~ W H H ~ E W ~ H H ~ J H H H ! ! ! W ~ H H ~ E J J F J J J H H H ~ H E H F F J H J F g 7 H ~ T.3X2X4XG.J 7 F 7 8 7 5 5 D 8 V D B 8 ~ T.+X;XBXJXcXJX|.a.U #.v w L {.JX1XJ.l q - z m R L n R a.5.H.u.y.4.3.u.4.5.&.Y &.U &.Y R P @.v n j x K P &.4.&.n 3.gXI 1 8 5 ~ {.f.P | { { X.{ ) [ { { X.O.O.h.j.V.V.X.+.k.O.k.j.k.b.N.k.z.k.j.j.O.O.O.V.) ) V.X.X.X.X.+.X.O.O.O.+.V.k.O.O.j.k.O.k.k.j.O.j.X.{ ] ` c b c d b d P p * & 9 9 9 ; 5 2 5 5 B 7 F G.E H H H F H D V D F D D D D D H J F D H H H H E ~ E ~ ! ~ ! ~ ~ ~ J ~ ~ H H ~ H J G G F J J F F J E ! E ~ I K K I E E F F J I I H F Z I W Y.3X2X4XUXJ F F k 7 7 7 5 7 7 7 F F k E T.+X;XcXJX,XJX-XJ.2.4.",
"5.5.K.y.E K I R 5.3.I l l R i p I i a 3 t G L I G K J G J F F F l G k 4 y q i y p l n m &.2.u.G 5 V C J T.a.P #.{ ;.X.X...;...0.j.h.>.h.h.k.j.h.j.j.j.h.t.r.h.t.t.r.,.:.%.} ] } ' b @.m P m @.$.m m m m m M m n v v G l l G G k G i i 7 5 7 B B 7 7 8 2 8 5 1 1 5 < 5 < 5 5 < 5 5 V ~ 3X;X4X4XT.T.T.T.K.UX! UX! I ! H ! H.H.~ ! ! ~ ~ ! ! E ! E H E ! ! S.H.Y.4X|.4XY.4X;X;X;X;XY.+XY.Y.U.K.H.Q E 5.K.Y.Y.OXOX+X{.|.:X:X;X:X,XgX2X1X1X2X<X3XT.! E I G F D D D 8 D C F G.;XY.;XT.! JXIXQ A p a 6.:X}.gX+X3.U 2.2.~.6.a e u 6.v a 2.d t t t R -.3.P P P Y P L m v K m v u s w M x m m T -.4.4.a.K 6 8 5 ~ Y.J.@.;.{ { { { ) { { X.0.j.0.O.j.k.j.O.+.V.k.V.O.j.N.B.B.b.k.j.O.O.O.X.{ X.{ ..{ X...O.O.X.+.+.+.O.O.O.V.O.k.k.0.V.k.O.O.0.X.` ` d r r r r w u Y < ^ * & & 1 9 5 2 1 5 V B ~ H.G.G.G.G.S.! S.S.~ ~ ~ ~ ~ H J ~ ! ~ ~ ~ ~ ~ ~ ! ! ! ! ~ ! ! ! u.u.H.H.H.T.H.K.Y.Y.Y.y.H.J.T.T.T.K.H.H.E R 5.K.{.{.}.OX}.{.|.OXOX:X;X:XgX,X1X,X2X<X3XH.Q R E G l F g D 8 B 7 J u.;XY.|.P.Q cXcX2.Y S a 4.",
"7.5.~.*.P a.J.L.L.L.L.a.s.f.a.4.&.&.@.6.P &.u.3.R v p v L v 4.L.L.d.i.t.$.m T $.@.&.-.n T 7.L.J , 5 5 ~ Y.P.4.;.;.{ X.1.O.X.{ X.0.j.N.N.N.N.N.N.b.b.k.j.k.M.8XM.n.M.z.x.r.:.%.} $.} m c c m b m %.r.s.x.p.4.$.v L l H G G F l 4 i 2 2 2 * 9 2 2 ; 4 3 9 9 * & & , , 1 1 < 1 5 ! H.D.G.4X;X-X3X4XY.3X;X3X;XOX;XY.Y.XXu.K.;XI.Y.Y.Y.T.K.Y.|.Y.I.T.T.Y.T.5.D.Y.Y.OX}.;X|.Y.T.J.D.D.H.T.D.y.D.5.J.2.2.6.U U &.5.7.J.P.P.P.P.|.|.P.~.U.y.P.OXP.U #.Y Y m U 3.u.u.k H ! G.4X2X4XH.S.B 6 2X,X3 K t d : p U J.a - : - #.P.u a a p @.3.P t - q a > b &.$.-.m x x b v x x v x s M $.i.i.p.i.i.t.m -.s.~.G , 5 V D Y.J.&.@.{ { { { X.o.{ o.X.O.0.k.j.O.V.k.V.O.O.O.O.k.C.j.z.N.k.j.0.+.O.X.X.O.{ o.{ X...{ X.O.{ +.O.+.Z.k.Z.0.Z.O.0.k.k.0...;.( ( r r r f 0 e e @.p X * * * & 1 1 < 5 5 J ~ ~ ~ D.H.G.H.G.S.H.S.H.H.G.H.! ! E J ! H.H.H.H.H.UXD.K.H.y.H.{.Y.{.|.I.Y.{.|.$X:X:X+XOX|.Y K I I 5.Q 2.UXu.3.R 2.6.&.U 2.4.5.s.d.L.~.I.|.~.P.XX~.J.~..XI.@.&.R Y P P 3.u.y.z J ! y.4X3XY.y.! F < 3X,Xp Y u v f ",
"*.7.#.' 8.P.8.6.8.a.@.@.@.$.d.Q.R.7.@.%.@.%.d.d.=.$.*. XhX.X#X'.].].oXqXn.| ' %.=.t.=.$.,.4.a.U = 2 8 ! J.R @.;.X.X.O.O.X.0.O.j.j.O.h.b.b.k.j.b.B.k.j.k.N.N.N.N.`.`.).`.M.z.b.).`.`.!.n._.).p.,.!.v.'._.p.L.u.n L G G J G y T 2.a.4.=.&.T R u.u.u.f.g.u.n > = > t i y p i a L 5.P.P.P.J.6.6.J.6.u.5.5.J.5.D.&.@.2.*.,.7.6.*.4.a.4.y.a.L.s.J.8.a.7.*.&.#.7.8.7.R.R.F.8.#.S d S d #.1.*.*.9.@.#.*.,.1.@.] 9.%.#.#.@.#.9.6.9.5.7.6.7.5.7.9.@.[ #.c [ [ [ ' =.3.R 1XIXJXJX2X;X4X! ! W p W 3 q t a t f < - : q a q 0 - e 0 - 0 > T 4.&.s q @ j M } -.$.' m m m x x w x $.t.f.f.t.:.i.x.g.t.-.p.7.a.Q = 5 8 ~ D.G b ] { X.X.X.X.X.X.O.O.X.X.O.k.O.V.k.k.j.O.O.k.k.V.j.b.j.j.k.0.X.X.X.O.X.) { { O.X.{ O.+.O.+.O.V.O.k.k.k.0.O.k.0.0.0.0.X./ / / r r [ h h t.x.x O - - * = 5 3 6 3 4 H ~ W I J A J H J G A G L E 2.&.&.4.i.a.~.U./.{.~.+X|.{.{.L.y.u.U.~.Q.a.i.(././.^.^.XX~.I.7.a a p d U &.#.#.@.b @.,.9.#.] 9.%.#.#.@.&.*.2.4.7.8.4.8.5.8.9.@.@.@.[ [ ' [ $.=.3.R 1X2XBXBX2X;XY.Q ! I A &.a w u x d ",
"#.*.#.*.6.b b b p.7.7.R.i.p.x.!.oXc.%.] w 1.p.<.1.7.L.[. X XW.1.s.].'.m.m.,.[ ,.i.,.g.p.*.-.7.U = 3 2 ! y.u $.l.h.j.j.j.V.j.j.V.k.B.B.B.k.B.b.k.z.k.j.z.k.z.z.M.8XN.N.N.b.z.l.v.v.v.q.z.c.).M.N._.`.rXc.r.1.p.R.P L H G L U.+Xd.x.x.x.c.m.m.m.n.d.p.r.x.t.' s w s x s s u u u -.4.7.8.*.#.@.@.@.@.&.9.@.9.#.#.7.1.8.v.p.8.s.x.x.s.p.i.s.p.s.p.p.r.i.p.p.c.n.v.p.8.8.1.#.w.d [ ' #.[ @.1.:.| ] :.;.] :.>...>.;.| |  ._ -.t.x.!.R.l.<...%.` | .. . .....| | m R H.4X4X;X2X;XH.H.! i < G Y K P j q u a : : 3 q q : q q > @.q > w T a.$.e w M -.%.-.m c m $.$.m m x T i.t.$.$.' ' t.p.t.p.d.<.*.s.@.* 2 9 ~ 6.: m <.0.O.O.0.V.V.O.O.V.k.k.j.k.k.k.V.j.j.O.0.j.X.o.z.N.j.z.j.0.X.{ ..X.../ o.{ X.O.O.O.O.O.O.V.O.O.O.O.O.+.O.O.O.0.0.k.) { o./ ( ( ( ( .._.].d - - < = - : t 3 3 y G L Y Y n S p G p v U a.d.{.~.}.$X$X*XpX*X@X'.!.@X$XQ.L.8.J.f.g.m.x.Q.(.oX#X*X%X#Xx.4.s.8.@.d s d x c [ %.%.' c } | ] ..;.....X.] ` ] ' :.i.x.!.x.v.<.......| ......X.....] m &.H.+X4X;X2X4XH.H.Q p t n U Y @.p y ",
",.p.,.@.c b b [ [ 4.s.~.R.R.x.x.p.p.p.%.e ;.p.<.p.v.v.^.8.] 1.] [ x.Q.d.s.x.n.n.x.m.l.r.t.=.i.4.< 5 6 W I.4 m (.z.j.0.k.j.k.j.k.Z.N.B.B.B.B.b.k.k.j.j.k.j.B.8X9XN.b.N.M.z.b.l.0.t.V.:.j.h.j.M.9X9XqXuXn.l.,.,.Q.y.l L U.$X@XJ.8.8.8.8.8.r.v.v.s.x.d.s.p.p.f.} w M w N w j s x 4.7.@.' [ $.%.[ m } ' b c c w M [ ' $.;.1.1.:.,.1.r.i.i.f.d.x.d.i.8.7.s.(.).(.x.p.>...] ] ( ..| t.r.r.t.z.r.t.r.r.r.l.h.j.r.h.r.r.t.p.r.x.(._.).v.h.r.<.:.;.>.:.>.>.>.>.X.:.;.:.$.9.3.D.P.T.Q ~ ~ D ; 3 2.&.&.&.&.j j > > e $ w q e q q x w z n &.w e j w N } i.-.} $.T N N N M } N t.t.N } t.m.m.m.m.n.m.t.t.s.4.< < 1 ~ T.; M !.q.0.0.j.j.j.O.0.Z.Z.k.k.B.V.k.V.k.V.V.V.V.V.B.A.k.O.j.j.O.+.X.{ X.o.o.{ V.o.V.V.j.j.V.V.k.V.V.V.+.O.V.V.k.k.k.k.+.) { / / r ( ( ] c.].4.a y : > 9 > > : y 4 y L n L 4.v n n x n g.Q.Q.Q.d.Q.Q././. X%X X'.(.'.^.,.4.7.p.Q.x.m.Q.@X#X#XwXdXwX&X&X#Xx.,.%.d } c ' } | t.t.t.%.%.| ,.r.h.h.0.r.t.r.>.r.r.m.!._.).v.h.r.<.;.X.>.>.>.:.:.>.>...:.%.$.*.2.D.P.XXQ W E k : z 3.&.-.-.-.",
"%.$.' %.@.[ @.9.@.9.9.1.8.8.8.7.*.*.,.%.s v.r.s.x.E.[.v.v.8.@.9.9.,.t.p.x.'.(.n._.m.g.g.i.=.4.&.a = Z H.y.$.!.r.q.0.0.k.B.B.B.k.A.Z.N.Z.B.B.B.b.k.j.j.B.oXN.N.9XN.z.z.z.0.c.c.z.z.b.j.z.M.N.B.oXqXyXqXM.v.n.,.$.a.y.H.+X{.a.7.7.7.,.<.7.<.,.,.8.<.7.,.i.s.d.t.M h x x x x x x ' %.| :.t.t.r.r.p.t.l.r.<.:.t.r.r.r.l.c.n.M.n.n.n.n.!.x.p.x.v.x.v.x.v.v.!.).).).n.m.l.>.1.r.m.n.B.z.M.z.h.z.m.z.j.h.h.z.r.r.t.h.r.h.n.m.c.!.).!.v.l.h.0.0.0...X.X.t.X.h.t.r.X.X.| =.,.,.9.4.i W D.W 4 : l 3.f.t.u.n w > e y w e y q q > - u T T n u v x m T T T -.-.=.T N N M m M } g.u.g.m._.m.m.=Xm.m.m.g.g.i.&.t = g H.u.T !.t.0.0.O.k.B.B.B.k.C.Z.Z.Z.k.k.k.k.V.V.V.B.V.V.k.A.B.X.j.0.X.X.0...{ 0.X.X.t.V.V.V.V.B.j.k.k.k.V.V.V.O.j.j.k.k.k.0.O.O.{ o.( ) ) ) N.`.(.s u p 4 - + - q : y j y z v i./.=.} t.f.=X=XoX/.oXoXoX#X#X%X&XwXdXwX*XwXc.Q.!.'.(.oX=X&XwX*X#X X&XpXaXfX&X/.R.s.,.s.z.t...| t.t.t.t.<.:.%.:.h.h.r.t.>.h.>.r.x.l.m.n.!.m.v.q.h.h.<.h...X.>.t.V.V.t.t.X.| ..r.,.,.4.6.A W H.E g : x -.i.,.=.",
"1.*.' @.] @.[ b @.#.b @.%.*.8.7.<.7.7.c [ ,.p.s.7.8.8.9.1.p.%.<.x.s.,.p.f.p.m.m._.m.f.i.-.m P 4.z 9 J Y.{.AXn.>.O.{ k.Z.N.Z.B.b.Z.C.N.N.b.B.k.z.j.h.B.M.B.N.C.M.z.b.j.j.M.M.b.b.m.m.b.m.N.C.9XA.8X9X9X0XoX8Xx.w Q U.+XY.L.i.7.<.7.p.p.v.x.!.R.R.R.s.p.1.<.p.f.%.h x x x m x c $.m.n.p.h.r.l.l.n.m.r.t.z.n.h.r.r.m.c.x.m.x.x.n.x.r.p.x.!.R._.!.v.v.f.v.M._._.).n.z.b.l.z.N.qXoXN.N.N.m.z.z.j.r.t.t.h.h.h.h.h.l.h.t.h.v.v.v.!.!.n.x.h.l.h.h.j.r.h.h.h.>.h.j.h.r.:.r.r.7.,.s.Q 3 J UXE ; z &.-.3.&.} n w q w x j j j w e w x z z j j m m } N -.t.g.g.i.t.g.t.} m g.m.m.g.m.m.m.d.m.n.m.g.g.R N E g.i & k U.{.kXn.X.O.o.k.N.B.C.Z.B.C.C.N.Z.B.k.k.B.V.V.j.j.k.k.N.k.O.0.0.V.0.0.0.O.>.X.+.X.V.V.j.V.B.B.V.V.O.k.k.V.k.B.B.V.k.k.k.0.0.O.+.0.X.X.k.9X9XqX!.q a t y : = O - z y z z T d.=X(.m.m.=X*XwX#X=XoX*XfX&X*XwXwXwXdX0X=X0X#X'.'.wXyXyX&XwXyX&X#X.X X@XpXpX$XQ.Q.x.x.!.=X_.n.m.r.t.t.t.t.,.,.:.:.r.h.h.t.>.h.r.>.r.l.l.l.!.!.M.v.l.h.h.h.j.0.0.h.h.>.r.j.r.r.t.l.r.i.,.d.Q 7 J UX! ; j &.-.*.$.",
"p.*.1.,.#.@.b c @.[ [ $.@.1.7.,.@.' :.c m %.1.1.9.1.1.%.#.] @.f.!.m.x.d.v.g.m.d.f.f.g.-.$.-.=.u.R z ! Y.OX&Xh.h.j.b.k.B.C.7XZ.Z.A.A.C.N.N.B.B.B.B.B.B.N.N.oXN.r.z.l.z.v.).M.M.M.M.N.N.A.8X8X9XqXqX9X9XoX_.8X'.n T Q T.{.J.i.i.,.,.<.d.v.R.R.d.s.7.p.7.<.t.<.r.t.| m m M c v P %.Q.v.p.p.r.,.t.v.v.r.t.r.>.;.>.r.z.n.v.<.<.<.t.g.s.v.c.!.c.x.v.c.!.).'.(.)._._.M.n.h.z.].qX8XoXoXM.m.m.z.l.z.t.t.z.n.z.h.h.h.h.t.r.m.l.v.M.n.x.l.h.<.h.h.0.<.h.h.v.0.v.z.v.r.r.<.p.7.<.,.a.R ! ~ UXH.g - L &.3.t.-.u.=.m w z w l n w j x j m T N j N $.:.t.t.t.f.i.t.d.g.T } } n.m.U.m.m.m.m.(.m.d.g.g.g.t.t.u.u.2.i ! Y.=XwXr.h.0.k.k.B.C.C.Z.B.A.A.Z.C.B.B.B.j.k.V.V.k.V.N.B.o.X.O.h.r.0.k.0.j.j.O.O.j.j.B.B.B.B.B.k.V.V.k.k.V.0.B.j.O.j.k.k.O.0.X.0.0.V.k.A.uXuXSXc 0 q > y y : + * y k j R d.=X*X=X*X*XyXyXfXyXwX&XdX&XwXwXfXfXpX X'.*X!.s.@X&XwX>X&X@X&X#X@X@XpXpX XQ.R.R.^.!.!.@XyX*X!.oX_.d.,.<.p.t.t.:.%.<.v.h.r.h.j.t.t.r.z.l.l.c.c.v.l.r.<.0.j.h.>.r.v.l.0.l.z.v.l.0.r.r.<.<.,.a.R Q E u.y.k : b &.=.=.",
"8.,.<.7.,.*.#.7.7.%.,.,.p.p.l.m.r.t.t.M :.%.[ ] <.l.c.p.,.%.:.d.m.(.Q.s.Q.d.(.Q.f.f.g.t.-.u.i.u.T ! S.S.;X X<.j.k.B.B.N.C.A.A.Z.C.N.C.C.N.B.k.z.B.j.B.m.N.B.j.N.n.M.z.N.N.M.z.M.N.oXA.9X9X9X9X9XiX9X8XqXrXzXoXm P y.|.{.J.d.p.<.r.p.t.,.-.:.=.7.p.p.<.<.<.:.t.t.r.%.M M m m $.=.Q.d.x.p.p.p.v.r.g.z._._.z.M.M.n.l.r.r.r.r.h.r.j.r.z.m.z.!.n._.!.!.#X#X'.#XoXn.r.t.h.n.`._.n.oXM.m.z.r.t.z.m.h.m.z.j.t...r.j.z.j.z.M.M.n.h.:.r.b.z.>.>.O.>.h.t.h.l.h.>...;.;.:.;.:.>.<.%.i.y.E E H.H.J ; t u.=.=.-.-.t.=.-.m j N N N x N T -.g.g.t.t.g.g.m.g.g.g.f.Q.d.$.g.f.d.m.m.(.(.f.(.m.(.m.m.m.g.u.t.g.g.g.I ! D.! ;X'.t.j.k.b.k.N.C.A.5XC.C.Z.C.A.N.B.B.B.B.V.V.B.V.V. .B.j.B.V.j.j.j.O.j.j.j.j.B.k.k.B.B.B.B.k.k.Z.B.k.j.B.V.V.V.k.V.k.k.0.Z.B.j.k.C.uXSXSXzXs 0 t : : < a : O q z E +XOXgXgXgXdXfXhXhXdXdXkXVXjXjXAXlXVXdXyXwX*X*X#Xd.n.'.#X#X&X*X&XwX%X'.}. X@X^.d.f.d.Q.d.Q.[.p.,.v.p.i.,.,.t.t.<.r.h.l.r.t...V.j.j.j.z.M.M.z.h.;.h.z.h.r.>.X.O.t.>.h.h.0.>...;.;.:...:.:.1.;.7.y.E E H.T.G : y 7.=.=.",
"' ;.%.p.v.s.d.d.i.7.8.x.!.v.m.n.c.m.:.:.:.t.v.v.).[.!.!.(.v.m.f.x.x.t.t.d.t.d.m.m.m.m.g.t.t.t.d.L 7 ! Z H.}.r.z.b.Z.Z.N.C.iX9X9XC.N.A.A.A.B.k.B.B.n.N.oXM.j.m.m.C.N.M.M.`.8XrX9X9XqXyX9XqX9XqXiX9XqXqXqXqXzX_.-.U H.|.L.L.i.=.<.r.t.<.p.<.p.r.r.p.v.p.l.v.p.z.l.t.t.M N ' -.$.=.(.x.n.l.x.l.p.v.m.m.n.n.n.n.n.l.r.r.r.l.m.m.z.m.m.z.n._._._.!.oX#X#X#X#X#X!.!.m.!._.n.n.c._.M.M.M.n.m.B.N.M.b.j.t.V.j.m.B.z.z.z.M.j.h.r.>.h.r.l.h.h.h.h.j.h.k.z.j.h.z.l.h.j.r.r.r.v.c.R.'.J.i H ! G.E k 4 i.f.=.-.%.-.=.t.g.u.$.n T $.-.t.m.m.m.m.m._.(.m.t.g.g.g.g.g.(.m.m.m.g.m.d.g.u.d.u.g.m.m.m.m.m.g.t.g.f.U 5 ! Z H.{.<.z.k.N.Z.Z.C.iX5X5X9XN.A.C.A.Z.k.B.B.B.B.B.k.k.B.B.B.B.k.k.b.N.A.N.B.C.9XB.N.B.B.B.B.B.V.k.B.N.B.B.N.k.k.k.k.k.k.B.k.Z.B.B.9XtXSXnXzXW.0 < 3 : t y z k - : d.&XdXdXjXkXhXaXjXjXhXdXkXAXVXlXVXlXlXfXdXdXwXwXfXyXyX&XoX=X*XwX0X@XpX&X@X X%X%X XQ.p.Q.n.^. X~.x.p.t.*.,.,.,.t.p.m.r.r.X.t.r.z.h.j.z.j.b.h.h.h.r.h.h.h.h.h.j.h.j.j.z.z.h.h.z.v.h.j.h.r.r.v.m.c.'.J.i I ! UXE g y i.f.t.",
"1.%.p.s.s.x.L.x.d.x.E.x.!.c.!.v.l.!.p.] ' !.!.0XyXeX].wX[./.m.!.(.d.g.d.g.-.:.g.m.g.m.m.g.g.m.L.R 2 i 3 t x.v.b.C.C.B.A.C.C.N.9X`.N.N.N.N.B.B.M.b.N.9XA.N.N.A.N.oXN.N.8X8X8X`.9XyX9XyXuXuXuXuXuXzXuXqXeXyXzXoX$.m 3.~.{./.=.t.<.t.p.p.x.v.m.c.x.c.c.!.!.x.!.n.n.x._.d.} $.-.} $.'.).!.m.m.m.t.l.m.n.n._.n.n.z.m._._.!.!.n._.m.n._.m.n.'.@X_.'.!.!.].'.W.'.'.'.`._.n.x.n.`._.z.m.N.n.n.N.N.n.j.z.b.n.b.h.t.z.l.j.z.j.z.z.b.z.h.z.z.z.M.l.z.h.r.r.h.r.h.r.h.>.h.h.<.p.p.<.R.K.= i G.~ ~ F * 3.Q.a.u.=.t.f.4.f.f.L.d.m.@X/.(.(._.m.(.=X(.f.t.g.-.g.m.Q.(.(.(.m.d.f.m.f.T t.g.t.t.g.f.m.m.m.m.g.m.m.R = 7 < : d.v.b.N.C.B.A.A.C.C.7XC.N.N.N.C.B.B.B.j.B.N.C.C.A.A.B.C.C.N.N.C.C.N.`.tXC.iXiXA.9XA.A.A.A.C.N.N.A.N.B.B.C.k.B.Z.B.B.N.B.C.N.9XiXMXSXzXsX7.- f 3 : 4 y p G z q l I.,X>XxXjXxXxXxXxXgXxXCXVXVXZXxXfX%X&XdXfXhXhXhXfX&XwXfXwXpXdXgXpX%X X}.$X XR.Q.R.~.!.!.!.s.,.i.t.:.:.,.:.r.i.t.p.t.r.h.z.z.j.r.z.z.h.z.z.z.z.z.z.h.z.z.z.c.l.z.h.r.r.l.h.<.h.r.r.>.r.<.r.8.r.x.K.: i UX~ ! F - =.Q.p.",
"r.x.,.<.v.s.E.!.'.%X'.(.p.v.(.n.).E.%.@.!.'.#XrX#X^.W..X[.!.m.!.!.n.m._.p.t.m.n.m.U.(.(.m.n.t.f.4.: 3 : X @.v.b.5XC.N.C.N.b.C.rXn.j.A.A.9XA.N.B.b.oX9XN.qXoXA.A.9X9X9X8X9X`.M.qXuXuXuXuXGXGXnXGXuXqXoXc.8XNXn.%.&.R {.:X(.=.d.m.m._.M.n.z.n.n.).(.).!.x.m.d.f.v.!.!._.m.!.f.7.=.'.'./.m.v.f.x.m.m._.=XoX_.M.M.oX`._.`._.oXoXM.n.n.n.!.!.].`.n._.!.!.!.(.'._.!.n.n.z.z.n.l.z.m.N.N.M.n.z.z.z.z.m.z.m.z.v.z.l.<.;.r.l.m.j.z.z.h.h.h.l.l.:.>.>.:.r.r.<.:.>.X.r.h.n.t.h.l.r.s.L.: F H.H ! 6.- &./.-.t.d.-.m &.=.R.Q.+X*X*X=X/.(.(.(.=X/.(.m.d.m.m.(.!.Q.(.m.m.f.g.m.m.m.m.m.g.t.m.m.m.U.(.(.m.A.g.m.4.: : * O ' l.b.A.N.N.A.Z.N.).iXb.j.A.9XA.C.A.M.N.A.iX9XiXA.A.N.A.iXA.N.N.j.X.5XtXiX9XuXGXiXiXiXiXyXoXA.C.A.N.B.C.C.B.Z.Z.B.N.B.Z.9X9XiXuXGXtX9X.X1.0 : 3 ; ; i l G i y k y.:XbXxXcX<X<XpX,X,X>X,X>XhX,X%X>XdXkXjXfXfXfXwX%X&X*X@X X^.L.R.L.a.7.8.7.7.4.8.s.*.*.4.$.,.,.%.| -.%.:.=.t.t.:.t.r.s.l.x.r.p.m.p.t.:.r.h.m.j.z.h.h.h.h.l.h.>.>.:.:.<.r.t.>.X.X.r.h.b.t.l.r.p.s.L.; F H.H ~ D.- R ^.%.",
"<.1.p.d.R.E.XX^.E.^.[.'.R.p.R.Q.v.%.@..X[.!.aXaXwX#X].(./.m.n.x.m.x.d.m.Q.!.m._.(.m._.(.!.Q.f.d.-.: 4 4 t P oXb.N.N.N.B.C.N.N.5XB.b.8X`.9X9XoX5XiXuXqXtXqX9X8X5X9XuX9X9XqXiX9XqXzXzXuXzXzXSXSXuXqX8Xc.c.).fX!.7.4.a.{. Xx.p.n.M.n.z.n.c.x.v.!.x.x.n.x.x.f.x.v.m.!.#X'.'.'.#X/.x.@XoXn.m.!.m.!.n.n.oX=X#XoXoX*X8X0XoX].oX'.oX_._.!.(.n.n.n.n.n.n._._.n.).n.!.M.M._.M._.M.M.oXb._.n.M.m.z._.n.n.z.c.z.m.z.m.t.h.r.>.<.l.0.b.l.h.>.h.M.z.j.M.M.j.B.h.z.h.v.z.m.n.n.x.c.l.<.p.K.q k ~ H T.H.9 E U.T -.' @.4.u.f.Q.^./.'././.@X!.(.!.@Xm.m.n.oX(.(.(.oX(.(.m.m.m.m.g.m.g.g.U.(.m.m._._.m.!./.(.m.f.d.3.> ; 3 t m '.b.`.N.B.B.C.N.N.`.b.M.9X`.qX9X9X5XiXGXuXiXiXiX9XA.9XtXiXC.7X`.A.9XuXzXtXqXtXMXGXuXuXuXA.oX5X9XqXiXqXA.C.A.C.B.C.iX9X9X0XiXuXuX9X6Xc.v - - = 2 3 k k u a y 5. X5.6.D.D.U Y 2.Q W Y Y U 6.P.XXD.P.~.}.R.E.E.L.L.J.8.5.4.*.*.9.$.%.&.*.-.&.&.&.-.-.-.=.*.=.,.-.=.$.=.-.=.=.=.7.u.t.p.t.x.l.m.p.<.h.<.t.r.h.h.v.h.h.>.h.M.j.j.M.n.z.z.h.z.z.h.v.z.).n.v.v.s.8.p.L.t i I J H.H.; R L.m ",
"s.s.'.^.R.d.<.8.v.^.E.!.].[.v.p.1.%.v..XW.#XrXaXaX#X.X.X'.'.!.'.=X_.'.!.m.m.n.(.m.(.oX_.!.Q.d.U.y.3 : 6 i Y x.E.).b.N.N.5X`.8XN.h.b.N.9XiXtX8XiXNXuXqXqX9X8X9X9X8XqXqXN.qX9XuXuXuXuXMXzXuXNXSXzXNXqX].`.).[.rXx.&.~.|.Q.f.x.n.n.x.v.x.v.x.n.c.(.!.p.x.!.m.m.!.'.'.@X).#X@X*XoX#X@X'.!.=X*XoXoX*XwX0XoX*X#XoXoX0XoXoX#X_._.!.oX!.l.n.m.m.n._._.M.).n.l.x.n.n.!.).].oXoXoXoXM.n.n.M.n.oXn.n.n._.m.n.n.z.v.r.z.h.h.l.h.<.v.c.z.l.h.j.z.r.z.z.z.l.r.r.h.r.r.<.v.c.v.v.p.<.8.8.L.G 6 G.H.Y.T.8 H u.T -.i.x.m.d.d.d.L.~./. X*X&X=X@X@XoXm.(._._.(.(.(.(.(.(.(.(.m.(.(._.(.m.m.m.m.n.(.Q.Q.oXoX(.(.x.~.y.: ; ; i K v.E.).N.N.N.5X5X5X`.h.B.N.9XtXuX9X9XGXuXuXuXiXA.A.9XiXqX9Xj.9X9XuXtXiXuXuXtX9XGXSXSXGXGXuXqX[.tXuXtXuXuX9X8XtX7X9X5X9XiXtXtXnXzXrX^.4.q = = < , i z i z y y I.U v P Y Y Y U U Y Y R 2.U U R R U &.&.*.6.4.4.2.*.4.6.@.&.@.U @.-.$.T &.P b P P P P U &.-.3.4.=.$.-.$.%.-.t.=.=.4.i.p.v.x.m.v.r.l.r.r.r.h.>.l.z.z.v.h.l.z.r.z.z.j.j.<.r.h.>.<.r.v.v.v.v.r.<.r.p.L.G 6 H.H.Y.Y.7 K 4.T ",
"~.8.,.8.R.R.R.v.v.c.x.E.!.R.p.,.<.s.q.1.v.[.6XpX#X#X X'.!.'.@X#X'.oXoXQ.!.@XoX'.(.L.f.y.L.a.4.R L 4 7 7 a q x *.9.;.8.8.q.x..X.Xc.M.9XtXqXtX9XzXuXzXzXtXqX8X].9XrXqXn.n.#X0XeXzXfXeXrXeXeXzXlXzXeXoX!.W.c.v.8.7.Y Y T.{.L.i.i.,.<.x.x.x.v.x.c.x.x.x.m.x.n.'.'.!.m.!.#X#X'.#X.X'.!.!.*X#X*XwXyXyXwX0X_.)._._._.oX].!.x.l.p.n.m.h.x.n.n.oX_.n.l.m.n.).M.n.n.W.!.!.)._.'.).m.n.n.M.m.m.m.l.n.m.t.>.l.h.p.z.v.x.;.t.>.>.>.;...>.:.h.h.r.z.N.M.h.c.h.;.;.>.;.1.h.l.<.0.p.l.h.,.L.G 6 S.G.T.S.i G 3.n t.-.=.i.p.Q.Q.(.(.(./.*X*XoX'. X(.Q.=X=X=XoX_._.(.m.(.Q.!.!.(.=X_.(._.!.(.=XoX/.(.Q.a.s.Q.L.4.Q I 3 4 6 t : d %.9.;.q.8.8.R..X#Xc.N.8XiXtXqX5XnXNXzXuXtXqX9XA.8XrXtX0.;.].`.rXeXrX.XE.E.'.0XfXaX.Xv.u.,.8.8.8.7.8.8.s.[..X1.;.#.1.q.8.E.[.s.a.4.S = < , = 7 4 7 y 4 l p K n P P b n P P Y K n L Y L n T U T E P $.T P n m P m m m T U $.$.m n n m P m L m L P m U T $.T U $.$.-.$.$.-.&.,.=.$.' -.t.t.v.m.l.:.:.:.>.1...X.;.;.h.h.0.l.N.n.h.z.r.>.;.>.1.>.r.0.p.0.<.h.h.,.a.l 7 ! G.T.! i G 4.m ",
"*.*.Y Y 9.1.,.,.7.8.E.c.v.v.x.v.v.v.v.c.E.c.^.[.E.[.[.(./._.'.'.@XoXQ.Q./.(.~.L.L.a.u.u.Q G i i 6 4 a 6 3 > x x w w s d K Y Y &.4.v.(..X!.E..X[.R.).q.!.v.7.,.x.!.v.p.(.v.d.R.Q.Q.^.Q.^.^.^.!.!.^.!.^.R.L.a.&.l i p Q D.3.U 3.7.=.7.,.,.7.i.p.x.m.s.v.x./.'.Q.!.'. X'.R.^.'.'.!.!.#X'.#XyX0X*XwX*X'.oXoXoX_.oX!.n.<.<.z.x.r.m.l.n._._._.]._.b.z.c.c.n.x.!.n.n.x.).(.!.n.'.!.!.c._.oXm.h.t.<.r.r.<.r.r.l.z.h.l.l.<.l.<.) ..;.h.z.z.z.l.h.<.<.| | q.;...l.l.>.1.] ] ;.] [ [ -.T = J ! T.H.! 7 U l P u s P 4.a.i.i.d.~.'.}./.}.^.x.~.x.(.(._.(.(./.oX(.(.(.m.m.(.oX(.oX(.Q.(.(.U.d.a.a.5.3.R G i i 3 3 3 3 3 q j x e w a p d K K &.4.L.[.oX!.W..XXXx.!.8.E.8.#.%.7.8.1.@.&.d p S K Y Y S K A A A k A A Z i Z i A 6 < 6 a t - < t 3 < 6 a A 6 a i k 6 = = < 2 4 4 i k y 4 y l L K l v K z n L L L T T L L T T L T T P v x n m n P m T $.T T &.P m m n n P n b n n n P R P P &.U R &.&.4.3.&.$.T -.$.@.-.<.l.x.r.p.v.<.h.:.` ..;.<.j.z.h.h.h.t.X.;.;.q.;.;.8.0.<.:.' ] ;.] [ [ -.&.; H ! H.H.E i U p ",
"b s b [ d @.,.9.*.<.8.p.7.l.s.l.c.l.8.<.q.1.1.8.W..X'..X'._.!.x./.@X^.~.J.6.Q U R Q R G ; & 9 5 5 2 2 ; 3 4 y : : : : q q q 4 y p i p A p p K A d A A K T L R E U &.f.i.K.a.K.L.L.~.~.~.~.{.~.{./.{.(.~.Q.~.u.z y F H.J.5.Q 4.i.-.$.$.,.t.s.p.p.r.p.s.m.'.n.!.'.^.!.s.x.!.!.^.!.'.&X&XwX=X#XwX*X#X!.oX(._.x.f.v.r.v._._.c.r.x.m.n._._.).M.l.z._.n.z.v.v.m.n.c.v.l.v.s.l.x.n.!.x.m.h.m.>.h.h.r.t.:.:.1.<.:.t.t...| | | ....| :...t.X.` ` ] `  .t...r.M.h.t.` _  .<.>.| ;.%.%.u.> UXH.H.! H 4 j n w q u v Y Y 2.&.3.a.L.8.5.R.R.R.@X@X'.m.m.d./.^.x.(.(.@X(.m.x.g.Q./.Q.L.5.2.E T R I I G 9 & 9 2 < 2 2 ; 2 3 y ; > > : > q 4 : a p t a A p a A a 7 a i y p i l 4 4 y k 4 k i k k i i F Z k F k g Z 7 7 4 7 2 4 3 = 3 4 4 : 3 4 ; a 4 2 y 7 4 4 3 2 2 & 2 2 2 4 4 7 y 4 y k i k z l G G n G z E L L L L E I L n n n m R T P v L m P $.T T @.n m &.P m n n n P n n n Y L n P U &.U T T -.m %.:.%.$.%.$.%.,.,.:.r.:.:.|  .X...] ;...t.:.` `  .) | X. .t.b.j.t.` )  .<.>. .;.| $.-.- Q H.H.! E 4 z n ",
"[ @.[ #.@.%.*.1.7.8.1.9.1.8.7.8.8.v.v.q.v.v.v.W.E.!.!.'. X^.^.Q.L.i.4.6.2.2.I I I k g ; * * & 9 = ; 2 ; ; 4 4 7 g 2 4 4 7 : 3 y 4 y A t A A Z F J J F G T E L T L T u.y.y.d.K.f.L.R.Q.U.L.d.Q.L.~.~.U.~.~./.u.j i F ! ! u.3.&.U @.$.*.7.i.i.i.x.d.x.x.!.v.f.!.!.!.x.x.(.Q.!.s.!. X XrX%XwXwX X_.'.^.@X'.n.m.x.v.v.'._.p.;.m._.n.z.c.h.<.>.l.l.l.<.:.>.t.h.x.x.>.,.1.1.;.<.x.!.l.x.v.1.:.:.;.<..._ :...} ) | | t.h.:...:.h ) h ) _ ) )  .| X.z.j.r.N.N.z.j.h.z.j.h.z.z.b.m.=Xi.4 H.! ! UXH 4 z T x x x x j x n n P &.@.U &.4.7.J.d.L.~.L.L.a.R.d.a.Q.(. X=X(.(.d.K.4.U I Q E J H H k 2 2 * * & , & 2 2 ; ; 4 3 7 i 2 2 4 4 : 4 4 3 i Z t i i 7 B Z F 7 8 i i 3 k 4 g g 3 3 7 7 4 7 7 7 7 7 7 4 7 7 7 4 4 ; 3 ; 3 : < ; ; ; 3 4 3 3 ; ; 3 2 4 3 8 4 2 2 & 2 2 7 4 7 6 7 F 4 y k k k k F z l l z l L G L L L n L L U 3.&.P x m &.-.$.$.' c x b m m ' b b ' ' $.@.b c b b c [ @.%.%.%.i.s.r.r.,.p.t.:.=.@.[ c | %.:.r..... .( ( h ) ) ) ) | ..t.j.j.t.N.N.z.j.t.j.z.h.l.z.z.n.oXa.3 H.E ! UXL g l T ",
"b d @.[ [ m b @.@.%.#.[ #.1.1.9.1.W.E.v.1.8.1.7.8.8.s.s.a.J.a.a.5.&.Q U Y I I l 4 ; 3 4 9 O * * & & & 2 2 2 ; 8 7 5 7 7 4 7 7 4 6 i k 4 i i i i i k i k z H L z L T L 2.a.a.K.U.L.U.L.U.a.L.L.I.P.L.U.~.R.{.J.p 3 7 ~ ! 3.U P P -.-.*.$.7.x.Q.s.p.x.f.v.d.x.x.v.x.Q.m.(.m.s.p.'.oX#X'.@XrX'.(.)..XoX'.!.x.R.'.!.'.'.c.x.x.n.)._.n.>.r.c.z.r.<.:.:.:.r.l.l.m.h.:.h.r.t.<.n.M.n.!.m.z.<.%.:.h.r.....| ) _ ..:.r.z.z.r.t. . . . ._ r  .| t.M.n.M.`.8X`.oXoXqXqXyX0Xn.n.!.n.t.d.u.E u.UXG.E H i p v x h h s x x w h j d x v b b n m Y P U b n b m P &.4.5.4.J.5.y.y.3.U U J J F k g ; 9 ; 3 ; O * * * & & ; 2 2 ; 8 6 5 V 7 4 4 g 4 3 4 i 3 4 4 3 3 3 7 3 4 7 4 4 3 4 4 7 3 7 2 8 7 7 8 7 7 8 7 7 D 8 2 2 5 8 3 7 2 & 2 2 , 2 9 9 & 2 2 ; 2 ; 3 5 8 8 2 8 ; 2 8 2 2 8 4 7 7 i 7 7 k k i k l G p G l l H H T H L T E R 3.@.P $.=.1.t.1.[ @.%.| ' [ M ' ' ] ;.;.:.| _  .] ] ] 1.:.:.:.;.v.v.v.v.v.h.>.;.%.h _ :.:.r.m.m.r.t. . . . ._ h )  .>.n.N.n._.8X`.oXoX0XyXuXoXn.n._.c.p.d.u.T H.! u.E H z z x ",
"f q 0 q 0 0 s [ [ d @.[ c @.*.[ %.;.1.q.q.<.;.<.8.1.#.U 2.2.Q 2.2.Q K G Z 4 3 ; : 4 4 * * & 9 9 ; , , ; ; ; 4 3 6 7 5 4 4 3 3 4 3 4 3 7 4 4 4 4 i k 7 k k G k G H H I I u.y.K.d.K.a.f.K.K.K.P.K.P.P.~.I.I.Y.y.i 5 2 ~ ! J G P $.&.$.@.-.7.,.-.} p.d.x.!.!.m.m.x.f.x.].x.,.!.!.v.x.(.'.'.%X X^.#X'.x.v./.].'.x.x.x.!.).!.v.x.v.l.f.l.v.h.r.r.h.l.z.n.M.).M.l.t.>. .h.h.z.l.h.n.h.:.%.] | 1.r.l.<.r.h.t.| h.M.M.oXM.M.M.M.M.m.h.r.M.h. .m.r.r.x.x.!.n.!.'.@X_.!.p.v.!.).m.x.m.-.L H.UXE ! u.l < y - e q - q > - > q q w a a u x w x w x h h x s v u l K J Y H I I W I F 7 3 & * 9 9 ; > * O & & & , & , , 9 ; 3 4 5 6 5 3 4 4 3 2 6 6 2 4 4 2 3 2 7 6 8 7 8 8 3 8 7 6 5 5 5 9 1 1 9 1 2 2 5 5 1 5 1 1 1 1 1 8 5 1 < , 1 , 1 9 , , 9 9 9 9 , = , 2 6 8 5 5 1 5 5 7 7 g F 7 2 4 3 7 4 4 F k J J G I G l G E R R L P R &.4.$.@.*.%.%.%.%...] ] ' ' | ;.,.:.<.>.| | ] h | | ;.| :.:.%.` ;.| :.<.h.l.r.r.v.} } g.n.m.M.m.z.m.M.m.j.h.r.n.r. .z.t.t.v.v.(.x.!._.'.[.E.l.p.n.!.!.x.x.-.n f.UX! E u.z > y ",
"s w 0 > e > s x s s d s s c b b @.,.%.] 9.1.%.@.*.' *.P Y m L l L L z z y y : 4 4 ; ; - & 9 9 = , 2 & & 8 2 9 2 8 8 9 8 8 8 5 2 4 9 ; 3 8 2 2 4 7 7 4 i k H k H I J H E I 5.K.a.K.K.L.J.P.L.P.L.P.I.~.I.P.I.W A 6 6 Z ! J L T T P b -.*.$.' $.d.R.d.x.Q.x.R.d.d.!.!.v.| x.'.x.x.!.'./.'.^.^.R.R.x.^.'.^.Q.7.7.a.=.=.%.%.%.,.m.^.R.x.d.<.x.c.!.c.v.q.v.v.v.r.t...:.z.N.m.z.m.r.:. .|  ._ l.n.r.;.r.n.h.n.yXqXv.%...p.).wXwXn.x.:.l.r.;.:.1.%.9.<.8.s.x.x.p.v.p.:.r.v.c.v.p.L.&.Y Q Q ! E H 8 4 ; 9 + O O ; 9 + O + 9 - - - > @ 9 > : > > : q e e w z z z z j z z k k ; 4 4 9 * ; ; ; 9 9 * 9 9 & & 2 & 1 2 2 1 ; 8 1 1 8 5 7 8 ; 2 2 2 5 8 ; 1 ; 8 8 8 7 2 V 1 8 g 8 8 2 5 5 8 2 1 1 8 8 8 8 8 8 8 1 1 9 8 9 8 8 5 5 5 1 2 2 2 ; 2 & 2 1 , 9 9 1 2 5 5 5 5 5 1 8 8 g g 8 7 3 3 4 4 7 D F F Z F J G I I I L G H P L L v u v $.,.7.1.%.%.%.%.;.1.%.;.%.;.;.;...|  ._ X.t.......| _ _ t.>. .l.z.h.:.r.z.:.t.#X#Xs.%.| <.n.0X0Xm.l.:.h.r.;.:.;.%.9.1.8.8.v.c.v.s.r.:.<.v.c.v.<.J.$.U 3.! E E H 4 4 4 ",
"b n b v v w q e x b m @.b x n m @.7.#.Y [ #.@.' m x b s u y e z y i y k y 4 : 4 ; 9 ; 9 * * = = ; 2 2 2 ; H ! L > 4 4 4 1 7 6 8 8 8 8 8 2 3 4 4 g 7 6 B H k H J G G L T U Q a.a.K.L.L.L.L.a.~.+X/.(.(.!.^.~.L.R G 7 V ! ! R L m b &.4.-.$.7.s.d.s.d.d.s.d.s.x.'.!.x.7.m.'.x.x.R.R.d.d.s.x.v.x.p.<.E.R.p.&.@.@.P b m b b #.s..XJ.8.b b *.8.1.;.:.;.<.l.l.r.r.h.t.p.oXoXn.m.h.t.X.r.m.r.r.oX`.M.m.n.n.].zXoXz.r.r.v.n._.0XqXwXoX_._.r.:.n.>...<.<.0.;.1.v.l.p.l.n.v.p.p.p.l.s.P q z k E F z g : 4 - ; * @ @ O 9 > ; - 9 - 9 O 9 + + - 9 & = = ; ; ; ; @ 9 > - 9 9 9 ; 4 ; 4 9 9 ; ; 9 9 9 O * & ; = ; 2 9 ; H ! H > 4 4 2 5 8 8 1 5 2 5 5 8 ; ; 4 7 8 8 8 8 8 B V 4 4 7 k i 7 g g g k g k g 4 T R N N N N N u.{.-.G F Z J B 7 7 g k 7 6 4 7 i g 7 6 B 7 5 8 8 g z L u.I.f.T E E k l k 4 p p i i p G I L G l p p p p k p q u *.d.=.%.x d [ ] [ ` ' _ ' ] ] #...| } | t.r.:.:.:. .` ..h.h.h.M._.b.m.c.n.!.'.!.x.r.<.v.!.).oXoX0XoX!.!.<.:.x.>...r.0.h.;.<.v.r.l.l.c.l.p.l.p.v.v.P q z G E z z k : : ",
"d Y n P P P u > v v x K Y K n v v @.@.[ b s d b x x x N w : y > y z 4 4 7 y 8 ; 4 ; ; * & = 2 3 3 4 4 y 4 CXHXAXT > z z 4 3 7 p g z z z g g z g k N L L T N T -.f.Q._.=X(.Q.i.7.a.s.L./.*X*XvXDXlXhXfXpXdX/./.f.L k 7 H 5.I v n &.i.%.$.3.i.7.s.L.i.i.7.,.d.p.d.x.s.!.#Xx.,.7.p.,.%.=.=.,.s.*.@.*.,.,.=.$.:.=.,.-...' h | #Xp.c [ ' ,.t.p.s.f.l.v.v.n.r.t.r.x._.oXoX=X_.m.r.m.z.z.z.n.oX_.l.v.x.!.[.%X@Xm.c.x.c.n.'.oX0XwX#X'.[.!.r.p.'.!._.#X).(.l.l.h.l.t.r.l.p.r.t.:.%.u.Y > z E H ! F 4 4 ; ; ; * * 9 ; 9 O - & & * 9 * ; ; * 9 9 & & 9 9 1 9 9 * * 9 + 9 @ ; 4 9 9 9 ; 9 & ; ; 9 * * * 4 3 3 4 4 4 k CXKXAXT > y 4 i 2 z z g k y k g g z J k z n n N N n -.g.m._.wXQ.d.T z z N N -.g.m.yXAXyX*XyXyXAXAXAXyXi.l L G F F F k i 4 3 t a i p p i 7 7 g J g u.BXCXZXKXDXkXjX*XL v K l G i G p y p G l l k l G z T N j q x s.t.%.,.%.| | | %.%.%.:.;.;.| ] %.;.<.t.p.t.<.:. .:.:.:.r.n.oX`.l.l.n.c.(.].R.s.R.d.v.x.)._.oX0XoX!.M.c.t.r.'.!.).#X!.!.v.p.h.r.r.r.p.h.t.t.=.$.7.L > l E H ! k k : : ",
"K L U U U p q q u a p v K L K p p l P P x a u a j j y w : 4 > z 4 i : 3 2 2 9 * 9 9 & O - ; y t y i y i z &XKXFXAXm.m.g.i.| u.u.T T N T T u.t.m.=XyXAXNXAXyXuXNXNXZXDXZXAXyX=X!.!./.^.$X X$X,X.X}.}.^. X@X@X(.y.K.5.G k J U I P P m @.$.-.t.=.=.t.=.i.d.f.i.s.p.p.R.x.7.7.s.i.=.,.u.7.i.d.=.t.i.i.7.-.m =.p.f.!.m.l.h.t._.oX<.t.=.,.r.r.p.r.p.t.p.p.p.p.l.m.m.oXoX&X@X!.t.m.z.l.m._.m.d.x.*.@.-.,.8.^.F.7.x.x.x.R.Q.^./.!.^. X!.p.7.s.v.d.R.d.7.7.p.s.c.!._._.!.oX(./.Q.Q.a.l - L G UXH.! F g 4 4 9 ; ; 9 > 9 9 9 9 9 & * 9 9 O 9 * * * & * 9 & O 9 9 9 * 9 9 9 ; > 9 9 * 9 * * & & O * 9 : q y 4 y y k z *XKXFXAXm.m.d.t.=.g.t.T T N T T -.g.M.oXkXNXNXAXAXNXFXFXPXKXKXDXNXyXA.oXoXoXAXyXNXuXlXyXAXAXuXNXNXNXAXZX@XR l a t : : - + - > q q e : z n E R T z U.LXKXVXAXAXpXwX#X%.m U K K L L l n v z i k l L E &.T $.&.$.,.i.=.p.p.r.v.t.:.| %.;.| :.%.%.| :.;.r.p.x.s.1.@.,.<.:.r.h.p.l.m.t.1.7.<.x.^.4.&.R.d.L.s.d.R.Q.R.Q./.Q.p.,.s.v.d.R.d.1.,.p.s.n.n._.oX!.=X/.!.Q.R.y.v ; J z UXH.! z i z ",
"p G A l p a y y y q y y y z k y y y y z p l j y 4 4 4 4 8 2 9 ; ; 2 7 2 & ^ 1 9 & & - 9 : t y y y y a i l P hXLXKXFXFXFXFXFXKXFXSXNXAXNXNXDXFXFXFXFXKXFXDXZXZXZXNXNXjXfXwXfXfX#X/. X/.~.~.~.~.~.~.I.~.Q.Q.(.(.d.L.I.K.+XP.a.a.u.&.} $.&.=.-.=.i.d.d.s.i.,.i.i.t.i.Q.,.%.7.,.a.7.-.-.7.a.d.d.i.i.$.@.,.a.x.x.m.!.x.v.x._.oX,.p.f.f.x.!.m.x.x.x.d.m.m.x.m.!.!.!./.@X/..XR.s./.p.s.R.d.L.R.=.4.7.5.R. X X8.&.4.3.&.*.&.6.7.5.5.5.3.Y b U Y $.U m @.9.@.&.9.*.@.&.#.2.&.U I U L p 3 G E 3.! E H i g 4 ; ; 9 9 > ; 8 ; 9 * 9 9 9 * * * 9 * * * 9 9 * 9 9 9 9 1 , 9 9 9 1 1 & & ^ 1 * * O * - > t y y a y i i l P gXLXKXFXFXFXFXFXFXFXSXAXNXNXFXFXFXKXFXLXKXLXFXKXKXPXKXKXFXSXvXSXDXFXDXSXSXzXzXNXSXZXZXNXNXNXNXNXDXZXZXKXVX1X X{.(.d.g.T m h x } g.=XkXAXAXkX=X~.@XVXlXdXlXdXaXwX&XQ.P n K b P L v v v u L L R R &.-.R &.3.i.i.m -.,.,.p.x.s.p.<.=.,.-.:.:.:.:.:.,.p.v.i.p.,.%.<.%.;.t.p.v.x.,.=.,.7.R.^.^.5.3.J.J.5.6.U &.4.4.6.4.*.@.n P Y #.P P $.&.#.&.9.1.#.&.@.*.@.U Y R L k : L E 3.! E H y y ",
"4 3 3 4 3 4 7 3 4 4 2 4 3 3 3 3 3 4 3 8 7 4 4 2 9 8 ; 8 2 9 1 9 7 9 & & 1 ^ 1 1 - : > y u y q y y a i l J K P.PXKXFXFXFXFXFXKXFXKXFXFXFXFXFXFXDXFXFXDXNXvXzXhXhXVXdXpXjXaXaXdX}.~.~.~.~.~.Q.P.I.U.f.d.U.L.U.U.I.I.U.U.+X{.U.U.L.d.L.d.L.i.f.i.a.d.a.4.=.u.3.&.-.a.*.&.a.7.2.8.7.&.&.s.s.7.7.7.m @.7.J.~.~.~.(.Q.~.^.^.@XQ.4.d.y.R.~.~.~.~.L.L.L.K.U.K.U.P.R.d.a.L.J.D.5.6.5.2.2.2.3.5.2.2.U &.K U z i i a a : 4 i 3 i 3 - 3 : < * < t p k z i a i a p p z k t p a l l z F k k i H E E ! L J k k 4 ; ; ; ; ; ; ; 9 * 9 & * * 9 9 9 * 9 9 & * , 9 9 9 * 9 & 9 1 9 8 1 * * * ^ 9 & = = : t a y q t y y i p G K P.PXKXFXFXFXFXFXPXFXFXPXFXKXKXFXFXFXFXFXFXFXFXFXDXSXDXvXlXDXDXvXZXzXAXNXvXNXDXNXlXjXNXyXAXDXZXZXFXFXFXKXNXFXNXzXAXAXNXDXAXNXlXNXKXKXKXKXCXjXxXvXhXhXkXaXhXaXfXwXpXwX8.x b Y v m b u l n &.R R R ! 3.3.5.u.a.4.U 4.3.a.L.f.a.a.4.=.u.4.4.=.u.4.4.-.-.=.4.7.4.&.$.@.$.&.4.7.&.@.$.&.@.9.Y p a K p G G K Z i 3 = 3 3 3 * 2 a i i G y y i a p z p p : z a l G F F z z i H L E Q E H z k ",
"g 7 7 7 g 4 4 4 4 ; 3 4 2 3 ; 2 3 2 ; ; ; 9 ; ; ; ; 9 9 3 ; * 9 9 9 & * * & 9 = 3 a q t x t q : y i p A K K U ZXPXFXFXKXFXKXPXFXKXFXDXDXDXFXZXNXZXDXZXlXvXlXlXaXaX}.R.~. X,X,X%XI.L.L.L.~.L.a.K.K.U.~.I.I.I.I.Q.I.~.U.P.{.OXP.L.U.U.P.P.J.y.3.y.5.3.3.y.4.&.4.R 3.U R Q I 2.Q Y U 2.4.2.2.R R T 3.2.2.6.2.6.D.! 6.! D.6.W W ~ W W J H E I W ~ ~ J J H H H H F F Z A Z 6 a < 3 4 2 3 4 3 4 4 6 2 2 3 4 2 3 3 4 8 a 3 7 ; ^ 2 F k 2 k J J g J H E ! ! H W E E E E G G H L H z z z l l R H l k z z 4 ; 4 ; ; 9 ; 9 * 9 9 * * * O * * ^ O * * O * * 9 O O 9 ; 9 O 9 & 9 * , * * , 9 3 y t q x t q : a i p G L J E AXPXFXFXKXKXLXLXLXFXFXFXFXFXFXDXNXFXFXDXDXDXFXDXNXhX%X X XpXxXhXvXfXsXhXfXNXzXkXzXVXCXDXFXDXKXDXKXFXLXDXZXKXDXDXKXKXKXLXLXLXJXZXKXLXIXIXvX<XpXhXdXpXpX&XwX.X@X@X XQ.P v v v b K l K L L K A H I H W W W W J J J I J J J I K J H G F l G G G p p i i p p p p t t i y y y 3 4 4 z 4 4 y 4 ; Z i 7 4 F Z 7 ; * 3 Z Z 3 k I J F G J E E ! H ~ ~ H E E z L G E z L z z L l Q L z G z z ",
"G L R E E Q Q R E E R E R E E E R E T E E E L L E T -.3.g.u.3.U.y & & & & & 2 ; y i > q q y a t p k F G G p Y HXKXFXKXZXFXKXKXKXLXZXKXDXVXNXvXDXDXDXZXaX%X^.s.R.^./.%X/..XJ.L.|.I.{.J.J.I.L.U.~.~.(.Q.U.U.~.I.U.P.y.J.J.D.5.6.2.2.R 2.2.Q U 3.Q I K K I K I H L G I G G H G J J g k F k k G G F G G J F J F H H J J F Z F Z J J J F F F F Z Z J J J J J J i F g p Z Z 4 7 7 6 7 i 4 4 8 7 7 4 4 7 8 7 7 8 4 g g 5 4 8 & & Z F g k k G J E u.u.R E y.y.H.UXG u.2.K.U.U.U.-.3.i.R 3.y.4.3.&.&.R R T Q y.u.u.u.u.-.R T u.u.u.R T R u.E E -.E E L L T -.u.u.f.g.3.U.; 9 , * * * 9 9 3 a q q q q y q y i A G z z -.FXPXKXFXFXDXKXLXPXPXFXFXZXNXZXNXFXKXKXHXhXpX XR.m.#X#XaX0XwXE.}.gXjXZXpXaXvXzXNXDXFXFXFXZXDXKXKXDXZXdXgXVXbX,X-X|.XX~.XX,XgX1XFXZX}.E.^.}.>X>XgX&XpX&X#X X#X X X/.(.i.u u p p l p p p A 7 i Z F F F Z F Z Z Z k D D i 7 k g g 7 g F D g D Z 7 7 g 3 i i 2 3 ; ; 2 4 8 4 4 g g 4 4 4 4 7 8 7 7 k 7 4 4 7 2 9 g k k D z F z ! u.u.&.R J.u.H.! L y.u.U.L.L.U.R u.u.&.Q y.u.&.&.Q -.R ",
"3.u.L L E E L E Q R Q Q u.UXQ y.y.R u.y.4.4.-.-.t.t.g.f.d.d.U.<XG & , & * < = < t i q y y y a y i l p K K u Q.LXFXAXZXZXZXhXvXvXvXhXhXlXzXhXfX#X[.~.~.(.9.b &.K.L.8.=.7.5.7.6.U K &.3.D.a.5.I.L.y.P.J.J.5.2.Q K K U 2.U R K K L R R 2.2.Q 3.u.L H L E H H H E ~ H J H J H J J H J H H g H H J F G H F F H D J H J D ~ H J J F J F g g F F D J F J D g g D D g g 4 k ; 2 8 8 8 C 7 7 5 8 5 8 8 8 g 8 8 g 8 D 8 8 7 8 4 8 5 B D H F J F G +XL p t w y j K t t a p {.b v P x i.Q.d.d.x.d.d.g.g.d.L.d.U.&.&.=.=.$.T i.i.u.4.L.U.i.R.U.u.u.i.i.i.t.t.t.m.m.m.!.Q.I.kXG * 9 & * , , : t a q t t t t 4 y l l G K p L.LXKXZXZXZXZXvXvXvXvXbXxXlXlXlXlX0X5X[.^.^.4.Y *.(.m.d.7.s.R.8.8.#.#.L.XX}. X>XbXlX1XfXbXbX.X|.E.8.4.8.E.E.8.9.:.,.'.!.(.yXwXNXKX^.s.!.&X&X>XpXpXpXpXdXwX%X.X X}. X{.^.=.w j l z i k F F 7 D g D F D D J D F D F D F 7 7 k g D D D B g 8 D D g 7 7 i 3 3 1 ; 8 9 3 8 3 3 4 8 8 g 9 8 g g J z J H J J J G F g J F ~ D J J F |.E p t y a p L t t p l {.v v P d i.Q.d.f.m.x.f.g.d.d.d.",
"Q Q L G L L L T R R -.R -.Q R &.-.R =.=.-.&.i.t.u.i.f.d.L.(.u.I.G * & * , & < : q a a p a : i p p p A K K l $XCXAXAXlXlXfXeXaXhXwX#XeXzXfXrXlX^. X!.R.m.=.=.i.t.@.b T t.$.P b @.3.&.&.{.J.p G 3.y.Q a.3.R L d L &.3.7.5.y.K.U.K.U.U.f.H.H.H.! J E ~ ~ E E H H D H ~ ~ J J H D g g J J g z k 4 g F F D H D ~ D D D D D D D D V 8 B D J F H F H ~ E E UX! E D E H Q E J D D V 8 1 8 8 8 V V D D D 8 8 8 3 9 9 1 9 & ; 2 8 6 5 C D D J F F ;XF q y 4 j : > - t u v l u u p m =.x.Q.m.m.m.i.t.d.m.m.d.m.$.N -.-.M $.i.g.f.K.L.i.u.u.g.t.t.=.:.$.u.i.t.g.m.m.Q.+Xu.{.H O * ^ & & - < - t t t q : t a i p p S K d $XZXlXVXlXzXzXaXfXaXeX#XeXuXsXrXlX^..XW.(.m.,.1.p.1.} N ' @.[ d b c Y Y P Y Y U @.~.%XQ.aX'.x.<.;.q.m.C.eXyXfXSXDXNXFXKXFXFXKXPXxX*.'.>X1X&X&X>X>XpX&X&X%X%X X X^.R./.Q.^.&.a y t 4 k i k F B F B V D D D D F F D g B F J F k g F L H E E E H k H G L H g g g 7 g 8 g D g F J H H E E E E E E H H J G G J z J D D H ~ J B J ;XG t y y u q > 0 t y l v u u x P =.m.Q.Q.m.m.i.t.d.m.m.",
"U.g.u.R f.d.U.+X=X(.{.U.y.a.K.L.K.f.i.-.=.=.-.=.d.Q.+X/./.{.d.2Xu.& & * < * - : q q q e q - a p p A A K K v pXxXAX1XyXyXrXwXfXfXeXwXzXzXzXzXfXoX0X*XyX=X!.oX_.t.| | | } ' ' @.[ $.} d.=Xa.i p A J G Q 6.y.y.y.y.f.y.L.~.~.(.L.K.K.K.H.y.5.3.Q Q 3.Q E H E E Q u.UXE H ! K.u.u.y.g.U.UX-.u.I.OXT.y.! F F F g D J J ~ S.~ ~ ~ H H.T.T.Y.Y.+X+X+X;X:X+X{.Y.U.{.U.U.~.U.U.8 D 8 D D V V H H.4XOX;X3X4X+XY.y.u.y.I.U.y.u.n z & 9 B F ~ F V 7 Y.p a u > > e e e q e q q x x v n d./.Q.x.g.g.x.p.d.g.m.n.m.t.| g.t.g.x.g.x.d.=.@.T -.i.i.i.-.T $.-.&.$.f.(.+X(.{.(.a.BX! * * ^ & ^ * , q q w 0 q - q k p p G G K l gXVXfXfXyXfXrXwXfXfXfXwXzXNXzXlXzX#XrX0XNX9XN.oX!.r.t.h M N x m M x c s w m 9.S p Y Y P L..XwXyXuXNXNXNXAXFXDXDXFXDXDXKXKXFXLXvXXXb ^.@X#X$X$X@X$X%X@X*X X X$X'.'.}.}.@X@X~.&.R y.2.R E k Z D 8 g F D J G.H.! ! ! K.Y.U.Y.Y.+X+X+X+X:X=X+X+XY.+XI.I.I.U.+X3.! E E ! ! ! H.Y.OX3X2X2X;X:X;XU.U.U.{.(.U.u.E E 3 5 B H H J 7 Z Y.i a u q q e q q > e e y j n v b d./.Q.L.f.g.m.g.f.d.m.",
"d.U.U.}.+X/.>X>X+XU.U.U.J.4.&.=.u.=.-.T T $.=.i.i.u.m.@X/.+X{.cXQ * ; & *   X - t q t q > q u u u l K v x 4.%X*X=XoX_.=XoX#XwXeXdXwXdXfXfXlXoXyXuXuXyXh.j.yXN.8XoXM.m.m.t.<.t.r.z.oXyX(.} q l i A A i I U.K.K.~.+X1XkXkXBXAX1X$XU.d.{.OX+X+X&X*X=X1X*X(.=X>X1XgXdXkX1XkXCX1XOX@X;X=X+X:X2XBX1XxX2X{.|.U.u.d.U.~.+X1X3X;XOX}.}.~.L.L.d.i.d.U.(.{.{.U.m.d.U.+X=X(./.(.U.z 8 D D D J ~ H G.Y.4X:X2X1X:X1X1X2XkXkXAXAXAXCXOX4 & 7 D D V B B H.q l q w w w w e w w q 3.m e v m f.f.d.x.g.i.g.m.d.t.g.m.p.g.m.r.d.m.(.f.-.-.4.U u x T =.-.$.m m T =.g.i.-.m.=X@X=X+XBX! ^ 1 , &     , t t q > - q q z y p v K s 4.&X%X*X'.oX#X#X#XwXyXfXpXfXfXfXlXoXyXuXNXyXr.z.yXoXoXoXN.n.j.t...;.:...t.m._ x x x e d K a 8.vXlXkXlXNXNXZXDXZXZXZXZXZXCXxXBXbX^.9.Y s.^.@X#X.X$XwX%X#XwX#X%XwX%X&X#X&X&X*XdX/.a.U.{.I.a.K.5.E u.u.H.U.{.;XOX$XOXOX~.U.Q.d.f.U.(.{.}.{.U.+X{.(.{.*X@X@X@X}.T T ! E ! UXu.u.H.+XOX:X1X1X1X1X1X1X1X1XAXAXAXBXOXz ; g D B Z Z Z H.q u u q e w w w e w e -.n e n T f.f.d.d.f.g.g.m.f.g.r.",
"g.U.Q.$X{.>X*XI.+XL.4.3.&.&.U P -.&.T t.u.-.-.g.f.t.g.m.+X=X+XU.~ , , , , ^   & t y u q q e e j w w c m w !.#X@XoX'.#XwXyXeX0X&XwXpXwXaXwXyXwXlXAXDX%X^.zXlXNXNXNXFXFXDXNXNXSXFXZXNXSXoXwXi.N j j p K u 5.K.|.<XkXkXkXjXlXkXjXlXAX1XxXgXdX&X X}.=X@X/.^.~. X/.{./.{.~.R.R.{.(.Q.+X+X{.$X%X}. X$X=X=XdX&XL.@XQ./.Q.a.f.a.a.d.d.d.Q./.'./.U.d.(.U.U.m.(.oX@X%X*X#X@X=X@Xn ! ~ D ~ ! E u.3X1X1X3X1X,X>X1X>X1XgXgXgX2XcXcX2XG 9 D 8 5 V B D ! a y j e j j w h e @ -.x.} } T -.t.t.g.g.g.(.m.g.m.m.m.(.m.m.&Xg.m.f.d.i.$.} T m n j N $.$.T t.-.T -.g.d.t.t.(.*X&XOXY.I & , ^ ,     C : a q q q > e w w w x x x !.#X@X X'.#XqXwXyXrXwXwXpXpXwXwXyXyXNXlXDX0X'.AXuXNXNXNXFXFXFXNXzXNXDXNXzXzXt.x.t...h h x _ s /.vXlXlXvXZXDXNXvXlXlXlXlXbXbX,XXX9.d @.8.[.[.^.[.%X#XwXrX#X'.#X.X#X@X@X&X@X X&Xd.4.s.a.L.U./.I.u.L.a.K.y.4.L.L.a.U.L.U.Q. X@X/.Q.~.@X~.U.Q./.}./.*X*X#X@X@X/.3.y.! ! u.3.3.H.1X,XOX+X:X=XOX$XOX$X,XgXgXgX1X2XgXL ; F 7 5 V B F ! y j j w w N w h q @ -.m.T -.} -.-.t.g.g.f.Q.m.g.m.m.m.",
"I.Y.{.{.U.*XL.f.U.f.a.4.&.@.-.=.=.t.t.i.g.g.m.g.f.m.m.f.d.@X1X+XJ ^ , , ^ , ^ & 3 z u q > > e e e w x h x x a.#X&X@X#XrX#X=X*XwXwXfXyXwX%XaXlXaXpX.X7.8.^.wXNXzXuXyXuXaXfXfX!.'.rX*XgXhXCX>X4.a.u.u.3.3.l 2.aXhXhXkXfXpXfXjXhXfXkXAXdX%X X}./.^.}./.Q.L.R.^.^.{.~.Q.L.~.R.Q./.}.=X(./.$X X&X^.~.@X/././.*XQ.%.d./.Q.f.i.4.7.U.f.d.@X/./.=XoX/.(.m.m.=X/.@X/.Q.^./.~.U.J T.S.T.Y.H.~ JXBX1X:X1X1X1XgX<XgXxXxXcXBXkXcX1XOX! 9 7 8 5 V 7 7 I l q x j w j h q M t.f.x.d.g.t.g.g.g.g.m.m.m._.(._.(.oX/.m.m.n.-.t.t.t.g.t.t.m M M } t.t.t.t.t.g.m.m.g.f.m.m.g.m.=X<X;XF * ^ , ^ ,   , 3 i z q e @ e e e w r x x w i.#XwX XwX#X#X#X#XrXyXyXyXeXrXaXxXaXaX,X9.7.!.wXNXzXfXeXyXqXfXwXl.s.E.R.R.R..X X*XwXoX_.m.m.c R.xXvXvXZXvXzXvXZXxXgXbXaX[.R.9.@.@.[ x._.!._.). X.XoX].@X.X@X.X#X#X*X%X#X/.$X7.s.s.i.d.d.L.s.~.i.} u.L.a.m.f.i.f.Q.x.Q././.@X/.'.@XQ.(./.oX_.=X/./.@X@X{.(.3.U.H.Y.U.H.u.cX1X*XOX$X&X1XOX*X>X<XgXgXgXdX1X&X;X! ; B 7 8 B B B E N > x j w x N e m t.g.f.x.i.t.g.x.p.g.m.m.n.oX_./._.=X",
"U.{.{.{.+X{.i.U.L.f.d.Q.i.=.g.g.f.f.g.t.g.g.m.m.m.(.=X=X>XkXOX3X7 , , ^ , ^   & 3 k u > e e e w j h x x r w u 9.R.}..X%X X.X*XwXpX.X.XXX^.R.|.R.*.m 9.^.n.oXoXqXyX/.'.!.l.x.!.^.!.@X~. X$Xa.L R R 2.5.5.Y 2.XX:XgXpXpXpXpXpX>X>X>X&X X^.E.Q.Q.Q.'./.(.!././.'.@X/.m.!.m.d.d.x.m.m.U.Q.d.J.~.XX}.}.^. X@X/.x.m.&X#Xm.f.t.t.t.g.m._.!.'._.m.(.m.m.M.oX=X=X/.@X(.Q.d.i.y.k J S.T.G.Y.;X$XOX1X1X<X1XgX<XgXxXBXcXxXgXkX<X$X:Xu.* 3 8 7 7 7 4 l z y j j j x w e &X@Xd.d.f.%.t.m.Q.m.(.(.(.=X(.oXoX(.oXoX_._.g.p.g.f.Q.m.g.p.f.,.} t.g.g.g.g.t.g.g.m.m.m.m.=X*X1XAX:X3X4 , & , , ^   ^ 3 y y q 0 q q e w h x h r w u @.R. X>X.X X%X%X>X%X,X@X^.XX~.XXL.9.b $.!.m.oX_.qXeX_.^.v.1.8.s.,.b m d Y b b &.8.d.s. XE.8.d 6.pXbXbXgXbXhXwX.X.X X.XJ.2.#.@.b c !.'.!.!.'.'.'.'.'.oX#XoXoX].#X'./././.R.&.7.d.s.L.f.Q.U.d.i.g.}.~.i.m.g.t.g.d.m.!.Q./.(.!.Q.m.!.n.oX=X/.@X@X/./.Q.Q.~.Q u.H.U.H.{.+X$X+X:X<X&X>X&X>X>X1XgXgXgXgX<X1X+X$Xy.* 4 7 g g 7 4 J n y j N w j w e &X@Xd.x.g.:.-.m.m.m.(.(._.oX(.=XoXoXoX",
"g.I.{.I.U.P.a.P.a.d.a.i.7.i.x.m.d.i.i.d.m.~.U.f.U.m.=XyXdX+XI.BXJ & , , * & ^ , y k y y w e q e j x x x s u u a &.8.6.9.6.6.9.#.Y 2.9.#.9.U &.a.(.(.m.0XyXuXNXyXrX=XW.v.s.s.!.yXlXwX!.(.&X~.T n z p I G 6.I.5.L.{. X^.^.~.^.XX^.^.~.Q.d.L.Q.x.!.#X#X#Xm.'.'.oX_.!.n.oX!.n.m.m.d.d.g.(.i.&.4.a.^.}.|.>X~.L.Q.wXfX!._.n.m.n.oX`.M.oXr.n.!._._.N.=XyX*XuXyXwX*X/.(.Q.d.{.T 5 S.S.H.4XY.T.;X<XcX1XkXgXgXgX1X<XcXcXjX2X1X1X1XH.* 2 V B B 7 7 k z z j x e x + =./.x -.g.p.g.p.t.m.Q.Q.m.m.(.oX=XoXoXoX_.(.oXu.} =.p.Q.s.d.g.t.$.g.!.Q.d.g.i.f.m.(.U.m.m.U.=X1XAXOXU.BXG & & ^ ^ ^ ^ C 4 a u q q q > e w j x u u u u u #.D.9.2.9.2.2.#.#.9.w.#.U Y U a.Q.Q.m.oXyXqXNXqX#X].c.<.:.%.t._.n.z._ _ v.%.%.m d s #.#.D.#.S a 2.^.J.8.J.8.a.R.a.&.P v v b c %.oX_._.oX_._.].oX8X#X#X0X*XoX/././.Q.^.d.b 6.a.J.L.L.}.L.y.f./.$Xf.m./.p.!._._.!._.v.n.!.'._.(.oX=XoX=XwX*X*X@X!.Q.d.~.3.I u.UXH.|.T.L.{.>X1X>X>X1X>X&X>X>X>XgXdX>X&X*X3Xu.& 8 D D 7 B 7 F z z j x w x + =. Xx %.p.g.g.g.f.m.(.m.Q.m.(.oX=XoXoXoX",
"}.~.~.~.{.I.y.5.u.i.u.t.f.m.x.m.(.m.f.f.d.m.(.g.a.Q.^.}.$X~.I.BXA ; & & , , ^ 5 p i a u u u w y j j N x h N x x h N N N x x b Y m b ' [ m P m m :.p./.fXlXhXlXzXeXwXfXuXkXuXDXDXvX0X#X*X%XpX7.T 3.I L p y.Q.a.f.a.s.s.R.d.i.d.Q.Q.Q.d.m.f.x.f.m.(.(.Q.Q.(.m.(.Q.m.(._.!.m.g.m.m.d.(.(.g.4.=.4.~.{.R.~.P.P.4.4.}.pX~.^.}.~.L.L.i.d./.^.Q. X%XdXfXwX X X%X%X@X(. X/.Q.{.m ; H ! Y.4XT.H.<X2X1XgXBX<XgXgXgX<XgXxXcX2X,X:X:XK.; 3 g 8 V D 5 E T w n h j q w (.m.f.m.n.n.m.n.!.m.d.d.i.f.i.m.oX=XoX=XoX=X*Xm.i.g.-.&.u.-.-.t.d.n.x.m.(.m.f.g.d.Q.(.g.i.Q.~. X$XI.P.JXB , * * * * * ; p a a u j y y w w j x w h j h j h N N N x x x x b b b c M N b c @.7.[.aXkXlXlXfXqX*XyXyXyXuXzXNXrXr.r.s.n.x.x.s.s.:.c m c M x b d Y &.7.1.Y &.4.i.$.M M M N T oX=XoX=XoXoXoX#X#X0X0X8XrX'.`._.'.(.'./.u.m =.d.Q.L.L.L.5.5.6.3.L.}.~.}.}.^.L.L.f.L.(./.Q. X#XwXwX#X.X@X&X&X*X(.'.!.m.Q.-.n R ! Y.{.K.K.:X>X1XdXgX>X1X>X1X1X<X1XgX<X:X:X:XJ.; 4 B V B D 7 E T j N j x e e }.m.g.m.(.m.m.n.n.m.x.f.t.i.p.m.@X=XoX=X",
"OX+XL.+X*X~.f.i.u.u.g.x.Q.(./._.oXf.m.m.m.(.(.i.d.(.(./.L.4.$XBXG = , & * ^ * 2 y a y u u q e w w h h x N M N N h x N M M M b m P [ m c c c M T v &.L.XXL.}.L. X(.%XdXaXlXAXdX&X X X&X X/.}.u.v &.R L L P.a.i.u.4.=.7.i.7.i.f.d.Q.m.r.g.h.g.m.m.m.m._._.n.(._._._.n.(.M.M.=XM.=XoXm.m.d.d.Q.x.x.R.L.a.y.a.7.6.4.J.a.a.i.7.7.i.t.d.Q.Q.f.a.s.E.R.R.J.5.~. X$X X X X^.{.T 2 g H Y.T.T.Y.:X1X:X>X1XgXcXcXxXBXcX2XgXgX,X}.OXI.; 3 5 D V F 2 ! R w N M w @ z.m.&X/.m.g./.=Xm.m.r.g.f.f.m.!.#X*X#X=X&X*X8X=X!.(./.=.3.-.-.t.(._./.#XoXoXm.(.m.m.m.Q.t.f.(.Q.{.L.&.OXCXF ^ , ^ * ^ * : y y y w q e e w w w x h h N N h w h N M x c m M m b c M M h M M x @.J.~.J.E.s./.Q.%XfXwXfXyX#X[.r.,.x.1.@.$.#.$.*.=.-.-.%.v b b b s s u x s $.T i.| m N M M m.=X*X8X#X=X=XwX0X#XoX#X#XoX#X#XoX=X'.(.m.-.-.d.^.x.Q.L.4.3.4.3.&.4.a.s.a.i.7.i.i.i.x.Q.Q.d.d.L.}.~.~.~.~.}.$X&X%X#X%X/.}.u.L I ! {.T.U.{.*X:X*X#X1X>XdXgXhXkX<X<XdX,X>X}.OXI.2 3 8 B B F 8 ! R j N N w @ m.m.wXoXm.t.(.=Xm.d.g.g.g.d.m.(.@X=X#X*X&X",
"{.+X$XhX{.i.L.Q.~.(./.@X=X=X@X&Xm.(.oX/.=X>Xd.n.*X@X&X/.4.~.gXcXv * = & * ^ = t y u w x w w w x x N h x M M } m x w h M h M M M ' M M ' M } M m m P b Y @.$.a.=.s.^.R.aXvXaX%XR.Q.~.~.!.Q./.u.n 2.L y n K.a.i.=.i.s.f.:.,.d.@X/.Q.d.U.m.m.=XoX(.(.=X=X'./.(./._.oX/.=XqX*XyX#XqX=X=X_.m.!.!.Q.'./.Q.d.t.7.i.i.i.s.s.i.,.i.p.d.d.d.R.x.m.x.d.a.7.7.2.*.a.4.4.7.7.R.~.P.G 8 g ! T.! H.;X3X:X:X1XgX<X<XcXcXcX1X2XcX<X>X|.{.H.; 7 8 V F D 5 g E w z w N NXfXAXZXdXQ./.=Xm.d._.=X!.m.oX@X@X=X=X*X*XwX=X=X=Xn.x.t.(.@X=Xm.m.m.(.oX*XwXm.(.=X_.*X&Xg.m.*X=X&X'.-.Q.gXxXl * , , ^ ^ - 4 3 u w x w w e w N N x x M M M M j w M M h N h M m c M _ M _ M M v m v v Y m 7.P 7.L.L.aXxX%XR.9.@.@.$.@.b m m m m c x m m c x c N x M w w -./.d.u.N N T  .m.=XA.oXwXwXwXwX#X%X0X#X#XwX#X0X0X0XoXoX/.(.t.t.{.m./.'.!.f.-.=.4.4.=.i.a.a.i.i.d.d.d.x.Q.!.!.Q.R.L.i.s.8.a.R.L.L.R.L.^.{.~.2.L H u.T.u.Y.OX1XOX$X1X1X>X<XdXcXcX>X<XgXpX,X}.{.K.; 7 7 Z J B 8 g T w x w N kXyXNXZXdXQ./.=XQ.d.(.=X_.m./.=X@X#X#X=X*XwX",
"{.{.+X%X{.s.~.$X&X{.}.&X+X/.@X&XQ.=X*X*X&XoXm.&XyX&X#X}.x.*X*XgXG * * , & * = i y u w w r w w N N x N N M m M _ h w M  .M h M M M M M m ' M } } ' m m M -.p.Q.x.@X=.m 4.a.}.@X(.^.~.!.@X'./.@.j n l z n &.i.i.i.,.i.i.=.=.d.Q.Q.U.m.m.n./.m._./._.!.m.Q.Q.oX_./.oX=XoX=X*XyXwX#X=XoX/._.(.(.m./.!.'.(.f.4.t.t.f.t.,.-.i.=.t.p.g.t.=.-.-.:.u.=.s.7.=.s.i.4.-.7.4.s.U.5.2 g C ! G.Y.4X:X1X:X*X<X<X1X1X<XcX<X1XxXBX1X:X$XOXK.* i D D B 8 D ; z y.y.{.CXjX,X=Xa.a.d.+X(.(.=X=X(.(.!._./.=X#X=XwX/.^.'.oX@X*X~.t.R./.I.f.U./././.=XwXn.=XyX*XyX=Xm.wXfX*X#X/.d.&X$XgXl * ^ , , ^ 9 y t w w w w w j h M N x x M M m M h % h M M h M M M M M m m M m } m x b c } i.m.x.'.$.u @.-.d.d.=.=.%.-.t.=.' M M M M c M M M m c h N h j w $.d.t.T m N t.N.oXoXM.oXoX#X#XoX#X.XoX0X*XoXoXoX=X#X'.@XoX/.i.x./.!.@X@X/.Q.4.=.-.=.i.4.%.t.i.p.d.m.d.f.i.p.g.f.d.d.m.x.L.Q.Q.x.f.f.a.d.L.5.p H J S.K.4X+X:X:X:X&X1X:X>X>X1XgX1X1XkXxX1X:X$XOXK.& k D B D B D 2 k u.H./.CXAXyX XJ.7.d.+XQ.(.=X=XoX(.(./.oX=X=X=XwX'.!.",
"~.}.~.~.L.L.~.L.~.L.J.L.~.~.L.R./.&X=XwXwX@X@XdXwXwX&X(.Q.*X/.>Xl * 9 , * ^ 2 t y w w w h x x N N M c m M M M M N x } } } M M _ M M m ' m $.$.m m M h -.m.*X*X#XdX#XQ.d.i.7.p.d.'.*X*X#X&X/.N j n L R 3.d.=X(.g.=.=.,.=.,.u.d.f.d.x.m.Q.Q.n.m.n.m.d.(.(._.!.oXoXoXoXm.(.(.*XfXdXAXdX*X=X/./.Q.R.(.$X@X(.f.f.v.m.f.m.Q.!.f.l.m.p.g.p.p.t.t.t.x.g.m.}.Q.L.i.d.=.,.&.U z 3 7 7 ~ T.H.4X+X:XOX1X1X1XgXgX2XcX2XkXBXcX<X,X$X,XU.& 7 F D V D 8 k ! BXY.U.R p &.Y P P j t.1X*X&X&X/.=X=X=X@X*X=X*X/.Q.oX*X#X&X#X/.x.7.a.U.f.f.f.~./.L.L.=XyX&XkXdX#X%XkXyXwX&XQ.m.*X/.>Xl * * , * ^ 9 4 q w w w r w h N M x N m M N M M N h M } M M M M M M M m m m P x M x h } m.*X=X*XdX*Xx.i.m c M %.f.!.!.x.d.,._ M M t.t.m.'.oXm. .% N N w x w -.m M M g.m._._._.oXoX=XoXoX'.'.oX@X#X*XoXoX'. X*X&X*X'.^.d. X^.Q.R.Q. X/.L.i.a.f.f.p.d.n.(.x.x.m.x.v.d.d.x.x.f.!.Q.^.}.Q.Q.d.x.u.=.-.$.n k z k ! U.T.+X+X1X:X*X*X$X>X>X1X1X<XcXkX2X1X:X$X1XU.; 7 F D D D 8 g UX2X{.U.E l R Y U T j =.dX*X&X*XoX=XoX@X@X*X@X*X@XQ.'.",
"I.{.gX+Xa.^.L.6.5.4.a.4.K.R.~. X&XwX&XdX%X@XpXdXdX@Xm.d.=XwX@X&Xl * & & ^ ^ > > w q w w x N M m N N N m c M m m N h M m M } } m m M m m m P T ' M } } i./.f.7.7.4.}.%X'.!.p.p.i.s.!.'.^./.Q.j x n L v 4.(.=XoXm.:.M } %.*.=.d.,.-.t.Q.(.@XoX(.(.oXoX(.n.(._.=X=X/./.oX&X#X@X X/./.(./.@X^.Q.^.R.^. X$X/.L.d.d.d.x.Q.m.d.p.p.m.x.n.m.m.f.p.f.d.p.7.=.,.i.Q.d.d.i.a.a.y 2 B 7 S.T.T.Y.Y.:X,X<XcXgX1X<XgXcXBXBXxXgXgX<X:X1XK.; 7 D F D D g ! ;XY.z E E L j c M -.oX&XyX&XyX*X*X&X&X1XyX&X/.%X*X&X&X&X&X@X@XQ.(.s.$.u.m u.-.i.Q./.*X>XyXdXAX&X*XdXdXwX@Xx.g.=XwX@X>Xp * & & ^ ^ ; > w q w e x N N n N x M M N c M M N x M M } } M M M M m m m m m m N N M i.(.i.7.4.*.^.%XQ.p.} b x c %.p.,.$.@.b c T m N g._.wXuXoXt.% w h w P t.M M t.(._.#XoX=XoXoXoXoXoXoX'.#X#X#X#X X^.x.s.!.R.d.L.s.L.}.Q.L.s.R.~./.~.a.f.f.f.L.Q.m.x.p.f.m.x.m.(.n.p.d.x.x.d.7.=.7.f.(.L.x.f.J.J.l i G F ! Y.Y.+XY.OXOX,X1X>X<X:X>XgXBXxXBXcXgX1X*X1XK.; 7 F H D D g UX+XY.z I R n h N ' } =XyXyXwX1X*X*X&X&XdXdX*X@X*X=X&X&X",
"I.$XxX{.d.U.d.f.y.i.L.(.Q.(./.@X*X#XdX/.(.%X*XdXQ.f./.oXwX=X&XdXL * * * * O = > q w w u w x x N x N M m N h m M N x h N T M M m M m m m ' P m m M $.$.' T @.@.&.#.&.s.d.Q./.d.s.s.Q./.x.Q.a.y z z N n 4.m.=XoXoXoXp.t.$.} -.=.t.x.x.(.(.(.(.U.m.Q.m.(.!.m.d.d.Q./.!.(.^.(.~.x.i.f.L.L.x.d.R.x.!.d.x.!.Q.Q.i.f.i.p.f.i.t.d.p.v.f.x.x.c.!.m.Q.d.f.7.-.=.=.4.i.a.=.4.y.3 6 F 8 S.Y.;X! OX3X1X1XcX2X1XgXBXBXCXBXBX2X<X<X,XgX{.; k D J D F UXT.4XK y g.=Xt.T =.*XAXwX@X@X&X&XpX@X@X%X%X&X&X*X@X@X X X X'./.m.Q.d.L.g.u.t.f.(.(./.@X#XyX&XkX/.}.wX&XdX!.f._.oX*X*X&XdXn * * * * O - > > q e w s x x N x x M M N M M m x w x h M M M M c x M M b m m M x M m m b n Y @.Y Y 6.=.=.R.m c s %.7.b ' ' c x M }  .t.m.A.qXyXqXt. .h r j N N g.d.m.(.Q. X'./.@X(.(.(.'./.(.'. XR.a.*.-.R.f.=.=.t.=.i.d.Q.d.d.s.i.L.L.L.i.y.i.a.f.d.i.d.s.x.d.x.x.Q.m.x.Q.d.7.,.&.=.=.=.a.i.4.i.J.l k H D H.4X;X! |.;XOX:X<X>X&X<XkXBXCXcXBX<X1X<X,X<XY.3 F F J D D UXY.+XH z a.=Xu.m -.*XAXyX@X@X*XwX>X@X=X*X*X&X*X%X@X@X@X'.",
"~.gX<Xs.Q.U.a.u.d.Q.{./.(.(.Q./.!.d.d.(.pXdXdX Xf.yXyXlXyXdXwXdXN + 9 * * O > : y w u x x x x x n x x M c N M M h N N M N M M M M N c m m m m m P m $.m } } $.$.=.=.&.x.*X_.!.d.p.x.s.d.x.@.> T u.f.U.=X&X=X*XqX=XwXoXx.t.-.i.i.g.i.f.d.g.f.m.(.m.m.(.oX(._.!._.!.!.!.oX_.!.~.(.Q.m.d.g.p.d.d.x.R.d.d.L.f.a.d.d.i.a.d.f.i.f.t.s.Q.n.!./.m.m.i.t.t.p.i.i.t.i.i.-.m U y 4 7 8 ~ 4XY.T.2X+X3XkXgX1X1XBXCXcXcXcXxXcX,XgX<X>X{.4 k D J D H.Y.T.U.y.d.u.g.d.yXAXPXHXvXdX=X@XkXdXhX*X*X&X*X*X*X@X/.(.(./.(.@X/.m.Q.g.-.g.(.oXoXoX@XQ./.(.x.x./.kXfXjX'.i.yXfXkXyXfXwXdXj O * * O O * ; w j u x x x j x x N z h h N M h h N x N N N N h x x x x n c v x c m ' x m ' M b ' m c ,./.d.t.' x c M m x x c -.n.*XyXAXAXyXAXyXyXAXqXg. .j m m m m n T U @.4.a.Q.L.(.(.~.L.^. Xd.*.-.p.!.d.i.d.d.f.4.-.,.d.d.v.d.s.i.f.a.i.d.d.f.f.d.i.i.i.,.p.Q.x.Q.(.x.d.,.=.=.,.4.=.=.,.u.-.P &.z k F g ~ 4XY.T.1X+X$X1X1X&X1XjXCXxXgXBXkX<X,X<X1X1X/.4 k D D D T.Y.H.K.u.g.i.g.d.1XVXPXZXAXgX=X@XfXdXgX*X*X*X%X*X@X*X^.~.^.",
"{.gX}.~.~.L.L.y.u.a.~.~.~.(.L.!./.=X%X&X%X*Xx.i.*XyXkXkXlXZXhX%Xl & & * ^ ^ < t u u x w j M x x M m b P b b m b x x c M h m m N x n m n m x n m N T T m m m m -.=.,.=.<.'./.oX(.R.d.i.f.Q.t.u.m.(.~.+X>XjXjXwXwXwX/.8.*.%.#.-.*.t.4.*.7.a.i.f.i.d.s.d.=.7.d.d.L.Q.d.m.!.x.d.Q.L.d.d.f.i.u.-.=.u.i.s.4.*.4.i.7.a.i.i.t.-.%.*.&.@.-.7.i.f.t.d.g.d.g.g.~.f.f.7.i.f.i.3.: 4 8 8 D G.UX4XY.2X2XkX<X1XBXBXcXcXcXcXcXgX1X<X1X<XI.3 7 J D S.;XG.UXU.UXL 4 z ;XHXHXbXXX}.*XgXgXhXkXdXwX*X%XwXpX>X&X#X/./.Q.^.'./.(.(.U.4.4.a.~.L.(.Q.R.!.@X*XpXpX&X&XQ.t.@XyXkXkXlXZXhX$Xl * = ^ ^ ^ < : y j w w w N x w N M x m b v c x w h c x x x x x w x x x x v x v N n m N M x h M M M m @.R.d.d.f.T N N t.m.g.N.yXGXAXNXGXDXSXvXNXZX.X1.%.] c [ b m M x v Y @.U &.7.&.4.4.&.&.4.a.&.@.i.d.=.4.f.R.m.d.d.i.t.T =.u.i.s.4.&.4.i.i.a.i.i.4.-.%.-.$.@.-.7.i.p.i.g.t.f.i.i.L.f.i.=.,.i.=.3.q k 7 7 F G.! 4XY.<XgX<X<X&XxXcXgXcXcXgXgX<X<X>X,X1XY.3 7 F D UX4XG.G.Y.T E a p ,XIXJX<XI.|.*XgXcXkXxXdX>X*X*XdX&X&X&X#X/.'.",
"|.BX<X~.L.d.(.Q.Q.}././.{.~.#XdXwX$X|.aXgXQ.a.dXkXaXjXCXCXdX|.P.3 ; = * , * < 3 q y j x x n n x x c c m m n x x x h x x m m N v N n n n m =.P m m M m } } } } t.:.=.=.=.x.&X#X=XoXd.i.t.d.~.(.(././.1XkXkXjXjXwX7.' @.%.' [ } _ } T =.-.&.7.4.*.4.&.&.U Y &.=.i.=.i.a.7.=.i.i.%.%.:.-.t.i.-.T t.i.=.-.&.-.$.i.d.x.g.-.-.%.%.:.-.%.t.f.d.d.m.m.m.x.x.Q.f.7.i.i.u.u.Q : 3 7 D D G.T.H.;X2X<X2X1XAXHXgX<XbXcXcX2XgX<X1X,X1XI.* F 8 ~ 3X4XT.UXY.UX4 y y J.J.6.Y I.,XgXgX>XpXhXBXkX&X$X>X*X*X@X>X>X X@X+X+X+XQ.Q.(._.x.'./.(././.&XjXdX&X XbXhXR.4.>XjXdXjXZXCXdX|.P.: = , ^ , ^ = 3 q w j j j n x x w x x b x x v x x x s x x n x j j l N j n =.m m v M m ' M M M M ' m m c -._.(.m.g.} h m m.kXAXNXAXAXAXFXKXDXKXSX8.[ d [ s h s h x M m N v P b P U n P Y Y #.=.$.m 3.=.&.&.t.7.$.%.=.i.g.g.$.} -.i.i.-.&.&.$.i.x.m.g.:.$.%.%.=.%.-.,.g.d.d.x.d.f.f.d.Q.f.u.t.7.u.4.Q : 4 g D F H.T.H.;X<X<X1XdXcXxXgX<X2X2XcX<X<X,X>X,X,XI.& F 7 ~ 3X4XT.UX4XUX4 t a D.P.6.Y XXaXgXgX>XpXhXvXjX>X$X&X&X*X X>X%X+X",
"|.JX2X{.(.{.=X>XgXdX:XaX>X$X~.D.2.K P.-XD.2. X,XbX;X,X~.Y S D.D.= * , , * ^ = : q w j j l n j x x s x x x p x x x x u x m j n j l m n m L./.U c m m N } | T M | $.:.,.7.i.x.@XoXwX=Xf.i.-.*.{.$X+XOX&XBXjXbXwX7.@.#.%.} ' M M N x N m m m m v b x w N m %.| -.m m m $.-.=.<.g.r.f.f.i.Q.d.g.t.i.=.i.i.f.g.g.x.m.x.f.d.t.-.,.t.t.-.:.t.i.f.d.f.t.u.t.t.3.-.*.=.3.3.L 4 3 7 V D G.4XT.;X:X1X3X1XcXcXgXcXgXcXcX<X<X<X,X:X:XT.g F 7 4X3XY.4XU.4XU.> k a P q U :X5.#.J.J.R.gXHXHXCXxX>X%X,XgXgXpX%X%X*X>XgXdX1XpX&XAXcXxXbXvXCXbX~.D.U A D.3X6.Y OX:XbX-X,XI.Y S D.D.* * , , * ^ * 0 : q w z z j j j w x s s s u u j j x w r x w j j j n x x d./.m x v c x m } M M M ' M m m m ,.!.m.oXM.M } T m.lXZXZXZXZXFXHXKXvX1.d #.@.[ h c h w w w N M M x v m m m m v ' i.x.u.m m M m $.%.=.-.i.i.i.Q.Q.g.t.u.=.f.i.i.g.g.d.m.d.p.d.i.:.=.t.t.:.-.t.i.f.d.p.t.7.=.=.-.-.-.*.&.=.I 4 4 7 8 V G.Y.Y.;X:X:X1X<XgXcXgXgXbXgX3X,XgX<X,X$X$XK.i F 7 4X3X4X4XU.Y.U.g p y Y q #.-X5.&.8.J.L.gXHXHXCXhX>X$X:XpX<X:X%X.X",
"D.Y.D.6.5.J.T.U.|.T.D.T.{.P.D.I K J W D.A A I W Y W W J I W 2.6 * < & , & O - > q u u y j l q j u x x w s s w x x x x x x v x n j x 4.@X(.f.m x x m M } } M } } } %.=.i.u.t.x.'.oX#X'.f.i.m -.|.OXOXBXBXvXaXJ.*.*.*.$.} } $.m } } m M } -.-.%.} } -.t.t.t.r.t.t.r.t.g.x.d.f.x.d.d.Q.x.!.m.f.f.i.f.f.g.g.i.d.i.u.f.d.d.t.t.=.=.,.=.i.=.=.7.t.<.-.,.%.$.&.&.$.$.n L G i 7 8 D V ! Y.T.Y.3X:X1XkXcXgX2XgXcXcX3XgXcX>X>X,X:XU.k D ! 4XY.4X4XY.+X4Xz u 4.K p  Xs.5.5.5.D.XX|.XX|.|.I.-X.X-XXXP.6.2.2.2.6.D.D.D.H.T.H.T.D.A D.H.6.2.A i Z Y ! 6 i A A A H I G I W W t * = * , , X * = : w w y y u q q w w w q w w u j w w w w w j j v j w 3.@X~.i.b x x x x c M h M } M M } } ' b t.d.m./.g.t.t.t.i.bXCXBXKXKXLXvXD.#.@.@.b x x N x N h h h x } ' } m m M ' M -.d.-.$.$.$.t.3.=.=.,.i.f.a.s.Q.d.f.i.i.i.g.g.g.i.d.i.u.i.f.m.i.i.,.i.,.,.i.=.=.t.t.,.t.,.-.&.$.&.$.$.K K G i i 7 D V ! Y.T.Y.,X,X:XgXgX>X,X,XgXgX,X<X1X>X$X$X:XT.k g W Y.Y.4XY.Y.4X+Xg p 3.Y p  XJ.5.7.5.D.XX|.|.XX|.XX|..X-X|.F.6.2.6.",
"Z 6.U 5.5.2.D.H.5.6.! 2.Q R R l l G i y i i i J z g k g g D D & , = * , * = - > : w q z u k y u w u s w j x x x h w x j j j x j w @.,X7.b ,.' x x c m m T M } } M } -.t.=.u.a.L.L.t.Q.=X@XQ.L.5.D.P.-X3XT.5.2.9.$.m m m n n m T &.$.m } } | -.%.-.| -.=.t.p.t.g.,.:.f.i.=.p.7.i.i.i.a.d.f.t.=.t.g.i.t.t.u.f.d.d.d.d.L.g.t.u.u.=.t.i.t.=.4.=.t.u.-.&.$.T -.T v u v G 3 i 7 5 5 ! ;XY.;X;XOX,X1XcXcX,XgXcXgX2XcX>X>X<X,X,X{.k F H.G.S.G.T.4X4X1XUXj Q P L &.v P &.S Y S a A A S a A S a a a a a 6 a 6 a Z a Z 6 Z i Z Z 6 g 4 g g y y : < 3 < 3 t 4 g 4 g i k D & & * ^ , ^ * - - > q q y y y q q w e w w w w w r w w w w w w u w q U &X4.v =.c s s w b M M N M M M M } m ' U $.u.g.} n.yXfXwX'.R.U.|.bX3XF.D.2.@.Y b x j w j j m T x x x M } T m m N T m -.=.P $.P m f.-.@.-.=.=.4.i.4.f.f.=.=.t.g.i.t.u.i.g.d.d.d.d.x.g.i.t.p.i.i.f.p.=.4.t.,.u.-.-.T $.-.T x y l l 3 7 7 5 8 S.;XY.+X;X+X;X,X,X,X:X>X<X>X1X2X,X$X>X:X:XY.z G H.G.UXG.H.Y.+X3X-.z &.P L T n Y &.K Y K a a A A A A A a A a 6 a 6 ",
"7 p D.H.y.H.5.y.! R Q R I L R L y : y 4 t i i 4 4 4 3 4 4 g 9 * = & * * & = = > > y w y l z z n u w j n n j x e w j e w w u l v 3.$XL.p 4.i.&.m b m P m } m m M m $.$.$.-.-.=.u.f.L.$X>X~.a.P.6.2.I Y D.5.2.4.U T L n n j T E L L L T T T T T $.&.$.$.-.3.4.=.-.$.-.i.=.=.=.7.=.=.&.=.4.&.3.=.&.-.&.Q u.d.U.f.f.f.t.-.u.u.t.t.t.-.-.$.-.-.=.T &.T P n n x j u j l z 3 3 7 7 5 G.;X4XcX:X;X1X1XcX<XgXcX,X<X<XgX:X<XgX,X:XY.G ! T.! G.G.Y.;X;X:XUXl z a w q a > e q < - : 3 < < < 3 - < < < - < = < = = < < = = < 2 , * < 9 + 9 ; = * & * , = = < 9 9 9 4 8 7 9 * & & & ^ & * - - : w y q y y z z t e w z j j e e e w e e e y z j &.:Xa.u &.7.$.x x x v N n M M M N } } T m T T $.u.i.=X<X$X~.~.D.3.Y S 2.9.W 3.L L x v z z n H L L K L n l m n n j n n n T &.T T n P 4.&.&.&.4.&.&.&.&.4.&.-.3.-.-.&.&.t.f.L.f.g.f.t.-.t.t.g.g.i.:.-.-.=.=.=.-.-.&.T n v v x u j l l 3 3 7 B 5 S.;XY.2X;XOX:X:X<X:X>X<X,X:X,X<X$X:X<X:X;XI.H ~ Y.! H.G.4X;X:X;XUXl p u q q z q : q < - 3 : < : < 3 < = : < = - = ",
"< 6 W ! E Q Q U R R L R L L l L l 3 4 2 3 3 3 4 4 9 9 9 9 9 * 9 & & & , 2 * & : y q z k k k G F z z z G G l z k k z z y k k 4 k H 2.R 2.4.U &.3.T T &.&.T E n T T T R T &.i.u.-.y.a.D.D.J A K K K A Q u.R R R R T L l L l E E L L G E z n z z n L L L P P R T T T T P T R 3.&.L v L Q T n R 3.R T &.u.u.f.I.U.(.i.R =.=.u.=.7.=.&.T &.3.3.T T T T R l l u j l n p 3 = 7 V D 8 UX3XH.JX;X|.,XgXcX,XgX<X,X<X3X3X,X<X<X:X$XY.E Y.H.4X;X4X3X4X4XY.E t 4 : : : - > 9 * = - & * = = = = * * = * * * - ^ * * X X X   X X X X O O O O O & * * * * & = = 9 * * 9 * * * * * & & * , * * ; : > 4 4 4 k g k y : z z z k y y y y 4 4 4 g ; i G Q Y 2.3.P T &.m P T L T m n n P E R T T -.-.$.4.5.6.D.J A J I I l R ! W U L R L L z G l H G L G F H z z k z z z L z L G L L l L L L L P R R L l L R T n &.3.&.T 3.u.u.f.Q.Q.U.i.3.u.g.d.f.d.i.u.-.=.u.i.&.&.T R &.L v y j v L l 4 = 6 V D 5 G.3XH.JX;X|.;X<X<X,X,X,X$X,X3X;X:X1X1XOXOXU.H Y.H.Y.;X4X3X4X4XK.E t 4 3 > > ; ; 9 * = * 9 * = = = * - * & = * * = ",
"= i i Q U T R 2.&.&.3.R T T T L n k 3 : : 2 : ; 9 9 O * 9 O 9 9 , * , , & * , 3 4 4 3 4 7 g g z k z g k F F J F F k F F F F F 7 B a i G K l y z K R L L L N z z L L E E L T i.u.3.I I Q Z i J F F p ! u.E L R L L G G L H G G L k k k k F G E H H L H H L L G H E I I E Q R I J E R R l R Q R E E u.y.H.K.U.U.K.u.2.K.u.R &.3.R R &.R &.P l G l G L l G z a y z i t 2 5 8 D 8 G.3XY.BXOX:X1XcX2X1X<X<XcX,XgX<X2XcX1X:X:XY.F ! G.T.;X3X4X1X;XY.H i ; * * & * * * O 9 = * * * * * * * * - * ^ * ^ X X * ^ X   X X O O O O O O O * O O * O * O & * * O ^ O * * 1 ^ , * , & & * = ; 4 ; > ; 3 8 7 4 k g 4 4 i D F B g k k D g g g 7 4 2 a i i p : y l I n G l z z z L L R E E T 3.2.Q I G ! F p G k G k E u.I I L L L G G G G J G G k k k 7 F F J k F J J G G J G G H J J H E L H H E R R G R 3.2.R &.u.y.K.f.K.K.f.4.4.d.a.4.u.u.4.7.u.4.3.&.U L l L R G L l u j j p 3 2 6 6 B 5 H.3XT.BX+XOX:X<X>X;X1X1X1X,X,X,X,X<X:XOXOXY.k ! G.T.;X3X4X1X;XY.H i = = * * * + * * = * + * * * * * * * - X * O O ",
"* a K U L P &.3.4.4.4.3.3.R T E L z 4 > ; ; ; + O * * * * * * * * ^ ^ , & 9 9 9 5 8 B Z D D J F F F F J F H J J F J ~ D D J D g F k Z F F k k g g J l F J F k H H E E J n E 3.Q ! E E J 3 g g k g k ~ J F F F J F p F F Z F F F 7 F 7 7 k G k F F F p F k F F F J J Z Z F i 7 F F i D B B B F Z ~ ! ! Q Q ! ! Q I J L G 4 i 3 i Z 4 4 7 k 7 7 7 7 i y 4 : 4 4 4 4 2 2 7 8 g 5 T.;X;X3X+X;X<X2X1X,X<X,X,X<XgXgXgX<X2X>XOX{.2 H H.Y.4X4X;X2X4XG.J 2 ; * * 9 * ^ O O O * * ^ & ^ * * ^ ^ * ^ ^ ^       O O O O O + + @ + O O O O O O * ^ O O O ^ O   ^ ^ * ^ 9 ^ 9 , ^ , ^ , & * 1 1 C 1 1 V 5 D 7 7 g g D B F F D D D D D g k 7 g 7 i 7 7 7 7 7 3 8 k k k G F k J H E E L E E Q Q 3.R E J 8 k 4 k g g ~ H F F F J F p F F i D F F B D 7 7 g J g D F F k F k F F F F J k Z k Z 7 F F g Z B g D F i J J I J J H H G G G l p 7 i a Z F i i p J Z k k 7 i i 4 3 4 4 4 4 8 8 8 8 C C 4X3X;X3X+XOX1X1X,X:X,X,X,X,X,X<X>X,X>X;X|.I.2 J H.T.4X4X3X2X4XUXg g ; O O & ^ ^ * * ^ * * * * * * ^ ^ O * O O ^ O ",
"^ 3 5.E G R Q R R Y R U P E E L H L L 4 ; ; 9 * * * * * * ^ * & , , , , & & 1 5 5 5 V B F g D D F F F D D J F H J D D ~ H D F H F F F F F F g z z G G z z F k F H z z J z J E E R H H 8 7 F g g D B F F 7 7 8 7 5 8 7 g D g D B D g 7 8 5 5 5 8 8 7 7 8 8 8 8 g 7 5 V Z g F F 7 g D g g 8 7 7 F ! y.UXUXUXD.! ! ! UX! E H 7 7 7 3 3 7 7 7 4 g 4 4 7 4 7 g g 3 8 3 2 5 B D 8 H.;X;X;X;XOXOX1XkX1X,X<X,XgXcX<XgX<XgX,X;X1XY.; T.T.4XG.T.3X4XG.E z 3 9 * * ^ ^ ^ ^ O ^ ^ ^ ^ ^ ^ * ^ ^ ^ ^     ^                                 ^   ^ ^ ^ O ^ ^       ^ ^ ^ ^ ^ ^ ^ , ^ 1 ^ , 1 1 1 1 C C B 2 B D 7 g D g 7 F B F D D D ~ D D D D F B i B 7 g 3 g k z k F F k z F E J L E E E E ! ! E E 8 7 D D 7 g D J F 7 g 7 8 7 7 7 D B g D D B 7 7 4 2 4 5 7 5 3 8 4 8 8 2 B 8 8 7 D 7 F g g 7 7 7 7 g g 8 g J J J G J J F F D F D g B 7 F 7 4 8 4 B 7 4 g 7 g k 4 g 7 k 4 3 8 1 8 V D C T.2X3X3X;X;X:X1X1X:X X,X,X,X<X1X,X:X1X,X:X;XY.; T.T.4XG.T.4X4XG.~ g 8 9 * * * ^ ^ ^ ^   ^ ^ ^ ^ ^ O ^ ^ ^ ^         ",
"* 2 D.J G G G E I E L E R H L H H G F z y ; 9 * * * ^ ^ ^ ^ ^ * ^ ^ ^ , 1 C 1 8 V 5 B B B D g ~ ~ F H F g F F D D D D D D J H D D k F F F z J J F g G J F F g F J D H J J D J E H k D 5 8 D D D D V D D D 7 8 1 5 1 1 8 g g B D F k H F G L H z L H L E E E H J J H I E E ! ! Q ! ! ~ H E J H ! UXQ H.y.H.I E ! Q Q E y.3.G y k k k k k g k F k k k F F k y k g 4 7 7 F 7 ~ ;X4X4X4X3X;X1X1X<X1X1X,X1X<XgX<XgX3XcXgX,X3XY.F S.S.4XY.2X2X4XH.Y.Y.E 9 O ^ ^ ^ * ^ ^       ^   ^     ^ ^   ^                 .             ^   ^         ^ ^ ^   O ^ ^     ^   ^ 9 ^ ^ * 9 C C C , 5 5 V 8 8 7 4 F J D D D 7 g D 7 D V D D D D D D 7 g 7 7 B g g F g 7 k F k F k H ~ E E ! E ! Q u.E J F 2 7 B B 8 D V D D D 7 8 1 2 2 9 8 7 D g D g k J l F H E z L L E E E ~ J L J H H L J E E E H H J D D D D F J F J z F k g D F F F F F g 7 g 4 g g 7 4 7 g 7 7 i k 7 7 4 8 2 2 8 8 D 8 ~ 3X4X;X;X1X;X,X1X1X>X:X:X1X1X<X<X1X>X<X1X:X:XY.F ! ! 4XT.3X2X4XT.Y.4XE > * * ^ ^ * O ^         ^ ^   ^ ^ ^ ^ ^ ^     ",
"& 2 6.G G I R &.5.Q R E L T L H L H z F k 4 ; ; * 9 9 9 9 9 * * * C , , 1 , 1 8 < < g E u.Q u.2X2XU.K.H.T.Y.u.H.UX! UX! ! ~ J J E E H F F F J J J J F F F F D H H H ~ J D J D J F F D 9 5 7 8 J 8 8 g D g 8 8 2 7 I ! Q UXH.y.U.g.U.(.Q.i.(.=X=X=X(./.{./.(.Q.~.m.m.d.d.g.-.T T R n n L H E -.H.y.U.H.R R Q H.Q 3.R y.H.u.&.G l G l z l l k z G G G G l F k G F Z i F J D ~ ;XY.T.4X3X4XOX1X2X1X,X1XgXgXgX2X<XgX1X2X:X:X;XF V ~ G.G.4X4X;X;X1X2X1XE 4 4 8 9 & * * ^ ^ ^ O O O O ^         ^   ^   ^   ^ O O * * O O O X   ^   ^ ^ ^   ^   ^ ^     * * 9 9 ^ 9 ^ , ^ , 9 1 ^ , C , 9 7 ! UXE u.2X1XK.H.u.K.T.UXu.! E ~ S.~ H F k H ~ F 7 4 7 D F F F F Z J F H ~ ~ ! ! ! UXu.UXu.W H J 9 5 7 8 g 8 8 D ~ D 7 g 2 8 H E H E UXUXy.u.y.U.d.t.U.(./.+XU.U.U.U.U.f.d.y.g.g.u.u.n l G L k k F g z J H H E J F g J H F F g F G F F 7 i F 7 4 g 7 g 7 F 7 B F B 7 7 7 g 7 8 D D D ! 3X4XT.4X3X;X:X1X1X>X:X,XgX<X<X<X,X<X<X<X:X;X;XJ D ~ S.T.4X4X4X;X3X2X1XE ; 8 8 9 * * * O ^ ^ * ^ O ^ ^         ^ ^ O ",
"; 4 I L U R 3.u.y.y.y.i.u.R R E Q ! E E E E E G D F k k J k k g C g 4 8 g g 4 ; E U.y.g.d.f.AXZX=X=X(.=.4.2.a.:X1X:X+X{.Y.{.+X:X,X+XH.Q Z B J F J J J B F J g g J g H E E E E H H F G z H E OX;Xg g V D J 1 g F E R 3.f.@XdXdXwXfX0Xm.0X0Xs.p./.=X+X X}.^.^. X X{.(.@X/.Q.^.R.L.a.m n n N N -.y.f.K.3.R R y.y.i.f.u.y.Q R R z p l k F k F G z k J F k i k k k z k 7 g F F ! T.E T.4X|.1X:X2XkX1X1X,XgXcXgX<X,X<XcXcX,X3X-X7 ~ D ~ G.G.4X2XJXHXxXPXd.4 z L l k k g z y y y y > - 9 @ 9 > 9 9 9 9 9 ; > > ; > : : > 4 y > > @ - * 8 8 ; 4 4 g ; 8 ; ; ; z C g g g 4 g 8 4 8 7 7 ; H U.u.u.d.f.AXZX=X/.(.&.-.R J.:X3X1XOXI.I.{.+X$X,X{.K.I 4 5 F V B J J F J J G H Q Q Q u.K.K.y.H.u.J L 8 z J H.H.g D D ~ ~ 8 g g F H R R f.I.I.~.+XL.i.Q.(.7.4.L.R.~.I.L.d.K.U.K.K.a.K.a.u.u.-.R E k y k 7 k k F k F g 7 5 3 g g F D g D 7 7 5 5 8 5 8 8 C 8 8 D B V 5 8 8 5 8 D V C D D D ! Y.~ Y.4X;X1X1X<XgX<X,X:X<XgX<X,X,X,XgX<X;X,X|.D ~ D ~ S.S.Y.2XJXJXjXPXf.y n z J k k g z z > y e > > 9 @ 9 @ ; ; * * ",
"i y E R R i.K.a.d.K.f.a.u.y.u.Q 3.! R u.u.u.E E E E L z G T L n H J L H H F J z K.<X=X=Xi.yXDXAXm.d.(.t.m n P ~.1X(.f.d.(.(.g./.&Xi.&.5.K 3 F k B B F H ~ F L I.{.+XU.U.U.+X+XU.f.u.g.U.~.4.OXOXF D D D H D 8 ! ! Q &.T i.d.R..X^.pXhXR.^.E.&.9.&.*.2.&.#.2.5.4.u.y.a.&.&.@.$.P n v n N z u.f.f.U.d.i.y.(./.U.U.y.u.$.u.u.d.3.n R 3.Q P H E E E E L L G E R R R u.3.u.3.u.{.T.! H.u.Y.:X$X<X1X1X,X,X,X<X2X<X,X,X1XgX<X;X|.B H ! D ~ G.2XcXIXHXlXVX(.@ z z z l y 4 z j y w j j z z w z H z z z > j z w 4 : q j u z w > y 4 4 4 : 4 g g z L J g z g g > 4 g z z z z J z J z k k y y.1X=XoXu.yXDXjXx.d.Q.t.m x n I.1XU.f.d././.g.=X&X4.m 3.S = 4 7 V D F H ~ H R +X+X$X=X+XOX1X>X=XU.u.R E R H UX! D J D H H.H D E H H H L Q 2.3.y.y.L.~.4.a.5.L Y I I Y Y E H Q E E E E J l J k g y 4 i g k F J J H G z H ! Q L H z F k z l H G J UXUX! H F ~ J D H F J F H ! E ! u.u.u.G.H.2XY.S.T.G.;X3X1X2X2X1X:X:X1X<X<X1X>X,X,X<X,X;XY.F F ! D ~ H.IX2XxXZXxXBX(.@ y z z k w g z z z z z y j z z z z z j j y ",
"y l K.T &.&.J.P.U.U.U.K.d.J.i.3.&.-.R -.UXR R R R &.T T T E T L E T E n L L z L P 1XAX=XzXFXkXlXoXx.(.t.=.} -.Q.U.Q.(.&X&X(.m.m.g.M m i.a.L = : F 7 D J H k y.1X=X=X=X=X@X(./.(.(.m.U.m.-.4.~.U.H D F B ~ J D Q R g.=X{.f.-.,.7.7.*.F.7.@.&.%.P &.m v b Y P n v n n L m Y P v j x v m m %.=X@X*X=X@XoX*X1X&XwX>X*XoX(./.=X&X(.i.f.f.i.f.d./.d.L.d.f.f.i.d.i.=.=.-.t.y.a.K.K.E Q ! Y.1XOX>X1X1X<X3X,X1X2X2X<X,X1X:X,XgX,X4X3 B ~ ~ G.T.G.J.,X$X>X&X1X-.> y y y y z z z j z N z z N z z N z z z z j z j z j y u l z w y w z z x > > 4 q j z y y y z z z z z z z z n L L G H z z L T 1XAX=XkXFXAXlX_.d.(.t.-.M -.Q.U.Q./.yX&Xm.m.m.i.n m g.u.z ; 4 F Z D ~ ! z U.1X&X1X&XdXdX&X>X&X=Xg.&.n L G E u.! E ! ~ I.H.E UXUXu.y.y.u.&.3.4.3.3.5.6.Y U R L Y G z l G l l p k k J z G G J z z z T E Q y.y.U.I.Y.U.OX<XOX:X*X=XI.U.(./.{.U.Q.I.U.f.U.{.1X(.=X+X(.Q.d.U.f.u.i.y.K.U.+X|.Y.W ! H.Y.2X1X1XkX1X<X,X:X,X<X<X<X,X,X:X,X,X,X+X7 D ~ ~ H.T.D.T.,X$X&X*X1X-.> z y k 4 > z w z z N N z z n N z v j j j ",
"i R 5.E I U U U 2.u.J.J.L.d.a.u.u.-.T u.T T R R T Q Q R T R T E N n E E G L L n n =XdXAXKXlXhXlX@XQ.@X*X/.(.!.f.i.g.oXAX*XyX*X*XwX/.g.x.U.d.> 3 J D D 7 , H cX+X(.f.(.*XoXoXoXn.!.x.d.g.,.s.J.U.l l F D ~ J K a.=.g.M.t.r.r.r.m.n.f.' | %.' ' M [ M x m $.$.@.T T -.=.3.=.T T m T } -.m m.=X=X=XoX=X=X*X&XyXwX&X*X*X@X_.(.'.=Xx.u.i.i.a.a.i.i.u.a.i.u.u.4.=.3.&.&.3.4.a.u.R p Q H.~.;X+X1X1X;X1X,X,X,X<X<X,X1X,X<X,X,X<XT.2 F D D H.T.~ P.:XJ.L.$X&XQ.> > ; : 4 > z > y z N L n z N n n n N N N v l l z y : t 3 4 z z z j z x j e q > y > z z y z z z z z E N E z z n L L L l n N =XdXAXFXAXfXAX#XQ.@X=XQ.m.d.g.t.i.}.AX#XyX*X#XwX_.g.d.Q.d.- 3 J F F F g ! cX+X}.(.=XyXkXyXwX#X/.i.R l L L H H.! Q ! UXY.+Xu.u.u.g.y.g.u.u.f.a.f.i.&.-.=.-.&.T -.U L T R R R I T R u.u.u.3.E -.3.u.3.$.i.i.f.d.d.K.(.I.{.=XOXOX|.~.I.L.L.K.L.L.U.d.d.d.U.g.y.U.U.a.f.y.g.i.u.t.u.u.K.K.P.! B S.T.+X<X;X<X2X,X3X,X,X3X,X,X3X,X>X<X:X,X,XT.1 J D J H.H.K P.,XJ.L.=X1XU.> > - : 4 z z 4 > z n L L z z n N n K L L ",
"k 3.&.L T n P L L K L I 3.5.5.y.u.3.R R E T H T I I Q Q L I E T L E T T L G l n w =XNXZXlX'.^. X~.~. X4.@X/./././.oXwX&X$X$X XdXfX@X=X*X!.*Xl = g H D 8 9 E BX+X+XoX'.!./.oX(.(.!.m.g.n.m.g.i.|.E ! D 8 k 4 y.dXwXyXyXyXGXNXSXNXNXNXyXyXyX=XoX=Xm.d.f.t.M T -.-.-.-.-.t.g.g.g.t.m -.-.} oX=X*XuXfXlXkXjXNXkXjXfXwXdX Xp.d.!.*X@X7.i.i.u.a.a.a.u.u.5.5.5.a.4.u.-.T t.u.g.u.T z ! 3.H.Y.+X1X$X:X>X,X1X1X2X1X,X,X:X<XOX+X1XU.8 g D ! 4X;XUXH u.u.+X&X=X/.u.e q z ; i y y p i j L v z n n K L I K L K K G z j y z y > 3 3 y 4 y y z z y : : > : : 3 4 3 Z p a z G l z n n L l l l l z /.VXDXlX'.^. XR.~.}.-.^.!.Q.n.(.oX&X&X$X*X}.pXdX=XoX*XQ.#Xj = F H ~ F 4 UXBX+X$X%XwX*XwX&X*X*X~.y.P z I F J T.! 3.D.! |.Y.Y.I.U.U.U.K.~.{.}.{./.{.(.{.(.U.d.U.f.y.a.y.3.4.3.3.2.u.u.3.u.u.u.u.-.u.-.-.u.g.f.d.~./.~.~.}.{.{.{.U.U.K.a.a.U.~.d.f.K.K.K.L.L.L.K.U.H.K.y.K.d.y.g.u.g.U.m.K.E g ! G.T.;X;XgX:X1X<X,X,X<X<X,X,X,X:XgX|.+X1XY.3 7 J ~ 4X;XUXH UXu.=X&X*X{.t.e 4 y > y y i z i p n l v v L L n Y L Y ",
"F 3.U.5.T u.2.&.R R L L L L 2.2.Q u.&.R R E T E I I U Q Q L L L n E L E L I L j L.ZXZXAXwXwX%Xi.5.~.}.d.~./.>XAXAX&XL.d.a.J.}.}.$X>X>X XL.{.y L UXD D UX+X3X2X{.+X}.'.(.n.oX!.d.Q.!.!.n.oXm.i.a.l z g g E F K.*Xn.oX9XoXoX0XqX*X*XdXNXNXSXNXlXDXwXn.n.f.t.g.m.n.m.n.=X=XkXyXAXm.T t.i.wXAXAXAXkXfXaXwX&X%X%X%XpX>X@Xs.~. X/.(./.Q.i.i.i.i.4.i.,.f.a.u.i.i.u.t.u.g.d.f.x.L.4.z H 3.H.+XOX<X:X,X1X,X>X>X<X1X2X1X>X1X2XOXY.T.2 J ! Y.3X4XG.UXy.I.*X&X}.}.(.n e > > : p i i p l k i k L K K L L I L I v n n T l z l l z y 4 y z y y y q : : : ; ; ; ; : 3 p p 4 i j l v G G G L K z m.ZXFXAXwXpX&X4.5.R./.s.L.~.:XAXVX&Xa.d.5.J.|.}.$XpX<X XL.{.y J ! F D u.3X1X2X=X$X.X%X>X>X*X'.@XQ.i.T z E G I H.3.! ! 3.OXOX&X:XI.L.d.U.K.U.I.U.K.(.+X/./.+X/.+XU.a.a.a.i.u.f.d.f.f.f.d.U.U.U.g.u.u.f.U.(.{.=X*X@X/.{.{.{.{.I.U.L.U.L.L.I.K.L.L.d.L.L.d.K.f.U.U.U.U.y.y.y.y.d.U.{.=X/.+X:Xy.g H S.T.;X3XxX1X<X<X1X>X1X,X1X1X,X>X,XgX|.Y.T.3 J ~ 4X3X4XH.UXg.U.*X&X/./.{.N w > y > z y y p l k p z L L G U L L Y ",
"A K I.~.K.U.U.U.K.d.H.d.y.T 3.&.L L P R R R Q Q R Q R Q Q L l l L E E E L I G U xXVXlXjXDXgXL.&.5.*.i.=.U.}.|.>XCX+XU R 2.J.I.~.L.~.$XJ.7.Y t H.UX! D ;XT.Y.Y.6.$X%X'.=Xm.m.Q.n.(.n.!.(.(.Q.g.&.k z g UXH.H u.=XyXyXNXNXvXv.,.,.-.t.m.m.*X#XlX0X1.%.;.=.t.m.AXyXAXAXSXZXNXyXoX!.%.Q.dXdX$X&X@XJ.L.J.a.L.8.J.8.J.s.a.4.^.}. Xf.t.i.a.7.4.4.-.-.=.t.-.-.u.4.u.i.d.U.Q.Q.L.~.K.F E T.U.OXOX>X<X,X:X,X>X<X<X,X,X,X:X1X1X:X+XU.g g ~ H.;X4XY.Y.{.@X>X{. XQ.i.g.} m -.=.m u p i a z y y i l K G G K l K L L U T n L L l K G v i y y w q : : : : y y z y i a i l 3 q k l H L H L K l P BXAXNXlXKXkXQ.-.7.=.4.=.Q.{.~.:XxX}.P L U J.~.L.L.~.}.J.7.I 3 J.u.! H 4XT.+XOXU.gX>X&XdX*X&X&X%Xf.i.&.z H F W ! 6.H.6.y.{.Y.+XOX+X{.Q.I.U.a.a.a.y.K.U.{.{.{.}.Q.i.i.y.i.f.a.{./.+X+X$X=X*X*X=X+XU.(.=XOX=X1X*X}.~.I.L.I.L.L.a.d.K.K.a.a.f.K.K.a.K.a.a.a.a.g.a.K.L.y.y.y.K.U.~.+X=X*X*X*X*XY.7 ~ Y.Y.1X<XgXgX1X>X,X1X<X1X:X;X,X:X,X>X:X|.U.g g J H.;X4XY.Y.+X+X1X}.}.Q.t.g.T N T u.n z z y a i a a i G K G K G l ",
"i G K.U.+X~.Q.I.I.I.U.U.U.U.K.y.u.u.T R 3.&.3.-.3.3.2.Q 2.U L G z z H l I L v 3.+X*XfXZX1Xt.i.i.d.%.T =.x. X=Xy.T n $.&.P 4.4.4.L.a.L.f.5.p 2 K UX~ ~ UXH.y.u.3X:XgX(.'.=XoXn.(.(._./.oX(.(.+Xf.a 3 z H.4XU.R &XDXNXGXNXrXr.r.,.t.t.t.g.t.p.L.8.,.%.%.-.} m.oXoXAXAXAXNXAXqX=Xn.i.!.s.i.Q.d.R.x.s.a.d.g.L.i.d.i.i.a.i.(.Q.i.g.f.i.i.4.a.u.t.=.u.u.-.u.u.u.a.d.L.U.Q.~.~.U.U.N H H.H.|.:X*X>X:X:X,X>X>X,X>X:X:X:X:X,X1X1XT.g D G.Y.;X3XT.OX{.*X/.L.7.a.(.(.=XyXAX(.-.x p q : q ; 4 y i G p p G p G l l I I H l L L l z l l j l z z z z j z y z l l l z l l l y y y i l k H L l &.OX&XjXZXdX=.i.i.d.T P -.x./.}.7.n x T T m 3.4.=.d.4.P.a.5.d : I G.! ! UXH.H.U.cXgXxX>X>X&XpX*X@Xf.y.R k J k ! H.u.! 3.H.{.+XU.+XOX=XOXOX+X(.~.+X{.~./.+X/.U.U.L.a.a.u.i.u.f.d.{.+X=X:X1X1X*X*X=X/.=X@X+X$X1X>X$X+X{.{.~.~.Q.~.U.a.a.f.K.K.y.d.U.L.K.K.T.K.K.d.K.d.u.y.g.y.U./.{.OX1X1XOX*XY.g F H.T.OX2XgXgX<X<X1X<X>X>X:X:XOX:X:X>X,X1XK.7 D H.Y.;X;XT.=X{.=X{.L.i.i.(.(.=XyXAXm.t.j j t 3 q : : a i G l l l p ",
"i K I.{.I.P.L.I.I.I.K.K.U.a.K.u.3.=.u.Q &.4.u.4.&.3.&.2.R R T E G p p z K L L T >XkXVXAXm.x.oX(.Q.t.d.=X=Xm.(./.~././.u.-.d.f.f.(.L.L.L.a.K : H ! ~ ! H ! ! ! 2X$X|./.%X=X=X/.n.m.(.Q.m./.@X@X4.l i 7 H.Y.4X+XU.yXZXDXAXn.8XNXuXyXA.g.t.} } u.g.*.-.d.m.=XGXoXAXAXyXAXuXfXuXyXr.N.yX=XqXNXNXyXyXoXoX=X_.=Xm.m.U.g.i.m.*X=X=X=X=XU.g.g.g.=.i.y.y.g.u.u.u.y.g.K.f.d.(.{.(.(.U.L G H.T.Y.OX+X$X:X,X:X>X>XgX<X:X*X:X>X,X:X$XU.g D H.Y.3X3X;X:X+X$Xf.-.-.%.t.wXAXVXdXg.d.f.m j > j j z q : : 3 : 4 y i l L J G G l L L L l l l l v n n n z n j l z j y z l z G G a i y 3 i k G L n L 1XAXVXZXm.m.@XQ.f.t.g.oX=Xf.(.(.~.(.}.t.$.g.g.g.~.d.d.L.i.n 3 E ! S.G.! UXQ u.2XcX,X%X&XyX>XpX/.s.a.T 4 J F ! H.6.3.! H.I.+X|.{.|.{.*X:XOX=X1X1X*X:X=XI.I.I.{.U.U.f.y.f.L.L.d.~.L.U.Q.~.~.{.~.~.I.~.+XOX1X+X$X{.Q.~.~.L.U.d.U.U.K.d.a.U.a.I.~.{.I.U.K.K.y.U.U.K.K.y.f.y.K.~.{.~.|.:X:X:X3XY.i D T.4X|.2X$X>X,X<X1X>X>XgX<X%X:X$X:X1X:XOXT.i F H.T.3X3X4X:X+X$Xf.=.-.%.i.wXjXAXdXf.d.i.n w e z z z > : : ; 4 4 g ",
"3 A T.K.J.L.P.I.P.I.U.U.K.y.u.u.u.u.3.t.T U 4.u.4.u.u.3.u.Q R R L z z y y n w u.VXZXdXjX&X=X=X*X/.g.(.oX*X}.*X&XL.d.4.T d./.Q.(.Q.f.L.~.{.n > J ~ ~ ~ ~ ! H.E 1XOX}. X&X1XyX*Xm.(./.'.(.!.&X{.U L F 2 H.T.;X+Xu.%XVXyXh.`.NXNXGXFXAXyX=X=Xg.t.} | yXNXNXAXuXAXyXuXAXAXyXuXfXAXyXf.AXNXAXAXNXAXAXAXAXAXkXyXdXAXyX&X&X&X=X&X*X*X&X&X=X=X(.U.d.y.f.u.u.u.u.g.d.{.*X&X1X1X&X1XU.E L H.|.>X&X&X>X&X>X>X>X,XdX<X:X$X$X>X$XOX|.Y.z g E 4X;X3X3X3XK.L.$.t.!.*X&XyXVXVXQ.+X/.u.x.t.-.t.U.~.a.u.n U L n l y 4 p p p l l l k K G z y z G n n n z n l v m n n n n l n z z z i y a q y l q t.VXZXkXlX*X=X=X=X(.t.n.=X*XoX&X>XR.a.3.$.d.(.Q.Q.Q.i.L.~.{.P : I ! S.! H.T.Y.Q @X.X>XbXgXkXdXgX~.i.u.T g F F 6.6.UXu.y.u.U.|.Y.U.~.{.|.|.{.1X1XOX$XOX+X{.(.d.U.K.y.U.I.U.L.L.L.L.L.U.~.~.~.U.{.~.U.I.U.U.I.I.Y.K.y.K.K.f.d.L.K.f.f.K.f.y.U.K.U.U.U.U.Y.U.U.K.y.K.K.H.K.K.U.Y.+X/.}.}.|.:X1Xu.i B T.4X3X,X1XpXgX,X,X>X<XpX>X$X$X$X:X$XOX+XY.k F ~ 4X3X3X2X3XJ.L.} =.(.0X*XwXVXZXQ.+X{.t.m.i.} t.(.{.a.u.n E n N H ",
"G S D.P.P.I.I.I.I.~.~.{.~.U.U.L.K.d.f.y.a.&.R R =.u.i.u.3.&.Q 2.L l z y n &.4.{.CXjXVXAXdXyXyX=X=XwXyXyXyXyXCX~.n &.P P d.Q.(.U.d.4.d.Q.d.P 4 G J ~ J D S.! S.2X{.I.@X*X@X=X=XoX=XQ.(././.&X{.{.I p 7 ! Y.4X2X{.$X%Xm.=XuXNXNXFXAXGXFXFXSXAXAXA.yXAXuXyXyXNXNXNXNXNXAXNXwXfXwXR.(.AXlXjXlXjXAXkXkXkXAX1XkXkXAX&XkXkXkX1XyX*X&XyX&X1X&XkX1X*X=X*X=X=X=X(.:XkXyXAXAXkXAX1X&Xd.K.u.U.1XJX<XxXgX<X:X,X>X>XdX>X>X:X:X&X>X*X:X4X8 ~ 4X4X;X2XJXY.z T =.Q.=XyXkXjXKX$X~.~.R.=.g.-.n.oX/.d.g.{.U.U.y.d.f.T u t q : y k z i l l G L n L n L L n L P v n T T T T T L z l p j y y e j &.u.+XCXVXVXAXkXyXyXoX=X*XkXyXwXyXZX/.K &.L L U.m.Q.m.a.4.a.Q.L.L k J Q D.! D.Y.Y.K.OXP.L.,X<X>X&X@Xd.f.R L G F Z ! H.H.3.u.u.U.+X~.{.+X+XI.OX1X:X:X:X:X+X+X=X+XY.U.U.U.U.U.U.K.d.U.d.d.U.U.U.K.K.K.U.I.I.I.I.U.d.d.y.y.f.u.u.f.H.a.y.H.K.d.a.K.a.K.K.K.K.K.K.K.K.U.K.H.K.U.y.U.*X$X*X<X>XOX*X|.k F J ~ ;XIX1XgXgXgX1X>X>X,XgX<X:X$X>X*X:XOX1X+X4 ! 4X4X;X3XJXI.z $.u.m.=XyXAXlXKX$XR.^.Q.=.g.t.m.(.(.d.a./.U.U.g.f.f.",
"U 2.2.4.a.H.:X:X|.Y.T.H.y.a.K.U.L.U.K.d.a.U.a.t.u.u.u.u.3.R &.R P K n T u.+X1XkXZXVXxXkXVXAXAXAXZXDXAXAXNXAXjXs.@.&.P f.&X(.(.(.f.L.@Xp.u.v i F F J F D 6.~ ! -XI.|.+X&X/.=X=X/.(.m.f.m.=X*X$XI.L , V ! ;X4XOXU.x.oXyXGXNXNXDXDXFXFXAXAXFXFXFXZXGXuXyXyXNXNXDXlXNXkXuXyXwXzX'.:.!.NXfXAXAXAXkXdXkXAX1XkXkXkXkXkX&XkXdX&X1X&X1X*X1X1X1X&X1X1XAX1X&X1X1X*X1XAXjXAXAXAXAXkX}.U.Y.U.Y.Y.,XgXpX:X>X>X>X>X>X<X<X:X<X*X:X1X3X:XY.8 ! T.4X3X2XBXK.d.i./.yXkXyXfXKXQ.s.^.Q.f.i.%.!.=X@Xf.d.=.-.=.U.d.(.d.i.-.-.$.v y u.y.l a p l z L P L m P L T R R P T -.T T P l u v l z z z P u.+X1XkXZXHXlXlXVXAXAXAXAXFXAXNXNXAXAXf.@.@.P g.&X(.(.Q.i.d.@Xi.t.L G H W ! ! ! H.u.H.1X~.J.}.:X}.U.U.i.u.T L J F D D.S.u.3.u.y.f./.{.I.I.+X+XOX;XOXOX1X:X:XOXOX+XOX/.I.U.d.d.U.U.U.U.d.U.{.{.|.~.~.~.U.I.~.I.{.Y.{.U.y.y.y.y.a.f.H.K.K.y.f.H.y.K.K.J.K.K.U.y.H.K.K.K.K.K.K.U.f.I.*X*X1XkXkXcX*XT J J D S.H.Y.3XgX<X<X<XgX<X>XgX<X>X1X*X1X1X:X:XU.g ! T.4X3X2X2XK.a.g./.dXkXyXyXKX~.s.^.~.i.i.-.m.*X=Xf.d.=.-.=.U.f.U.f.",
"K 4.L.4.3.6.D.D.5.2.W K U U 2.2.5.5.5.a.L.J.a.a.L.y.5.&.R &.3.-.-.n T u.y.U.{.$X|.,XP.XXgXCXCXHXLX|.-XdXhXgX}.6.-.t.&.,.f.i.g.Q.}.1X@XL.R l 4 z g g D H H.! W H.I.OX$X=X=X*X@X X'./.Q.m./. XL.&.H ; 8 ! ;X4X4X=XkXNXNXNXSXZXDXZXFXFXDXDXFXDXZXNXNXZXDXNXNXZXNXNXlXuXfXzXlXNXR.:.t.ZXNXVXZXlXNXlXgX>XpX%XaXgXcXdX1XdXdX&X>X&XwXAXjXkX1X>X*X&X&X&X>X*X+XgXVXVXCXZXVXAXvXxXI.U.H.D.T.Y.3X:X.X:X$X:X>X1X1XgXgX,X<X>X1XgX:X,XU.7 T.T.4X3XJX4XL.}.*XkXkXfXfXDX}.a.^.E.L.@Xs.d.'.!.(.Q.i.-.-.i.i.f.x.t.-.t.f.-.} $.=.&.x j l u l n n L P P l P T &.R T 3.T &.T z j T T T N T u.y.f.I.|.XX-XD.XXaXCXvXHXLX-X.XpXgXgX(.3.-.*.$.,.g.t.g.U./.dX@XK.&.l k E W E H ~ H.T.T.~.I.|.{.^.L.i.i.i.u.L l L F G W u.D.u.H.5.K.I.{.+X|.+X:XOXOX+X;XOX:XOX:X;X=X+X{.U.U.Y.U.U.U.I.d.U.{.(.(.{.@X+X+X(.{.{.{.(.U./.OX{./.Y.f.d.H.K.H.K.y.U.U.U.U.U.U./.+X{.U.U.K.K.y.y.K.U.U.U.OX1X1XAXBXxXBX1XJ H D ~ S.S.3X3X>X>XpX<X<X<X1XcXgX,X<X>X<X<X*X3XH.i T.T.4X3XBXOXP./.*XjXkXfXgXDX~.J.XXQ.L. Xs.d.@X(.Q.~.i.-.%.i.i.f.d.t.",
"3.L.=.u.=.&.Y b T T v Y Y U K P Y U Y R 3.3.3.&.2.2.3.R &.y.&.L.u.P -.u.K.g.4.5.D.E.XXXXR.+X%XOX$X6.gX$X~. Xi.7.Q.f.f.g.-.,.t.f.=XoXm.f.-.n y k F B B W ! ! H.T.Q |.$X*X*X*X&X/.R.@X(.(.Q.Q.s.y.H z g ~ 3X4XK.AXAXzXSXNXlXSXNXSXSXZXDXDXZXFXZXDXNXNXzXNXNXNXAXAXAXVXDXZXwX!.i.i.(.zXjXZXNXAXAXjXfX#X&XpX@X1XkXkXxXAXjXjXAXjXjXjXhXfXjXjXxXxX<X>X*X>X&XgXgXdXjXCXHXZXLX>XP.T.W W D.Y.-XOX$X:XgX>X>X>X1XcX2X1X1X<XdX1X,X<XT.F ~ Y.;X2X2X;X$X@X=XlXdXNXHX%Xs.}.J.R.@X^.d.Q.Q.=.| -.p.(.&X'.'.i.d.(.Q.(.-.m.g.-.m u T T j n u n v n L n v m R T &.T Q -.-.T T i.$.U.u.x T R y.t.-.u.2.6.J.a.a.(.$X|. X2.bX:X~.}.i.t.Q.f.f.g.t.g.t.g.=X/.x.d.-.T j H H H ~ ! u.H.|.|.P.}.~.L.d.f.f.4.&.n l J J F W H.D.UX6.5.U.~.|.+X;XOX+X+XOX+X+X+XOXOXOX:X:X+X+XU.U.f.U.U.U.K.K.I.+X/.+X(.~.+X$XOX:X$X+X+X:XOX=X+X+X=XI.K.d.U.U.I.{.+X=X&X&X1XyX1X&X1X1X=X$X+X+XK.K.K.I.OX1X1X1X1XgXcXBXOXF H ~ D D T.3X3X<X<XgX<X>X<X2XxXgX<X<X1XgX<X,X<XU.F ~ Y.;X2X2X;X$X@X=XjXdXVXKX@XL.^.s.Q.$X^.s.Q.L.t.} :.f.Q.&X@X/.i.d.Q.",
"u.u.u.-.T T m u N -.T z v v n v v L Y L R L R R R &.Q L L P 3.u.N n n P n T P U 3.5.J.L.L./.{.{.P.7.bXi.@X_.=.g.d.(.(.yXwXn.m.oXm.m.=Xm.i.-.j y i B Z ~ J H H.H.K.;X~.@X%X$X+XQ./.=Xm.g.x.(.^.K.n g H D 3X4XUX+XlXzXzXuXqXzXzXmXzXzXlXZXFXFXFXDXDXzXNXzXzXAXDXZXVXjXjX%Xp.i.,.x.jXkXkXfXdX@XwXkXwX@X#XdXkXhXdXxXVXlXVXVXAXVXkXkXhX1X&X&XBXBXBXVXBXAXCXZXCXZXHXKXKXHXHXJ.U 2.3.! ! H.;X*X$X&XgXgXcXkXgXgXgX1XcXgXgX2XgX2XT.F ! 4X;X2X;X1X$X%XxXZXVXbXL.*.^.^.-.'.=X/.=.*.-.g.g.d.(.x.Q.@XL.u.(.m./.m.m.(.m.g.:.N M f.g.n m n T n n L m n T T T &.-.Q R T T T i.g.N m m T P T T T 2.7.J.L.L./.@X{.I.4.jXi.@XoXt.g.m./.'.yXyXm.m./.m.m.=Xm.i.-.j i i Z J ~ ~ H W Q 2.D.2.5.6.@.&.P R H F J J F ~ ! 6.H.H.y.K.{.I.+XOXOXOX*X:XOX:XOXOX:XOX:X+X+X;X+X+XU.U.f.f.f.~.&X1X&X1X>X1X1X<X1X1X&XOX$X:X+XI.+X+X+X+X=X:X1X1X1XgXkXdXgXAXAXkX<X1XkX1X1XgX1X1X1XOX1XAXBXxXBXkXBXxXcXJX3.4 J J ~ B H.3X2X>XgXxXgXgXcXgXgXgX1XxXgXgX<XgX<XT.F ! 4X3X3X;X<X X%XAXZXvXgXR.*.^.^.-.'.*X!.=.-.=.t.g.p.!.d.Q.+Xd.i.~.Q.",
"U.I.u.-.i.d.i.x T T u.T u l j P T T n L n H T E L I R P T L t.m N u.m.i.T &.P n P a.a.i.a.d.f.|.|.5.~.(.AXkXwXoXoXyX*X#XyXAXAX&X*X*X=X&Xt.f.=.y y 5 V F ~ F 5 W JX;XI.OX$X@X@X(. X/.(.m.(././.@XUXg D D 3XIXY.u.&XAXzXGXuXuXNXSXfXzXDXZXZXlXDXZXFXvXDXDXZXZXZXZXdXi.R.8.,.!.x.@XVXlXlX1XwXdXjXVX&XwXAXlXZXhXdXvXjXjXxXjXCXCXZXZXjXdX>XdXjXVXVXHXCXBXZXHXHXZXCXbX<XbXY.p Y I Q T.6.H.+X1X$X>XgXxXcXgX1XcXcXgXBXcXgXxXcX<XU.D H.4X3X+XcX,X$XxX}. XL.L.~.}.%X~.d.(.x.i.s.a.(.!._.'.=.&.,.=.=.g.d.m./.=X/.m.oXyXoXM t.g.m.-.x M M $.-.-.T T T T Q Q T R u.T $.T g.} M g.oXg.} -.m N @.d.d.p.d.d.L.+X+Xi.{./.ZXNXyX=XyXyXyXyXuXkXlXfXwX*X=X*Xt.f.-.y i 5 5 7 F 6 < Z H.W J K i l i 4 k 4 g k D 7 I H.D.u.K.K.y.+XOX*X:X1X1X2X<X1X1X1X:X1X,X1X1X1X1X1X1X1X;X+XY.@X1XdXdXdXdX1X&X1XOX:X:X:X:XOX{.+X=XOX$X1X1X1X1XkX2XkXcXcXcXcXBX1XcX<XcX<X1X1X1XBX2XBXCXJXJXCXZXZXBXCXHXIX{.t F J D H ~ T.3X2X<XgXhXcXxXgX2XxXxX2XBXcXgXcXcX2XU.D H.4X;X4X2X1X$XxX}. Xa.XX~./.%XQ.d./.x.f.f.i.(.(._.@X=.%.t.=.4.p.d.d.",
"1XI.Q u.u.u.3.3.u.T N T m u.$.T &.u.T n P n T L T E L T u.g.g.i.g.m.U.i.g.n n N $.a.-.=.~.U.~.y.K.(.Q.>XFXAXVXNXZXVXfXjXNXZXAXAXDXNXAXyX*X&X(.> k 7 8 8 g g 9 Y.|.K.I.}. X{./.Q.(./././.Q.(.@XgXE g g ~ JXJXY.U.+X@XoXuXNXSXsXlXDXvXmXmXNXqXeXaXrXvXvXlXvXzXZXhX!.,.s.t. XAXm.uXlXfX&XyXlXdXxXZXkXkXvXAXjXZXKXDXZXHXxXvXjXjXjXkXxXCXZXxXgXjXgX>XkXCXHXHXHXbXXX}.P.I.5.v U L H I ! T.OXOX$X>XpX<XgXgXcXxXCXcXxXgXcXcX<X2XG.D T.;X3X2XI.3.@XL.x.&X@X&X%X*X@X@.R.$XL.a.a. X{.Q.(./.x.i.m.(.N -.g.&X@Xf.d.'.Q.'.x.d.x.g.} -.-.g.g.-.g.d.-.M $.$.u.T E u.T -.f.U.m.m.m.=X@Xg.d.} T N t.!.-.=.(.(.~.a.P.{.(.dXKXZXDXKXFXFXZXNXDXFXlXNXDXZXjXwX=X=XU.> z g 8 8 4 8 ; E E J G z G k y 3 4 2 7 D F 7 ~ H.! y.K.+XU.1X<X2X<X<X<X<X2XcX2X<X<X<X1X1X<X1X<X1X1X2XBXBXAXBXVXAXxXjXgXpX1X>X>X*X$X:X*XOX*X:X<X:XOXOX1X1X1X<X1XkXcX<X1X1X1X2XgXgX<X<X,X:X,X<XBXxXBXHXHXHXCXBXxXcX:X;XP.y H J D D ~ Y.3X3X>X1XdXgXxXxXcXxXBXcXxXgXxXcXgX2XG.V T.3X2XBXY.3.}.R.d.pX'.&X#X*X'.@.~.$XL.a.a.@X}.R./.(.m.g.d.(.M -.g.*X",
"Y.y.R R 3.y.n T u.L T T g.u.-.g.i.g.f.T u.m.g.-.u.m.u.N u.g.u.u.u.d.u.-.$.u.T T d.i.i.i.=X1XQ.U y.3.L.JXBXBX:X1X2XbXgXcX>X@XgXCXBXlXAXVXZXKXkX@ 4 9 7 ~ F 8 E ;X! y.5.E.}.^.Q.^.'.@X+X~.(.+X}.K.D D UX3XIX;XOX;X:X}..XaX].8.<.XXaXzXvXvXsXyXqXzXsXzXfXlXVXZXaX[.!.fXkXdXDXAX=XZXvXCXZXZXZXZXHXHXBXCXHXIXCXKXHXJXCXvXHXHXCXCXJXCXHXHXHXvXZXVXCXHXKXLXJXHXHXvX,X|.~.L.L.v L L H I H UXcX1X>XgXxXxXxXBXcXxXBX2XBXBXBXcX3X:XG.D 4X;X2X3XH.4X&X+X>X&XoXkXfX&Xi.m 3.@.m 4.L.-.7.^.~.L.f.(.(.t.m.n.f._.=.' d.f.x.@Xm ,.!.t.} t.(.m.t.m.m.m._.T t.(.g.t.m./.t.n m.d.f.m.f.(.g.t.-.t.T t.m.d.f.s.&XkX{.R a.4.I.KXKXHX<XbXCXBXvXHX<X:XxXZXVXAXAXAXVXKX1X> 4 4 D ~ F g H UXJ G z G l k k 7 g 7 g D J k Q 3.H.y.U.OX;X1X1X,X:X:X,X3X:X;X:X1X3X<X3X,X3X,X1X<X2XAXcXkXhXjXgXdX>XpX<XgXdX:X1X1X,X,X:X:X:X:XgX,X1X:X:X:X:X1X2XkX1X1X<X<X,X1X<X1X1XgXxXcX1XgXxXgXBXHXBXBXJXBXcXgX<X,XOXi Z B D ~ J G.JX<X1XkXxXcXxXcXcXBXBXcXCXcXBXcX3X,XG.D 4X;X2X3XH.|.,X}.dX&X@XjXfX&Xi.b 6.@.Y 4.L.-.4.~.Q.Q.g.(._.t.d._.p.!.",
"U.U.U.T y.u.3.y.u.T n R y.u.g.Y.d.U.U.T g.=X~.U.+XU.u.u.{.I.g.d.=Xf.T u.f.g.d.(.f.=.f.P /.U.3.3.R R I.XXXXD.! 2.6.6.H.XXI.|.P.~.{.=XgXCXVXcX+X; 4 ; ~ H.G.g H ;X! W H.5.^.~.~.{./.L.|.~.{.I.5.G D G.2X2X3XT.;XT.2.XX,XXX#.Y Y 2.D.XX.X%X,X.X%X.X.XbX%XXX%X.X5.}.hXgXbXJXxX$XAXHX,XbXJXbXcXIX3XbX,X|.;X3X-X-XXXT.|.-X-X-XbX3XgXcXIXbXbX,XcX2XcXcX3X3XbX,X-X|.-XXXJ.E.5.G I L I H.! D.JX,X>XxXxXxXxXcXcXxXBX2XHXBXcXHX,X-XS.~ T.4X3X3X4X1X$Xd.OX}.jXdX@XhX-.a.L.d.(.d.t.t.,.@X/.x.d.t.N -.=X*XyXr.x r.i.-./.!.x.'.m.} M t.(.m.m.wX/.=XoX$.m.yX=XoXyX=Xt.g.=X=Xm.(.yXM.t.g.m.m.(.(.d.u.d.P /.~.4.4.&.&.~.|.~.P.6.6.H.5.P.|.~.|.XX{.~.$XgXVXcXgX+X4 g 8 ~ UX! g J G.J F ~ J J k g 7 D D D D F D ! H.u.J.J.:X1X1X1X1X1X1X<X<X1X1X1X,X,X:X,X3X1X:X:X:X1XkXBXBXBXlXxXgXVXBXxXcX1XgX1X<X<X1X<XgX1X:X,X,X1X2X<XAX2XkXBXBXBXBXBXcXcXcXBXcXcXgXxXgXgXkX2X2X2XcXHXcXBXcXBX<X,X:XI.k Z Z B ~ D S.JX:X<XxXxXgXcXcXcXxXBX2XJXcXxXBX3X-XS.~ T.4X;X3XOX:XOXd.+X XjXdX@XgX-.a.d.x.!.d.t.i.,.*X^.d.d.t.M -.=X=XyXg.",
"{.=X@Xg.3.=.n T N T u.g.U.m.f.L.f.+Xm.a.U.Q.Q.~.=Xf.d.(.(.g.{.(.U.t.g.d.d.U.U.$.y.a.P U P Y =.&.P &.Y 2.6.2.5.P.3.a.5.5.}.}.(.$X$X&XvXdXhX}.5.k g 8 J ~ E H G.Y.H F Q ~.|.~.~.~.R.{.~.{.P.D.K a D T.4X3X4X3X4X6.I H 2.I S A W W W ! ! 6.2.6.W 6.D.9.D.9.6.2.6.! 6.W D.D.T.-X|.D.D.D.D.D.D.D.S.D.D.D.D.D.D.H.T.T.T.D.D.T.T.P.T.T.T.T.D.T.T.Y.T.T.T.T.T.T.T.I.P.J.J.T.5.2 p Z F F 6 S.,X{.$XpXdXpXdX<XcXcXxX2XBXcXcXcX2X4XW F T.3X4X;X;XK.~./.=XdX}.L.$XpX7.d.Q.!.i.$.~.=X*XQ.m.=X_./.=X_.(.*XkXg.=.'.(.i._.m.M t.} g.g.m.=X=X!.@X(.yXoXm.@X*XoX=XyXQ.(.*X1Xm.*X*X=Xg.g.n.(.(.(.t.f.i.@.P Y P 4.T Y 2.Y 9.6.2.f.d.3.a.7.J.}.:X~.$X$X&XvXdXgX X5.l g g J ~ ! ! G.G.E 7 g J F F g 7 D H J F F B S.D.H.H.H.:X:X1X<XcXcX2XgX2X<X3X1X3X3X<X1X<X3X1X<XcXBX2XkXBXBXCXxXcXcXgX,XgX3X<XgX<X<XgXgXgX,XgX,X:X2XkX<X<XBXcXBXBXcXcX2X2X2XcX3X<X2XcX2XgXcXcXgXcXBXcX2XcXcXcXcX1X:X,X{.= Z 4 B ~ V T.JX;X>XxXxXhXkX2XcXxXxX2XBXBXcXcX3X4XW J T.;X4X;X+XK.~./.@XdX}.L.$XdX7.d.Q.(.i.$.Q.=X*X(.m.@X(./.=X(._.*XyXg.",
"/.@XU.(.m.g.t.g.i.f.d.U.Q.L.~.d.R.a.Q./.@X(.!.AX&X(.m.U.d.d.d.d.g.f.L./.(.@Xm.m.m.g.g.m.f.N T u.u.T &.3.T T -.u.=X=X+X@XQ./.&X&XdXdX,XaX>X.XQ 6 Z V Z H.T.;X4XE F H G 2.6.2.6.6.6.D.D.D.D.S.B V ! T.Y.;X4XT.! H.! J D ~ J D ! Y.K.I I W I I E E I U I K I E u.Y.Y.U.Y.H.! E ! Q H.OXH.H.5.! 6.J.H.u.5.H.H.H.D.H.D.D.u.H.H.H.H.H.H.u.H.H.H.H.H.H.T.K.T.T.T.I.I.U.U.{.I.g i i F F B H.3XY.$X>X<X1X>X1X2XcXIX2XcXcXcXgX:X|.~ ~ 4X4X;X2X,XI.,X}.{.{.*XgXgXi.4.a.a.3.x Q.Q.~./.!./.(./././.@X*X%XR.-.t.@XoX(.yXn.m.m.m.n._._.oX/.@X!.(.d./.*XfXoX!.NX&XQ.R./.!.Q.!.(.Q.x././.d.oXm.m.x.t.g.f.i.h n -.u.N R -.N L -.u.@X*X@X/.m.(.*X1XdXdX$XbX>X$X5.K W ~ W Y.OX;X1X+XU.d.E z z J 7 D J ~ D C B 7 Q D.H.D.P.:X<X<X1X1X>X<X,X<X,X,X:X,X<X1X1X<XgXcXcX2XgX<X<X1X:X<XgX<X1X<X2XbX<X,X:X:X:X:X:X$X}.;X X;X:X,X,X,X<X3X1X,X,X3X;X,X3X;X,X;X;X+X+X+XOXOXOX{.;X3X3X<X<XgXxX<XxXBX1Xz 4 7 H D D Y.JX+X<XkXkXgX1X2XcXcXIX<XcXIXcX<X:X+X! H 4XY.;X2X3XY.,X{.~.{.&XgXdXi.4.a.a.-.v ~.Q.~./.~./.Q.(.(./.+X@X$XQ.$.",
"AX+XT d.U.x.U.(.Q.Q.(.Q.Q.a.&.s.s.i.L.(.'./.=X/.@X(.Q._.@X(.(.=X&XU.i./.L.d.~.dX&Xm.t.g.=Xm.m.m.i.f.T x T T T L.Q.~./.@X@X~./.dX&X~.5.7.J.5.Y < B Z D Y.H.T.UXg < K K K S p u z A 3 Z G Z 7 k J H.;X4X;X4X4XY.Y.4XUXG z E g.{.OX;XH.E R H I 3.3.3.u.f.~.U.=X&XAXxXcXxX:XU.K.|.1X1X:X+X+X{.}.|.I.}.{.Y.OXOX{.T.I.K.H.K.y.H.J.K.T.T.K.T.H.U.Y.Y.H.T.T.K.K.U.I.{.OXOXOX+Xy.G k F F J 4X1X+X+X&X&X1XgXcX2XcXcX:XcXcX2X<X>X;XG.S.H.4X3X3XY.I.{.}.$X X:X}.,X.X$XL.u.T u.-.m ~.L.L.~.(.Q.f.d./.Q.a.Q.L.*X$X=.@X&XoX=XAX=X#X&X=X!.x.%.x.m.t.,.x.@X!.@Xd.x.!.!.oX#X&XoXyXkX!.d.~.=.4.x.>X*Xd.t.t.#Xm.m.m.g.g.T n T T T Q.(.!.+X#X@X(.(.dX*X^.5.7.J.a.U Z H W W ;XU.T.+XY.Y.2X1Xd.3.z 4 D D ~ ~ D V 6 ! H.D.P.J.;X1X,X<XgXgXgXgXcXhXcXcX2X<X1X<X$X}.2X<XgX<XgXgXcXgX,X>X<X<XgX<X,X,X1X1X:X,X:X+X,X:X$X,X:XOX1X1X3X1X3X<X3X,X:X:XOX:X:X,X1X:X:XgX1X1X:X:X:X1X1X1X1XgXxXAXVXCXAX1XU.l k D D D ;XcX:X&XdXgXdXgXxXcXcXcX,XcXcX2X,X:XOX! S.T.4X;X3XY.Y.|. X$X$X$X}.,X$X%XL.u.T =.&.m ^.L.d.(.(.U.f.d./.Q.i.L.d.",
"<Xy.-.d.L.f.I.{.L.U.{.(.d.-.f./.R.R.d.@X*XhX&Xx.(.(.kXAX=XU.(./.=XQ.g.m.i.~.*XwX=Xp.,.x.NXyXd.Q.}.m.=.} } -.g.@X}.dXR.x./.s.}.+XL.s.4.a.@.v i i F B B H.4XY.~ 1 K y a p a q > = ; 4 * z a.~.a.{.Y.|.3X;X3X<X;X,X1X*X+XOX1X2X2X1XkX<X,XL.f.(.(.Q.(.=XoX=XkXDXfX>X>XXX~.R.7.J.J.P.L.~.~.I.~.P.a.4.J.J.J.I.{.$X1X:X{.$X|.{.{.~.~.I.I.U.|.+X,X*X$X$X:XOX$X,X:X>XdX$X:X*X@X{.R F ~ H H.3X|.;X>XdX<XgXcX2XgXcXcX:XcXgXgX,X>X:XT.S.4X3X4X;X3X5.P.$X}.2.K Y 2.D.U &.t.-.i.-.i.x.' Q.@X'.Q.@X#XR.d.{.^.s.~.d.-.Q.}.Q.*XwX/.#X&X=Xm.-.g.@X(.i.*.^./.jXoX-.Q.x.wXAX@Xx./.=X&X(.t.g.=.f.@X&X'.i.:.d.VXdXg.m.oXm.t.T m } g.=X}.dXQ.L./.i. X/.a.s.4.8.@.K v G W I ~ Y.Y.;XY.U.OXOXy.U.I.R ; D D ~ ~ ~ B B 6.H.D.H.D.-X1X:X1XgXgXgXgXcXxX1X1XgXcXBXgXgXxXcXBXBXcXBXxXvXxXxXvXcXcXgX2X<XgXcX<X,X:X:X<X<X:X:X:XOX*X2X2X<XcXcXcXgX<XgX<X1X<X1X1XgXgX1XkX2XBX1XgXcXcX<XcXcXxXjXkXkXgXjXgX>XR 3 J H Y.3XOX,X<XdXgXgXcXcXcXcXcX;XcXgX<XpX<X:XT.S.4X3XY.;X;XH.P.$X|.&.K S 2.6.U &.i.%.t.-.i.x.@.Q.@X XQ.*X@XR.d.{.~.s.",
"*Xf.g.~.{.~.L.f.d.L.L.Q.U.=.~.g.=./.&X#X@X&X/.*X!._.kX&X=Xd.@Xd.g.d.(.m.oX/.@Xf.&.=.a.hX$Xa.4.!.&Xm.=X_.g.i.m.Q.x.i.d.^.d.i.Q.f.d.{..X~.n v L i Z F B G.G.G.H.G.t - - - : * = * ; O y.CX&Xa.~.a.J.8.J.L.I.~.}.XX~.L.Q.(.+XAXgXXX+XgX%X(.m.!.=XlXNXuXAXNXZXvXhXaX>X}. Xa.s.Q.R.x.R.R.L.Q.L.Q.s.a.i.4.a.Q.K.~.R.~.{.L.Q.{.@X+X(.~.~.Q.~.}.{.{.{.~.I.*X,X$X$X X$X^.~.R.y.a.U G I ! Y.Y.<X1X>X>XdXdXgX<XcXcX<X;XBX:X,XgX<X,XT.G.4X4X4X3X;X6.I.U p v p S 2.S p j P =.d.x.(.g.p.@X X@X>XdX*Xs.R.^.L.=.R.Q.i./.'.*X~.~.Q.(.!.=X(.-.=Xm.%.f.oX/.n.(.m.oXg.x.dX#X'.4.~.f.f.d.m.m.(./.@Xi.$.-.4.hX$X4.&.U.1Xm.*XM.g.t.Q.(.d.p.x.^.i.7.Q.f.L.~.$X~.n P E G ~ E ! H.I.|.+X*X@Xd.u.=X*XU.4 7 ~ ~ ~ ~ F Z H.y.J.D.P.,XcXcXcXgX<X<X<XgX2XcXxXcXcXcXxXxXgXcXxXcXcXcXcXcXHXHXIXCXHXJXJXvXcXcXcXcX<XgX<X}.OX|.$X2X3X,X1X2X2X<X2X2X<X2XgX<XgX<XcX<XcXcX2XgXgX2X<X,X,X<XcXcXcXxXxX<XbX:XI.~.Q Z F ~ 4X4X2XcX<XdXgXgXgX1X2XBX<X:XcX:X,XgX,X,XY.S.4X4X4X3X;X5.I.U p l S S 2.Y p l P =.d.Q.!.f.p.@X'.@X&XdX#Xa.R./.a.=.",
"d.4.d./.(.K.y.f.y.d.~.Q.d././.-.t.=XwXyXyX(.(.oXm.wXwXi.s.i.7.i.(.Q.&X&X=Xm.d.t.-.-.t.f.i.=.=.i.Q.t.m.m./.m._.=X/.f.x.d.d.-.t.t.^.a.&.v n n L G Z J D G.T.T.T.4XJ 4 9 * * 9 & ; O Y.LXU.P 9.@.b b %.!.!.,.7.R.p.v.[..X^..X.XR. X Xx.!.rX%XwXrXrX=X@X XaXhX X^. X.XwX@X%.=.!.!.f.R.!.f.n._.(.f.(.Q.~./.*X&X X}.@X X$X$X$X}. X|.}. X X$X$X&X>X~.I.~.~.I.P.~.~.~.~.P.5.2.3.L 3 4 ! 4XT.:X:X*X<XdX>X<X1X2XxX,X1XxX1XgX<X:X1X|.S.4X4X4X3X4XH.L T v v v 4.&.u u u v @X$Xx.f.oX#XfXlXdXoXf.f.(.(.x.a.&.s.$.Q.@Xi.Q.d.x.f.x.=XoXm.=X=X ._ x.oXoXoXg.g.m.r.*X*X%.t.4.-.u.Q.d.&X*X(.d.g.-.} m $.i.-.$.$.i.f.t.g.f.*Xm.oX=X'.f.x.p.d.$.$.-.Q.i.$.v L n R E H Q ! Y.+X;X1X2XOXd.I.&X1X1XE 3 D S.~ ~ V ~ 3.3.5.D.P.:X:X|.:X>X,X:X,X,X<XpXcXgXgX,X<XcXbX,X<X<X,X,X,XbXcX<XbX3X3X,X-X-X:X,X:X X,X:X{.}.:X:X}.,X,X,X,X<XcX,X3X1X3X:X,X2X3X,X3XcX2XgX<X,XcX<X;X;X;X:X,X;X1X,X1X,XOXJ.5.H.E 8 g G.;XY.2X1X:XpXgX<X1X2X2XBX$X:XxX>XpX<X$X<X|.S.4X4X;X3XY.T.L U x n v 6.&.u u a n +X*Xx.d._.=XfXAXdX'.p.f.(.^.d.a.&.",
"4.f.$X@X=XQ.i.g.g.U.{.g.U.(.g.(.dX&X&X=X*X=X*Xf.(.=X_.g.m.f.'.~.d.m.&X&X(.x.d.-.p.t.t.m.oXx.m.(.d.i.(.=Xm.f.(.kX@Xm.g.g.i.m.(.&XVXi.x T P n n G F ~ ~ ~ T.G.T.G.Y.! 9 ; 9 9 2 O L KXu.q s v s s <.).'.v.l.x.v._.'.0X0XzXzX#X'.wX%X'.oX!.R.v.8.R.R.x.!. XR.8.!.^.!.d.i.m P =.i.x.R.x.d.Q.^.(./.'././.Q.Q.~.(.(.Q.~.R.^.~.~.}.P.8.L.^.|.XX}.+X$X>X1X+XL.L.d.Q.J.a.4.*.-.T v l 7 UXY.H.BX1X&X&XdX1X<X1X1XkX1X<XcXgXpX>X:X,X;XT.T.4X4X4X;XT.j y j w m i.c e w a w ~./.s.g.(.oX*X1X'.t.i.d.!.^.*Xi.p.=.m Q.m.i.i.d.m.f.@X=Xm.(.yXm.m.Q._.oXm.(.m.(.-.d.oXm.t.m.=.(.m.t.f.=X=Xm.p.p.| g.t.t.m.oXt.t.!.u.t.(.oXp.x.(.kX*XQ.i.t.:.d.x.@XVX=.j n m P n H ~ ! G.H.;X3X2X1X:X4X;XcX<X+XQ 4 V S.S.D 6 ~ Q 6.5.3.5.5.u.y.a.5.8.E.}.|.{.|.~.|.1X,X|.|.P.P.P.P.J.J.P.P.J.H.D.D.D.D.J.H.D.5.J.J.P.5.P.I.|.|.:X:X|.|.Y.I.~.T.U.J.y.T.Y.-X-X-X|.|.OX<XbX:X,X;X,XgX,X+X+X+X|.}.~.~.a.u.5.3.L z 8 G.4XT.JX:X&X>XdXdXgX1X<X2X1X<XgX1X>X>X:X1X;XT.T.Y.4XY.OXU.v q x w m i.b e w u u (.{.f.g.(.'.%XwX/.i.i.d.!.(.#X7.p.",
"L.Q.$X>XkXgXU.g.=.g.U.g.(.@X/.dXlXjXAXkX&XyXoX(.*X=Xl.m.=X(.=XoXn.*XwX/.}.*X*XyX#X=X=XAX#X/.'.Q.g.(./.(.(.=XdXm.=.d.Q.x.(.oX&XAX&X-.T P L n L F ~ J F ! UXY.T.G.3X;X7 8 1 ; ; * =Xu.N M j w %.!.].!.v.r.v.l.m.z.n._.#X].#X.X'.'.'.'.!.p.R.[.!.(.!.(.#X@Xx.^. Xs.&.b b Y $.R.i.x.x.d.f.Q.!.Q.!.(././.Q.L.R./.@X+X}./.~.~.~.d.L.R.J.}.|.}.}.~.$X$XOX@X*X*X/././.L.4.i.y.3.L z H y.U.;X2X@X*X&XdXgXgX2X1XgXBXBXgX2X<XgX>X:X|.H.H.T.T.Y.;X{.1Xm @ r $.&.s w e e f.@Xm &. XgXgX>X XR.$.d.}.p.-.7.i.^.d.d.#X^.!.@X=Xm.t.m.(.g./.(.g.oX=X*XyXwXoX=Xm.f.oX_.t.g.oXm.oX_.m.#XwX!.(.*X=XyX=XoXoXjX=X(./.f.t.d.oX(._.=XgXQ.t.d.d.t.d.(.*XlX*X$.n n L L E L W ~ ! T.T.4X4XT.;XcX,X;X+XH.Q k ~ ~ ~ D 5 W 6.5.2.4.~.~.~.d.~.~.~.|.}.$X,X1X;X$X,X$X$X:X:X$X+XQ.K.a.J.H.u.y.y.u.5.a.a.a.L.L.J.a.a.J.y.y.:X<X,X:X:X1XOX{.|.OXOXOX{.I.L.K.P.J.I.|.-XgXcXcXgX,X<XcX1XgXkXAXdX$X$X{.f.K.K.u.R k H y.T.;X2X+X*X&X<XdXgX<X<X<XBXkX<X2X<XgX>X;X{.H.H.T.T.4X;X+XgXT @ w $.%.x e e e i.=Xm @./.kXbX>X}.R.$.i./.a.$.7.i.^.",
"~. X X/.>XAX1X=X*X&X*XAXAXyXAXkXAXAXZXlXwXyX&X=X&Xn.=X&X(.m.m.wXdX&X*X(./.#X%X}.!.%XdX=X4.d.Q.R.(.Q.oX&X1XyX=Xf.d.&X&XyXdXwX&X&Xi.$.&.R T E z k ~ H ~ ! T.Y.4X;X;X;XH 8 8 8 9 L lXx.} ) t.M.n.=X^.v.;.:.n.oXoX'.).W.E.R.[.^.x.!.v.s.7.1.8.x.^.!.x.d.m.Q.R.R.4.@.@.@.P ' m ,.m.Q.x.d.m.(.@X/./.(./.Q.R./. X/.~.Q.~././.(.~.Q.}.}.~.Q.L.^.}.}.+X+X$X$X@X@X+X*X@Xs.i.a.d.y.y.y E T.T.Y.1X1X$XgXdXdXgXkXBXBXBX2XgXkXgXxX,X:XY.~ T.4XH.;X;X1XAXyXt.w x x @ @ e =.(.(.i.}.E.8.P.7.6.&.U ^.&XL.7.Y m i.*.^.Q.d.Q.yX=X=X=X@XQ./.=Xm.=X*XyXyXNXoXoXM._.n.=Xl./.=Xd.d.g.yXyX*X@Xm.!. X$X/.!.*XdX#X=.f.d.x.U.m.(.*XyXkX*XL.d./.+X&XyX&X#X*X-.b U n T T G J ! ! ! H.H.T.T.Y.Y.Y.D.6.! Q E J D ~ D J B Z ! Q 2.5.:X%XdX1X*X}.{.~.L.L.~.{.{. X}.|.+X}.}.>X>X=X+XI.~.I.U.U.U.U.{.~.a.3.4.4.5.y.y.u.a.~.:X:X+X{.I.I.U.|.}.OX+X+X{.+X=X+X}.{.>X$XOX}.{.1X,XgX<X1X1XAXgXgX&X:X*XR.d.U.I.f.y.4 E Y.Y.Y.1X>X=XdXwXdXdXkXBXAXBX1X2XkXgXxX$X:XY.~ T.4XG.4X;X1XAXyXt.e x x @ @ e =.(.!.a.^.~.a.L.7.6.&.&.~.%XL.7.m m 7.",
"4.~.;X.X,XgXxX>XjXgXjXjXvXjXxXvXgX>XpXbXhX&XwX*XyXoXoX=Xx.m.(.&X*X(.&X(.~.^.d.u.(.dX@X3.m R 4.~.^. X@X@X*X@X*X+X&X*Xx./.&XhX%X~.&.$.$.u.&.&.R z E ~ ~ G.4X4X;X4XY.Y.J V 8 4 * OX$Xm.!.v.;.7.R.7.Y d %.1.7.d.XXR.8.*.#.*.%.P 9.4.P ' m %.,.t.d.Q.^. X~.s.f.f.i.t.t.t.i.t.-.t.!.(.Q.(./.@Xd.d.f.Q./.~./.*X/._.(.+X/./.+X=X}.@X*X*X=X@X=X(.Q.+X&XgXBX1X1XkX1X*X}.f.a.g.U.}.(.y E T.Y.{.2X1X*XkXkXgXgXcXBXcXCX:XAX2XcXcX1X;XY.~ H.G.~ 4X{.I Y a.^.x.g.oX_.m.f.R L l I K a a A S n P P P =.,.f.-.x w *.L.XX7.P.:X Xa.{.d.x.oX#X'.'.>X/.R./.yX=X(.oXoXqXn._.oXr.g.m.=X@XQ.*XQ.d.~.f.=./.dX@X$.s b 6.~.~.^.}./.@X+X{.(.=X/.i.R.%XdX XL.P n m &.T R T L E UX! H.Y.U.Y.U.T.J.Q R R T T J F H ~ H F 8 F H G p }.,X:X>X1XkX=X&X1X=X=X(.d.d.d.K.i.y.f.d.d.L./.&XOX=XOX1X1XyX1X*X&X=X(.U.(.{.{.{.:X2XU.U.U.{.=X;X1XkX1X*X&X1X1X1X<XkXgXkXBXkXgX>X1X@XQ.>XkXCXCXCXBXBXBX1X=XU.a.a.(.+X{.4 I I.T.Y.2X:X$X1XdXgXgXcXBXBXBX;XBX1XcXkX1X;XY.~ H.S.~ Y.{.I Y a./.d.t.=X_.x.d.&.K p I S 6 A A K b U P @.=.=.f.-.x e ",
"U U 9.J.|. X}.}.$X$X>X>X}.}.,X>X X^.pX%X~.>XdX#X&X_.wX_.n.*X&Xt.m.&X~.g./.(.g.f.(.!.f.,.N N m P P L.{.^.{.}.@X X}.~.R.}.$X$X$X{.3.$.u.f.T P T n E E ~ Y.4X;X;X4XY.T.G.8 7 9 E xXL.m c.c.' r d %.,.[ v.:.` d [ [ b @.' ' m T ,.,.7.r.f./.*X/.x.=.7.d.d.f.d.d.f.d.f.f.f.d.a.Q./.Q.*XwX*X*X@X'.}.&X%X@X@X*X&X>X*X&X1X&X*X=X=X=X$X&XwX1X1X&X>XwX1XkXdXAXBXAXkX+Xd.a././.=X=X+Xy F H.Y.Y.IX:X>X1XdXxXBXxXBXHXBX1XHXxXBXgX1X1XY.H ! UX! H.T.J.4.f.,.-.x.=XdXdXu.T y : : ; 3 t p a v n Y m K P n &.@.x x v x 4.^.R.=.i.Q.m.=X#X(.i.*XwX!.Q.dX=Xp.=X&XoX=Xm.=Xn.m.oX=XT f.&Xd.$.(.m.u.g.!.(.g.t.u w x s v a.Q.L./. X,X X~.L.a.~.}.}.}.~.Y n -.i.T m T L E ! E T.Y.Y.Y.Y.y.H.3.T R E E E k F E J D 7 k F G R {. X*X@X*X&X1XAXAXVXAX1XAXAXkXdXdX1XkX:X>X>X1XjXkX1XAXkXAX1XdXyX1X&X&XkX1X>XAXAXAXBXAXBXAXBXBXAXAXCXAXZXZXAXCXAXAXAXAXAX1XAXAXAXjXjXBXVXCXCXCXZXZXCXCX=XU.y.@X+X*X*X}.z F G.Y.I.cX$X$X*X&XkXxXcXxXxXxX1XBXxXBX2X>X:XY.H ! UXS.H.I.a.4.a.t.$.m.=X1XdXu.T a > q - < a y z n v P K n m n $.$.b ",
"&.U @.5.L.XXI.~.{.}./.{.~.~.$X$X^.}.{.s.L./.~.Q.}.x.Q.x.M.*XoXt.| g.g.Q.@XoX&X=Xm._.@Xm.t.m M M m P R.$XXXL.J.R.|.R.L.~.7.&.-.u.i.4.&.R T T T E E H D 4X4X;X;X4XY.G.! F 7 9 OX@X!.!.;.p._.| $ d 1.c.p.| _ c c c c m ' %.} | | | p.n.m.!.oX#Xm.,.7.p.f.d.L.d.d.Q.~.d.Q.Q.Q.}.*X*XpX&X}./.}.*X&X*X*X*X1XdXdX1X&X1X1X&X1XkXdX1X1X*X=XdXdXdXwX>XdXjXkXkXkX&X*X@Xi.Q.gX>X>X1XU.; H H.T.4XcX:X1XgXjXxXBXBXHXxXBXHXHX2XBX2X,X:X|.F UXUXH.K.$XgX=Xt.x.t.}.T 3.:XK L =.n z z T T L T w N v T n P T T T P K b m 4.~.^.(./.(.(.=X=X(.oXkXfX#X&X#Xh.m._.!.Q./.d.!.m.m.qXoXt.N t.g.x.=XoXyX=Xm.(.=Xm.t.M w r x x 7.$X~.J.D.E.~.6.6.8.U b T T &.T T n v n T E H H H 4X4XY.Y.y.5.Q Q E T z -.H J E H D J z g k y y.$X+X+X:X1X&X1XBXkXVXkXAX2XAXAXAXVXlXAXAXjXgXdX1X1X&XdXgXgXgXAXkX>XyXAXAXAXxXAXAXAXkXAXAXZXCXCXBXBXZXZXBXCXCXAXCXCXCXBXAXAXkXgXAXBXZXxXkXBXCXBXCXAXkX&X*Xg.(.gXdX>X<XU.: E u.T.{.<X}.$X%XdXgXxXcXcXBXxXBXBX<XBX1X,X:X|.F UXUXH.U.OXgX*Xt.m.t.}.n 3.:XL L 2.n j n P &.L n x j x L n P $.P &.n ",
"U &.R U 2.a.|.*X$X~.U./.*X{.}./.~.}.~././.(.p.(.d.Q.~.^.=X=X/.=X(.t.-.(.m./.*XyXyX&X=XoX=Xm.x.:.-.f.@.6.U U K v Y @.Y b U 4.-.-.&.m m m n T T E E ~ ~ 4XY.4X4XUX~ ! H.G.3 u.KX&Xv.<.<.n.<.r.%.r d ,.,.=.-.p.' c ' ' @.' m t.m.=X_.oX!./.'.Q.s.f.d.d.d.d.~.(.(.{.}.}./.+X+X*XdXwX*X*X%X*X&X&XdX1XdXjXBXAXVXxXCXAXAXdXAX1X&XkXAXAXxXVXjXdX1XdXgXgXgXBXxXjX&Xi.@XkXdX1X:X<XJ.2 ! H.;X|.<X1XpXkXxXBXxXcXCXBXcXcXcXgXxX1X>X,X{.H G.4XY.Y.<X1Xd.-.t.f.~.3.J.A p L a.g.m.d.f.f.d.f.m.U.i.t.-.T m T T n n v l d x -.$X>X&XQ.d.=XdX&XwX*X=XwX=X*X*X/.f.!.m.!.!.!.=X=X!.(.(.| } (.g.(.oXyXwXyX=X=X=Xn.m.-.} i.Y 2.S G d t f u a q u n m m m j j j x T E z E ~ ~ Y.U.Y.Y.UXE Q u.2.L E y.H F H H H H J J F 3 T.:X*X*X}.OXOX*X$XgXgXkXVXBXAXVXBXjXjXgXkXdXdXkXdX<XAXkXkXBXAXAXAXBXBXAXBXBXVXBXBXCXCXZXBXZXJXZXKXKXJXKXJXKXJXZXZXCXAXAXBXVXZXCXZXVXjXgXjXxXxXBXZXBXAX&Xi.@XkXdX>X:X1Xy.4 E H.|.Y.:X$X*X>X>XdX1XcXxXxXxXcXcXgXkX1X,X:X{.G G.4XY.Y.1X>Xd.:.,.d.~.u.J.G p v f.a.f.d.f.f.d.g.m.m.i.t.-.T n P T P ",
"T $.3.=.4.u.f.~.{.L.~.:X$X+X}.~.~.U.~.}.*X@X(./.(.#XwXdX@X^.~.%XhXyXm.t.n.dXdXdX*XkX*X!.(.=X/.=X'.i.m v v l l n Y T P m m | u.-.=.$.' m M t.R E ! ! H H.Y.4X;XT.Y.T.Y.;XUXZX1XQ.9.[ ] r.s.x.d._ c s _ x M } M x x [ ,.-.t.m.oX!.Q.m./.Q.Q.p.a.L.Q.Q.(./.+X+X+X@X=X@XOX&X*X*XgXgXgX>XdXdX1XdXkXjXcXjXxXcXxXHXHXBXgXkXBXZXZXCXCXZXZXVXgXpXgXgXcXcXxXxXxXCXgXf.dX<XgX<X:X|.Z i J T.;XY.:X>XhXjXxXjXxXBXcXxXcXgX<XgXxX1X*X:XY.! H.T.Y.U.;X~.u.t.-.@Xs.y a q t u u =.f.=.i.y.4.=.=X/.(.(./.f.-.m -.-.x n M v j x &.R.@XL. XgXaX>XhX@X/.@X@XwXdX*X/.=XoXwXfXjX=X(.Q.#XyX*Xg.t.g.=X*XdX&XlX=XoX_.=X=X*X=Xi.x w j y y w t u j w x n n m T M h w N T T n H E ~ H.T.4XY.y.H.H.y.U.Q I.u.J F F H ~ J H F F t |.,X$X{./.+XOX*X$XgXkXxXgXxXCXxXjXlXxXgX>X&X1XkXkXkXBXBXBXBXBXkXBXBXBXAXxXCXCXCXCXCXJXVXBXVXZXCXJXZXBXCXLXJXCXBXBXZXJXHXHXZXHXKXCXjXgXxXxXcXxXxXcXgXZXkXf.<X&X>X,XOX|.G k G T.;XT.+X*X:X&X&X<X<XgXgXkXgX>X>X1XcX>X:X:XY.E H.T.4XT.OXI.4.,.&.@Xa.y u t a u u =.f.-.a.u.4.=.}./.(.(./.d.-.M -.-.",
"%.-.t.u.y.f.a.y.a.~.$X$X}.{.L.I./.~.~. X}.^.R.y.$.*.4.U R U P Y 4.d.$X&XkXkX>X&X/.1X/./.&X=X(.Q.-.e > w u x x T -.T T T T m m t.-.-.$.} T T 3.u.E ~ ~ G.4X4X4X4X;XY.4X2XBXkXg.-.#.;.p.f.v.,.%.$.c b m m } M t.m.g.!.(.oX_.=X!.Q.(.(.(./.Q.~.^.(.+X}.$X*X*X&X&X&X$X1X$X1X&X1XgX<XgXjXdXgXgXgXBXCXBXcXBXxXBXjXgXgXcXBXCXCXJXKXKXJXHXxXgX<X>XkXcXgXgXcXxXCX Xi.>X&XgX,X:XW B F D H.;XH.2XgXgXjXxXxXcXxXkX<XkXgX*X<X1X>XOXOXY.! H.G.4X;XU.Q Y a.(./.w q w u s x n P m &.7.2.=.6.$.3.U.i.(.Q.t.g.t.u.m M m m M v x v P L.>X>X,X,X^.^.dX&X>XpX%X X!.7.m *.7.P T T n K R f./.oXyXAXkX&X@XdX(.@X&X*X=Xn.$.e @ q > y w z z w w j w j N P M M N M N T T E H H ~ G.4X4XU.T.Y.K.K.Y.I.U.E z F J ~ ~ H H J F < P.|.}.*X1XyXkXkXkXkXjXkXAXAXjXAXjXBXjXkXkXxXBXBXBXBXBXBXAXBXAXBXBXBXBXBXBXBXBXBXZXBXAXBXBXCXHXBXCXJXCXBXxXBXxXBXBXCXCXKXHXKXJXZXBXgX>X>XgXjXgXgXgXxXxX+Xi.&X$X>X:X}.W l J F H.Y.y.1X1X>X>XpX>X<X>X<X<XdX<X*X,X1X*X+X|.Y.! H.G.Y.4XK.3.P a./.}.w q w w s x b P P &.7.&.&.4.&.&.L.i.(.x.i.g.t.t.",
"u.=.3.u.g.K.a.a.u.a.L.L.a.4.3.4.a.u.4.4.P v K d d G l v m n P P u.=.T a.*X+X/.}./.*X/.*X&X&X~.n q e u u v n N $.$.} T } T m T P T -.-.-.T u.-.! H J H H Y.4X;X4X3X2X3X2XBX(.m.m.x.].wXl.' _ c s b ' m -.d.m.t.f.p.m.m.(.'.#X&X%X%X$X/.+X/.(.+X+XOX&X>X>X1X1X1X1X1X1X1X1X1XdXBXgXgXgXxXcXxXcXBXcXBXHXcXcXcXkXBXBXCXJXHXJXJXJXCXCXCXxX+X<XgXgXkXgX1X<XcXgX}.i.1X>X:X:X|.; D J D ! Y.+XHXkXgXAXxXcXcXcX2XkXcX1X>X1X:X+X:XOXU.! G.4X4X2XT.z Y L u.T + q > u x x s x b v b U P U T &.&.T 7.&.d.m.d.t.$.n m M m ' m b K n @.2.&.&.@.7.s.7.4.9.Y s v a a a t a N > z N 3.| N g.*X=X=X@X(.*X}.%XpX>X(.N q @ e e j j w w w w w w w w j N j x N m T T T E D D H J Y.Y.Y.Y.Y.+XY.{.+Xu.y.-.H ! ! H H J J J a ~.,X,XdXgXgXkXBXVXxXxXlXxXjXxXBXxXkXkXxXgXxXgXkXBXBXBXBXBXBXBXBXBXkXkXBXkXZXBXkXBXBXBXxXcXBXxXBXBXBX2X<XkXAXBXCXCXCXJXJXHXHXBXCXcX{.>X>XdXgX<X>X,X>XgX{.4.*X$X+X}.I.q l J D E K.Y.1X*X=XpX&X>X,X:X1X1XgX>X:X>X&X+X$XOXU.! H.4X4X2XT.l L P 4.L + q > u x x u x n v n U P U &.$.&.T 4.-.d.d.g.t.",
"f.a.i.f.U.d.L.a.i.5.4.3.4.$.U Y b Y Y x s p v n m n n P -.f.d.m.=X*X=XoX@XU./.@X*X=X1X&X>X4.d a a y u x x N N -.$.T $.$.T -.-.-.&.3.=.R T T E E J J J D G.Y.4XY.4X;X2XJX2Xg.(._.x.n.<.} [ x r h r m [ =.f.f.i.:.-.:.t.4.R.~.R.L.P.R.~./.{./.@X$X&XdX1X1XgXgXcXgXjXkXgXdXkXkXBXAXBXgXxXBXcXcXHXcXBXBXBXHXCXHXCXBXBXCXHXJXJXBXJXHXHXCX~.gXgXgX<XcXBXgXgXkX<XQ.wX@X$X*X3.t H D D ~ 4XH.JX1XpXxXjXgXgX2X<X<XgX>X*X>X>X:X$XOXY.! Y.T.Y.;XUXz w y T + : y y u u u x x x m T m m m m $.m T T P u.R y.y.&.P n m P m M x b s s d d w s w w d a 0 e q q x w w x x } g.g.m.*XyXyX*X=Xm._.=XwX*XdXpX>X4.q : q > y w w h h j w e e w w N N N n n T P n n L ! F J J D G.Y.4XY.Y.Y.+X1X&Xu.&XU.v R I J F F D z 4 |.:X*X*X,X<X<X<X<XgXgXgXgXgXgX<XgXcXkX2XgXgXkXcXBXBXAXBXxXBXBXBXkXkXgXdXxXAXxXgXgXgXgXcXcXcXcXBXAX2XAXBXBXBX<XBXBXZXJXHXBXcXBXCXBX~.*X>X>X>X<XgX>X>X$X*Xd.*X(././.3.y G G k E T.y.<X/.@X*X$X$X:X*X:X:X<X$X$X*X:X$XOXOXY.! T.H.Y.1XQ l w e T @ : y t u j j x N x m m b m m m $.m $.R L &.&.u.u.",
"d.d.L.Q.m.~.U.L.f.u.u.T T n n n n T L N z N N N n P n t.(.=X=X&X@X@X*X*X$Xs.J.~.|.$X}.P.&.a u k u j j j N N } -.T t.T t.u.u.u.i.=.&.T T T R R ! J J J D H.Y.4X+X4X3XcXLX5.&.8.=.*.@.x w s w x w x } @.$.$.-.=.-.-.-.=.i.u.f.d.d.~.~.{.+X@X$X*X,X1X1X1XcXkXBXcXcXBXkXBXkXBXAXxXxXbXxXxXxXxXHXBXHXHXBXHXBXJXBXcXHXZXJXJXHXHXHXJXHXJXgXOXxXgXcXxXAXBXkXgX1XgXjXwX@X*X&XT 4 F ~ V G.;XY.1X*XdXkXhXgX2XgX1XkXgX>X*X>X:X1X+X+XU.H.;XG.Y.;XU.T N t.N @ x j y y w z h N M M c c M c M n m m T m T L -.m.-.m M m m L P v j h w w @ e > q a w w w j w j N N N j -.m.=XyXAXyX*XyXkXdXp.a.~.}.1X{.L.Y q q q > e w w h N w w w w w z N N T T n L E T n E E ! F H J B G.4X4XOX+X{.2XLX$X X,X2.z G F F F Z D J i |.*X@X$X$X:X*X*X&X&X&X&XAX1X&X<X<X1X1XgXgXgX1XgXgXgXcXkXBXcXcX2XdXgX1XBXAXdXdX&X>X<XdX>XcXgXgX<X<XxXxXBXgXdXBXBXCXBXCXCXCXHXCXCX>X{.,X*X1X>X1X<X&X*X$X$X&X+X!.!.}.T y H G k UXU.y.+XQ.}.@X@X=X@X*X@X*X,X$X$X$X*X:X+X+XU.K.;XH.T.;XY.T N u.N @ N y > w z w w N N N M M M N M N M T T T } m -.f.",
"x./.(.(.I.I.a.=.-.T n n n n n n L T L n n N L n m m u.m.g.m.=X=X@X~.L.L.L.7.4.a.5.J.@.x u j j N n N n n N $.y.-.R u.u.u.u.-.3.u.Q T T T E T T E L H H J ~ Y.+X4X;X3XLX,XY @.P m b P T N N x x x N $.&.} -.%.=.=.=.t.g.g.d.x.U.U.{./.+X@X@X*X:X,XgXgXcXxXcXBXBXcXBXBXcX2XcXBXBXkXvXIXvXBXCXHXBXcXBXBXBXJXCXHXHXJXJXJXHXHXHXHXcXHXCXU.{.VXcXkXBXxXBXBXgX1X<X>X}.*XwX+Xp 4 J H D H.;XY.OX$X>XgXgX<X<X<X<X1XgX1X:X>X1X1X+X{.{.y.Y.G.4X;XOXg.(.Q.m m w > w e j w w j j N x x x x h x N N N T N N N N N u.T N m N x x j w @ e > q e y u w j j j z j N N z t.m.g.m.yXyXfX*X@X^.R.a.i.y.a.J.Y u a e w y w y z z z N z z z z z N n N E T T T n L E T E L F J J D ~ Y.4XY.;X;XLXcXI.L.3.l k L G J F F J g z +X@X+X@X@X*X&X*X&X&X1X1X&X1X*X&X>X1XdX&X<X1X1X1XgX2XgX2XgX2XgXgX1X1X1X1X1X>X&X>XpX&X$XpXdX,X*XOX1X1XgXgX<XgXkXBXgXgXgXcXCXcXAXxXd.U.*X$X*X>X>X>X&X@X+X+X XQ.Q./.~.j z G G J UXY.f.~.~.(. X@X$XOX+X$X@X*X:XOX*X:X:X+XY.Y.u.Y.G.4X;X4Xu.(.m.N N w e w w N z j w w x h j x N N h x x N M N n m T ",
"(.&X>X/.~.a.3.P T T n n T n n T -.T n N T n T L n g.@X=X*X&X*X/./.}.+Xy.2.&.&.&.U P n l y j n n x n n T T u.y.u.u.g.3.T N E T T T E T E R m n U.E z H H H 4X;XT.|.2XcX2.Y P n n T T n w j N x N n t.g.f.i.f.i.u.f.d.m.U.Q.Q.{./.}.@XOX$X>X:X1X1X1XgXcXcXcXBXBXHXBXJXHXBXBXcXBXBXHXHXHXJXHXHXIXJXJX2XcXHXBXJXcXJXHXBXvXHXHXBXJXcXHXL.>XcXjXxXHXHXAXcXCXJXgX&X~.d.$Xa.= Z ~ D D T.Y.U.CX/. X>XpXdX1X1X1X1X1X:X:X1X:XOXOX{.U.T.T.G.4X4X4XY.+X-.m q q e > j w j z w w w w y q e w w j h h N N T N N m f.i.n m n x w j e e > e e j N T M N j z N N N N t.=XyXAXAXAX&XdX>XgXa.&.U L T P n u q > : y w j z N z N n L z z z z E H L E E E E T n E n z {.H k H ~ J 4X3XT.+X3X<X4.&.U v p F H J J F F F L R +X*X$X*X&X*X$X&X1X1X1X1X*X*X1X:X&X:X*X&X$X$X:X:X:X1X1X1X<X1X,X1X1XgX<X1X$X$X:XgXgX>X>X>X>X<X%X@X+X+X>X>X$XOX:X,X$X,X>X<X>XgXgXgXL./.@X$X*X>X>X*X$X*X<X@X{.f.i.Q.4.y G G J z y.H.g.$XL.R.}. X@X+X+X+X+X+X+XOX*X*X+X+X|.U.T.T.G.4X;X4XY.+Xu.N w > w > w w x j z j z w 4 y e w e w h h N M M m N ",
"f.K.I.5.&.2.L P T R R T L T -.f.+Xd.t.N z n N N i.(.=X*X*X=X/.(.^.{.i.&.4.T P P U x j j j L n N n z n T t.u.g.f.g.u.z T E T T E T T T T T u.U.=XT z H H D Y.;XY.;X3XJ.P Y b T n P n n T $.n N T g.Q.~.d.g.d.f.f.d.U.U.(.{.+X}.+X@X:X1X1X1X1X1X1X2XcXBXBXCXBXBXBXBXBXcXHXJXcXBXcXIXbXIXIXcXHXIXIXHXcXHXBXxX2XHXcXcXcXHXcXBXcXBX2X{.a.cXcXBXBXcXxXcXxXxXgX*XQ.f.&.~.L = Z D D ~ 4X4XY.:X{.}.%X%X<X1X*X:X:X:X;X|.:X;X+X+X{.U.Y.4XUXT.4X4XT.u.G q q q q j w j z n N z z z 4 e > > @ w e e j N h N N N -.L.4.n P j w N z z z z z T =XAX=Xt.w w w z z g.=XyXAXyXyX=X=X&XdXs.P 4.U N T n q q > z w y u z z N z z N z N z N z N E n L L E n L E E g.=XBXJ J D D V 4X3XY.4X1XJ.U Y n L p z L L E ! E L R y.$XOXOX@X&X=X$X$X$X*X&X*X:X:X=X$X:X:X*XOXOXOXOXOX*X:X$X:X:XOX*X+XOX:X,X1X$X:X*X{.^.}.$X}.$X@X{.{.{.(.}.{.~.{.+X}.}.}.gXcX<XgX:XL.y.$X{.OXOX+X}.+X$X+X}.Q.f.,.$.f.L t L G G H K.H.f.~.d.x.Q.(././.{./.+X+X{.Y.OX+XY.+XI.U.T.Y.UXG.4X4XT.3.n e y w > j j j z x N N z w y y > > @ w w w j x x h x ",
"v L T E Y L L R T T T T -.g.(.m.(.m.f.U.$.x N g.*X*X*X*X*X/.d.d.f.U.4.g.t.u.-.M c j j j z R T N n N n t.(.(.=XkX=Xd.u.u.u.y.f.&.T T -.T g.+X:XU.n J J k D T.4X+X|.;X2.T &.m T P T T u.a.f.R T -.-.d.d.f.i.f.a.U.U.(.(.+X+X+X@XOX*X>X,X,X1X1XgX1X<XgXxXxXBXgXgXgXgXcXcXIX1XBXAXBXIXbXbXbXIXIXIXIXcXcXHXcXcXcXcXbXcXbXcXbX,X;X{.P.5.K.,XcXbX,X3X<X,X*X;X+X/./.d.-.y.k V D D D S.3X3XOX{.*X'.oX'.#X*X$X:X,X:XOX{.OXY.{.(.I.H.U.G.~ T.Y.4XG.z : y : q q y e j j j j n L L z z z z > y @ > w @ N N N j z E z j z j T z z z N N m.AX*XkXAXoX_.t.w N m.AXyXAXAXNXwXQ.d.Q./.g.m.g.g.t.N N @ y > : y j j z N N N =Xm.g.&X=Xm.g.-.-.d.U.T T 3.R R U.ZXJX+XJ J B C C Y.3X4X;X:X3.$.$.m L v L L 3.U.Y.y.3.3.&.(.{./.~.~./.+X@X$X$X:X:X+X+X+X+X$X+X+X+X+X+X+X+X+X+X@X$X}.{.{.{.+X}.{.~.@X X/.Q.Q.x.d.L.Q.Q.Q.~.~.~.R.Q.~.I.~.~.{.$X>X X{.L.a.3.4.I.~.{.~.I.~.~.L.Q.d.f.f.t.T 3.l y l L F E U.Y.U.f.Q.x.x.Q.(.(.~.{.{.}.{.U.{.U.U.I.~.J.H.! ~ T.T.4Xu.z @ z ; e : j w u x j l n L n z z z g y w > @ e w N x _ ",
"z n z n u.-.N T T u.T g.m.(./.@X+Xm.g.U.i.t.(.*X=X&XwX/.+Xd.u.g.d.m.i.g.m.f.-.j j n v z n E E u.-.T N =XAXAXAXAX&X*X*X&X=X=Xf.-.t.u.R T g.u.u.y.L H G J F u.4XY.+X;X&.n m n x n T R i.a.u.-.y.u.P &.a.L.K.~.(.~./.}.+X@X$X$X*X:X1X<XgX<X<X<XxXBXcXcXxXxXVXxXcXcX<XcXIXIXcXcXBXCXIXIXIXIXbXbXIXIXcXIXIXcX2XIXIX2X3X<X-X~.J.P.5.5.4.{.,XgX-X,XXX-X,X:X$X/.Q.{.i.l k 5 D D D D T.3X4XE {.=X&X'./.@X@X$X$X;XOXY.Y.|.Y.Y.+XY.U.G.~ ~ G.T.T.! u.4 > q > > z j y j u j z v L E E z z J z z z z z > > z w w z z f.g.N N t.} N t.=XyXAXZXNX&X=X=Xg.g.=XAXyXNXZXyX&X/.d.!.}.@Xm./.=X=X-.> > > j y y z z z z N w =XAXyXAXDXFXAXAXAXVXBX{.T 3.u.3.Q {.Y.Y.Y.D D B ~ D H.3X4X;X:XR n P m N l T R H.U.y.u.K.K.T 3.L.~.~.}.}.}.{.@X+X@X+X/.@X+X@X+X}.{.{.~.}.|.{.{.}.{.{.~.{.~.Q.I.~.~.~.I.Q.I.L.L.L.a.a.L.a.L.L.L.L.L.L.L.L.L.L.R.L.3.6.6.3.4.&.a.L.P.J.P.a.P.U.U.d.a.i.a.=.l l y k l z F u.T.U.E f.U.~.f.d.d.Q.I.{.Y.I.P.K.I.U.T.Y.I.K.H.! ~ ! Y.T.E u.y > > 4 e j y y j j j z L L E L g z L z N z z z w N m ",
"T T -.3.U.d.d.m.(./.U.(.+X+X+X~.y.u.i.y.u.Q.@X=X=X=XL.{.=XU.d.y.L.d.u.d.U.f.u.T P l n L n L n T E T U.&XZXCXAX(.L.L.I.~.L.d.u.T L T T u.u.E R Q E L J J H u.H.T.Y.Y.E L U L l z z Q 3.Q E R Q T U L L &.2.K.XXXX~.I.+XOX;X-X;X,X;X,X3XbX3X2X2XgXIXbX,XbXcXcXcXcXbXIXIX-XXXT.|.;XF.4X-XD.D.D.D.4XXX4XY.XX|.XXXXP.I.P.D.5.5.5.5.3.J.|.T.XXK.D.T.-X4X4X{.I.~.P.y.7 8 7 D D D G.3X4XY.! T.P.L.~.^.}.OX+XOX|.{.{.Y.|.4XY.G.UX! ~ ~ ~ G.;X4XUXn N y > > y y > z y u u u z n T E E E n z J T -.-.E -.T -.T g.m.kXyX*X=XAXAX*XAXAXZXvX,XU.{.{.U.g.=XyXyXhXjX@X(.*X$X/.+X&X$XU.OX:X+Xg.E N z j j y z z j z N U.1XAXAXZX%X+X+X=XAXbXxXU.L E 3.Q -.y.! UX! ~ D D D H Y.Y.4X;X4XE L Y L l z G R 3.! E R Q L U L I 2.2.P.I.I.~.U.I.Y.I.U.U.I.T.P.J.P.a.H.J.J.K.K.u.5.H.y.5.y.5.H.5.Q Y I U I I Q E K L I W R U Q R R R &.&.Q &.2.2.2.&.&.2.R 6.y.3.2.Q U 5.J.J.H.y.y.i.u.R k i k k F k ! H.T.u.H u.3.4.5.K.K.P.P.I.I.P.K.T.P.T.H.! ! I ~ ~ ~ G.4X4X3.n x q e > > y : u y u y u l z L E E E E L E R 3.-.u.u.u.",
"T T u.g.u.U.:X+X~.U.a.U.y.u.2.U U L T u.u.d.~.d.f.n 2.}.K.f.d.U.i.&.T 3.3.u.3.u.R T n l n z L 3.K.m.U.<XkXOXu.u.R &.3.3.&.3.2.R T E T T T u.R R E E z L H ! H.T.H.6.E L J p 3 F g J I F F 7 7 k i i G G G W ! W ! D.H.H.D.D.D.T.D.D.D.D.D.D.T.P.D.T.D.D.P.T.Y.|.T.T.D.D.S.~ ~ W S.S.S.V S.S.V S.~ A ~ S.! 2.5.6.8.D.6.6.2.Q U Q U W Q Q ! Q 2.W ! 6.! 2.2.2.R D B D D C S.4X4X4X4XT.H.U U 5.XXXX~.{.~.Y.Y.y.H.H.UX~ J J D ! UX~ G.;XT.E z j w j j y q y y j y u z n n n T n T E g.+X+Xf.UXg.g.T -.-.m.yXm.AXKXZX>X(.(.=X(.m.5.2.2.2.! K.f.m.1Xm.~.&.4.{.{.~.{.:X~.3.Q a.y.u.u.f.-.n z y w y x T {.+X(.g.g.-.D.2.Y ! u.u.6.H.U G n H E E E UX~ H ~ ~ D ~ D G.T.;XH.S.W L G k y F i l H F k 7 y i i i l G G H W K W Q 6.! ! W ! ! E H H W I I ~ I H J J J I H H I I G G G k 3 7 F Z B Z Z B 7 B F 4 4 i 4 i i G l k G l G l p p l l l l i K J J J J I I U L I I p B i F F H u.u.H.G.W E F G I 3.5.3.5.u.H.u.! 3.! ! H J F F ~ ~ ~ G.;XH.E z y y z z y > y q y y y u j l L N E -.! g.U.I.u.E E E E "
};
