/* XPM */
static char *result[] = {
/* columns rows colors chars-per-pixel */
"96 128 224 2 ",
"   c #333437",
".  c #353639",
"X  c #37393B",
"o  c #383A3D",
"O  c #393B3E",
"+  c #3A3C3F",
"@  c #3B3D40",
"#  c #3C3E41",
"$  c #3D3F41",
"%  c #3C3E42",
"&  c #374645",
"*  c #3E4044",
"=  c #3F4347",
"-  c #3A4F4D",
";  c #385A53",
":  c #3F5B58",
">  c #39645C",
",  c #197E64",
"<  c #377768",
"1  c #3E7A6E",
"2  c #287E74",
"3  c #2D737F",
"4  c #404244",
"5  c #434345",
"6  c #414346",
"7  c #444648",
"8  c #444749",
"9  c #464749",
"0  c #42464D",
"q  c #46484A",
"w  c #47484A",
"e  c #47484B",
"r  c #43484F",
"t  c #484B4D",
"y  c #454A51",
"u  c #464B52",
"i  c #4A4C50",
"p  c #484D54",
"a  c #4A4F56",
"s  c #425252",
"d  c #4C5057",
"f  c #4D5258",
"g  c #425F5F",
"h  c #50545B",
"j  c #51555C",
"k  c #51565C",
"l  c #52565D",
"z  c #52575D",
"x  c #79614C",
"c  c #585C61",
"v  c #426663",
"b  c #446E64",
"n  c #426E69",
"m  c #916C4E",
"M  c #AA7951",
"N  c #1F856B",
"B  c #21896F",
"V  c #278673",
"C  c #228E73",
"Z  c #3F8476",
"A  c #3A8C79",
"S  c #249578",
"D  c #269B7D",
"F  c #28987B",
"G  c #2D987D",
"H  c #34A479",
"J  c #35A77C",
"K  c #6BB15C",
"L  c #4A9576",
"P  c #659A79",
"I  c #5DAE63",
"U  c #5EAF64",
"Y  c #41A773",
"T  c #53A07F",
"R  c #96B73E",
"E  c #BCC029",
"W  c #D6C418",
"Q  c #EFC707",
"!  c #FCC900",
"~  c #FFCC00",
"^  c #C8C120",
"/  c #BB8656",
"(  c #B1905E",
")  c #B6945F",
"_  c #84B449",
"`  c #949568",
"'  c #B69E69",
"]  c #8AA375",
"[  c #8BA377",
"{  c #8DA37C",
"}  c #A8A975",
"|  c #CE8C53",
" . c #D48F55",
".. c #DA9357",
"X. c #D8955B",
"o. c #DB985E",
"O. c #E0975A",
"+. c #E39A5C",
"@. c #E69B5C",
"#. c #E89D5D",
"$. c #EA9E5E",
"%. c #C09860",
"&. c #CE916C",
"*. c #D89761",
"=. c #C08B75",
"-. c #CA9178",
";. c #3B4F8D",
":. c #346386",
">. c #3C7897",
",. c #404290",
"<. c #414393",
"1. c #434597",
"2. c #45469A",
"3. c #46489F",
"4. c #425E9E",
"5. c #48779A",
"6. c #494BA2",
"7. c #4A4CA7",
"8. c #4F51A7",
"9. c #5456A7",
"0. c #5355AB",
"q. c #575AA9",
"w. c #5659AA",
"e. c #5759AB",
"r. c #565AAA",
"t. c #595BB5",
"y. c #4C65A9",
"u. c #5E61B8",
"i. c #5B7EBB",
"p. c #7C70AC",
"a. c #6164BA",
"s. c #6164BC",
"d. c #6366BE",
"f. c #6D6BBD",
"g. c #6467C1",
"h. c #676AC1",
"j. c #6568C3",
"k. c #626DC0",
"l. c #636FC3",
"z. c #6669C5",
"x. c #676AC6",
"c. c #6B6DC0",
"v. c #696CC2",
"b. c #6073C0",
"n. c #8474A7",
"m. c #3A8E8D",
"M. c #279E80",
"N. c #2B9F82",
"B. c #2F908A",
"V. c #3E9380",
"C. c #339F84",
"Z. c #3C9C84",
"A. c #368191",
"S. c #28A182",
"D. c #28A484",
"F. c #29A686",
"G. c #2FA587",
"H. c #2BAA8A",
"J. c #34A185",
"K. c #38A186",
"L. c #3AA187",
"P. c #34A488",
"I. c #35A78A",
"U. c #3EA289",
"Y. c #3AA58A",
"T. c #3EA68B",
"R. c #3EA28C",
"E. c #36AB8D",
"W. c #30AC8C",
"Q. c #31AF8F",
"!. c #3AAB8E",
"~. c #3EA88E",
"^. c #3FAB8F",
"/. c #36AE90",
"(. c #3CAE91",
"). c #3EA09C",
"_. c #33B292",
"`. c #37B293",
"'. c #38B092",
"]. c #3CB395",
"[. c #39B495",
"{. c #3AB797",
"}. c #3DB798",
"|. c #38B898",
" X c #3BB999",
".X c #3ABB9A",
"XX c #3CBC9B",
"oX c #3FB99D",
"OX c #3CBD9C",
"+X c #3CBE9D",
"@X c #3DBF9E",
"#X c #41A58B",
"$X c #40A68C",
"%X c #44A78E",
"&X c #44A88E",
"*X c #47A790",
"=X c #44A990",
"-X c #44AB91",
";X c #40AF93",
":X c #45AD92",
">X c #46B095",
",X c #44B395",
"<X c #45B196",
"1X c #41B598",
"2X c #44B598",
"3X c #45B79A",
"4X c #47B69A",
"5X c #46B79A",
"6X c #49B79B",
"7X c #40BD9D",
"8X c #4AB89B",
"9X c #62AB84",
"0X c #76AB81",
"qX c #4986A1",
"wX c #4B95A2",
"eX c #4C9DAC",
"rX c #5687B5",
"tX c #5291B2",
"yX c #6989AA",
"uX c #44A3A1",
"iX c #45AAA5",
"pX c #B58886",
"aX c #A68291",
"sX c None",
/* pixels */
"sXsXsXsXsXsXsXsXsXsXsXsXsXsXsXsXsXsXsXsXsXsXsXsXsXsXsXsXsXsXsXsXsXsXsXsXsXsXsXsXsXsXsXsXsXsXsXsXsXsXsXsXsXsXsXsXsXsXsXsXsXsXsXsXsXsXsXsXsXsXsXsXsXsXsXsXsXsXsXsXsXsXsXsXsXsXsXsXsXsXsXsXsXsXsXsX",
"sXsXsXsXsXsXsXsXsXsXsXsXsXsXsXsXsXsXsXsXsXsXsXsXsXsXsXsXsXsXsXsXsXsXsXsXsXsXsXsXsXsXsXsXsXsXsXsXsXsXsXsXsXsXsXsXsXsXsXsXsXsXsXsXsXsXsXsXsXsXsXsXsXsXsXsXsXsXsXsXsXsXsXsXsXsXsXsXsXsXsXsXsXsXsXsX",
"sXsXsXsXsXsXsXsXsXsXsXsXsXsXsXsXsXsXsXsXsXsXsXsXsXsXsXsXsXsXsXsXsXsXsXsXsXsXsXsXsXsXsXsXsXsXsXsXsXsXsXsXsXsXsXsXsXsXsXsXsXsXsXsXsXsXsXsXsXsXsXsXsXsXsXsXsXsXsXsXsXsXsXsXsXsXsXsXsXsXsXsXsXsXsXsX",
"sXsXsXsXsXsXsXsXsXsXsXsXsXsXsXsXsXsXsXsXsXsXsXsXsXsXsXsXsXsXsXsXsXsXsXsXsXsXsXsXsXsXsXsXsXsXsXsXsXsXsXsXsXsXsXsXsXsXsXsXsXsXsXsXsXsXsXsXsXsXsXsXsXsXsXsXsXsXsXsXsXsXsXsXsXsXsXsXsXsXsXsXsXsXsXsX",
"sXsXsXsXsXsXsXsXsXsXsXsXsXsXsXsXsXsXsXsXsXsXsXsXsXsXsXsXsXsXsXsXsXsXsXsXsXsXsXsXsXsXsXsXsXsXsXsXsXsXsXsXsXsXsXsXsXsXsXsXsXsXsXsXsXsXsXsXsXsXsXsXsXsXsXsXsXsXsXsXsXsXsXsXsXsXsXsXsXsXsXsXsXsXsXsX",
"sXsXsXsXsXsXsXsXsXsXsXsXsXsXsXsXsXsXsXsXsXsXsXsXsXsXsXsXsXsXsXsXsXsXsXsXsXsXsXsXsXsXsXsXsXsXsXsXsXsXsXsXsXsXsXsXsXsXsXsXsXsXsXsXsXsXsXsXsXsXsXsXsXsXsXsXsXsXsXsXsXsXsXsXsXsXsXsXsXsXsXsXsXsXsXsX",
"sXsXsXsXsXsXsXsXsXsXsXsXsXsXsXsXsXsXsXsXsXsXsXsXsXsXsXsXsXsXsXsXsXsXsXsXsXsXsXsXsXsXsXsXsXsXsXsXsXsXsXsXsXsXsXsXsXsXsXsXsXsXsXsXsXsXsXsXsXsXsXsXsXsXsXsXsXsXsXsXsXsXsXsXsXsXsXsXsXsXsXsXsXsXsXsX",
"sXsXsXsXsXsXsXsXsXsXsXsXsXsXsXsXsXsXsXsXsXsXsXsXsXsXsXsXsXsXsXsXsXsXsXsXsXsXsXsXsXsXsXsXsXsXsXsXsXsXsXsXsXsXsXsXsXsXsXsXsXsXsXsXsXsXsXsXsXsXsXsXsXsXsXsXsXsXsXsXsXsXsXsXsXsXsXsXsXsXsXsXsXsXsXsX",
"sXsXsXsXsXsXsXsXsXsXsXsXsXsXsXsXsXsXsXsXsXsXsXsXsXsXsXsXsXsXsXsXsXsXsXsXsXsXsXsXsXsXsXsXsXsXsXsXsXsXsXsXsXsXsXsXsXsXsXsXsXsXsXsXsXsXsXsXsXsXsXsXsXsXsXsXsXsXsXsXsXsXsXsXsXsXsXsXsXsXsXsXsXsXsXsX",
"sXsXsXsXsXsXsXsXsXsXsXsXsXsXsXsXsXsXsXsXsXsXsXsXsXsXsXsXsXsXsXsXsXsXsXsXsXsXsXsXsXsXsXsXsXsXsXsXsXsXsXsXsXsXsXsXsXsXsXsXsXsXsXsXsXsXsXsXsXsXsXsXsXsXsXsXsXsXsXsXsXsXsXsXsXsXsXsXsXsXsXsXsXsXsXsX",
"sXsXsXsXsXsXsXsXsXsXsXsXsXsXsXsXsXsXsXsXsXsXsXsXsXsXsXsXsXsXsXsXsXsXsXsXsXsXsXsXsXsXsXsXsXsXsXsXsXsXsXsXsXsXsXsXsXsXsXsXsXsXsXsXsXsXsXsXsXsXsXsXsXsXsXsXsXsXsXsXsXsXsXsXsXsXsXsXsXsXsXsXsXsXsXsX",
"sXsXsXsXsXsXsXsXsXsXsXsXsXsXsXsXsXsXsXsXsXsXsXsXsXsXsXsXsXsXsXsXsXsXsXsXsXsXsXsXsXsXsXsXsXsXsXsXsXsXsXsXsXsXsXsXsXsXsXsXsXsXsXsXsXsXsXsXsXsXsXsXsXsXsXsXsXsXsXsXsXsXsXsXsXsXsXsXsXsXsXsXsXsXsXsX",
"sXsXsXsXsXsXsXsXsXsXsXsXsXsXsXsXsXsXsXsXsXsXsXsXsXsXsXsXsXsXsXsXsXsXsXsXsXsXsXsXsXsXsXsXsXsXsXsXsXsXsXsXsXsXsXsXsXsXsXsXsXsXsXsXsXsXsXsXsXsXsXsXsXsXsXsXsXsXsXsXsXsXsXsXsXsXsXsXsXsXsXsXsXsXsXsX",
"sXsXsXsXsXsXsXsXsXsXsXsXsXsXsXsXsXsXsXsXsXsXsXsXsXsXsXsXsXsXsXsXsXsXsXsXsXsXsXsXsXsXsXsXsXsXsXsXsXsXsXsXsXsXsXsXsXsXsXsXsXsXsXsXsXsXsXsXsXsXsXsXsXsXsXsXsXsXsXsXsXsXsXsXsXsXsXsXsXsXsXsXsXsXsXsX",
"sXsXsXsXsXsXsXsXsXsXsXsXsXsXsXsXsXsXsXsXsXsXsXsXsXsXsXsXsXsXsXsXsXsXsXsXsXsXsXsXsXsXsXsXsXsXsXsXsXsXsXsXsXsXsXsXsXsXsXsXsXsXsXsXsXsXsXsXsXsXsXsXsXsXsXsXsXsXsXsXsXsXsXsXsXsXsXsXsXsXsXsXsXsXsXsX",
"sXsXsXsXsXsXsXsXsXsXsXsXsXsXsXsXsXsXsXsXsXsXsXsXsXsXsXsXsXsXsXsXsXsXsXsXsXsXsXsXsXsXsXsXsXsXsXsXsXsXsXsXsXsXsXsXsXsXsXsXsXsXsXsXsXsXsXsXsXsXsXsXsXsXsXsXsXsXsXsXsXsXsXsXsXsXsXsXsXsXsXsXsXsXsXsX",
"sXsXsXsXsXsXsXsXsXsXsXsXsXsXsXsXsXsXsXsXsXsXsXsXsXsXsXsXsXsXsXsXsXsXsXsXsXsXsXsXsXsXsXsXsXsXsXsXsXsXsXsXsXsXsXsXsXsXsXsXsXsXsXsXsXsXsXsXsXsXsXsXsXsXsXsXsXsXsXsXsXsXsXsXsXsXsXsXsXsXsXsXsXsXsXsX",
"sXsXsXsXsXsXsXsXsXsXsXsXsXsXsXsXsXsXsXsXsXsXsXsXsXsXsXsXsXsXsXsXsXsXsXsXsXsXsXsXsXsXsXsXsXsXsXsXsXsXsXsXsXsXsXsXsXsXsXsXsXsXsXsXsXsXsXsXsXsXsXsXsXsXsXsXsXsXsXsXsXsXsXsXsXsXsXsXsXsXsXsXsXsXsXsX",
"sXsXsXsXsXsXsXsXsXsXsXsXsXsXsXsXsXsXsXsXsXsXsXsXsXsXsXsXsXsXsXsXsXsXsXsXsXsXsXsXsXsXsXsXsXsXsXsXsXsXsXsXsXsXsXsXsXsXsXsXsXsXsXsXsXsXsXsXsXsXsXsXsXsXsXsXsXsXsXsXsXsXsXsXsXsXsXsXsXsXsXsXsXsXsXsX",
"sXsXsXsXsXsXsXsXsXsXsXsXsXsXsXsXsXsXsXsXsXsXsXsXsXsXsXsXsXsXsXsXsXsXsXsXsXsXsXsXsXsXsXsXsXsXsXsXsXsXsXsXsXsXsXsXsXsXsXsXsXsXsXsXsXsXsXsXsXsXsXsXsXsXsXsXsXsXsXsXsXsXsXsXsXsXsXsXsXsXsXsXsXsXsXsX",
"sXsXsXsXsXsXsXsXsXsXsXsXsXsXsXsXsXsXsXsXsXsXsXsXsXsXsXsXsXsXsXsXsXsXsXsXsXsXsXsXsXsXsXsXsXsXsXsXsXsXsXsXsXsXsXsXsXsXsXsXsXsXsXsXsXsXsXsXsXsXsXsXsXsXsXsXsXsXsXsXsXsXsXsXsXsXsXsXsXsXsXsXsXsXsXsX",
"sXsXsXsXsXsXsXsXsXsXsXsXsXsXsXsXsXsXsXsXsXsXsXsXsXsXsXsXsXsXsXsXsXsXsXsXsXsXsXsXsXsXsXsXsXsXsXsXsXsXsXsXsXsXsXsXsXsXsXsXsXsXsXsXsXsXsXsXsXsXsXsXsXsXsXsXsXsXsXsXsXsXsXsXsXsXsXsXsXsXsXsXsXsXsXsX",
"sXsXsXsXsXsXsXsXsXsXsXsXsXsXsXsXsXsXsXsXsXsXsXsXsXsXsXsXsXsXsXsXsXsXsXsXsXsXsXsXsXsXsXsXsXsXsXsXsXsXsXsXsXsXsXsXsXsXsXsXsXsXsXsXsXsXsXsXsXsXsXsXsXsXsXsXsXsXsXsXsXsXsXsXsXsXsXsXsXsXsXsXsXsXsXsX",
"sXsXsXsXsXsXsXsXsXsXsXsXsXsXsXsXsXsXsXsXsXsXsXsXsXsXsXsXsXsXsXsXsXsXsXsXsXsXsXsXsXsXsXsXsXsXsXsXsXsXsXsXsXsXsXsXsXsXsXsXsXsXsXsXsXsXsXsXsXsXsXsXsXsXsXsXsXsXsXsXsXsXsXsXsXsXsXsXsXsXsXsXsXsXsXsX",
"sXsXsXsXsXsXsXsXsXsXsXsXsXsXsXsXsXsXsXsXsXsXsXsXsXsXsXsXsXsXsXsXsXsXsXsXsXsXsXsXsXsXsXsXsXsXsXsXsXsXsXsXsXsXsXsXsXsXsXsXsXsXsXsXsXsXsXsXsXsXsXsXsXsXsXsXsXsXsXsXsXsXsXsXsXsXsXsXsXsXsXsXsXsXsXsX",
"sXsXsXsXsXsXsXsXsXsXsXsXsXsXsXsXsXsXsXsXsXsXsXsXsXsXsXsXsXsXsXsXsXsXsXsXsXsXsXsXsXsXsXsXsXsXsXsXsXsXsXsXsXsXsXsXsXsXsXsXsXsXsXsXsXsXsXsXsXsXsXsXsXsXsXsXsXsXsXsXsXsXsXsXsXsXsXsXsXsXsXsXsXsXsXsX",
"sXsXsXsXsXsXsXsXsXsXsXsXsXsXsXsXsXsXsXsXsXsXsXsXsXsXsXsXsXsXsXsXsXsXsXsXsXsXsXsXsXsXsXsXsXsXsXsXsXsXsXsXsXsXsXsXsXsXsXsXsXsXsXsXsXsXsXsXsXsXsXsXsXsXsXsXsXsXsXsXsXsXsXsXsXsXsXsXsXsXsXsXsXsXsXsX",
"sXsXsXsXsXsXsXsXsXsXsXsXsXsXsXsXsXsXsXsXsXsXsXsXsXsXsXsXsXsXsXsXsXsXsXsXsXsXsXsXsXsXsXsXsXsXsXsXsXsXc z sXsXsXsXsXsXsXsXsXsXsXsXsXsXsXsXsXsXsXsXsXsXsXsXsXsXsXsXsXsXsXsXsXsXsXsXsXsXsXsXsXsXsXsX",
"sXsXsXsXsXsXsXsXsXsXsXsXsXsXsXsXsXsXsXsXsXsXsXsXsXsXsXsXsXsXsXsXsXsXsXsXsXsXsXsXsXsXsXsXsXsXsXsXsXz h h z sXsXsXsXsXsXsXsXsXsXsXsXsXsXsXsXsXsXsXsXsXsXsXsXsXsXsXsXsXsXsXsXsXsXsXsXsXsXsXsXsXsXsX",
"sXsXsXsXsXsXsXsXsXsXsXsXsXsXsXsXsXsXsXsXsXsXsXsXsXsXsXsXsXsXsXsXsXsXsXsXsXsXsXsXsXsXsXsXsXsXsXsXsXh f f h h sXsXsXsXsXsXsXsXsXsXsXsXsXsXsXsXsXsXsXsXsXsXsXsXsXsXsXsXsXsXsXsXsXsXsXsXsXsXsXsXsXsX",
"sXsXsXsXsXsXsXsXsXsXsXsXsXsXsXsXsXsXsXsXsXsXsXsXsXsXsXsXsXsXsXsXsXsXsXsXsXsXsXsXsXsXsXsXsXsXsXsXh d p p a f h l sXsXsXsXsXsXsXsXsXsXsXsXsXsXsXsXsXsXsXsXsXsXsXsXsXsXsXsXsXsXsXsXsXsXsXsXsXsXsXsX",
"sXsXsXsXsXsXsXsXsXsXsXsXsXsXsXsXsXsXsXsXsXsXsXsXsXsXsXsXsXsXsXsXsXsXsXsXsXsXsXsXsXsXsXsXsXsXsXk f p y r y p d h z sXsXsXsXsXsXsXsXsXsXsXsXsXsXsXsXsXsXsXsXsXsXsXsXsXsXsXsXsXsXsXsXsXsXsXsXsXsXsX",
"sXsXsXsXsXsXsXsXsXsXsXsXsXsXsXsXsXsXsXsXsXsXsXsXsXsXsXsXsXsXsXsXsXsXsXsXsXsXsXsXsXsXsXsXsXsXi h d u % @ # 0 p a f h j sXsXsXsXsXsXsXsXsXsXsXsXsXsXsXsXsXsXsXsXsXsXsXsXsXsXsXsXsXsXsXsXsXsXsXsXsX",
"sXsXsXsXsXsXsXsXsXsXsXsXsXsXsXsXsXsXsXsXsXsXsXsXsXsXsXsXsXsXsXsXsXsXsXsXsXsXsXsXsXsXsXsXsXsXh d p = @ @ @ % r p p d f h l sXsXsXsXsXsXl j h h h h h z sXsXsXsXsXsXsXsXsXsXsXsXsXsXsXsXsXsXsXsXsX",
"sXsXsXsXsXsXsXsXsXsXsXsXsXsXsXsXsXsXsXsXsXsXsXsXsXsXsXsXsXsXsXsXsXsXsXsXsXsXsXsXsXsXsXsXsXz f p 0 @ # # # # % r u p a d f h h h h h h f d d a a a d h sXsXsXsXsXsXsXsXsXsXsXsXsXsXsXsXsXsXsXsXsX",
"sXsXsXsXsXsXsXsXsXsXsXsXsXsXsXsXsXsXsXsXsXsXsXsXsXsXsXsXsXsXsXsXsXsXsXsXsXsXsXsXsXsXsXsXz f p r # # # # # # # # 0 u u p a a d d d a p a p u y u u p d l sXsXsXsXsXsXsXsXsXsXsXsXsXsXsXsXsXsXsXsX",
"sXsXsXsXsXsXsXsXsXsXsXsXsXsXsXsXsXsXsXsXsXsXsXsXsXsXsXsXsXsXsXsXsXsXsXsXsXsXsXsXsXsXsXz f p u * # # # # # # # # # = y u u p u p u p u u y r r r r y p f sXsXsXsXsXsXsXsXsXsXsXsXsXsXsXsXsXsXsXsX",
"sXsXsXsXsXsXsXsXsXsXsXsXsXsXsXsXsXsXsXsXsXsXsXsXsXsXsXsXsXsXsXsXsXsXsXsXsXsXsXsXsXsXh f p u * # # # # # # # # # # % * r y y y y y y r y r r r 0 0 r u a sXsXsXsXsXsXsXsXsXsXsXsXsXsXsXsXsXsXsXsX",
"sXsXsXsXsXsXsXsXsXsXsXsXsXsXsXsXsXsXsXsXsXsXsXsXsXsXsXsXsXsXsXsXsXsXsXsXsXsXsXsXl h f p u = # # # # # # # # # # # # # # = r y y y y y r y r 0 = = = = q sXsXsXsXsXsXsXsXsXsXsXsXsXsXsXsXsXsXsXsX",
"sXsXsXsXsXsXsXsXsXsXsXsXsXsXsXsXsXsXsXsXsXsXsXsXsXsXsXsXsXsXsXsXsXsXsXsXsXsXsXz h d p u = # # # # # # # # # # # # # # # # % r y y y y r r r * O o O $ 6 e sXsXsXsXsXsXsXsXsXsXsXsXsXsXsXsXsXsXsX",
"sXsXsXsXsXsXsXsXsXsXsXsXsXsXsXsXsXsXsXsXsXsXsXsXsXsXsXsXsXt d h k j j j k h h d a p u = # # # # # # # # # # # # # # # # # # * y y r y r r r % O o o @ 4 t sXsXsXsXsXsXsXsXsXsXsXsXsXsXsXsXsXsXsX",
"sXsXsXsXsXsXsXsXsXsXsXsXsXsXsXsXsXsXsXsXsXsXsXsXsXsXsXsXsXq q 7 u d d d d a a a u u = # # # # # # # # # # # # # # # # # # # # y y r r y r 0 O O o o + 4 q sXsXsXsXsXsXsXsXsXsXsXsXsXsXsXsXsXsXsX",
"sXsXsXsXsXsXsXsXsXsXsXsXsXsXsXsXsXsXsXsXsXsXsXsXsXsXsXsXe 7 6 4 4 6 0 p p p p u y = # # # # # # # # # # # # # # # # # # # # # 0 y r y r r = O o o o + 4 7 sXsXsXsXsXsXsXsXsXsXsXsXsXsXsXsXsXsXsX",
"sXsXsXsXsXsXsXsXsXsXsXsXsXsXsXsXsXsXsXsXsXsXsXsXsXsXsXsXq 6 $ # # @ # * 0 y y r * # # # # # # # # # # # # # # # # # # # # # # 0 r y r r r # O o o X O 4 7 sXsXsXsXsXsXsXsXsXsXsXsXsXsXsXsXsXsXsX",
"sXsXsXsXsXsXsXsXsXsXsXsXsXsXsXsXsXsXsXsXsXsXsXsXsXsXsXw 7 * # + + + @ @ @ % = * # # # # # # # # # # # # # # # # # # # # # # # 0 r r y r = O O o X X + 4 e sXsXsXsXsXsXsXsXsXsXsXsXsXsXsXsXsXsXsX",
"sXsXsXsXsXsXsXsXsXsXsXsXsXsXsXsXsXsXsXsXsXsXsXsXsXsXsX8 6 $ @ O + + @ @ @ # # # # # # # # # # # # # # # # # # # # # # # # # # 0 r y r 0 + O o o X o @ 4 5 sXsXsXsXsXsXsXsXsXsXsXsXsXsXsXsXsXsXsX",
"sXsXsXsXsXsXsXsXsXsXsXsXsXsXsXsXsXsXsXsXsXsXsXsXsXsXsXq 4 # + O + + @ @ @ # # # # # # # # # # # # # # # # # # # # # # # # # # 0 r r r + + O o o X O @ 6 sXsXsXsXsXsXsXsXsXsXsXsXsXsXsXsXsXsXsXsX",
"sXsXsXsXsXsXsXsXsXsXsXsXsXsXsXsXsXsXsXsXsXsXsXsXsXsXsX7 4 @ O O + + @ @ @ # # # # # # # # # # # # # # # # # # # # # # # # # $ r y 0 @ + + O o X X o $ 6 sXsXsXsXsXsXsXsXsXsXsXsXsXsXsXsXsXsXsXsX",
"sXsXsXsXsXsXsXsXsXsXsXsXsXsXsXsXsXsXsXsXsXsXsXsXsXsXsX7 4 @ O O + @ @ @ @ # # # # # # # # # # # # # # # # # # # # # # # # # % r = @ @ + O O o X o + 4 9 sXsXsXsXsXsXsXsXsXsXsXsXsXsXsXsXsXsXsXsX",
"sXsXsXsXsXsXsXsXsXsXsXsXsXsXsXsXsXsXsXsXsXsXsXsXsXsXsX7 * @ O O + @ @ @ @ # # # # # # # # # # # # # # # # # # # # # # # # # % @ @ @ @ + O O o X O # 6 sXsXsXsXsXsXsXsXsXsXsXsXsXsXsXsXsXsXsXsXsX",
"sXsXsXsXsXsXsXsXsXsXsXsXsXsXsXsXsXsXsXsXsXsXsXsXsXsXsX7 4 @ O O + @ @ @ # # # # # # # # # # # # # # # # # # # # # # # # # # # @ @ @ @ + O O o O @ 4 9 sXsXsXsXsXsXsXsXsXsXsXsXsXsXsXsXsXsXsXsXsX",
"sXsXsXsXsXsXsXsXsXsXsXsXsXsXsXsXsXsXsXsXsXsXsXsXsXsXsX7 4 @ O + + @ @ @ # # # # # # # # # # # # # # # # # # # # # # # # # # # @ @ @ @ + O O o + $ 6 sXsXsXsXsXsXsXsXsXsXsXsXsXsXsXsXsXsXsXsXsXsX",
"sXsXsXsXsXsXsXsXsXsXsXsXsXsXsXsXsXsXsXsXsXsXsXsXsXsXsXq 6 @ + + + @ @ @ # # # # # # # # # # # # # # # # # # # # # # # # - : - @ @ @ @ + O O + # 6 9 sXsXsXsXsXsXsXsXsXsXsXsXsXsXsXsXsXsXsXsXsXsX",
"sXsXsXsXsXsXsXsXsXsXsXsXsXsXsXsXsXsXsXsXsXsXsXsXsXsXsX9 6 # + + & @ @ @ # # # # # # # # # # # # # # # # # # # # # # - Z }.@X@X+XZ.A 1 - + O @ $ 7 sXsXsXsXsXsXsXsXsXsXsXsXsXsXsXsXsXsXsXsXsXsXsX",
"sXsXsXsXsXsXsXsXsXsXsXsXsXsXsXsXsXsXsXsXsXsXsXsXsXsXsXe 6 $ + + ].Y.A > # # # # # # # # # # # # # # # # # # # - Z Z.@X@X@X@X@X@X+XOXXX- + + # 6 9 sXsXsXsXsXsXsXsXsXsXsXsXsXsXsXsXsXsXsXsXsXsXsX",
"sXsXsXsXsXsXsXsXsXsXsXsXsXsXsXsXsXsXsXsXsXsXsXsXsXsXsXw 7 4 # + Z.XX+X+X(.Z.< : = = 0 * # # # # # # - : > A T.@X@X@X@X@X@X@X@X@X+XOXXX+ + @ * 7 sXsXsXsXsXsXsXsXsXsXsXsXsXsXsXsXsXsXsXsXsXsXsXsX",
"sXsXsXsXsXsXsXsXsXsXsXsXsXsXsXsXsXsXsXsXsXsXsXsXsXsXsXsX7 4 # + A OX+X@X}.V.1 : y y y V.@X@X@X@X@X@X@X@X@X@X@X@X@X@X@X@X@X@X@X@X+XOX].+ + # 4 7 sXsXsXsXsXsXsXsXsXsXsXsXsXsXsXsXsXsXsXsXsXsXsXsX",
"sXsXsXsXsXsXsXsXsXsXsXsXsXsXsXsXsXsXsXsXsXsXsXsXsXsXsXsX7 4 $ + 1 OXZ g y y y y y y y n @X@X@X@X@X@X@X@X@X@X@X@X@X@X@X@X@X@X@X@X+XOXZ.@ @ # 6 8 sXsXsXsXsXsXsXsXsXsXsXsXsXsXsXsXsXsXsXsXsXsXsXsX",
"sXsXsXsXsXsXsXsXsXsXsXsXsXsXsXsXsXsXsXsXsXsXsXsXsXsXsXsXq 4 $ + > OXg y y y y y y y y n @X@X@X@X@X@X@X@X@X@X@X@X@X@X@X@X@X@X@X@X+XOXV.@ @ $ 6 e sXsXsXsXsXsXsXsXsXsXsXsXsXsXsXsXsXsXsXsXsXsXsXsX",
"sXsXsXsXsXsXsXsXsXsXsXsXsXsXsXsXsXsXsXsXsXsXsXsXsXsXsXsXq 4 $ + : OX1 y y y y : 1 Z.}.@X@X@X@X@X@X@X@X@X@X@X@X@XU.Z V.U.}.@X@X@X+XOX1 @ @ $ 7 i sXsXsXsXsXsXsXsXsXsXsXsXsXsXsXsXsXsXsXsXsXsXsXsX",
"sXsXsXsXsXsXsXsXsXsXsXsXsXsXsXsXsXsXsXsXsXsXsXsXsXsXsXsX7 4 # + @ OXV.s 1 V.!.|.|.|.OX@X@X@X@X@X@X@X@X@X@X@X@X@XZ y y y y y g v Z Z < @ @ $ 6 sXsXsXsXsXsXsXsXsXsXsXsXsXsXsXsXsXsXsXsXsXsXsXsXsX",
"sXsXsXsXsXsXsXsXsXsXsXsXsXsXsXsXsXsXsXsXsXsXsXsXsXsXsXsXq * # + @ ].+X@X|.H.F.F.F.F.F.Q.OX@X@X@X@X@X@X@X@X@X@X@Xn y y y y y y y r : : + @ # 4 b sXsXsXsXsXsXsXsXsXsXsXsXsXsXsXsXsXsXsXsXsXsXsXsX",
"sXsXsXsXsXsXsXsXsXsXsXsXsXsXsXsXsXsXsXsXsXsXsXsXsXsX8X3X: # @ + @ Z.+X|.F.F.R ~ ~ ~ ^ F.W.@X@X@X@X@X@X@X@X@X@X@Xv y y y y y y y r v - + + @ $ Z.2XsXsXsXsXsXsXsXsXsXsXsXsXsXsXsXsXsXsXsXsXsXsXsX",
"sXsXsXsXsXsXsXsXsXsXsXsXsXsXsXsXsXsXsXsXsXsXsXsXsX5X3X1X> @ + + @ A OXF.F.U ~ ~ ~ ~ ~ R F._.@X@X@X@X@X@X@X@X@X@X~.U.V.Z Z v v s r 1 + + + + @ ;X1X4XsXsXsXsXsXsXsXsXsXsXsXsXsXsXsXsXsXsXsXsXsXsX",
"sXsXsXsXsXsXsXsXsXsXsXsXsXsXsXsXsXsXsXsXsXsXsXsX6X<X1X].< O O + + 1 |.D.D.E ~ ~ ~ ~ ~ Q F.F.@X@X@X@X@X@X@X@X@X@X@X@X|._._._._.|.XX].+ + O O + ].1X<X2XsXsXsXsXsXsXsXsXsXsXsXsXsXsXsXsXsXsXsXsXsX",
"sXsXsXsXsXsXsXsXsXsXsXsXsXsXsXsXsXsXsXsXsXsXsXsX<X;X(.'.< O O + + V.Q.D.D.^ ~ ~ ~ ~ ~ ~ F.F.|.@X@X@X@X@X@X@X@X@X.XH.J U I I J D.W.Z.+ O O o & G.(.;X<XsXsXsXsXsXsXsXsXsXsXsXsXsXsXsXsXsXsXsXsXsX",
"sXsXsXsXsXsXsXsXsXsXsXsXsXsXsXsXsXsXsXsXsXsXsX,X<X(.(.M.D > & O 1 .XQ.D.D.R ~ ~ ~ ~ ~ W F.F.|.@X@X@X@X@X@X@X@X@XH.F.W ~ ~ ! Q J S._.O O o o ; F P.(.;X>XsXsXsXsXsXsXsXsXsXsXsXsXsXsXsXsXsXsXsXsX",
"sXsXsXsXsXsXsXsXsXsXsXsXsXsXsXsXsXsXsXsXsXsXsX>X^.!.G.F D D /.{. X XQ.D.D.Y Q ~ ~ ~ ~ K F.F.|.@X@X@X@X@X@X@X@X_.F.K ~ ~ ! ! ! _ S.S.; o o X 2 S F !.^.-XsXsXsXsXsXsXsXsXsXsXsXsXsXsXsXsXsXsXsXsX",
"sXsXsXsXsXsXsXsXsXsXsXsXsXsXsXsXsXsXsXsXsXsXsX-X^.!.D S D D /.{. X X[.D.D.D.Y E ^ ^ U F.F.F.@X@X.X|.|.|..X@X@XF.F.E ~ ~ ! ! ! ^ S.M.W.V.A V S S S P.~.-XsXsXsXsXsXsXsXsXsXsXsXsXsXsXsXsXsXsXsXsX",
"sXsXsXsXsXsXsXsXsXsXsXsXsXsXsXsXsXsXsXsXsXsXsX-X^.!.F S D D W.{.{. X.XF.D.F.F.F.F.F.F.F.F.Q.OXH.F.F.F.F.W.@X.XF.F.^ ~ ! ! ! ! ^ M.M.N.`.G.S S S C J.~.%XsXsXsXsXsXsXsXsXsXsXsXsXsXsXsXsXsXsXsXsX",
"sXsXsXsXsXsXsXsXsXsXsXsXsXsXsXsXsXsXsXsXsXsXsX-X~.!.N.S F D G.{.{. X.X_.D.D.D.F.F.F.F.F.F.OX_.F.F.F.F.F.F.|.|.F.F._ ~ ! ! ! ! R M.D N.'.G.S S C C P.T.%XsXsXsXsXsXsXsXsXsXsXsXsXsXsXsXsXsXsXsXsX",
"sXsXsXsXsXsXsXsXsXsXsXsXsXsXsXsXsXsXsXsXsXsXsX=X^.!.P.S F D G.{.{. X.XXXQ.D.D.F.F.F.F.H..X@X`.F.F.F.F.F.F..X|.F.F.J W ! ! ! Q Y M.D N./.D S S C F Y.T.%XsXsXsXsXsXsXsXsXsXsXsXsXsXsXsXsXsXsXsXsX",
"sXsXsXsXsXsXsXsXsXsXsXsXsXsXsXsXsXsXsXsXsXsXsXsX-X^.!.N.F D N.{.{. X.XXXOX|.W.W.W.W._.OX@X@X@X_.H.F.F.H.|.@X@XF.F.D.D._ R R H M.D D G./.F S C C J.Y.#X&XsXsXsXsXsXsXsXsXsXsXsXsXsXsXsXsXsXsXsXsX",
"sXsXsXsXsXsXsXsXsXsXsXsXsXsXsXsXsXsXsXsXsXsXsXsX:X-X(.(.G.D N.{.{. X.XXXOX+X+X@X@X@X@X@X@X@X@X@X@X@X@X@X@X@X@X_.F.D.D.D.S.S.S.M.D D /./.S S S J.Y.T.%XsXsXsXsXsXsXsXsXsXsXsXsXsXsXsXsXsXsXsXsXsX",
"sXsXsXsXsXsXsXsXsXsXsXsXsXsXsXsXsXsXsXsXsXsXsXsXsX<X;X;X].'./.{.{. X.XXXOX+X@X@X@X@X@X@X@X@X@X@X@X@X@X@X@X@X@XOXH.D.D.D.S.S.M.M.D G./.E.P.P.Y.Y.T.%XsXsXsXsXsXsXsXsXsXsXsXsXsXsXsXsXsXsXsXsXsXsX",
"sXsXsXsXsXsXsXsXsXsXsXsXsXsXsXsXsXsXsXsXsXsXsXsXsXsX>X<X1X1X}.}. X XXXXXOX+X@X@X@X@X@X@X@X@X@X.X/.N.N.N.G.[.@X@XOXQ.D.D.S.S.M.M.E.'.!.!.!.~.~.~.$XsXsXsXsXsXsXsXsXsXsXsXsXsXsXsXsXsXsXsXsXsXsXsX",
"sXsXsXsXsXsXsXsXsXsXsXsXsXsXsXsXsXsXsXsXsXsXsXsXsXsXsX8X3X3X3XoXoX XXXXXOX+X@X@X@X@X@X@X@X.XC , , , , , , N `.@X@X+X|.Q.Q.W.W.[.`.'.(.(.^.^.-X=XsXsXsXsXsXsXsXsXsXsXsXsXsXsXsXsXsXsXsXsXsXsXsXsX",
"sXsXsXsXsXsXsXsXsXsXsXsXsXsXsXsXsXsXsXsXsXsXsXsXsXsXsXsXsXsXsX2XoXXXXXOX+X+X@X@X@X@X@X@X@XS , , , , , , , , N @X@X+XOXXX X X{.[.].].;X=XsXsXsXsXsXsXsXsXsXsXsXsXsXsXsXsXsXsXsXsXsXsXsXsXsXsXsXsX",
"sXsXsXsXsXsXsXsXsXsXsXsXsXsXsXsXsXsXsXsXsXsXsXsXsXsXsXsXsXsXsX5X7X7XXXOX+X@X@X@X@X@X@X@X@XC , , D N.N.N.B , , @X@X+XOXXX.X X{.[.].].<XsXsXsXsXsXsXsXsXsXsXsXsXsXsXsXsXsXsXsXsXsXsXsXsXsXsXsXsXsX",
"sXsXsXsXsXsXsXsXsXsXsXsXsXsXsXsXsXsXsXsXsXsXsXsXsXsXsXsXsXsXsX6X7X7XOX+X+X@X@X@X@X@X@X@X@XW.C N.@X@X@X@X.XN.W.@X@X+XOXXX.X X{.{.1X1X4XsXsXsXsXsXsXsXsXsXsXsXsXsXsXsXsXsXsXsXsXsXsXsXsXsXsXsXsXsX",
"sXsXsXsXsXsXsXsXsXsXsXsXsXsXsXsXsXsXsXsXsXsXsXsXsXsXsXsXsXsXsXwX7X7XOX+X@X@X@X@X@X@X@X@X@X@X@X@X@X@X@X@X@X@X@X@X@X+XOXOX.X X}.}.1X3XsXsXsXsXsXsXsXsXsXsXsXsXsXsXsXsXsXsXsXsXsXsXsXsXsXsXsXsXsXsX",
"sXsXsXsXsXsXsXsXsXsXsXsXsXsXsXsXsXsXsXsXsXsXsXsXsXsXsXsXsXsXw.qX7X7X+X+X@X@X@X@X@X@X@X@X@X@X@X@X@X@X@X@X@X@X@X@X@X+XOXXX.X X X1X3XsXsXsXsXsXsXsXsXsXsXsXsXsXsXsXsXsXsXsXsXsXsXsXsXsXsXsXsXsXsXsX",
"sXsXsXsXsXsXsXsXsXsXsXsXsXsXsXsXsXsXsXsXsXsXsXsXsXsXsXsXsXq.0.y.iXiXiX).).).'.`.`.`.`././././././././._././.).).).).).).uXuXuXqXsXsXsXsXsXsXsXsXsXsXsXsXsXsXsXsXsXsXsXsXsXsXsXsXsXsXsXsXsXsXsXsX",
"sXsXsXsXsXsXsXsXsXsXsXsXsXsXsXsXsXsXsXsXsXsXsXsXsXsXsXsXe.0.0.j.z.g.t.3.3.2.1.3 C C B B N N N N N N N N 2 ;.,.<.1.1.2.0.u.a.u.8.sXsXsXsXsXsXsXsXsXsXsXsXsXsXsXsXsXsXsXsXsXsXsXsXsXsXsXsXsXsXsXsX",
"sXsXsXsXsXsXsXsXsXsXsXsXsXsXsXsXsXsXsXsXsXsXsXsXsXsXsXw.0.8.t.j.z.j.8.3.3.3.2.1.;.3 C C B B B B B B B 3 ,.,.<.1.1.2.t.u.a.s.u.8.9.sXsXsXsXsXsXsXsXsXsXsXsXsXsXsXsXsXsXsXsXsXsXsXsXsXsXsXsXsXsXsX",
"sXsXsXsXsXsXsXsXsXsXsXsXsXsXsXsXsXsXsXsXsXsXsXsXsXsXw.0.0.8.t.j.z.z.t.6.3.3.3.2.1.1.;.2 C C C B B B :.,.<.<.1.1.6.u.u.a.s.d.t.8.8.sXsXsXsXsXsXsXsXsXsXsXsXsXsXsXsXsXsXsXsXsXsXsXsXsXsXsXsXsXsXsX",
"sXsXsXsXsXsXsXsXsXsXsXsXsXsXsXsXsXsXsXsXsXsXsXsXsXr.0.8.8.7.0.j.z.z.j.s.0.6.3.3.2.2.1.1.:.V C C 2 ;.<.<.1.1.2.8.u.a.s.d.d.g.0.8.8.9.sXsXsXsXsXsXsXsXsXsXsXsXsXsXsXsXsXsXsXsXsXsXsXsXsXsXsXsXsXsX",
"sXsXsXsXsXsXsXsXsXsXsXsXsXsXsXsXsXsXsXsXsXsXsXsXr.0.8.8.7.7.8.j.z.z.z.j.g.u.0.3.3.2.2.2.1.1.:.3 1.1.1.1.2.2.0.u.a.s.d.g.j.j.0.7.8.8.sXsXsXsXsXsXsXsXsXsXsXsXsXsXsXsXsXsXsXsXsXsXsXsXsXsXsXsXsXsX",
"sXsXsXsXsXsXsXsXsXsXsXsXsXsXsXsXsXsXsXsXsXsXsXq.0.8.8.7.7.7.7.s.z.z.z.z.j.g.d.u.8.3.3.2.2.2.2.0.2.2.2.2.6.t.a.a.d.d.j.j.z.j.7.7.8.8.9.sXsXsXsXsXsXsXsXsXsXsXsXsXsXsXsXsXsXsXsXsXsXsXsXsXsXsXsXsX",
"sXsXsXsXsXsXsXsXsXsXsXsXsXsXsXsXsXsXsXsXsXsXsX5.>.>.>.7.7.7.7.t.j.j.z.z.i.z.g.g.d.t.7.3.3.3.8.u.6.3.3.8.u.a.d.d.g.z.x.z.z.g.7.7.6.8.8.w.sXsXsXsXsXsXsXsXsXsXsXsXsXsXsXsXsXsXsXsXsXsXsXsXsXsXsXsX",
"sXsXsXsXsXsXsXsXsXsXsXsXsXsXsXsXsXsXsXsXsXsXsXP.G.N.B.7.7.7.7.0.j.j.j.j.oXtXz.j.g.g.d.t.7.6.u.s.t.6.t.d.d.d.g.j.z.x.x.z.z.u.7.4.S.B.m.5.sXsXsXsXsXsXsXsXsXsXsXsXsXsXsXsXsXsXsXsXsXsXsXsXsXsXsXsX",
"sXsXsXsXsXsXsXsXsXsXsXsXsXsXsXsXsXsXsXsXsXsXK.P.G.S.B.7.7.7.7.7.j.j.j.j.eXOXrXz.z.x.z.j.d.t.g.g.g.s.g.g.j.z.x.x.x.x.x.x.z.t.7.>.S.N.C.K.sXsXsXsXsXsXsXsXsXsXsXsXsXsXsXsXsXsXsXsXsXsXsXsXsXsXsXsX",
"sXsXsXsXsXsXsXsXsXsXsXsXsXsXsXsXsXsXsXsXsXsX3XI.N.S.B.7.7.7.7.7.s.j.j.j.b.OXoXb.z.x.x.x.x.x.z.z.z.z.x.x.x.x.x.x.x.x.x.x.z.t.7.B.S.N.C.R.sXsXsXsXsXsXsXsXsXsXsXsXsXsXsXsXsXsXsXsXsXsXsXsXsXsXsXsX",
"sXsXsXsXsXsXsXsXsXsXsXsXsXsXsXsXsXsXsXsXsX6X3X}.W.S.N.7.7.7.7.4.t.j.j.j.j.eXOXeXz.z.x.x.x.x.x.x.l.x.x.x.x.x.x.x.x.x.x.x.z.0.4.S.S.N.P.;XsXsXsXsXsXsXsXsXsXsXsXsXsXsXsXsXsXsXsXsXsXsXsXsXsXsXsXsX",
"sXsXsXsXsXsXsXsXsXsXsXsXsXsXsXsXsXsXsXsXsX4X3XoX XW.D.A.>.A.D.D.y.j.j.g.j.k.oXoXl.z.x.x.x.x.l.iXtXx.x.x.x.x.x.x.x.x.x.x.z.>.B.S.H.`.1X3XsXsXsXsXsXsXsXsXsXsXsXsXsXsXsXsXsXsXsXsXsXsXsXsXsXsXsXsX",
"sXsXsXsXsXsXsXsXsXsXsXsXsXsXsXsXsXsXsXsXsX3XoXoX X.X_.D.D.D.D.S.>.j.j.j.j.j.rXOXtXz.z.x.x.x.iX@Xb.x.x.x.x.x.x.x.x.x.x.x.z.F.W.{. X}.1X3XsXsXsXsXsXsXsXsXsXsXsXsXsXsXsXsXsXsXsXsXsXsXsXsXsXsXsXsX",
"sXsXsXsXsXsXsXsXsXsXsXsXsXsXsXsXsXsXsXsX8X3XoX X X.XXX{.F.D.D.D.A.s.j.j.g.j.j.iXiXz.z.x.x.eX@XtXx.x.x.x.x.x.x.x.x.x.x.x.b..XXX X X}.}.3XsXsXsXsXsXsXsXsXsXsXsXsXsXsXsXsXsXsXsXsXsXsXsXsXsXsXsXsX",
"sXsXsXsXsXsXsXsXsXsXsXsXsXsXsXsXsXsXsXsX4X1X}. X X.XXXXX XF.D.G.R.h.z.j.j.j.j.k.tXz.z.z.i.@XoXl.x.x.x.x.x.x.x.x.x.x.x.z.i.XXXX X X}.}.1XsXsXsXsXsXsXsXsXsXsXsXsXsXsXsXsXsXsXsXsXsXsXsXsXsXsXsXsX",
"sXsXsXsXsXsXsXsXsXsXsXsXsXsXsXsXsXsXsX>X3X}.}. X X X.X.X.XXXW.G.sXsXv.v.g.g.j.j.j.z.z.l.oX@Xi.x.x.x.x.x.x.x.x.x.x.x.z.z.yXXX.X X{.{.].1XsXsXsXsXsXsXsXsXsXsXsXsXsXsXsXsXsXsXsXsXsXsXsXsXsXsXsXsX",
"sXsXsXsXsXsXsXsXsXsXsXsXsXsXsXsXsXsXsX3X1X}.{.{. X X X.X XXX7X2XsXsXv.v.j.g.g.j.j.j.z.eX+XtXx.x.x.x.x.x.x.x.x.z.z.z.z.z.aX}  X X{.[.].].>XsXsXsXsXsXsXsXsXsXsXsXsXsXsXsXsXsXsXsXsXsXsXsXsXsXsXsX",
"sXsXsXsXsXsXsXsXsXsXsXsXsXsXsXsXsXsX6X3X1X].{.{. X X X X XoX7XsXsXsXc.v.g.g.g.g.j.j.b.+XeXx.x.x.x.x.x.x.z.z.pXf.z.z.j.j.aX#.0X{.{.[.].].<X<XsXsXsXsXsXsXsXsXsXsXsXsXsXsXsXsXsXsXsXsXsXsXsXsXsXsX",
"sXsXsXsXsXsXsXsXsXsXsXsXsXsXsXsXsXsX2X1X].].[.{.{.{. X X X XoX,XsXsXh.v.g.d.g.g.g.j.b.rXz.z.x.x.x.x.z.z.z.aX$.&.f.j.j.g.aX#.o.{.[.[.'.].;X<XsXsXsXsXsXsXsXsXsXsXsXsXsXsXsXsXsXsXsXsXsXsXsXsXsXsX",
"sXsXsXsXsXsXsXsXsXsXsXsXsXsXsXsXsXsX<X;X].`.[.[.{.{.{.{.{.}.}.1XsXsXh.v.g.d.d.g.g.j.j.z.z.z.z.z.z.z.z.z.n.$.$.$.=.g.g.g.n.@.+.9X[.`.'.(.;X<XsXsXsXsXsXsXsXsXsXsXsXsXsXsXsXsXsXsXsXsXsXsXsXsXsXsX",
"sXsXsXsXsXsXsXsXsXsXsXsXsXsXsXsXsXsX<X;X'.'.`.[.[.[.[.{.[.[.}.}.$XsXh.d.d.d.d.d.g.g.j.j.z.z.z.z.z.z.z.f.+.$.$.$.#.pXd.d.n.+.O.9X`.'./.(.;X-XsXsXsXsXsXsXsXsXsXsXsXsXsXsXsXsXsXsXsXsXsXsXsXsXsXsX",
"sXsXsXsXsXsXsXsXsXsXsXsXsXsXsXsXsXsX;X(.(./.'.`.[.[.[.[.[.[.].].I.K.sXd.d.d.s.d.g.g.j.j.z.z.z.z.z.z.j.-.#.#.#.@.@.@.&.=.&.O.O.[ '././.!.^.-XsXsXsXsXsXsXsXsXsXsXsXsXsXsXsXsXsXsXsXsXsXsXsXsXsXsX",
"sXsXsXsXsXsXsXsXsXsXsXsXsXsXsXsXsX=X^.!.!././.'.'.'.'.'.'.'.'.].I.N.sXa.a.a.s.d.p.n.n.aXaXpX-.-.+.$.$.#.#.#.@.+.+.+.O.O.O.O...] /.E.E.!.^.-XsXsXsXsXsXsXsXsXsXsXsXsXsXsXsXsXsXsXsXsXsXsXsXsXsXsX",
"sXsXsXsXsXsXsXsXsXsXsXsXsXsXsXsXsX=X^.!.E.E.E./././.'./.'./././.E.F L =.=.&.O.+.@.#.#.$.$.$.$.$.$.$.$.@.@.@.+.+.O.O.O.O.......9XE.E.I.!.~.-XsXsXsXsXsXsXsXsXsXsXsXsXsXsXsXsXsXsXsXsXsXsXsXsXsXsX",
"sXsXsXsXsXsXsXsXsXsXsXsXsXsXsXsXsX:X~.!.I.E.E.E.E.E.E.E.E.E.!./.I.F L o.O.O.O.+.+.@.#.$.$.$.$.$.$.#.#.@.+.+.O.O.O.O......... .T E.I.I.Y.~.R.sXsXsXsXsXsXsXsXsXsXsXsXsXsXsXsXsXsXsXsXsXsXsXsXsXsX",
"sXsXsXsXsXsXsXsXsXsXsXsXsXsXsXsXsX%X~.Y.P.I.I.I.E.E.E.E.E.E.E.E.I.F F X.o.O.O.O.+.@.#.#.$.$.$.$.$.#.@.+.+.O.O.O....... . . .| I.I.I.P.Y.T.=XsXsXsXsXsXsXsXsXsXsXsXsXsXsXsXsXsXsXsXsXsXsXsXsXsXsX",
"sXsXsXsXsXsXsXsXsXsXsXsXsXsXsXsXsXR.T.Y.P.P.P.I.I.I.I.I.I.I.I.E.J.F G *.o.o.O.O.+.@.#.#.$.$.$.$.#.@.+.+.O.O.O....... . . . .` I.P.P.P.Y.#XsXsXsXsXsXsXsXsXsXsXsXsXsXsXsXsXsXsXsXsXsXsXsXsXsXsXsX",
"sXsXsXsXsXsXsXsXsXsXsXsXsXsXsXsXsX=XT.Y.J.J.P.P.P.P.P.P.P.I.Y.!.J.F sXsXo.o.o.O.+.@./ / / m m m P 0X' ' ' ] %... . . .| | | T P.P.J.P.Y.#XsXsXsXsXsXsXsXsXsXsXsXsXsXsXsXsXsXsXsXsXsXsXsXsXsXsXsX",
"sXsXsXsXsXsXsXsXsXsXsXsXsXsXsXsXsXsX#XY.L.J.J.J.J.J.P.P.P.P.Y.~.C.K.sXsXsXsXx 4 O O + + + + + + - {.[.[.'./.^.)  . .| | | ` J.J.J.J.L.U.$XsXsXsXsXsXsXsXsXsXsXsXsXsXsXsXsXsXsXsXsXsXsXsXsXsXsXsX",
"sXsXsXsXsXsXsXsXsXsXsXsXsXsXsXsXsXsX#XU.L.J.J.C.C.J.J.J.J.P.Y.$XsXsXsXsXsXsX/ $ + O O + + + + O O < [.`.'./.E.T.) | | | / Z.J.C.J.L.L.#XsXsXsXsXsXsXsXsXsXsXsXsXsXsXsXsXsXsXsXsXsXsXsXsXsXsXsXsX",
"sXsXsXsXsXsXsXsXsXsXsXsXsXsXsXsXsXsXK.#XU.L.J.J.C.C.J.C.L.Y.T.&XsXsXsXsXsXsXo.x + o O O O O O O o o Z.'./.E.E.E.#X( | / T L.J.J.L.L.#XR.sXsXsXsXsXsXsXsXsXsXsXsXsXsXsXsXsXsXsXsXsXsXsXsXsXsXsXsX",
"sXsXsXsXsXsXsXsXsXsXsXsXsXsXsXsXsXsXsX*X#XU.L.L.L.L.J.L.L.U.%XsXsXsXsXsXsXsXo. .4 o o O O O O o o X - /./.!.E.!.Y.#X` T Y.L.L.U.U.#X$XsXsXsXsXsXsXsXsXsXsXsXsXsXsXsXsXsXsXsXsXsXsXsXsXsXsXsXsXsX",
"sXsXsXsXsXsXsXsXsXsXsXsXsXsXsXsXsXsXsXsXsX$X#XU.U.U.U.U.U.#X%XsXsXsXsXsXsXsXo.o.M o o o o o o o o X X < !.!.!.~.~.~.#X#X#X#X#X#X#X&XsXsXsXsXsXsXsXsXsXsXsXsXsXsXsXsXsXsXsXsXsXsXsXsXsXsXsXsXsXsX",
"sXsXsXsXsXsXsXsXsXsXsXsXsXsXsXsXsXsXsXsXsXsXsXsXsX&X=X#X%X%X*XsXsXsXsXsXsX*.o.o.%.s o o o o X X X X X @ Z.^.^.=XsXsXsXsXsXsXsXsXsXsXsXsXsXsXsXsXsXsXsXsXsXsXsXsXsXsXsXsXsXsXsXsXsXsXsXsXsXsXsXsX",
"sXsXsXsXsXsXsXsXsXsXsXsXsXsXsXsXsXsXsXsXsXsXsXsXsXsXsXsXsXsXsXsXsXsXsXsXsX{ [ 0X/.L.@ X X X X X X X o @ : &XsXsXsXsXsXsXsXsXsXsXsXsXsXsXsXsXsXsXsXsXsXsXsXsXsXsXsXsXsXsXsXsXsXsXsXsXsXsXsXsXsXsX",
"sXsXsXsXsXsXsXsXsXsXsXsXsXsXsXsXsXsXsXsXsXsXsXsXsXsXsXsXsXsXsXsXsXsXsXsXsX:X^.!.E./.< X X X X . . X O $ 5 sXsXsXsXsXsXsXsXsXsXsXsXsXsXsXsXsXsXsXsXsXsXsXsXsXsXsXsXsXsXsXsXsXsXsXsXsXsXsXsXsXsXsX",
"sXsXsXsXsXsXsXsXsXsXsXsXsXsXsXsXsXsXsXsXsXsXsXsXsXsXsXsXsXsXsXsXsXsXsXsXsX7 # X . . . . . . . . . o @ 4 sXsXsXsXsXsXsXsXsXsXsXsXsXsXsXsXsXsXsXsXsXsXsXsXsXsXsXsXsXsXsXsXsXsXsXsXsXsXsXsXsXsXsXsX",
"sXsXsXsXsXsXsXsXsXsXsXsXsXsXsXsXsXsXsXsXsXsXsXsXsXsXsXsXsXsXsXsXsXsXsXsXsX6 + X . . . . . . . . . X @ 5 sXsXsXsXsXsXsXsXsXsXsXsXsXsXsXsXsXsXsXsXsXsXsXsXsXsXsXsXsXsXsXsXsXsXsXsXsXsXsXsXsXsXsXsX",
"sXsXsXsXsXsXsXsXsXsXsXsXsXsXsXsXsXsXsXsXsXsXsXsXsXsXsXsXsXsXsXsXsXsXsXsXsX4 + X   . . . . . . . . X @ sXsXsXsXsXsXsXsXsXsXsXsXsXsXsXsXsXsXsXsXsXsXsXsXsXsXsXsXsXsXsXsXsXsXsXsXsXsXsXsXsXsXsXsXsX",
"sXsXsXsXsXsXsXsXsXsXsXsXsXsXsXsXsXsXsXsXsXsXsXsXsXsXsXsXsXsXsXsXsXsXsXsXsX$ O .                 . . O 5 sXsXsXsXsXsXsXsXsXsXsXsXsXsXsXsXsXsXsXsXsXsXsXsXsXsXsXsXsXsXsXsXsXsXsXsXsXsXsXsXsXsXsXsX",
"sXsXsXsXsXsXsXsXsXsXsXsXsXsXsXsXsXsXsXsXsXsXsXsXsXsXsXsXsXsXsXsXsXsXsXsXi $ o .                   . O $ w sXsXsXsXsXsXsXsXsXsXsXsXsXsXsXsXsXsXsXsXsXsXsXsXsXsXsXsXsXsXsXsXsXsXsXsXsXsXsXsXsXsXsX",
"sXsXsXsXsXsXsXsXsXsXsXsXsXsXsXsXsXsXsXsXsXsXsXsXsXsXsXsXsXsXsXsXsXsXsXsXe $ o .                 . . o # 6 sXsXsXsXsXsXsXsXsXsXsXsXsXsXsXsXsXsXsXsXsXsXsXsXsXsXsXsXsXsXsXsXsXsXsXsXsXsXsXsXsXsXsX",
"sXsXsXsXsXsXsXsXsXsXsXsXsXsXsXsXsXsXsXsXsXsXsXsXsXsXsXsXsXsXsXsXsXsXsXsX8 * + X . . . . . . . . . X o $ 6 q sXsXsXsXsXsXsXsXsXsXsXsXsXsXsXsXsXsXsXsXsXsXsXsXsXsXsXsXsXsXsXsXsXsXsXsXsXsXsXsXsXsX",
"sXsXsXsXsXsXsXsXsXsXsXsXsXsXsXsXsXsXsXsXsXsXsXsXsXsXsXsXsXsXsXsXsXsXsXsXq 6 $ @ O O + + + + + O O + $ 4 7 9 sXsXsXsXsXsXsXsXsXsXsXsXsXsXsXsXsXsXsXsXsXsXsXsXsXsXsXsXsXsXsXsXsXsXsXsXsXsXsXsXsXsX",
"sXsXsXsXsXsXsXsXsXsXsXsXsXsXsXsXsXsXsXsXsXsXsXsXsXsXsXsXsXsXsXsXsXsXsXsXu q 7 6 6 4 4 4 4 4 4 4 4 4 6 7 q e sXsXsXsXsXsXsXsXsXsXsXsXsXsXsXsXsXsXsXsXsXsXsXsXsXsXsXsXsXsXsXsXsXsXsXsXsXsXsXsXsXsX"
};
