/* XPM */
static char *result[] = {
/* columns rows colors chars-per-pixel */
"96 128 216 2 ",
"   c #333437",
".  c #353639",
"X  c #37393C",
"o  c #393B3D",
"O  c #393B3E",
"+  c #3A3C3F",
"@  c #3B3D40",
"#  c #3C3E41",
"$  c #3D3F42",
"%  c #3F4144",
"&  c #3F4247",
"*  c #384646",
"=  c #3B4F4D",
"-  c #385A53",
";  c #3B625A",
":  c #197E64",
">  c #3A7A6C",
",  c #297B78",
"<  c #414346",
"1  c #434546",
"2  c #444647",
"3  c #444648",
"4  c #444749",
"5  c #464749",
"6  c #42464D",
"7  c #46494B",
"8  c #47494B",
"9  c #43484F",
"0  c #454A51",
"q  c #474D53",
"w  c #494E54",
"e  c #4A4F56",
"r  c #4C5057",
"t  c #4E5259",
"y  c #43585A",
"u  c #4A5A5A",
"i  c #505458",
"p  c #51555B",
"a  c #51565C",
"s  c #52565D",
"d  c #6B5645",
"f  c #555A60",
"g  c #426362",
"h  c #426E69",
"j  c #42756D",
"k  c #8A674B",
"l  c #8A694D",
"z  c #B17F55",
"x  c #1F856B",
"c  c #20886D",
"v  c #278470",
"b  c #228C71",
"n  c #3C8675",
"m  c #249175",
"M  c #25977A",
"N  c #299478",
"B  c #2B9479",
"V  c #279B7D",
"C  c #3E9373",
"Z  c #39907B",
"A  c #35A67B",
"S  c #6BB15C",
"D  c #408376",
"F  c #5DAE63",
"G  c #5EAF64",
"H  c #41A773",
"J  c #5EA47F",
"K  c #78A47A",
"L  c #96B73E",
"P  c #C2BB1F",
"I  c #C4BD20",
"U  c #BCC029",
"Y  c #CEC31D",
"T  c #E9C207",
"R  c #F4C603",
"E  c #F0C807",
"W  c #FCC900",
"Q  c #FFCC00",
"!  c #BB8555",
"~  c #84B449",
"^  c #B8856E",
"/  c #B39965",
"(  c #A0967B",
")  c #91A173",
"_  c #CF8F5A",
"`  c #D28F57",
"'  c #D59158",
"]  c #D2945D",
"[  c #D99358",
"{  c #DC9558",
"}  c #E0975A",
"|  c #E2995B",
" . c #E49A5D",
".. c #E69B5C",
"X. c #E89D5D",
"o. c #EA9E5E",
"O. c #C88B61",
"+. c #C68F77",
"@. c #CF9270",
"#. c #3B4D8B",
"$. c #365C88",
"%. c #2F7081",
"&. c #3A7795",
"*. c #424394",
"=. c #404A94",
"-. c #44469A",
";. c #47499F",
":. c #425E9E",
">. c #48779A",
",. c #407A9B",
"<. c #4A4CA7",
"1. c #4D4FA7",
"2. c #5153A8",
"3. c #5557A8",
"4. c #5355AC",
"5. c #575AA9",
"6. c #5659AA",
"7. c #565AAA",
"8. c #5759B2",
"9. c #595CB6",
"0. c #4C65A9",
"q. c #5E61B7",
"w. c #5F72BF",
"e. c #5A7DB9",
"r. c #7E6FA4",
"t. c #6063BA",
"y. c #6164BC",
"u. c #6265BF",
"i. c #6467BF",
"p. c #6A6BBF",
"a. c #696CBE",
"s. c #6467C1",
"d. c #6568C2",
"f. c #636EC2",
"g. c #6568C4",
"h. c #6669C5",
"j. c #676AC6",
"k. c #8676AA",
"l. c #2B9E81",
"z. c #349D83",
"x. c #3B9C84",
"c. c #30908A",
"v. c #368191",
"b. c #27A081",
"n. c #28A383",
"m. c #2CA284",
"M. c #28A585",
"N. c #29A686",
"B. c #2CA989",
"V. c #33A084",
"C. c #31A386",
"Z. c #36A186",
"A. c #34A487",
"S. c #39A187",
"D. c #34A689",
"F. c #35A78A",
"G. c #3DA289",
"H. c #3AA58A",
"J. c #36AA8D",
"K. c #30AC8C",
"L. c #37AD8F",
"P. c #39AA8E",
"I. c #3EA98E",
"U. c #33AF90",
"Y. c #3AAE90",
"T. c #3EAD91",
"R. c #3EA09C",
"E. c #34B393",
"W. c #38B092",
"Q. c #38B293",
"!. c #3BB395",
"~. c #3FB194",
"^. c #39B495",
"/. c #3AB797",
"(. c #3EB798",
"). c #38B898",
"_. c #3BB999",
"`. c #3ABB9A",
"'. c #3CBC9B",
"]. c #3FB99C",
"[. c #3CBC9C",
"{. c #3CBD9C",
"}. c #3CBE9D",
"|. c #3DBF9E",
" X c #409481",
".X c #45928B",
"XX c #40A58B",
"oX c #40A68B",
"OX c #43A68D",
"+X c #45A68D",
"@X c #47A68E",
"#X c #44A88F",
"$X c #4CA988",
"%X c #59AB87",
"&X c #44AB91",
"*X c #43AF94",
"=X c #45AD94",
"-X c #43B297",
";X c #42B397",
":X c #46B095",
">X c #44B397",
",X c #47B398",
"<X c #44B79A",
"1X c #48B498",
"2X c #48B698",
"3X c #47B89B",
"4X c #40BD9D",
"5X c #4986A1",
"6X c #4B9FAA",
"7X c #5587B5",
"8X c #5191B0",
"9X c #44A3A1",
"0X c #46A8A6",
"qX c #43B0A4",
"wX c #AD858A",
"eX c None",
/* pixels */
"eXeXeXeXeXeXeXeXeXeXeXeXeXeXeXeXeXeXeXeXeXeXeXeXeXeXeXeXeXeXeXeXeXeXeXeXeXeXeXeXeXeXeXeXeXeXeXeXeXeXeXeXeXeXeXeXeXeXeXeXeXeXeXeXeXeXeXeXeXeXeXeXeXeXeXeXeXeXeXeXeXeXeXeXeXeXeXeXeXeXeXeXeXeXeXeX",
"eXeXeXeXeXeXeXeXeXeXeXeXeXeXeXeXeXeXeXeXeXeXeXeXeXeXeXeXeXeXeXeXeXeXeXeXeXeXeXeXeXeXeXeXeXeXeXeXeXeXeXeXeXeXeXeXeXeXeXeXeXeXeXeXeXeXeXeXeXeXeXeXeXeXeXeXeXeXeXeXeXeXeXeXeXeXeXeXeXeXeXeXeXeXeXeX",
"eXeXeXeXeXeXeXeXeXeXeXeXeXeXeXeXeXeXeXeXeXeXeXeXeXeXeXeXeXeXeXeXeXeXeXeXeXeXeXeXeXeXeXeXeXeXeXeXeXeXeXeXeXeXeXeXeXeXeXeXeXeXeXeXeXeXeXeXeXeXeXeXeXeXeXeXeXeXeXeXeXeXeXeXeXeXeXeXeXeXeXeXeXeXeXeX",
"eXeXeXeXeXeXeXeXeXeXeXeXeXeXeXeXeXeXeXeXeXeXeXeXeXeXeXeXeXeXeXeXeXeXeXeXeXeXeXeXeXeXeXeXeXeXeXeXeXeXeXeXeXeXeXeXeXeXeXeXeXeXeXeXeXeXeXeXeXeXeXeXeXeXeXeXeXeXeXeXeXeXeXeXeXeXeXeXeXeXeXeXeXeXeXeX",
"eXeXeXeXeXeXeXeXeXeXeXeXeXeXeXeXeXeXeXeXeXeXeXeXeXeXeXeXeXeXeXeXeXeXeXeXeXeXeXeXeXeXeXeXeXeXeXeXeXeXeXeXeXeXeXeXeXeXeXeXeXeXeXeXeXeXeXeXeXeXeXeXeXeXeXeXeXeXeXeXeXeXeXeXeXeXeXeXeXeXeXeXeXeXeXeX",
"eXeXeXeXeXeXeXeXeXeXeXeXeXeXeXeXeXeXeXeXeXeXeXeXeXeXeXeXeXeXeXeXeXeXeXeXeXeXeXeXeXeXeXeXeXeXeXeXeXeXeXeXeXeXeXeXeXeXeXeXeXeXeXeXeXeXeXeXeXeXeXeXeXeXeXeXeXeXeXeXeXeXeXeXeXeXeXeXeXeXeXeXeXeXeXeX",
"eXeXeXeXeXeXeXeXeXeXeXeXeXeXeXeXeXeXeXeXeXeXeXeXeXeXeXeXeXeXeXeXeXeXeXeXeXeXeXeXeXeXeXeXeXeXeXeXeXeXeXeXeXeXeXeXeXeXeXeXeXeXeXeXeXeXeXeXeXeXeXeXeXeXeXeXeXeXeXeXeXeXeXeXeXeXeXeXeXeXeXeXeXeXeXeX",
"eXeXeXeXeXeXeXeXeXeXeXeXeXeXeXeXeXeXeXeXeXeXeXeXeXeXeXeXeXeXeXeXeXeXeXeXeXeXeXeXeXeXeXeXeXeXeXeXeXeXeXeXeXeXeXeXeXeXeXeXeXeXeXeXeXeXeXeXeXeXeXeXeXeXeXeXeXeXeXeXeXeXeXeXeXeXeXeXeXeXeXeXeXeXeXeX",
"eXeXeXeXeXeXeXeXeXeXeXeXeXeXeXeXeXeXeXeXeXeXeXeXeXeXeXeXeXeXeXeXeXeXeXeXeXeXeXeXeXeXeXeXeXeXeXeXeXeXeXeXeXeXeXeXeXeXeXeXeXeXeXeXeXeXeXeXeXeXeXeXeXeXeXeXeXeXeXeXeXeXeXeXeXeXeXeXeXeXeXeXeXeXeXeX",
"eXeXeXeXeXeXeXeXeXeXeXeXeXeXeXeXeXeXeXeXeXeXeXeXeXeXeXeXeXeXeXeXeXeXeXeXeXeXeXeXeXeXeXeXeXeXeXeXeXeXeXeXeXeXeXeXeXeXeXeXeXeXeXeXeXeXeXeXeXeXeXeXeXeXeXeXeXeXeXeXeXeXeXeXeXeXeXeXeXeXeXeXeXeXeXeX",
"eXeXeXeXeXeXeXeXeXeXeXeXeXeXeXeXeXeXeXeXeXeXeXeXeXeXeXeXeXeXeXeXeXeXeXeXeXeXeXeXeXeXeXeXeXeXeXeXeXeXeXeXeXeXeXeXeXeXeXeXeXeXeXeXeXeXeXeXeXeXeXeXeXeXeXeXeXeXeXeXeXeXeXeXeXeXeXeXeXeXeXeXeXeXeXeX",
"eXeXeXeXeXeXeXeXeXeXeXeXeXeXeXeXeXeXeXeXeXeXeXeXeXeXeXeXeXeXeXeXeXeXeXeXeXeXeXeXeXeXeXeXeXeXeXeXeXeXeXeXeXeXeXeXeXeXeXeXeXeXeXeXeXeXeXeXeXeXeXeXeXeXeXeXeXeXeXeXeXeXeXeXeXeXeXeXeXeXeXeXeXeXeXeX",
"eXeXeXeXeXeXeXeXeXeXeXeXeXeXeXeXeXeXeXeXeXeXeXeXeXeXeXeXeXeXeXeXeXeXeXeXeXeXeXeXeXeXeXeXeXeXeXeXeXeXeXeXeXeXeXeXeXeXeXeXeXeXeXeXeXeXeXeXeXeXeXeXeXeXeXeXeXeXeXeXeXeXeXeXeXeXeXeXeXeXeXeXeXeXeXeX",
"eXeXeXeXeXeXeXeXeXeXeXeXeXeXeXeXeXeXeXeXeXeXeXeXeXeXeXeXeXeXeXeXeXeXeXeXeXeXeXeXeXeXeXeXeXeXeXeXeXeXeXeXeXeXeXeXeXeXeXeXeXeXeXeXeXeXeXeXeXeXeXeXeXeXeXeXeXeXeXeXeXeXeXeXeXeXeXeXeXeXeXeXeXeXeXeX",
"eXeXeXeXeXeXeXeXeXeXeXeXeXeXeXeXeXeXeXeXeXeXeXeXeXeXeXeXeXeXeXeXeXeXeXeXeXeXeXeXeXeXeXeXeXeXeXeXeXeXeXeXeXeXeXeXeXeXeXeXeXeXeXeXeXeXeXeXeXeXeXeXeXeXeXeXeXeXeXeXeXeXeXeXeXeXeXeXeXeXeXeXeXeXeXeX",
"eXeXeXeXeXeXeXeXeXeXeXeXeXeXeXeXeXeXeXeXeXeXeXeXeXeXeXeXeXeXeXeXeXeXeXeXeXeXeXeXeXeXeXeXeXeXeXeXeXeXeXeXeXeXeXeXeXeXeXeXeXeXeXeXeXeXeXeXeXeXeXeXeXeXeXeXeXeXeXeXeXeXeXeXeXeXeXeXeXeXeXeXeXeXeXeX",
"eXeXeXeXeXeXeXeXeXeXeXeXeXeXeXeXeXeXeXeXeXeXeXeXeXeXeXeXeXeXeXeXeXeXeXeXeXeXeXeXeXeXeXeXeXeXeXeXeXeXeXeXeXeXeXeXeXeXeXeXeXeXeXeXeXeXeXeXeXeXeXeXeXeXeXeXeXeXeXeXeXeXeXeXeXeXeXeXeXeXeXeXeXeXeXeX",
"eXeXeXeXeXeXeXeXeXeXeXeXeXeXeXeXeXeXeXeXeXeXeXeXeXeXeXeXeXeXeXeXeXeXeXeXeXeXeXeXeXeXeXeXeXeXeXeXeXeXeXeXeXeXeXeXeXeXeXeXeXeXeXeXeXeXeXeXeXeXeXeXeXeXeXeXeXeXeXeXeXeXeXeXeXeXeXeXeXeXeXeXeXeXeXeX",
"eXeXeXeXeXeXeXeXeXeXeXeXeXeXeXeXeXeXeXeXeXeXeXeXeXeXeXeXeXeXeXeXeXeXeXeXeXeXeXeXeXeXeXeXeXeXeXeXeXeXeXeXeXeXeXeXeXeXeXeXeXeXeXeXeXeXeXeXeXeXeXeXeXeXeXeXeXeXeXeXeXeXeXeXeXeXeXeXeXeXeXeXeXeXeXeX",
"eXeXeXeXeXeXeXeXeXeXeXeXeXeXeXeXeXeXeXeXeXeXeXeXeXeXeXeXeXeXeXeXeXeXeXeXeXeXeXeXeXeXeXeXeXeXeXeXeXeXeXeXeXeXeXeXeXeXeXeXeXeXeXeXeXeXeXeXeXeXeXeXeXeXeXeXeXeXeXeXeXeXeXeXeXeXeXeXeXeXeXeXeXeXeXeX",
"eXeXeXeXeXeXeXeXeXeXeXeXeXeXeXeXeXeXeXeXeXeXeXeXeXeXeXeXeXeXeXeXeXeXeXeXeXeXeXeXeXeXeXeXeXeXeXeXeXeXeXeXeXeXeXeXeXeXeXeXeXeXeXeXeXeXeXeXeXeXeXeXeXeXeXeXeXeXeXeXeXeXeXeXeXeXeXeXeXeXeXeXeXeXeXeX",
"eXeXeXeXeXeXeXeXeXeXeXeXeXeXeXeXeXeXeXeXeXeXeXeXeXeXeXeXeXeXeXeXeXeXeXeXeXeXeXeXeXeXeXeXeXeXeXeXeXeXeXeXeXeXeXeXeXeXeXeXeXeXeXeXeXeXeXeXeXeXeXeXeXeXeXeXeXeXeXeXeXeXeXeXeXeXeXeXeXeXeXeXeXeXeXeX",
"eXeXeXeXeXeXeXeXeXeXeXeXeXeXeXeXeXeXeXeXeXeXeXeXeXeXeXeXeXeXeXeXeXeXeXeXeXeXeXeXeXeXeXeXeXeXeXeXeXeXeXeXeXeXeXeXeXeXeXeXeXeXeXeXeXeXeXeXeXeXeXeXeXeXeXeXeXeXeXeXeXeXeXeXeXeXeXeXeXeXeXeXeXeXeXeX",
"eXeXeXeXeXeXeXeXeXeXeXeXeXeXeXeXeXeXeXeXeXeXeXeXeXeXeXeXeXeXeXeXeXeXeXeXeXeXeXeXeXeXeXeXeXeXeXeXeXeXeXeXeXeXeXeXeXeXeXeXeXeXeXeXeXeXeXeXeXeXeXeXeXeXeXeXeXeXeXeXeXeXeXeXeXeXeXeXeXeXeXeXeXeXeXeX",
"eXeXeXeXeXeXeXeXeXeXeXeXeXeXeXeXeXeXeXeXeXeXeXeXeXeXeXeXeXeXeXeXeXeXeXeXeXeXeXeXeXeXeXeXeXeXeXeXeXeXeXeXeXeXeXeXeXeXeXeXeXeXeXeXeXeXeXeXeXeXeXeXeXeXeXeXeXeXeXeXeXeXeXeXeXeXeXeXeXeXeXeXeXeXeXeX",
"eXeXeXeXeXeXeXeXeXeXeXeXeXeXeXeXeXeXeXeXeXeXeXeXeXeXeXeXeXeXeXeXeXeXeXeXeXeXeXeXeXeXeXeXeXeXeXeXeXeXeXeXeXeXeXeXeXeXeXeXeXeXeXeXeXeXeXeXeXeXeXeXeXeXeXeXeXeXeXeXeXeXeXeXeXeXeXeXeXeXeXeXeXeXeXeX",
"eXeXeXeXeXeXeXeXeXeXeXeXeXeXeXeXeXeXeXeXeXeXeXeXeXeXeXeXeXeXeXeXeXeXeXeXeXeXeXeXeXeXeXeXeXeXeXeXeXeXeXeXeXeXeXeXeXeXeXeXeXeXeXeXeXeXeXeXeXeXeXeXeXeXeXeXeXeXeXeXeXeXeXeXeXeXeXeXeXeXeXeXeXeXeXeX",
"eXeXeXeXeXeXeXeXeXeXeXeXeXeXeXeXeXeXeXeXeXeXeXeXeXeXeXeXeXeXeXeXeXeXeXeXeXeXeXeXeXeXeXeXeXeXeXeXeXeXp f eXeXeXeXeXeXeXeXeXeXeXeXeXeXeXeXeXeXeXeXeXeXeXeXeXeXeXeXeXeXeXeXeXeXeXeXeXeXeXeXeXeXeXeX",
"eXeXeXeXeXeXeXeXeXeXeXeXeXeXeXeXeXeXeXeXeXeXeXeXeXeXeXeXeXeXeXeXeXeXeXeXeXeXeXeXeXeXeXeXeXeXeXeXeXf p p a eXeXeXeXeXeXeXeXeXeXeXeXeXeXeXeXeXeXeXeXeXeXeXeXeXeXeXeXeXeXeXeXeXeXeXeXeXeXeXeXeXeXeX",
"eXeXeXeXeXeXeXeXeXeXeXeXeXeXeXeXeXeXeXeXeXeXeXeXeXeXeXeXeXeXeXeXeXeXeXeXeXeXeXeXeXeXeXeXeXeXeXeXeXp t t t p eXeXeXeXeXeXeXeXeXeXeXeXeXeXeXeXeXeXeXeXeXeXeXeXeXeXeXeXeXeXeXeXeXeXeXeXeXeXeXeXeXeX",
"eXeXeXeXeXeXeXeXeXeXeXeXeXeXeXeXeXeXeXeXeXeXeXeXeXeXeXeXeXeXeXeXeXeXeXeXeXeXeXeXeXeXeXeXeXeXeXeXp r w w e t p s eXeXeXeXeXeXeXeXeXeXeXeXeXeXeXeXeXeXeXeXeXeXeXeXeXeXeXeXeXeXeXeXeXeXeXeXeXeXeXeX",
"eXeXeXeXeXeXeXeXeXeXeXeXeXeXeXeXeXeXeXeXeXeXeXeXeXeXeXeXeXeXeXeXeXeXeXeXeXeXeXeXeXeXeXeXeXeXeXa t w 0 9 0 w r t i eXeXeXeXeXeXeXeXeXeXeXeXeXeXeXeXeXeXeXeXeXeXeXeXeXeXeXeXeXeXeXeXeXeXeXeXeXeXeX",
"eXeXeXeXeXeXeXeXeXeXeXeXeXeXeXeXeXeXeXeXeXeXeXeXeXeXeXeXeXeXeXeXeXeXeXeXeXeXeXeXeXeXeXeXeXeXu t r 0 # @ # 6 w e t p s eXeXeXeXeXeXeXeXeXeXeXeXeXeXeXeXeXeXeXeXeXeXeXeXeXeXeXeXeXeXeXeXeXeXeXeXeX",
"eXeXeXeXeXeXeXeXeXeXeXeXeXeXeXeXeXeXeXeXeXeXeXeXeXeXeXeXeXeXeXeXeXeXeXeXeXeXeXeXeXeXeXeXeXeXp r w & @ @ @ # 9 w w r t p s eXeXeXeXeXeXs s p p p p p i eXeXeXeXeXeXeXeXeXeXeXeXeXeXeXeXeXeXeXeXeX",
"eXeXeXeXeXeXeXeXeXeXeXeXeXeXeXeXeXeXeXeXeXeXeXeXeXeXeXeXeXeXeXeXeXeXeXeXeXeXeXeXeXeXeXeXeXa t w 6 @ # # # # # 9 q w e r t t p p p p t t r r e e e r p eXeXeXeXeXeXeXeXeXeXeXeXeXeXeXeXeXeXeXeXeX",
"eXeXeXeXeXeXeXeXeXeXeXeXeXeXeXeXeXeXeXeXeXeXeXeXeXeXeXeXeXeXeXeXeXeXeXeXeXeXeXeXeXeXeXeXa t w 9 # # # # # # # # 6 0 q q e e r r r e w w w q 0 0 0 q r s eXeXeXeXeXeXeXeXeXeXeXeXeXeXeXeXeXeXeXeX",
"eXeXeXeXeXeXeXeXeXeXeXeXeXeXeXeXeXeXeXeXeXeXeXeXeXeXeXeXeXeXeXeXeXeXeXeXeXeXeXeXeXeXeXa t w 0 $ # # # # # # # # # & 0 0 q q q q q q 0 0 0 9 9 9 9 0 w t eXeXeXeXeXeXeXeXeXeXeXeXeXeXeXeXeXeXeXeX",
"eXeXeXeXeXeXeXeXeXeXeXeXeXeXeXeXeXeXeXeXeXeXeXeXeXeXeXeXeXeXeXeXeXeXeXeXeXeXeXeXeXeXp t w 0 % # # # # # # # # # # # % 9 0 0 0 0 0 0 0 9 0 9 9 6 6 9 q e eXeXeXeXeXeXeXeXeXeXeXeXeXeXeXeXeXeXeXeX",
"eXeXeXeXeXeXeXeXeXeXeXeXeXeXeXeXeXeXeXeXeXeXeXeXeXeXeXeXeXeXeXeXeXeXeXeXeXeXeXeXs p r w 0 & # # # # # # # # # # # # # # & 9 0 0 0 0 9 0 9 9 6 & & & < 3 eXeXeXeXeXeXeXeXeXeXeXeXeXeXeXeXeXeXeXeX",
"eXeXeXeXeXeXeXeXeXeXeXeXeXeXeXeXeXeXeXeXeXeXeXeXeXeXeXeXeXeXeXeXeXeXeXeXeXeXeXa t r w q & # # # # # # # # # # # # # # # # # 9 0 0 0 9 0 9 9 % O o O $ < 5 eXeXeXeXeXeXeXeXeXeXeXeXeXeXeXeXeXeXeX",
"eXeXeXeXeXeXeXeXeXeXeXeXeXeXeXeXeXeXeXeXeXeXeXeXeXeXeXeXeXi r t a s s s a p t r e w q & # # # # # # # # # # # # # # # # # # % 0 0 0 9 0 9 9 # O o o @ % 1 eXeXeXeXeXeXeXeXeXeXeXeXeXeXeXeXeXeXeX",
"eXeXeXeXeXeXeXeXeXeXeXeXeXeXeXeXeXeXeXeXeXeXeXeXeXeXeXeXeX7 7 3 0 r r r r r e w q 0 & # # # # # # # # # # # # # # # # # # # # 9 0 0 0 9 9 6 O o o o + % 7 eXeXeXeXeXeXeXeXeXeXeXeXeXeXeXeXeXeXeX",
"eXeXeXeXeXeXeXeXeXeXeXeXeXeXeXeXeXeXeXeXeXeXeXeXeXeXeXeX5 3 < % % & 6 w w q q 0 0 & # # # # # # # # # # # # # # # # # # # # # 6 0 0 9 9 9 & O o X X + % 3 eXeXeXeXeXeXeXeXeXeXeXeXeXeXeXeXeXeXeX",
"eXeXeXeXeXeXeXeXeXeXeXeXeXeXeXeXeXeXeXeXeXeXeXeXeXeXeXeX7 < $ # # @ # $ 6 0 0 0 $ # # # # # # # # # # # # # # # # # # # # # # 6 0 9 0 9 9 # O o X X O % 3 eXeXeXeXeXeXeXeXeXeXeXeXeXeXeXeXeXeXeX",
"eXeXeXeXeXeXeXeXeXeXeXeXeXeXeXeXeXeXeXeXeXeXeXeXeXeXeX8 3 $ # + + + @ @ @ # & $ # # # # # # # # # # # # # # # # # # # # # # # 6 0 0 9 9 & O o o X X + % 5 eXeXeXeXeXeXeXeXeXeXeXeXeXeXeXeXeXeXeX",
"eXeXeXeXeXeXeXeXeXeXeXeXeXeXeXeXeXeXeXeXeXeXeXeXeXeXeX4 < $ @ O + + @ @ @ # # # # # # # # # # # # # # # # # # # # # # # # # # 6 0 9 0 6 + O o X X o @ % 5 eXeXeXeXeXeXeXeXeXeXeXeXeXeXeXeXeXeXeX",
"eXeXeXeXeXeXeXeXeXeXeXeXeXeXeXeXeXeXeXeXeXeXeXeXeXeXeX7 % # + O + + @ @ @ # # # # # # # # # # # # # # # # # # # # # # # # # # 6 0 0 6 + + O o X X o @ < eXeXeXeXeXeXeXeXeXeXeXeXeXeXeXeXeXeXeXeX",
"eXeXeXeXeXeXeXeXeXeXeXeXeXeXeXeXeXeXeXeXeXeXeXeXeXeXeX3 % @ o O + + @ @ @ # # # # # # # # # # # # # # # # # # # # # # # # # # 0 9 6 @ + + O o X X o $ < eXeXeXeXeXeXeXeXeXeXeXeXeXeXeXeXeXeXeXeX",
"eXeXeXeXeXeXeXeXeXeXeXeXeXeXeXeXeXeXeXeXeXeXeXeXeXeXeX3 % @ o O + @ @ @ @ # # # # # # # # # # # # # # # # # # # # # # # # # # 9 & @ @ + O o o X o + % 2 eXeXeXeXeXeXeXeXeXeXeXeXeXeXeXeXeXeXeXeX",
"eXeXeXeXeXeXeXeXeXeXeXeXeXeXeXeXeXeXeXeXeXeXeXeXeXeXeX3 $ @ o O + @ @ @ @ # # # # # # # # # # # # # # # # # # # # # # # # # $ @ @ @ @ + O o o X O # < eXeXeXeXeXeXeXeXeXeXeXeXeXeXeXeXeXeXeXeXeX",
"eXeXeXeXeXeXeXeXeXeXeXeXeXeXeXeXeXeXeXeXeXeXeXeXeXeXeX3 % @ O O + @ @ @ # # # # # # # # # # # # # # # # # # # # # # # # # # # @ @ @ @ + O o o O @ % 2 eXeXeXeXeXeXeXeXeXeXeXeXeXeXeXeXeXeXeXeXeX",
"eXeXeXeXeXeXeXeXeXeXeXeXeXeXeXeXeXeXeXeXeXeXeXeXeXeXeX3 % @ O + + @ @ @ # # # # # # # # # # # # # # # # # # # # # # # # # # # @ @ @ @ + O o o + $ < eXeXeXeXeXeXeXeXeXeXeXeXeXeXeXeXeXeXeXeXeXeX",
"eXeXeXeXeXeXeXeXeXeXeXeXeXeXeXeXeXeXeXeXeXeXeXeXeXeXeX7 < @ + + + @ @ @ # # # # # # # # # # # # # # # # # # # # # # # # = ; = @ @ @ @ + O O + # < 2 eXeXeXeXeXeXeXeXeXeXeXeXeXeXeXeXeXeXeXeXeXeX",
"eXeXeXeXeXeXeXeXeXeXeXeXeXeXeXeXeXeXeXeXeXeXeXeXeXeXeX2 < # + + * @ @ @ # # # # # # # # # # # # # # # # # # # # # # = n (.|.|.}.x.Z > = + O @ $ 3 eXeXeXeXeXeXeXeXeXeXeXeXeXeXeXeXeXeXeXeXeXeXeX",
"eXeXeXeXeXeXeXeXeXeXeXeXeXeXeXeXeXeXeXeXeXeXeXeXeXeXeX5 < $ + + !.H.Z ; # # # # # # # # # # # # # # # # # # # = n x.|.|.|.|.|.|.}.{.'.= + + # < 2 eXeXeXeXeXeXeXeXeXeXeXeXeXeXeXeXeXeXeXeXeXeXeX",
"eXeXeXeXeXeXeXeXeXeXeXeXeXeXeXeXeXeXeXeXeXeXeXeXeXeXeX8 3 % # + x.[.}.}.T.x.> ; * & 6 $ # # # # # # = ; ; Z H.|.|.|.|.|.|.|.|.|.}.{.[.+ + @ $ 3 eXeXeXeXeXeXeXeXeXeXeXeXeXeXeXeXeXeXeXeXeXeXeXeX",
"eXeXeXeXeXeXeXeXeXeXeXeXeXeXeXeXeXeXeXeXeXeXeXeXeXeXeXeX3 % # + Z {.}.|.(. Xj y 0 0 0  X|.|.|.|.|.|.|.|.|.|.|.|.|.|.|.|.|.|.|.|.}.{.!.+ + # % 3 eXeXeXeXeXeXeXeXeXeXeXeXeXeXeXeXeXeXeXeXeXeXeXeX",
"eXeXeXeXeXeXeXeXeXeXeXeXeXeXeXeXeXeXeXeXeXeXeXeXeXeXeXeX3 % $ + > {.D g 0 0 0 0 0 0 0 h |.|.|.|.|.|.|.|.|.|.|.|.|.|.|.|.|.|.|.|.}.{.x.@ @ # < 4 eXeXeXeXeXeXeXeXeXeXeXeXeXeXeXeXeXeXeXeXeXeXeXeX",
"eXeXeXeXeXeXeXeXeXeXeXeXeXeXeXeXeXeXeXeXeXeXeXeXeXeXeXeX7 % $ + ; {.g 0 0 0 0 0 0 0 0 h |.|.|.|.|.|.|.|.|.|.|.|.|.|.|.|.|.|.|.|.}.{.Z @ @ $ < 5 eXeXeXeXeXeXeXeXeXeXeXeXeXeXeXeXeXeXeXeXeXeXeXeX",
"eXeXeXeXeXeXeXeXeXeXeXeXeXeXeXeXeXeXeXeXeXeXeXeXeXeXeXeX7 % $ + - {.> 0 0 0 0 y D x.(.|.|.|.|.|.|.|.|.|.|.|.|.|.G.D  XG.(.|.|.|.}.{.> @ @ $ 3 u eXeXeXeXeXeXeXeXeXeXeXeXeXeXeXeXeXeXeXeXeXeXeXeX",
"eXeXeXeXeXeXeXeXeXeXeXeXeXeXeXeXeXeXeXeXeXeXeXeXeXeXeXeX3 % # + @ {. Xq j  XP.).).).{.|.|.|.|.|.|.|.|.|.|.|.|.|.D 0 0 0 0 0 g g D D > @ @ $ < eXeXeXeXeXeXeXeXeXeXeXeXeXeXeXeXeXeXeXeXeXeXeXeXeX",
"eXeXeXeXeXeXeXeXeXeXeXeXeXeXeXeXeXeXeXeXeXeXeXeXeXeXeXeX7 $ # + @ !.}.|.).B.N.N.N.N.N.U.{.|.|.|.|.|.|.|.|.|.|.|.h 0 0 0 0 0 0 0 0 y - + @ # % u eXeXeXeXeXeXeXeXeXeXeXeXeXeXeXeXeXeXeXeXeXeXeXeX",
"eXeXeXeXeXeXeXeXeXeXeXeXeXeXeXeXeXeXeXeXeXeXeXeXeXeX2X<X; # @ + @ x.}.).N.N.L Q Q Q Y N.K.|.|.|.|.|.|.|.|.|.|.|.g 0 0 0 0 0 0 9 0 g = + + @ $  X;XeXeXeXeXeXeXeXeXeXeXeXeXeXeXeXeXeXeXeXeXeXeXeX",
"eXeXeXeXeXeXeXeXeXeXeXeXeXeXeXeXeXeXeXeXeXeXeXeXeX-X<X(.; @ + + @ Z {.B.N.G Q Q Q Q Q L N.E.|.|.|.|.|.|.|.|.|.|.I.G. XD D g g q 0 j + + + + @ T.>X3XeXeXeXeXeXeXeXeXeXeXeXeXeXeXeXeXeXeXeXeXeXeX",
"eXeXeXeXeXeXeXeXeXeXeXeXeXeXeXeXeXeXeXeXeXeXeXeX1X>X>X!.> O O + + > ).M.M.U Q Q Q Q Q E N.N.|.|.|.|.|.|.|.|.|.|.|.|.).E.E.U.E.).[.!.+ + O o + !.~.>X;XeXeXeXeXeXeXeXeXeXeXeXeXeXeXeXeXeXeXeXeXeX",
"eXeXeXeXeXeXeXeXeXeXeXeXeXeXeXeXeXeXeXeXeXeXeXeX>X*X~.Y.> o O + + Z U.n.M.Y Q Q Q Q Q Q N.N.).|.|.|.|.|.|.|.|.|.`.B.A G F F A n.K.x.+ O O o * C.~.*X*XeXeXeXeXeXeXeXeXeXeXeXeXeXeXeXeXeXeXeXeXeX",
"eXeXeXeXeXeXeXeXeXeXeXeXeXeXeXeXeXeXeXeXeXeXeX2X*XT.Y.l.V ; * O > `.U.n.M.L Q Q Q Q Q Y N.N.).|.|.|.|.|.|.|.|.|.B.N.Y Q Q W E A n.U.O O o X - M D.T.T.=XeXeXeXeXeXeXeXeXeXeXeXeXeXeXeXeXeXeXeXeX",
"eXeXeXeXeXeXeXeXeXeXeXeXeXeXeXeXeXeXeXeXeXeXeX=XT.T.C.M V V U./._._.U.n.M.H E Q Q Q Q S N.N.).|.|.|.|.|.|.|.|.E.N.S Q Q W W W ~ b.b.- o o X v M M P.I.&XeXeXeXeXeXeXeXeXeXeXeXeXeXeXeXeXeXeXeXeX",
"eXeXeXeXeXeXeXeXeXeXeXeXeXeXeXeXeXeXeXeXeXeXeX&XT.P.V M M V U./._._.^.n.n.M.H U Y Y G N.N.N.|.|.`.).).).`.|.|.N.N.U Q Q W W W I b.b.K.Z Z v M M m A.I.&XeXeXeXeXeXeXeXeXeXeXeXeXeXeXeXeXeXeXeXeX",
"eXeXeXeXeXeXeXeXeXeXeXeXeXeXeXeXeXeXeXeXeXeXeX&XI.P.V M M V K././._.`.N.n.M.N.N.N.N.N.N.N.U.{.B.N.N.N.N.K.|.`.N.N.Y Q W W W W P b.b.m.Q.C.M M m m V.I.&XeXeXeXeXeXeXeXeXeXeXeXeXeXeXeXeXeXeXeXeX",
"eXeXeXeXeXeXeXeXeXeXeXeXeXeXeXeXeXeXeXeXeXeXeX&XI.P.l.M M V D././._.`.E.n.M.M.N.N.N.N.N.N.{.E.N.N.N.N.N.N.).).N.N.~ Q W W W R L b.V m.W.m.M m m m Z.H.OXeXeXeXeXeXeXeXeXeXeXeXeXeXeXeXeXeXeXeXeX",
"eXeXeXeXeXeXeXeXeXeXeXeXeXeXeXeXeXeXeXeXeXeXeX#XI.I.A.M M V C././._.`.'.U.M.M.N.N.N.N.B.`.|.E.N.N.N.N.N.N.`.).N.N.A Y W W W T H V V l.W.V m m m N H.XXOXeXeXeXeXeXeXeXeXeXeXeXeXeXeXeXeXeXeXeXeX",
"eXeXeXeXeXeXeXeXeXeXeXeXeXeXeXeXeXeXeXeXeXeXeXeX&XI.Y.l.M V m././._.`.'.{.).K.K.K.K.E.{.|.|.|.E.B.N.N.B.).|.|.N.N.M.n.~ L L A b.V V C.L.V m m m Z.H.XX+XeXeXeXeXeXeXeXeXeXeXeXeXeXeXeXeXeXeXeXeX",
"eXeXeXeXeXeXeXeXeXeXeXeXeXeXeXeXeXeXeXeXeXeXeXeX:X&XT.Y.C.V m././._.`.'.{.}.}.|.|.|.|.|.|.|.|.|.|.|.|.|.|.|.|.E.N.M.n.n.n.b.b.b.V V L.L.M m N Z.H.XXOXeXeXeXeXeXeXeXeXeXeXeXeXeXeXeXeXeXeXeXeXeX",
"eXeXeXeXeXeXeXeXeXeXeXeXeXeXeXeXeXeXeXeXeXeXeXeXeX*X*X~.~.W.W././._.`.[.{.}.|.|.|.|.|.|.|.|.|.|.|.|.|.|.|.|.|.{.B.M.n.n.n.b.b.V V D.L.J.A.A.H.H.XXOXeXeXeXeXeXeXeXeXeXeXeXeXeXeXeXeXeXeXeXeXeXeX",
"eXeXeXeXeXeXeXeXeXeXeXeXeXeXeXeXeXeXeXeXeXeXeXeXeXeX,X>X>X(.(.(._._.'.[.{.}.|.|.|.|.|.|.|.|.|.`.U.l.l.l.C.^.|.|.{.K.n.n.n.b.b.b.J.W.Y.P.P.I.I.XXOXeXeXeXeXeXeXeXeXeXeXeXeXeXeXeXeXeXeXeXeXeXeXeX",
"eXeXeXeXeXeXeXeXeXeXeXeXeXeXeXeXeXeXeXeXeXeXeXeXeXeXeX2X<X<X<X].]._.'.[.{.}.|.|.|.|.|.|.|.`.b : : : : : : x Q.|.|.}.).U.K.K.K.^.Q.W.Y.T.T.&X&X#XeXeXeXeXeXeXeXeXeXeXeXeXeXeXeXeXeXeXeXeXeXeXeXeX",
"eXeXeXeXeXeXeXeXeXeXeXeXeXeXeXeXeXeXeXeXeXeXeXeXeXeXeXeXeXeXeX;X].'.[.{.}.}.|.|.|.|.|.|.|.M : : : : : : : : x |.|.}.{.'._._./.^.!.!.~.-XeXeXeXeXeXeXeXeXeXeXeXeXeXeXeXeXeXeXeXeXeXeXeXeXeXeXeXeX",
"eXeXeXeXeXeXeXeXeXeXeXeXeXeXeXeXeXeXeXeXeXeXeXeXeXeXeXeXeXeXeX-X4X4X[.{.}.|.|.|.|.|.|.|.|.b : : V l.l.l.c : : |.|.}.{.'.`._./.^.!.~.>XeXeXeXeXeXeXeXeXeXeXeXeXeXeXeXeXeXeXeXeXeXeXeXeXeXeXeXeXeX",
"eXeXeXeXeXeXeXeXeXeXeXeXeXeXeXeXeXeXeXeXeXeXeXeXeXeXeXeXeXeXeX1X4X4X{.}.}.|.|.|.|.|.|.|.|.K.b l.|.|.|.|.`.l.K.|.|.}.{.[.`._././.(.>X:XeXeXeXeXeXeXeXeXeXeXeXeXeXeXeXeXeXeXeXeXeXeXeXeXeXeXeXeXeX",
"eXeXeXeXeXeXeXeXeXeXeXeXeXeXeXeXeXeXeXeXeXeXeXeXeXeXeXeXeXeXeX.X4X4X{.}.|.|.|.|.|.|.|.|.|.|.|.|.|.|.|.|.|.|.|.|.|.}.{.[.`._.(.(.<X<XeXeXeXeXeXeXeXeXeXeXeXeXeXeXeXeXeXeXeXeXeXeXeXeXeXeXeXeXeXeX",
"eXeXeXeXeXeXeXeXeXeXeXeXeXeXeXeXeXeXeXeXeXeXeXeXeXeXeXeXeXeX6.5X4X4X}.}.|.|.|.|.|.|.|.|.|.|.|.|.|.|.|.|.|.|.|.|.|.}.{.[.`._._.(.<XeXeXeXeXeXeXeXeXeXeXeXeXeXeXeXeXeXeXeXeXeXeXeXeXeXeXeXeXeXeXeX",
"eXeXeXeXeXeXeXeXeXeXeXeXeXeXeXeXeXeXeXeXeXeXeXeXeXeXeXeXeX5.4.0.0X0X0XR.R.R.W.E.Q.E.W.W.U.U.U.U.U.U.U.W.W.L.R.R.R.R.R.R.9X9X9X5XeXeXeXeXeXeXeXeXeXeXeXeXeXeXeXeXeXeXeXeXeXeXeXeXeXeXeXeXeXeXeXeX",
"eXeXeXeXeXeXeXeXeXeXeXeXeXeXeXeXeXeXeXeXeXeXeXeXeXeXeXeX3.4.4.d.h.s.8.;.;.-.=.%.m b b c c x x x x x x x , #.*.*.*.-.-.4.q.t.q.1.eXeXeXeXeXeXeXeXeXeXeXeXeXeXeXeXeXeXeXeXeXeXeXeXeXeXeXeXeXeXeXeX",
"eXeXeXeXeXeXeXeXeXeXeXeXeXeXeXeXeXeXeXeXeXeXeXeXeXeXeX6.4.2.8.g.h.d.2.;.;.;.-.-.=., b b b c c c c c c %.*.*.*.*.-.-.8.q.t.y.t.2.3.eXeXeXeXeXeXeXeXeXeXeXeXeXeXeXeXeXeXeXeXeXeXeXeXeXeXeXeXeXeXeX",
"eXeXeXeXeXeXeXeXeXeXeXeXeXeXeXeXeXeXeXeXeXeXeXeXeXeX6.4.2.1.9.d.h.h.9.<.;.;.;.-.-.*.$., b b b b b b $.*.*.*.*.-.;.q.q.t.y.u.8.1.2.eXeXeXeXeXeXeXeXeXeXeXeXeXeXeXeXeXeXeXeXeXeXeXeXeXeXeXeXeXeXeX",
"eXeXeXeXeXeXeXeXeXeXeXeXeXeXeXeXeXeXeXeXeXeXeXeXeX7.4.2.1.1.4.d.h.h.g.u.8.;.;.;.-.-.-.*.$.v m m , #.*.*.*.-.-.1.q.t.y.u.u.s.4.1.2.3.eXeXeXeXeXeXeXeXeXeXeXeXeXeXeXeXeXeXeXeXeXeXeXeXeXeXeXeXeXeX",
"eXeXeXeXeXeXeXeXeXeXeXeXeXeXeXeXeXeXeXeXeXeXeXeX7.4.2.1.1.<.1.d.g.h.g.g.s.t.2.;.;.-.-.-.-.-.%.%.=.*.-.-.-.-.4.q.t.y.u.s.d.d.4.<.1.2.eXeXeXeXeXeXeXeXeXeXeXeXeXeXeXeXeXeXeXeXeXeXeXeXeXeXeXeXeXeX",
"eXeXeXeXeXeXeXeXeXeXeXeXeXeXeXeXeXeXeXeXeXeXeX5.4.2.1.1.<.<.<.y.h.h.h.h.d.s.u.q.1.;.;.-.-.-.-.2.-.-.-.-.;.9.t.y.y.u.d.g.h.d.<.<.1.2.3.eXeXeXeXeXeXeXeXeXeXeXeXeXeXeXeXeXeXeXeXeXeXeXeXeXeXeXeXeX",
"eXeXeXeXeXeXeXeXeXeXeXeXeXeXeXeXeXeXeXeXeXeXeX>.,.&.&.<.<.<.<.9.d.d.g.h.e.h.s.u.u.9.1.;.;.;.2.q.<.;.;.2.q.y.y.u.s.h.j.h.h.s.<.<.1.1.2.6.eXeXeXeXeXeXeXeXeXeXeXeXeXeXeXeXeXeXeXeXeXeXeXeXeXeXeXeX",
"eXeXeXeXeXeXeXeXeXeXeXeXeXeXeXeXeXeXeXeXeXeXeXA.C.m.c.<.<.<.<.4.d.g.d.d.].8Xh.g.s.s.u.9.<.;.q.y.9.;.8.y.u.u.s.g.h.j.j.h.h.t.<.:.b.c.c.>.eXeXeXeXeXeXeXeXeXeXeXeXeXeXeXeXeXeXeXeXeXeXeXeXeXeXeXeX",
"eXeXeXeXeXeXeXeXeXeXeXeXeXeXeXeXeXeXeXeXeXeXz.A.m.n.c.<.<.<.<.1.d.g.d.g.6X{.7Xh.h.j.h.d.u.9.s.s.s.y.s.s.d.h.j.j.j.j.j.j.h.9.<.&.b.l.C.z.eXeXeXeXeXeXeXeXeXeXeXeXeXeXeXeXeXeXeXeXeXeXeXeXeXeXeXeX",
"eXeXeXeXeXeXeXeXeXeXeXeXeXeXeXeXeXeXeXeXeXeX<XD.m.n.c.<.<.<.<.<.y.d.d.d.w.[.].w.h.h.j.j.j.j.h.h.h.h.j.j.j.j.j.j.j.j.j.j.h.9.<.c.b.m.V.oXeXeXeXeXeXeXeXeXeXeXeXeXeXeXeXeXeXeXeXeXeXeXeXeXeXeXeXeX",
"eXeXeXeXeXeXeXeXeXeXeXeXeXeXeXeXeXeXeXeXeX1X<X(.K.n.l.<.<.<.<.:.9.d.d.d.d.6X{.6Xh.h.j.j.j.j.j.j.f.j.j.j.j.j.j.j.j.j.j.j.h.4.:.n.b.l.C.*XeXeXeXeXeXeXeXeXeXeXeXeXeXeXeXeXeXeXeXeXeXeXeXeXeXeXeXeX",
"eXeXeXeXeXeXeXeXeXeXeXeXeXeXeXeXeXeXeXeXeX3X<X]._.K.n.v.&.v.n.n.0.d.d.d.d.f.].].f.h.h.j.j.j.f.0X8Xj.j.j.j.j.j.j.j.j.j.j.h.,.c.n.B.Q.<X<XeXeXeXeXeXeXeXeXeXeXeXeXeXeXeXeXeXeXeXeXeXeXeXeXeXeXeXeX",
"eXeXeXeXeXeXeXeXeXeXeXeXeXeXeXeXeXeXeXeXeX<X].]._.`.E.M.n.n.n.n.&.d.s.s.d.d.7X[.8Xh.h.j.j.j.qX|.w.j.j.j.j.j.j.j.j.j.j.j.h.M.K./._.(.(.<XeXeXeXeXeXeXeXeXeXeXeXeXeXeXeXeXeXeXeXeXeXeXeXeXeXeXeXeX",
"eXeXeXeXeXeXeXeXeXeXeXeXeXeXeXeXeXeXeXeX2X<X]._._.`.'./.N.n.n.m.v.y.d.d.s.s.d.0XqXh.h.h.j.6X|.8Xj.j.j.j.j.j.j.j.j.j.j.h.w.`.'._._.(.(.<XeXeXeXeXeXeXeXeXeXeXeXeXeXeXeXeXeXeXeXeXeXeXeXeXeXeXeXeX",
"eXeXeXeXeXeXeXeXeXeXeXeXeXeXeXeXeXeXeXeX3X<X(._._.`.'.'._.N.m.m..Xi.d.d.d.s.s.f.8Xd.h.h.e.|.qXf.j.j.j.j.j.j.j.j.j.j.j.h.e.[.'._._.(.(.>XeXeXeXeXeXeXeXeXeXeXeXeXeXeXeXeXeXeXeXeXeXeXeXeXeXeXeXeX",
"eXeXeXeXeXeXeXeXeXeXeXeXeXeXeXeXeXeXeX,X<X(.(._._._.`.`.`.'.K.C.eXeXp.d.s.s.s.s.d.d.g.f.].}.e.j.j.j.j.j.j.j.j.j.j.j.h.h.8X[.`._././.!.>XeXeXeXeXeXeXeXeXeXeXeXeXeXeXeXeXeXeXeXeXeXeXeXeXeXeXeXeX",
"eXeXeXeXeXeXeXeXeXeXeXeXeXeXeXeXeXeXeX<X<X(././._._.`._.`.].4X;XeXeXp.d.s.u.s.s.s.d.d.8X{.8Xh.j.j.j.j.j.j.j.j.h.h.h.h.h.8X'._._./.^.!.~.=XeXeXeXeXeXeXeXeXeXeXeXeXeXeXeXeXeXeXeXeXeXeXeXeXeXeXeX",
"eXeXeXeXeXeXeXeXeXeXeXeXeXeXeXeXeXeX1X>X~.!././._._._._._.].].eXeXeXa.p.s.u.u.u.s.s.w.[.8Xh.h.h.j.j.j.j.h.h.wXp.h.h.d.d.8X_._././.^.!.~.>X>XeXeXeXeXeXeXeXeXeXeXeXeXeXeXeXeXeXeXeXeXeXeXeXeXeXeX",
"eXeXeXeXeXeXeXeXeXeXeXeXeXeXeXeXeXeX;X>X!.!.^./././._././.(.].2XeXeXeXp.s.y.y.u.u.s.w.7Xd.h.h.h.h.h.h.h.h.wXo.@.p.d.d.s.8X_././.^.^.Q.!.*X>XeXeXeXeXeXeXeXeXeXeXeXeXeXeXeXeXeXeXeXeXeXeXeXeXeXeX",
"eXeXeXeXeXeXeXeXeXeXeXeXeXeXeXeXeXeX>X~.!.Q.^.^./././././.(.(.(.eXeXeXp.y.y.y.y.u.u.s.s.d.d.h.h.h.h.h.h.k.o.o.o.+.s.s.s.e./././.^.Q.W.Y.T.*XeXeXeXeXeXeXeXeXeXeXeXeXeXeXeXeXeXeXeXeXeXeXeXeXeXeX",
"eXeXeXeXeXeXeXeXeXeXeXeXeXeXeXeXeXeX*X~.W.W.Q.^.^.^.^.^.^.^.!.(.S.eXeXy.t.t.t.y.y.u.u.s.s.d.d.g.h.h.h.p. .o.o.X.X.wXs.u.e./.^.^.Q.W.L.Y.T.*XeXeXeXeXeXeXeXeXeXeXeXeXeXeXeXeXeXeXeXeXeXeXeXeXeXeX",
"eXeXeXeXeXeXeXeXeXeXeXeXeXeXeXeXeXeX*XT.Y.W.W.W.^.^.^.Q.^.Q.Q.!.D.z.eXt.q.q.t.t.y.y.u.u.s.s.d.d.h.h.d.+.o.o.X.X.X...@.+.( ^.^.Q.W.L.L.P.T.&XeXeXeXeXeXeXeXeXeXeXeXeXeXeXeXeXeXeXeXeXeXeXeXeXeXeX",
"eXeXeXeXeXeXeXeXeXeXeXeXeXeXeXeXeX#XT.T.P.L.L.W.W.W.W.W.W.W.W.Y.D.V eXq.q.q.q.q.r.r.r.wXwXwX+.+. .o.o.o.X.X.X.....| | | / ^.W.W.L.L.J.P.I.&XeXeXeXeXeXeXeXeXeXeXeXeXeXeXeXeXeXeXeXeXeXeXeXeXeXeX",
"eXeXeXeXeXeXeXeXeXeXeXeXeXeXeXeXeX#XI.P.J.J.L.L.L.L.L.L.L.L.L.L.D.M .X^ ^ O.[ { { } |  ...X.X.o.o.o.o.o.X.X... .| | } } ) W.W.L.L.J.J.P.I.&XeXeXeXeXeXeXeXeXeXeXeXeXeXeXeXeXeXeXeXeXeXeXeXeXeXeX",
"eXeXeXeXeXeXeXeXeXeXeXeXeXeXeXeXeXOXI.P.F.J.J.J.J.L.L.J.J.J.J.J.A.N C ' ' ' ' [ { } } | ..X.X.o.X.o.X.X.X... .| } } { { K L.L.J.J.F.F.H.I.oXeXeXeXeXeXeXeXeXeXeXeXeXeXeXeXeXeXeXeXeXeXeXeXeXeXeX",
"eXeXeXeXeXeXeXeXeXeXeXeXeXeXeXeXeX&XI.H.D.F.F.F.J.J.J.J.F.F.F.F.Z.N N ` ' ' ' ' [ { } |  ...X.X.o.X.X.X... .| } } { { [ $XL.J.J.F.D.D.H.I.#XeXeXeXeXeXeXeXeXeXeXeXeXeXeXeXeXeXeXeXeXeXeXeXeXeXeX",
"eXeXeXeXeXeXeXeXeXeXeXeXeXeXeXeXeXoXXXH.A.A.D.D.D.F.F.F.D.D.D.F.V.N B _ ] ' ' ' [ { } } | ....X.X.X.X.....| | } { { [ K J.J.F.F.D.A.A.H.XXeXeXeXeXeXeXeXeXeXeXeXeXeXeXeXeXeXeXeXeXeXeXeXeXeXeXeX",
"eXeXeXeXeXeXeXeXeXeXeXeXeXeXeXeXeX#XXXH.Z.C.A.A.A.A.A.A.A.A.A.H.V.N eXeX] ] ] ' [ [ ! } |  ...X.X.......| | } { { [ / J.J.F.D.D.A.A.Z.G.OXeXeXeXeXeXeXeXeXeXeXeXeXeXeXeXeXeXeXeXeXeXeXeXeXeXeXeX",
"eXeXeXeXeXeXeXeXeXeXeXeXeXeXeXeXeXeXXXH.Z.V.V.V.V.C.A.C.V.Z.Z.H.Z z.eXeXeXeXeX3 # O d } } |  ......... .| } } { [ ' J J.F.D.A.A.C.Z.S.G.OXeXeXeXeXeXeXeXeXeXeXeXeXeXeXeXeXeXeXeXeXeXeXeXeXeXeXeX",
"eXeXeXeXeXeXeXeXeXeXeXeXeXeXeXeXeXeXOXG.S.Z.V.V.V.V.V.V.V.Z.S.OXeXeXeXeXeXeXeX5 % @ k } } | |  ..... .| | } { { [ / J.F.D.A.A.V.Z.Z.G.XXeXeXeXeXeXeXeXeXeXeXeXeXeXeXeXeXeXeXeXeXeXeXeXeXeXeXeXeX",
"eXeXeXeXeXeXeXeXeXeXeXeXeXeXeXeXeXeX1XXXG.S.Z.Z.V.V.V.V.Z.S.G.+XeXeXeXeXeXeXeXeX< # k { } } | | | | | | } } ) / ] $XP.P.F.H.Z.Z.S.G.XXoXeXeXeXeXeXeXeXeXeXeXeXeXeXeXeXeXeXeXeXeXeXeXeXeXeXeXeXeX",
"eXeXeXeXeXeXeXeXeXeXeXeXeXeXeXeXeXeXeX@XXXG.G.S.S.Z.Z.Z.S.G.XXeXeXeXeXeXeXeXeXeX1 % l { { } } ] %X^.^.^.!.!.!.%X%XT.I.I.H.H.H.G.G.XXOXeXeXeXeXeXeXeXeXeXeXeXeXeXeXeXeXeXeXeXeXeXeXeXeXeXeXeXeXeX",
"eXeXeXeXeXeXeXeXeXeXeXeXeXeXeXeXeXeXeXeXeXOXXXG.G.G.G.G.G.XXOXeXeXeXeXeXeXeXeXeXeX< z [ { { ] K ^.Q.^.Q.!.~.;X-X:X*X&X&XOXOXOXOXOX+XeXeXeXeXeXeXeXeXeXeXeXeXeXeXeXeXeXeXeXeXeXeXeXeXeXeXeXeXeXeX",
"eXeXeXeXeXeXeXeXeXeXeXeXeXeXeXeXeXeXeXeXeXeXeXeXeX+X#XOXOXOX@XeXeXeXeXeXeXeXeXeXeX4 ! [ [ / %XQ.Q.Q.W.W.~.~.eXeXeXeXeXeXeXeXeXeXeXeXeXeXeXeXeXeXeXeXeXeXeXeXeXeXeXeXeXeXeXeXeXeXeXeXeXeXeXeXeXeX",
"eXeXeXeXeXeXeXeXeXeXeXeXeXeXeXeXeXeXeXeXeXeXeXeXeXeXeXeXeXeXeXeXeXeXeXeXeXeXeXeXeXeX) ) %XL.W.W.W.W.W.W.T.~.eXeXeXeXeXeXeXeXeXeXeXeXeXeXeXeXeXeXeXeXeXeXeXeXeXeXeXeXeXeXeXeXeXeXeXeXeXeXeXeXeXeX",
"eXeXeXeXeXeXeXeXeXeXeXeXeXeXeXeXeXeXeXeXeXeXeXeXeXeXeXeXeXeXeXeXeXeXeXeXeXeXeXeXeXeXT.I.P.L.L.L.L.L.L.Y.T.;XeXeXeXeXeXeXeXeXeXeXeXeXeXeXeXeXeXeXeXeXeXeXeXeXeXeXeXeXeXeXeXeXeXeXeXeXeXeXeXeXeXeX",
"eXeXeXeXeXeXeXeXeXeXeXeXeXeXeXeXeXeXeXeXeXeXeXeXeXeXeXeXeXeXeXeXeXeXeXeXeXeXeXeXeXeX% + X . . . . . . X @ 2 eXeXeXeXeXeXeXeXeXeXeXeXeXeXeXeXeXeXeXeXeXeXeXeXeXeXeXeXeXeXeXeXeXeXeXeXeXeXeXeXeXeX",
"eXeXeXeXeXeXeXeXeXeXeXeXeXeXeXeXeXeXeXeXeXeXeXeXeXeXeXeXeXeXeXeXeXeXeXeXeXeXeXeXeXeX% O X . . . . . . . o $ 1 eXeXeXeXeXeXeXeXeXeXeXeXeXeXeXeXeXeXeXeXeXeXeXeXeXeXeXeXeXeXeXeXeXeXeXeXeXeXeXeXeX",
"eXeXeXeXeXeXeXeXeXeXeXeXeXeXeXeXeXeXeXeXeXeXeXeXeXeXeXeXeXeXeXeXeXeXeXeXeXeXeXeXeX8 $ X .   . . . . . . X + $ 5 eXeXeXeXeXeXeXeXeXeXeXeXeXeXeXeXeXeXeXeXeXeXeXeXeXeXeXeXeXeXeXeXeXeXeXeXeXeXeXeX",
"eXeXeXeXeXeXeXeXeXeXeXeXeXeXeXeXeXeXeXeXeXeXeXeXeXeXeXeXeXeXeXeXeXeXeXeXeXeXeXeXeX1 # X                 . X + % 8 eXeXeXeXeXeXeXeXeXeXeXeXeXeXeXeXeXeXeXeXeXeXeXeXeXeXeXeXeXeXeXeXeXeXeXeXeXeXeX",
"eXeXeXeXeXeXeXeXeXeXeXeXeXeXeXeXeXeXeXeXeXeXeXeXeXeXeXeXeXeXeXeXeXeXeXeXeXeXeXeXeX< @ X                   . X @ < eXeXeXeXeXeXeXeXeXeXeXeXeXeXeXeXeXeXeXeXeXeXeXeXeXeXeXeXeXeXeXeXeXeXeXeXeXeXeX",
"eXeXeXeXeXeXeXeXeXeXeXeXeXeXeXeXeXeXeXeXeXeXeXeXeXeXeXeXeXeXeXeXeXeXeXeXeXeXeXeXeX< @ X .               . . . O $ 3 eXeXeXeXeXeXeXeXeXeXeXeXeXeXeXeXeXeXeXeXeXeXeXeXeXeXeXeXeXeXeXeXeXeXeXeXeXeX",
"eXeXeXeXeXeXeXeXeXeXeXeXeXeXeXeXeXeXeXeXeXeXeXeXeXeXeXeXeXeXeXeXeXeXeXeXeXeXeXeXeX< # o X . . . . . . . . . X + $ 3 5 eXeXeXeXeXeXeXeXeXeXeXeXeXeXeXeXeXeXeXeXeXeXeXeXeXeXeXeXeXeXeXeXeXeXeXeXeX",
"eXeXeXeXeXeXeXeXeXeXeXeXeXeXeXeXeXeXeXeXeXeXeXeXeXeXeXeXeXeXeXeXeXeXeXeXeXeXeXeXeX3 % # + O O + + + + + O O + # % 3 eXeXeXeXeXeXeXeXeXeXeXeXeXeXeXeXeXeXeXeXeXeXeXeXeXeXeXeXeXeXeXeXeXeXeXeXeXeX",
"eXeXeXeXeXeXeXeXeXeXeXeXeXeXeXeXeXeXeXeXeXeXeXeXeXeXeXeXeXeXeXeXeXeXeXeXeXeXeXeX8 7 3 < < % % % % % % % % % < < 3 7 eXeXeXeXeXeXeXeXeXeXeXeXeXeXeXeXeXeXeXeXeXeXeXeXeXeXeXeXeXeXeXeXeXeXeXeXeXeX"
};
