/* XPM */
static char *result[] = {
/* columns rows colors chars-per-pixel */
"96 128 216 2 ",
"   c #333437",
".  c #343638",
"X  c #36383A",
"o  c #38393C",
"O  c #393B3D",
"+  c #3A3C3F",
"@  c #3B3D40",
"#  c #3C3E41",
"$  c #3D3F42",
"%  c #3E4044",
"&  c #3F4144",
"*  c #394646",
"=  c #3B4E4C",
"-  c #375550",
";  c #3A6159",
":  c #197E64",
">  c #3B7B6D",
",  c #297C73",
"<  c #414346",
"1  c #424446",
"2  c #434546",
"3  c #444647",
"4  c #454548",
"5  c #444648",
"6  c #42464D",
"7  c #474849",
"8  c #45484A",
"9  c #47494B",
"0  c #43484F",
"q  c #494A4E",
"w  c #444950",
"e  c #454A51",
"r  c #474D53",
"t  c #4A4F56",
"y  c #4D5258",
"u  c #425959",
"i  c #425F5F",
"p  c #505458",
"a  c #50555B",
"s  c #52555B",
"d  c #51555C",
"f  c #51565C",
"g  c #52565C",
"h  c #555A60",
"j  c #426663",
"k  c #446E64",
"l  c #41716A",
"z  c #20856B",
"x  c #21896F",
"c  c #228D72",
"v  c #3F8476",
"b  c #398D79",
"n  c #249378",
"m  c #26987B",
"M  c #279C7E",
"N  c #33967E",
"B  c #35A77C",
"V  c #6BB15C",
"C  c #7B8D6D",
"Z  c #5DAF63",
"A  c #42A873",
"S  c #63A27D",
"D  c #9FB838",
"F  c #C0BF25",
"G  c #CEC31E",
"H  c #ECC507",
"J  c #EFC707",
"K  c #FDC900",
"L  c #FFCC00",
"P  c #F1C908",
"I  c #BF935F",
"U  c #85B54A",
"Y  c #93B842",
"T  c #899F77",
"R  c #B49D68",
"E  c #A29C71",
"W  c #D79157",
"Q  c #D4925A",
"!  c #D5945C",
"~  c #D5955F",
"^  c #D99358",
"/  c #DC9559",
"(  c #D9965D",
")  c #E0975A",
"_  c #E2995B",
"`  c #E29B5E",
"'  c #E59A5C",
"]  c #D49561",
"[  c #D39665",
"{  c #DC9B63",
"}  c #C08C75",
"|  c #CC9271",
" . c #E29C63",
".. c #E09C65",
"X. c #395C8B",
"o. c #2F7381",
"O. c #397092",
"+. c #404491",
"@. c #424597",
"#. c #44469A",
"$. c #46489D",
"%. c #4E509D",
"&. c #41609A",
"*. c #484AA0",
"=. c #4A4CA5",
"-. c #4E50A7",
";. c #4B5DA4",
":. c #5254AA",
">. c #5355AA",
",. c #5557AD",
"<. c #575AAB",
"1. c #5859A8",
"2. c #585AB2",
"3. c #5B5EB6",
"4. c #5460A7",
"5. c #5F62B8",
"6. c #5E6EBB",
"7. c #597CB8",
"8. c #796EA8",
"9. c #6366B8",
"0. c #6164BB",
"q. c #6265BD",
"w. c #6265BE",
"e. c #6969B9",
"r. c #6B6CBB",
"t. c #726FB9",
"y. c #6366C0",
"u. c #6467C2",
"i. c #6669C0",
"p. c #6568C3",
"a. c #626FC1",
"s. c #6669C5",
"d. c #696DC0",
"f. c #6A6CC0",
"g. c #6C6FC1",
"h. c #9E7B89",
"j. c #8171A3",
"k. c #8878A8",
"l. c #2F8C89",
"z. c #299F81",
"x. c #3E9380",
"c. c #339E83",
"v. c #349C80",
"b. c #359E83",
"n. c #3C9B84",
"m. c #3B9E84",
"M. c #3B8698",
"N. c #3D9F9B",
"B. c #28A282",
"V. c #2CA384",
"C. c #28A585",
"Z. c #29A686",
"A. c #2AA888",
"S. c #2EAB8B",
"D. c #33A185",
"F. c #36A186",
"G. c #3AA187",
"H. c #30A688",
"J. c #34A488",
"K. c #35A689",
"L. c #35A78A",
"P. c #3EA389",
"I. c #3AA78B",
"U. c #3DA58B",
"Y. c #36AB8D",
"T. c #3DA88D",
"R. c #3AAC8F",
"E. c #32AF90",
"W. c #37AD90",
"Q. c #36AF91",
"!. c #3EAB90",
"~. c #3FAF93",
"^. c #33B392",
"/. c #37B292",
"(. c #38B092",
"). c #3CB194",
"_. c #39B495",
"`. c #3AB697",
"'. c #3DB598",
"]. c #39B898",
"[. c #3BBA9A",
"{. c #3EB99A",
"}. c #3CBC9C",
"|. c #3CBE9D",
" X c #3DBF9E",
".X c #458398",
"XX c #40A58B",
"oX c #44A78E",
"OX c #42A88D",
"+X c #45A88F",
"@X c #56A886",
"#X c #45AA91",
"$X c #44AB91",
"%X c #46AE94",
"&X c #41B396",
"*X c #45B095",
"=X c #47B197",
"-X c #49B093",
";X c #44B699",
":X c #46B79B",
">X c #48B598",
",X c #46B99B",
"<X c #44BA9C",
"1X c #41BC9D",
"2X c #46BD9F",
"3X c #49BA9D",
"4X c #4ABA9D",
"5X c #4BBA9D",
"6X c #4991A3",
"7X c #4C94AA",
"8X c #5389B1",
"9X c #45A5A4",
"0X c #42AEA2",
"qX c #A5818E",
"wX c #B08482",
"eX c None",
/* pixels */
"eXeXeXeXeXeXeXeXeXeXeXeXeXeXeXeXeXeXeXeXeXeXeXeXeXeXeXeXeXeXeXeXeXeXeXeXeXeXeXeXeXeXeXeXeXeXeXeXeXeXeXeXeXeXeXeXeXeXeXeXeXeXeXeXeXeXeXeXeXeXeXeXeXeXeXeXeXeXeXeXeXeXeXeXeXeXeXeXeXeXeXeXeXeXeXeX",
"eXeXeXeXeXeXeXeXeXeXeXeXeXeXeXeXeXeXeXeXeXeXeXeXeXeXeXeXeXeXeXeXeXeXeXeXeXeXeXeXeXeXeXeXeXeXeXeXeXeXeXeXeXeXeXeXeXeXeXeXeXeXeXeXeXeXeXeXeXeXeXeXeXeXeXeXeXeXeXeXeXeXeXeXeXeXeXeXeXeXeXeXeXeXeXeX",
"eXeXeXeXeXeXeXeXeXeXeXeXeXeXeXeXeXeXeXeXeXeXeXeXeXeXeXeXeXeXeXeXeXeXeXeXeXeXeXeXeXeXeXeXeXeXeXeXeXeXeXeXeXeXeXeXeXeXeXeXeXeXeXeXeXeXeXeXeXeXeXeXeXeXeXeXeXeXeXeXeXeXeXeXeXeXeXeXeXeXeXeXeXeXeXeX",
"eXeXeXeXeXeXeXeXeXeXeXeXeXeXeXeXeXeXeXeXeXeXeXeXeXeXeXeXeXeXeXeXeXeXeXeXeXeXeXeXeXeXeXeXeXeXeXeXeXeXeXeXeXeXeXeXeXeXeXeXeXeXeXeXeXeXeXeXeXeXeXeXeXeXeXeXeXeXeXeXeXeXeXeXeXeXeXeXeXeXeXeXeXeXeXeX",
"eXeXeXeXeXeXeXeXeXeXeXeXeXeXeXeXeXeXeXeXeXeXeXeXeXeXeXeXeXeXeXeXeXeXeXeXeXeXeXeXeXeXeXeXeXeXeXeXeXeXeXeXeXeXeXeXeXeXeXeXeXeXeXeXeXeXeXeXeXeXeXeXeXeXeXeXeXeXeXeXeXeXeXeXeXeXeXeXeXeXeXeXeXeXeXeX",
"eXeXeXeXeXeXeXeXeXeXeXeXeXeXeXeXeXeXeXeXeXeXeXeXeXeXeXeXeXeXeXeXeXeXeXeXeXeXeXeXeXeXeXeXeXeXeXeXeXeXeXeXeXeXeXeXeXeXeXeXeXeXeXeXeXeXeXeXeXeXeXeXeXeXeXeXeXeXeXeXeXeXeXeXeXeXeXeXeXeXeXeXeXeXeXeX",
"eXeXeXeXeXeXeXeXeXeXeXeXeXeXeXeXeXeXeXeXeXeXeXeXeXeXeXeXeXeXeXeXeXeXeXeXeXeXeXeXeXeXeXeXeXeXeXeXeXeXeXeXeXeXeXeXeXeXeXeXeXeXeXeXeXeXeXeXeXeXeXeXeXeXeXeXeXeXeXeXeXeXeXeXeXeXeXeXeXeXeXeXeXeXeXeX",
"eXeXeXeXeXeXeXeXeXeXeXeXeXeXeXeXeXeXeXeXeXeXeXeXeXeXeXeXeXeXeXeXeXeXeXeXeXeXeXeXeXeXeXeXeXeXeXeXeXeXeXeXeXeXeXeXeXeXeXeXeXeXeXeXeXeXeXeXeXeXeXeXeXeXeXeXeXeXeXeXeXeXeXeXeXeXeXeXeXeXeXeXeXeXeXeX",
"eXeXeXeXeXeXeXeXeXeXeXeXeXeXeXeXeXeXeXeXeXeXeXeXeXeXeXeXeXeXeXeXeXeXeXeXeXeXeXeXeXeXeXeXeXeXeXeXeXeXeXeXeXeXeXeXeXeXeXeXeXeXeXeXeXeXeXeXeXeXeXeXeXeXeXeXeXeXeXeXeXeXeXeXeXeXeXeXeXeXeXeXeXeXeXeX",
"eXeXeXeXeXeXeXeXeXeXeXeXeXeXeXeXeXeXeXeXeXeXeXeXeXeXeXeXeXeXeXeXeXeXeXeXeXeXeXeXeXeXeXeXeXeXeXeXeXeXeXeXeXeXeXeXeXeXeXeXeXeXeXeXeXeXeXeXeXeXeXeXeXeXeXeXeXeXeXeXeXeXeXeXeXeXeXeXeXeXeXeXeXeXeXeX",
"eXeXeXeXeXeXeXeXeXeXeXeXeXeXeXeXeXeXeXeXeXeXeXeXeXeXeXeXeXeXeXeXeXeXeXeXeXeXeXeXeXeXeXeXeXeXeXeXeXeXeXeXeXeXeXeXeXeXeXeXeXeXeXeXeXeXeXeXeXeXeXeXeXeXeXeXeXeXeXeXeXeXeXeXeXeXeXeXeXeXeXeXeXeXeXeX",
"eXeXeXeXeXeXeXeXeXeXeXeXeXeXeXeXeXeXeXeXeXeXeXeXeXeXeXeXeXeXeXeXeXeXeXeXeXeXeXeXeXeXeXeXeXeXeXeXeXeXeXeXeXeXeXeXeXeXeXeXeXeXeXeXeXeXeXeXeXeXeXeXeXeXeXeXeXeXeXeXeXeXeXeXeXeXeXeXeXeXeXeXeXeXeXeX",
"eXeXeXeXeXeXeXeXeXeXeXeXeXeXeXeXeXeXeXeXeXeXeXeXeXeXeXeXeXeXeXeXeXeXeXeXeXeXeXeXeXeXeXeXeXeXeXeXeXeXeXeXeXeXeXeXeXeXeXeXeXeXeXeXeXeXeXeXeXeXeXeXeXeXeXeXeXeXeXeXeXeXeXeXeXeXeXeXeXeXeXeXeXeXeXeX",
"eXeXeXeXeXeXeXeXeXeXeXeXeXeXeXeXeXeXeXeXeXeXeXeXeXeXeXeXeXeXeXeXeXeXeXeXeXeXeXeXeXeXeXeXeXeXeXeXeXeXeXeXeXeXeXeXeXeXeXeXeXeXeXeXeXeXeXeXeXeXeXeXeXeXeXeXeXeXeXeXeXeXeXeXeXeXeXeXeXeXeXeXeXeXeXeX",
"eXeXeXeXeXeXeXeXeXeXeXeXeXeXeXeXeXeXeXeXeXeXeXeXeXeXeXeXeXeXeXeXeXeXeXeXeXeXeXeXeXeXeXeXeXeXeXeXeXeXeXeXeXeXeXeXeXeXeXeXeXeXeXeXeXeXeXeXeXeXeXeXeXeXeXeXeXeXeXeXeXeXeXeXeXeXeXeXeXeXeXeXeXeXeXeX",
"eXeXeXeXeXeXeXeXeXeXeXeXeXeXeXeXeXeXeXeXeXeXeXeXeXeXeXeXeXeXeXeXeXeXeXeXeXeXeXeXeXeXeXeXeXeXeXeXeXeXeXeXeXeXeXeXeXeXeXeXeXeXeXeXeXeXeXeXeXeXeXeXeXeXeXeXeXeXeXeXeXeXeXeXeXeXeXeXeXeXeXeXeXeXeXeX",
"eXeXeXeXeXeXeXeXeXeXeXeXeXeXeXeXeXeXeXeXeXeXeXeXeXeXeXeXeXeXeXeXeXeXeXeXeXeXeXeXeXeXeXeXeXeXeXeXeXeXeXeXeXeXeXeXeXeXeXeXeXeXeXeXeXeXeXeXeXeXeXeXeXeXeXeXeXeXeXeXeXeXeXeXeXeXeXeXeXeXeXeXeXeXeXeX",
"eXeXeXeXeXeXeXeXeXeXeXeXeXeXeXeXeXeXeXeXeXeXeXeXeXeXeXeXeXeXeXeXeXeXeXeXeXeXeXeXeXeXeXeXeXeXeXeXeXeXeXeXeXeXeXeXeXeXeXeXeXeXeXeXeXeXeXeXeXeXeXeXeXeXeXeXeXeXeXeXeXeXeXeXeXeXeXeXeXeXeXeXeXeXeXeX",
"eXeXeXeXeXeXeXeXeXeXeXeXeXeXeXeXeXeXeXeXeXeXeXeXeXeXeXeXeXeXeXeXeXeXeXeXeXeXeXeXeXeXeXeXeXeXeXeXeXeXeXeXeXeXeXeXeXeXeXeXeXeXeXeXeXeXeXeXeXeXeXeXeXeXeXeXeXeXeXeXeXeXeXeXeXeXeXeXeXeXeXeXeXeXeXeX",
"eXeXeXeXeXeXeXeXeXeXeXeXeXeXeXeXeXeXeXeXeXeXeXeXeXeXeXeXeXeXeXeXeXeXeXeXeXeXeXeXeXeXeXeXeXeXeXeXeXeXeXeXeXeXeXeXeXeXeXeXeXeXeXeXeXeXeXeXeXeXeXeXeXeXeXeXeXeXeXeXeXeXeXeXeXeXeXeXeXeXeXeXeXeXeXeX",
"eXeXeXeXeXeXeXeXeXeXeXeXeXeXeXeXeXeXeXeXeXeXeXeXeXeXeXeXeXeXeXeXeXeXeXeXeXeXeXeXeXeXeXeXeXeXeXeXeXeXeXeXeXeXeXeXeXeXeXeXeXeXeXeXeXeXeXeXeXeXeXeXeXeXeXeXeXeXeXeXeXeXeXeXeXeXeXeXeXeXeXeXeXeXeXeX",
"eXeXeXeXeXeXeXeXeXeXeXeXeXeXeXeXeXeXeXeXeXeXeXeXeXeXeXeXeXeXeXeXeXeXeXeXeXeXeXeXeXeXeXeXeXeXeXeXeXeXeXeXeXeXeXeXeXeXeXeXeXeXeXeXeXeXeXeXeXeXeXeXeXeXeXeXeXeXeXeXeXeXeXeXeXeXeXeXeXeXeXeXeXeXeXeX",
"eXeXeXeXeXeXeXeXeXeXeXeXeXeXeXeXeXeXeXeXeXeXeXeXeXeXeXeXeXeXeXeXeXeXeXeXeXeXeXeXeXeXeXeXeXeXeXeXeXeXeXeXeXeXeXeXeXeXeXeXeXeXeXeXeXeXeXeXeXeXeXeXeXeXeXeXeXeXeXeXeXeXeXeXeXeXeXeXeXeXeXeXeXeXeXeX",
"eXeXeXeXeXeXeXeXeXeXeXeXeXeXeXeXeXeXeXeXeXeXeXeXeXeXeXeXeXeXeXeXeXeXeXeXeXeXeXeXeXeXeXeXeXeXeXeXeXeXeXeXeXeXeXeXeXeXeXeXeXeXeXeXeXeXeXeXeXeXeXeXeXeXeXeXeXeXeXeXeXeXeXeXeXeXeXeXeXeXeXeXeXeXeXeX",
"eXeXeXeXeXeXeXeXeXeXeXeXeXeXeXeXeXeXeXeXeXeXeXeXeXeXeXeXeXeXeXeXeXeXeXeXeXeXeXeXeXeXeXeXeXeXeXeXeXeXeXeXeXeXeXeXeXeXeXeXeXeXeXeXeXeXeXeXeXeXeXeXeXeXeXeXeXeXeXeXeXeXeXeXeXeXeXeXeXeXeXeXeXeXeXeX",
"eXeXeXeXeXeXeXeXeXeXeXeXeXeXeXeXeXeXeXeXeXeXeXeXeXeXeXeXeXeXeXeXeXeXeXeXeXeXeXeXeXeXeXeXeXeXeXeXeXeXeXeXeXeXeXeXeXeXeXeXeXeXeXeXeXeXeXeXeXeXeXeXeXeXeXeXeXeXeXeXeXeXeXeXeXeXeXeXeXeXeXeXeXeXeXeX",
"eXeXeXeXeXeXeXeXeXeXeXeXeXeXeXeXeXeXeXeXeXeXeXeXeXeXeXeXeXeXeXeXeXeXeXeXeXeXeXeXeXeXeXeXeXeXeXeXeXeXeXeXeXeXeXeXeXeXeXeXeXeXeXeXeXeXeXeXeXeXeXeXeXeXeXeXeXeXeXeXeXeXeXeXeXeXeXeXeXeXeXeXeXeXeXeX",
"eXeXeXeXeXeXeXeXeXeXeXeXeXeXeXeXeXeXeXeXeXeXeXeXeXeXeXeXeXeXeXeXeXeXeXeXeXeXeXeXeXeXeXeXeXeXeXeXeXeXa h eXeXeXeXeXeXeXeXeXeXeXeXeXeXeXeXeXeXeXeXeXeXeXeXeXeXeXeXeXeXeXeXeXeXeXeXeXeXeXeXeXeXeXeX",
"eXeXeXeXeXeXeXeXeXeXeXeXeXeXeXeXeXeXeXeXeXeXeXeXeXeXeXeXeXeXeXeXeXeXeXeXeXeXeXeXeXeXeXeXeXeXeXeXeXh a a f eXeXeXeXeXeXeXeXeXeXeXeXeXeXeXeXeXeXeXeXeXeXeXeXeXeXeXeXeXeXeXeXeXeXeXeXeXeXeXeXeXeXeX",
"eXeXeXeXeXeXeXeXeXeXeXeXeXeXeXeXeXeXeXeXeXeXeXeXeXeXeXeXeXeXeXeXeXeXeXeXeXeXeXeXeXeXeXeXeXeXeXeXeXa y y y a eXeXeXeXeXeXeXeXeXeXeXeXeXeXeXeXeXeXeXeXeXeXeXeXeXeXeXeXeXeXeXeXeXeXeXeXeXeXeXeXeXeX",
"eXeXeXeXeXeXeXeXeXeXeXeXeXeXeXeXeXeXeXeXeXeXeXeXeXeXeXeXeXeXeXeXeXeXeXeXeXeXeXeXeXeXeXeXeXeXeXeXa y t r t y a s eXeXeXeXeXeXeXeXeXeXeXeXeXeXeXeXeXeXeXeXeXeXeXeXeXeXeXeXeXeXeXeXeXeXeXeXeXeXeXeX",
"eXeXeXeXeXeXeXeXeXeXeXeXeXeXeXeXeXeXeXeXeXeXeXeXeXeXeXeXeXeXeXeXeXeXeXeXeXeXeXeXeXeXeXeXeXeXeXf y t e 0 e r t a p eXeXeXeXeXeXeXeXeXeXeXeXeXeXeXeXeXeXeXeXeXeXeXeXeXeXeXeXeXeXeXeXeXeXeXeXeXeXeX",
"eXeXeXeXeXeXeXeXeXeXeXeXeXeXeXeXeXeXeXeXeXeXeXeXeXeXeXeXeXeXeXeXeXeXeXeXeXeXeXeXeXeXeXeXeXeXq y t e # @ # 6 r t y a d eXeXeXeXeXeXeXeXeXeXeXeXeXeXeXeXeXeXeXeXeXeXeXeXeXeXeXeXeXeXeXeXeXeXeXeXeX",
"eXeXeXeXeXeXeXeXeXeXeXeXeXeXeXeXeXeXeXeXeXeXeXeXeXeXeXeXeXeXeXeXeXeXeXeXeXeXeXeXeXeXeXeXeXeXa t r & @ @ @ # w r t t y a s eXeXeXeXeXeXs d a a a a a p eXeXeXeXeXeXeXeXeXeXeXeXeXeXeXeXeXeXeXeXeX",
"eXeXeXeXeXeXeXeXeXeXeXeXeXeXeXeXeXeXeXeXeXeXeXeXeXeXeXeXeXeXeXeXeXeXeXeXeXeXeXeXeXeXeXeXeXf y r 6 @ # # # # # 0 r r t y y a a a a a a y y t t t t y a eXeXeXeXeXeXeXeXeXeXeXeXeXeXeXeXeXeXeXeXeX",
"eXeXeXeXeXeXeXeXeXeXeXeXeXeXeXeXeXeXeXeXeXeXeXeXeXeXeXeXeXeXeXeXeXeXeXeXeXeXeXeXeXeXeXeXf y t 0 # # # # # # # # 6 e r r t t t t t t t t r r e e e r t s eXeXeXeXeXeXeXeXeXeXeXeXeXeXeXeXeXeXeXeX",
"eXeXeXeXeXeXeXeXeXeXeXeXeXeXeXeXeXeXeXeXeXeXeXeXeXeXeXeXeXeXeXeXeXeXeXeXeXeXeXeXeXeXeXf y t e $ # # # # # # # # # < e e r r r r r r e e e w 0 0 0 e r y eXeXeXeXeXeXeXeXeXeXeXeXeXeXeXeXeXeXeXeX",
"eXeXeXeXeXeXeXeXeXeXeXeXeXeXeXeXeXeXeXeXeXeXeXeXeXeXeXeXeXeXeXeXeXeXeXeXeXeXeXeXeXeXa y t e & # # # # # # # # # # # & 0 e e e e e e w w w 0 0 6 6 0 r t eXeXeXeXeXeXeXeXeXeXeXeXeXeXeXeXeXeXeXeX",
"eXeXeXeXeXeXeXeXeXeXeXeXeXeXeXeXeXeXeXeXeXeXeXeXeXeXeXeXeXeXeXeXeXeXeXeXeXeXeXeXs a y t e < # # # # # # # # # # # # # # < 0 e e e e w w w 0 6 < % & < 5 eXeXeXeXeXeXeXeXeXeXeXeXeXeXeXeXeXeXeXeX",
"eXeXeXeXeXeXeXeXeXeXeXeXeXeXeXeXeXeXeXeXeXeXeXeXeXeXeXeXeXeXeXeXeXeXeXeXeXeXeXf a t r r < # # # # # # # # # # # # # # # # # 0 e e e w w 0 0 % O o O $ < 4 eXeXeXeXeXeXeXeXeXeXeXeXeXeXeXeXeXeXeX",
"eXeXeXeXeXeXeXeXeXeXeXeXeXeXeXeXeXeXeXeXeXeXeXeXeXeXeXeXeXp t a g d d d f a a y t t r < # # # # # # # # # # # # # # # # # # % e e w w w 0 0 # O o o @ & 2 eXeXeXeXeXeXeXeXeXeXeXeXeXeXeXeXeXeXeX",
"eXeXeXeXeXeXeXeXeXeXeXeXeXeXeXeXeXeXeXeXeXeXeXeXeXeXeXeXeX9 9 5 e t y y y t t t r e < # # # # # # # # # # # # # # # # # # # # w e w w w 0 6 O O o O + & 5 eXeXeXeXeXeXeXeXeXeXeXeXeXeXeXeXeXeXeX",
"eXeXeXeXeXeXeXeXeXeXeXeXeXeXeXeXeXeXeXeXeXeXeXeXeXeXeXeX4 5 < & & < 6 r r r r e e < # # # # # # # # # # # # # # # # # # # # # 6 e w w 0 0 < O o o o + & 5 eXeXeXeXeXeXeXeXeXeXeXeXeXeXeXeXeXeXeX",
"eXeXeXeXeXeXeXeXeXeXeXeXeXeXeXeXeXeXeXeXeXeXeXeXeXeXeXeX9 < $ # # @ # % 6 e e w % # # # # # # # # # # # # # # # # # # # # # # 6 w w w 0 0 # O o o o + & 5 eXeXeXeXeXeXeXeXeXeXeXeXeXeXeXeXeXeXeX",
"eXeXeXeXeXeXeXeXeXeXeXeXeXeXeXeXeXeXeXeXeXeXeXeXeXeXeX7 5 $ # + + + @ @ @ # < $ # # # # # # # # # # # # # # # # # # # # # # # 6 w w w 0 < O O O o o + & 4 eXeXeXeXeXeXeXeXeXeXeXeXeXeXeXeXeXeXeX",
"eXeXeXeXeXeXeXeXeXeXeXeXeXeXeXeXeXeXeXeXeXeXeXeXeXeXeX8 < $ @ O + + @ @ @ # # # # # # # # # # # # # # # # # # # # # # # # # # 6 w w w 6 + O o o o o @ & 7 eXeXeXeXeXeXeXeXeXeXeXeXeXeXeXeXeXeXeX",
"eXeXeXeXeXeXeXeXeXeXeXeXeXeXeXeXeXeXeXeXeXeXeXeXeXeXeX9 & # + O + + @ @ @ # # # # # # # # # # # # # # # # # # # # # # # # # # 6 w w 6 + + O o o o O @ < eXeXeXeXeXeXeXeXeXeXeXeXeXeXeXeXeXeXeXeX",
"eXeXeXeXeXeXeXeXeXeXeXeXeXeXeXeXeXeXeXeXeXeXeXeXeXeXeX5 & @ O O + + @ @ @ # # # # # # # # # # # # # # # # # # # # # # # # # # w w 6 @ + + O o o o O $ < eXeXeXeXeXeXeXeXeXeXeXeXeXeXeXeXeXeXeXeX",
"eXeXeXeXeXeXeXeXeXeXeXeXeXeXeXeXeXeXeXeXeXeXeXeXeXeXeX5 & @ O O + @ @ @ @ # # # # # # # # # # # # # # # # # # # # # # # # # # 0 < @ @ + O O O o o + & 3 eXeXeXeXeXeXeXeXeXeXeXeXeXeXeXeXeXeXeXeX",
"eXeXeXeXeXeXeXeXeXeXeXeXeXeXeXeXeXeXeXeXeXeXeXeXeXeXeX5 % @ O O + @ @ @ @ # # # # # # # # # # # # # # # # # # # # # # # # # $ @ @ @ @ + O O o o O # < eXeXeXeXeXeXeXeXeXeXeXeXeXeXeXeXeXeXeXeXeX",
"eXeXeXeXeXeXeXeXeXeXeXeXeXeXeXeXeXeXeXeXeXeXeXeXeXeXeX5 & @ O O + @ @ @ # # # # # # # # # # # # # # # # # # # # # # # # # # # @ @ @ @ + O O O O @ & 3 eXeXeXeXeXeXeXeXeXeXeXeXeXeXeXeXeXeXeXeXeX",
"eXeXeXeXeXeXeXeXeXeXeXeXeXeXeXeXeXeXeXeXeXeXeXeXeXeXeX5 & @ O + + @ @ @ # # # # # # # # # # # # # # # # # # # # # # # # # # # @ @ @ @ + O O o + $ < eXeXeXeXeXeXeXeXeXeXeXeXeXeXeXeXeXeXeXeXeXeX",
"eXeXeXeXeXeXeXeXeXeXeXeXeXeXeXeXeXeXeXeXeXeXeXeXeXeXeX9 < @ + + + @ @ @ # # # # # # # # # # # # # # # # # # # # # # # # = ; = @ @ @ @ + O O + # < 3 eXeXeXeXeXeXeXeXeXeXeXeXeXeXeXeXeXeXeXeXeXeX",
"eXeXeXeXeXeXeXeXeXeXeXeXeXeXeXeXeXeXeXeXeXeXeXeXeXeXeX3 < # + + * @ @ @ # # # # # # # # # # # # # # # # # # # # # # = v '. X X|.n.b > = + O @ $ < eXeXeXeXeXeXeXeXeXeXeXeXeXeXeXeXeXeXeXeXeXeXeX",
"eXeXeXeXeXeXeXeXeXeXeXeXeXeXeXeXeXeXeXeXeXeXeXeXeXeXeX4 < $ + + _.P.b ; # # # # # # # # # # # # # # # # # # # = v n. X X X X X X|.}.}.- + + # < 3 eXeXeXeXeXeXeXeXeXeXeXeXeXeXeXeXeXeXeXeXeXeXeX",
"eXeXeXeXeXeXeXeXeXeXeXeXeXeXeXeXeXeXeXeXeXeXeXeXeXeXeX7 5 & # + n.}.|.|.~.n.> ; * < 6 $ # # # # # # = ; ; b T. X X X X X X X X X|.}.}.+ + @ % 5 eXeXeXeXeXeXeXeXeXeXeXeXeXeXeXeXeXeXeXeXeXeXeXeX",
"eXeXeXeXeXeXeXeXeXeXeXeXeXeXeXeXeXeXeXeXeXeXeXeXeXeXeXeX5 & # + b }.|. X'.x.l u e e e x. X X X X X X X X X X X X X X X X X X X X|.}._.+ + # & 5 eXeXeXeXeXeXeXeXeXeXeXeXeXeXeXeXeXeXeXeXeXeXeXeX",
"eXeXeXeXeXeXeXeXeXeXeXeXeXeXeXeXeXeXeXeXeXeXeXeXeXeXeXeX5 & $ + > }.v i e e e e e e e l  X X X X X X X X X X X X X X X X X X X X|.}.n.@ @ # < 8 eXeXeXeXeXeXeXeXeXeXeXeXeXeXeXeXeXeXeXeXeXeXeXeX",
"eXeXeXeXeXeXeXeXeXeXeXeXeXeXeXeXeXeXeXeXeXeXeXeXeXeXeXeX9 & $ + ; }.i e e e e e e e e l  X X X X X X X X X X X X X X X X X X X X|.}.x.@ @ $ < 4 eXeXeXeXeXeXeXeXeXeXeXeXeXeXeXeXeXeXeXeXeXeXeXeX",
"eXeXeXeXeXeXeXeXeXeXeXeXeXeXeXeXeXeXeXeXeXeXeXeXeXeXeXeX5 & $ + ; }.> e e e e u > n.'. X X X X X X X X X X X X XP.v x.P.'. X X X|.}.> @ @ $ 5 q eXeXeXeXeXeXeXeXeXeXeXeXeXeXeXeXeXeXeXeXeXeXeXeX",
"eXeXeXeXeXeXeXeXeXeXeXeXeXeXeXeXeXeXeXeXeXeXeXeXeXeXeXeX5 & # + @ }.x.r l x.R.].].].}. X X X X X X X X X X X X Xv e e e e e i j v v l @ @ $ < eXeXeXeXeXeXeXeXeXeXeXeXeXeXeXeXeXeXeXeXeXeXeXeXeX",
"eXeXeXeXeXeXeXeXeXeXeXeXeXeXeXeXeXeXeXeXeXeXeXeXeXeXeXeX9 % # + @ _.|. X].S.Z.Z.Z.Z.Z.E.}. X X X X X X X X X X Xl e e e e e e e w u ; + @ # & k eXeXeXeXeXeXeXeXeXeXeXeXeXeXeXeXeXeXeXeXeXeXeXeX",
"eXeXeXeXeXeXeXeXeXeXeXeXeXeXeXeXeXeXeXeXeXeXeXeXeXeX5X;X; # @ + @ n.|.].Z.Z.Y L L L G Z.S. X X X X X X X X X X Xj e e e e e e w w j - + + @ $ n.,XeXeXeXeXeXeXeXeXeXeXeXeXeXeXeXeXeXeXeXeXeXeXeX",
"eXeXeXeXeXeXeXeXeXeXeXeXeXeXeXeXeXeXeXeXeXeXeXeXeX:X;X;X; @ + + @ b }.A.Z.Z L L L L L Y Z.^. X X X X X X X X X X!.P.x.v v j j r w > + + + + @ ~.;X3XeXeXeXeXeXeXeXeXeXeXeXeXeXeXeXeXeXeXeXeXeXeX",
"eXeXeXeXeXeXeXeXeXeXeXeXeXeXeXeXeXeXeXeXeXeXeXeX4X*X&X'.> O O + + > ].C.C.F L L L L L P Z.A. X X X X X X X X X X X X].^.^.E.^.].}._.+ + O O + ).&X*X,XeXeXeXeXeXeXeXeXeXeXeXeXeXeXeXeXeXeXeXeXeX",
"eXeXeXeXeXeXeXeXeXeXeXeXeXeXeXeXeXeXeXeXeXeXeXeX*X&X).W., O O + + x.E.C.C.G L L L L L L Z.Z.]. X X X X X X X X X].A.B Z Z Z B C.S.n.+ O O O * H.).~.*XeXeXeXeXeXeXeXeXeXeXeXeXeXeXeXeXeXeXeXeXeX",
"eXeXeXeXeXeXeXeXeXeXeXeXeXeXeXeXeXeXeXeXeXeXeX-X*X~.(.z.M ; * + > [.E.C.C.D L L L L L G Z.Z.]. X X X X X X X X XS.Z.G L L L J B B.^.+ O o o - m J.!.~.=XeXeXeXeXeXeXeXeXeXeXeXeXeXeXeXeXeXeXeXeX",
"eXeXeXeXeXeXeXeXeXeXeXeXeXeXeXeXeXeXeXeXeXeXeX=X!.R.H.m M M Q.].[.[.E.C.C.A P L L L L V Z.Z.]. X X X X X X X X^.Z.V L L L K K U B.B.- O o o z m m R.!.$XeXeXeXeXeXeXeXeXeXeXeXeXeXeXeXeXeXeXeXeX",
"eXeXeXeXeXeXeXeXeXeXeXeXeXeXeXeXeXeXeXeXeXeXeX$X!.R.M m m M Q.`.[.[._.C.C.C.A F G G Z Z.Z.Z. X X[.].].].[. X XA.Z.F L L K K K F B.z.S.N b x m n n J.!.$XeXeXeXeXeXeXeXeXeXeXeXeXeXeXeXeXeXeXeXeX",
"eXeXeXeXeXeXeXeXeXeXeXeXeXeXeXeXeXeXeXeXeXeXeX$X!.R.M m m M S.`.[.[.[.A.C.C.C.Z.Z.Z.Z.Z.Z.E.}.A.Z.Z.Z.Z.S. X].Z.Z.G L L K K K F z.z.V._.H.m m n n J.T.OXeXeXeXeXeXeXeXeXeXeXeXeXeXeXeXeXeXeXeXeX",
"eXeXeXeXeXeXeXeXeXeXeXeXeXeXeXeXeXeXeXeXeXeXeX$X!.R.z.m m M H.`.].[.[.^.C.C.C.Z.Z.Z.Z.Z.A.}.^.Z.Z.Z.Z.Z.Z.].].Z.Z.U L L K K K D z.z.V._.H.m n n n J.T.OXeXeXeXeXeXeXeXeXeXeXeXeXeXeXeXeXeXeXeXeX",
"eXeXeXeXeXeXeXeXeXeXeXeXeXeXeXeXeXeXeXeXeXeXeX#X~.!.L.m m M H.`.].[.[.}.E.C.C.Z.Z.Z.Z.S.]. X^.Z.Z.Z.Z.Z.Z.[.].Z.Z.B G L K K H A z.M V./.z.m n n m I.T.$XeXeXeXeXeXeXeXeXeXeXeXeXeXeXeXeXeXeXeXeX",
"eXeXeXeXeXeXeXeXeXeXeXeXeXeXeXeXeXeXeXeXeXeXeXeX*X~.).V.m M V.`.[.[.[.}.}.].S.S.S.S.^.}. X X X^.A.Z.Z.S.]. X XA.Z.Z.C.U Y Y B B.z.M S.(.z.m n n J.T.OX+XeXeXeXeXeXeXeXeXeXeXeXeXeXeXeXeXeXeXeXeX",
"eXeXeXeXeXeXeXeXeXeXeXeXeXeXeXeXeXeXeXeXeXeXeXeX%X*X~.).L.M V.`.[.[.[.}.}.|.|. X X X X X X X X X X X X X X X X^.Z.Z.C.C.C.B.B.B.z.z./.(.M n m K.T.T.$XeXeXeXeXeXeXeXeXeXeXeXeXeXeXeXeXeXeXeXeXeX",
"eXeXeXeXeXeXeXeXeXeXeXeXeXeXeXeXeXeXeXeXeXeXeXeXeX;X&X&X'.(./.].[.[.}.}.}.|.|. X X X X X X X X X X X X X X X X}.S.Z.C.C.C.B.B.B.z.E._.(.L.L.R.T.!.$XeXeXeXeXeXeXeXeXeXeXeXeXeXeXeXeXeXeXeXeXeXeX",
"eXeXeXeXeXeXeXeXeXeXeXeXeXeXeXeXeXeXeXeXeXeXeXeXeXeX=X;X;X{.{.{.[.[.}.}.}.|. X X X X X X X X X[.E.z.z.z.H.`. X X}.E.Z.C.C.B.B.B./.`._.).).~.~.$X%XeXeXeXeXeXeXeXeXeXeXeXeXeXeXeXeXeXeXeXeXeXeXeX",
"eXeXeXeXeXeXeXeXeXeXeXeXeXeXeXeXeXeXeXeXeXeXeXeXeXeXeX5X2X<X<X1X{.[.}.}.|.|. X X X X X X X[.c : : : : : : z /. X X X].E.E.E.E.[.].'.'.'.&X*X*X#XeXeXeXeXeXeXeXeXeXeXeXeXeXeXeXeXeXeXeXeXeXeXeXeX",
"eXeXeXeXeXeXeXeXeXeXeXeXeXeXeXeXeXeXeXeXeXeXeXeXeXeXeXeXeXeXeX,X1X}.}.}.|.|. X X X X X X Xm : : : : : : : : z  X X X X|.}.}.[.[.{.{.{.:XeXeXeXeXeXeXeXeXeXeXeXeXeXeXeXeXeXeXeXeXeXeXeXeXeXeXeXeX",
"eXeXeXeXeXeXeXeXeXeXeXeXeXeXeXeXeXeXeXeXeXeXeXeXeXeXeXeXeXeXeX:X1X1X}.}.|.|. X X X X X X Xc : : M z.z.z.x : :  X X X X|.}.}.}.[.{.{.<XeXeXeXeXeXeXeXeXeXeXeXeXeXeXeXeXeXeXeXeXeXeXeXeXeXeXeXeXeX",
"eXeXeXeXeXeXeXeXeXeXeXeXeXeXeXeXeXeXeXeXeXeXeXeXeXeXeXeXeXeXeX4X1X1X}.}.|.|. X X X X X X XS.c z. X X X X[.z.S. X X X X|.}.}.}.}.{.<X3XeXeXeXeXeXeXeXeXeXeXeXeXeXeXeXeXeXeXeXeXeXeXeXeXeXeXeXeXeX",
"eXeXeXeXeXeXeXeXeXeXeXeXeXeXeXeXeXeXeXeXeXeXeXeXeXeXeXeXeXeXeXeX1X1X}.}.}.|.|. X X X X X X X X X X X X X X X X X X X X|.}.|.}.}.1X2XeXeXeXeXeXeXeXeXeXeXeXeXeXeXeXeXeXeXeXeXeXeXeXeXeXeXeXeXeXeX",
"eXeXeXeXeXeXeXeXeXeXeXeXeXeXeXeXeXeXeXeXeXeXeXeXeXeXeXeXeXeXeX6X1X1X}.}.}.|.|. X X X X X X X X X X X X X X X X X X X|.|.}.}.}.1X1XeXeXeXeXeXeXeXeXeXeXeXeXeXeXeXeXeXeXeXeXeXeXeXeXeXeXeXeXeXeXeX",
"eXeXeXeXeXeXeXeXeXeXeXeXeXeXeXeXeXeXeXeXeXeXeXeXeXeXeXeX1.>.:.;.9X9X9XN.N.N.(././././.Q.Q.Q.Q.Q.Q.Q.Q.Q.Q.W.N.N.N.N.N.N.9X9X9XM.;.4.eXeXeXeXeXeXeXeXeXeXeXeXeXeXeXeXeXeXeXeXeXeXeXeXeXeXeXeXeXeX",
"eXeXeXeXeXeXeXeXeXeXeXeXeXeXeXeXeXeXeXeXeXeXeX1.1.1.,.,.:.-.-.i.u.q.2.$.$.#.@.o.c c x x z z z z z z z z , +.+.+.@.@.#.:.5.0.3.-.-.:.<.eXeXeXeXeXeXeXeXeXeXeXeXeXeXeXeXeXeXeXeXeXeXeXeXeXeXeXeXeX",
"eXeXeXeXeXeXeXeXeXeXeXeXeXeXeXeXeXeXeXeXeXeXeX4.,.:.:.-.-.-.,.y.y.w.-.$.$.#.@.@.+.o.c c x x x z x x x o.+.+.+.@.@.#.,.5.0.w.5.=.-.-.:.,.<.4.eXeXeXeXeXeXeXeXeXeXeXeXeXeXeXeXeXeXeXeXeXeXeXeXeXeX",
"eXeXeXeXeXeXeXeXeXeXeXeXeXeXeXeXeXeXeXeXeXeXb.J.l.;.-.=.=.*.,.w.y.y.2.*.$.$.#.@.@.@.X., c c c c x x X.+.+.@.@.@.*.3.5.5.0.y.2.=.=.-.-.;..XeXeXeXeXeXeXeXeXeXeXeXeXeXeXeXeXeXeXeXeXeXeXeXeXeXeXeX",
"eXeXeXeXeXeXeXeXeXeXeXeXeXeXeXeXeXeXeXeXeX~.H.V.V.z.&.*.*.*.-.q.q.w.w.5.:.*.$.#.#.@.@.@.X.c c c , X.+.@.@.@.@.-.5.5.5.0.w.u.,.=.=.&.l.V.J.U.eXeXeXeXeXeXeXeXeXeXeXeXeXeXeXeXeXeXeXeXeXeXeXeXeXeX",
"eXeXeXeXeXeXeXeXeXeXeXeXeXeXeXeXeXeXeX>X2X<XV.z.z.l.*.*.*.*.=.0.0.q.q.w.0.3.-.$.$.#.#.#.@.@.o.o.@.@.@.@.#.#.,.5.5.5.0.w.u.u.:.=.=.;.B.V.H.K.U.eXeXeXeXeXeXeXeXeXeXeXeXeXeXeXeXeXeXeXeXeXeXeXeXeX",
"eXeXeXeXeXeXeXeXeXeXeXeXeXeXeXeXeXeX,X2X1X{.H.z.M &.*.*.$.$.$.3.0.0.q.w.w.q.0.3.-.$.$.$.#.#.#.:.#.#.#.#.*.2.5.5.0.0.y.u.u.u.=.=.=.=.l.B.V.H.<X>XeXeXeXeXeXeXeXeXeXeXeXeXeXeXeXeXeXeXeXeXeXeXeXeX",
"eXeXeXeXeXeXeXeXeXeXeXeXeXeXeXeXeX3X2X1X{.{.E.M l.*.$.$.$.$.$.:.5.5.0.q.7.y.w.q.0.3.=.*.*.$.-.5.=.$.$.-.5.0.0.q.w.y.u.u.u.w.=.=.=.=.O.B.V.`.1X2XeXeXeXeXeXeXeXeXeXeXeXeXeXeXeXeXeXeXeXeXeXeXeXeX",
"eXeXeXeXeXeXeXeXeXeXeXeXeXeXeXeX3X2X1X{.{.`.`.z.O.$.$.$.$.#.$.-.5.5.0.0.'.7Xy.u.y.y.w.2.=.*.3.q.3.*.2.q.w.w.y.y.u.p.u.u.u.5.=.=.=.=.O.B.E.}.1X2X2XeXeXeXeXeXeXeXeXeXeXeXeXeXeXeXeXeXeXeXeXeXeXeX",
"eXeXeXeXeXeXeXeXeXeXeXeXeXeXeX2X2X1X{.{.].`._.H.l.X.$.#.#.#.#.$.5.5.5.0.7X].8Xu.p.s.p.p.y.3.y.y.y.0.u.u.u.p.s.p.p.u.u.u.y.3.&.&.&.&.M.A.[.[.}.1X2X:XeXeXeXeXeXeXeXeXeXeXeXeXeXeXeXeXeXeXeXeXeXeX",
"eXeXeXeXeXeXeXeXeXeXeXeXeX4X2X2X1X{.[.[.`.`._.Q.m m n o.X.$.$.$.2.5.5.0.6.`.'.6.p.s.s.s.s.s.s.s.s.s.s.s.s.s.s.p.p.u.u.y.y.2.z.z.B.z.B.].[.[.[.{.1X2X4XeXeXeXeXeXeXeXeXeXeXeXeXeXeXeXeXeXeXeXeXeX",
"eXeXeXeXeXeXeXeXeXeXeXeX5X2X<X1X{.[.[.].`._._.(.z.m m m O.*.*.%.<.9.9.0.0.7X[.7Xp.p.s.s.s.s.s.s.a.s.s.s.s.s.s.p.p.u.u.y.y.:.B.z.B.z.^.[.[.[.[.[.{.1X<X2X=XeXeXeXeXeXeXeXeXeXeXeXeXeXeXeXeXeXeXeX",
"eXeXeXeXeXeXeXeXeXeXeX4X<X<X{.{.[.[.].`.`._./.(.H.m m N &.%.eXeXeX9.9.5.0.6.'.'.a.p.s.s.s.s.a.9X8Xs.s.s.s.p.p.p.u.u.y.y.i.>.V.z.B.S.[.[.[.[.[.[.[.{.1X<X<XeXeXeXeXeXeXeXeXeXeXeXeXeXeXeXeXeXeXeX",
"eXeXeXeXeXeXeXeXeXeXeX;X;X{.'.`.].].`.`._._.(.(.W.M N N 1.eXeXeXeXe.9.9.0.q.8X[.8Xp.p.s.s.s.0X|.a.s.s.s.s.s.p.p.u.u.i.i.i.eXU.V.H.`.].].[.[.[.[.[.[.{.{.<X3XeXeXeXeXeXeXeXeXeXeXeXeXeXeXeXeXeXeX",
"eXeXeXeXeXeXeXeXeXeX;X&X'.'.`.`.`.`.`._._.(.(.R.~.F.U.eXeXeXeXeXeXr.e.9.0.q.y.9X0Xp.p.p.s.9X}.7Xs.s.s.p.p.p.p.p.u.u.i.i.t.eXeXJ.'.'.`.`.].[.[.].[.`.`.'.'.;X:XeXeXeXeXeXeXeXeXeXeXeXeXeXeXeXeXeX",
"eXeXeXeXeXeXeXeXeX=X&X&X_._._._._._._._.(.(.W.).~.+XeXeXeXeXeXeXeXg.e.9.0.q.y.6.7Xp.p.p.7.}.0Xa.p.p.p.p.p.p.p.u.u.i.i.f.d.eXeXeX<X{.'.`.`.`.].].`.`.`.`.'.&X;XeXeXeXeXeXeXeXeXeXeXeXeXeXeXeXeXeX",
"eXeXeXeXeXeXeXeXeX*X~.).(.(._._._._./.(.(.W.R.!.#XeXeXeXeXeXeXeXeXeXf.e.q.q.y.y.u.u.u.a.{.}.7.p.p.p.p.p.p.u.u.u.u.i.i.f.g.eXeXeX:X'.'._.`.`.`.`.`.`._._.).&X&X:XeXeXeXeXeXeXeXeXeXeXeXeXeXeXeXeX",
"eXeXeXeXeXeXeXeX%X~.R.R.W.(.(.(.(.(.(.Q.W.W.R.!.U.eXeXeXeXeXeXeXeXeXf.i.q.q.y.y.y.u.u.7X[.8Xu.u.u.y.u.u.u.u.u.u.y.i.i.f.g.eXeXeXeX;X'._._._._._._._._./.(.).~.*XeXeXeXeXeXeXeXeXeXeXeXeXeXeXeXeX",
"eXeXeXeXeXeXeXeX$X!.R.Y.Y.W.W.W.Q.W.W.W.Y.Y.R.!.P.eXeXeXeXeXeXeXeXeXr.i.q.q.y.y.y.y.6.[.7Xy.y.w.y.y.i.y.u.u.wXe.y.y.i.f.g.eXeXeXm.;X'._._._._._._./.(.(.Q.R.!.~.-XeXeXeXeXeXeXeXeXeXeXeXeXeXeXeX",
"eXeXeXeXeXeXeX+XOXT.I.Y.Y.Y.W.Y.W.Y.Y.Y.Y.I.Y.!.G.eXeXeXeXeXeXeXeXeXg.f.i.w.y.y.y.y.6.8Xy.w.w.w.w.y.y.y.y.qX' | e.y.i.f.g.eXeXeXv.&X).(.(.(.(.(.(.(.Q.W.W.Y.R.!.%XeXeXeXeXeXeXeXeXeXeXeXeXeXeXeX",
"eXeXeXeXeXeXeX#XT.I.K.L.L.Y.L.Y.Y.Y.L.L.L.L.I.!.N eXeXeXeXeXeXeXeXeXg.f.i.w.w.y.y.y.q.w.q.q.q.q.q.q.w.w.j.' ' ' } y.i.f.t.eXeXeXD.&X).(.Q.Q.W.W.W.W.W.Y.Y.Y.I.!.$XeXeXeXeXeXeXeXeXeXeXeXeXeXeXeX",
"eXeXeXeXeXeXeX#XOXI.K.J.J.L.L.L.L.L.L.K.K.K.I.G.v.eXeXeXeXeXeXeXeXeXg.f.i.q.w.w.w.q.q.q.0.0.0.0.0.0.q.e.( ' ' ' ' wXy.i.k.eXeXeXc.R.(.W.W.W.W.Y.Y.Y.Y.Y.L.L.I.T.OXeXeXeXeXeXeXeXeXeXeXeXeXeXeXeX",
"eXeXeXeXeXeXeX+XXXI.F.D.J.J.J.J.J.J.J.J.J.K.I.N b.eXeXeXeXeXeXeXeXeXeXf.i.y.q.q.q.q.0.0.5.5.5.5.5.0.0.} _ _ ' ' ' ' | } | ..eXeXc.L.R.R.Y.Y.Y.Y.Y.L.L.L.K.K.K.I.OXeXeXeXeXeXeXeXeXeXeXeXeXeXeXeX",
"eXeXeXeXeXeXeXeXOXP.G.F.D.D.D.J.J.J.D.D.J.F.c.N m.eXeXeXeXeXeXeXeXeXeXf.i.q.q.q.8.j.j.h.h.wX} } Q / ) ) _ _ ' ' ' ' ' `  ...eXeXc.D.R.Y.Y.Y.L.L.L.L.K.K.J.J.F.I.OXeXeXeXeXeXeXeXeXeXeXeXeXeXeXeX",
"eXeXeXeXeXeXeXeX#XXXG.F.F.D.D.D.D.D.D.F.F.G.N N eXeXeXeXeXeXeXeXeXeXeX} } ~ _ ) ) ) / / / ^ ^ ^ ^ / / ) ) _ _ ' ' ' _ `  . .eXeXc.N R.R.L.L.L.K.J.J.J.J.D.F.G.P.OXeXeXeXeXeXeXeXeXeXeXeXeXeXeXeX",
"eXeXeXeXeXeXeXeXeXU.P.G.F.c.c.c.c.D.F.G.G.N N m.eXeXeXeXeXeXeXeXeXeX{  .` ) ) ) / / / ^ W W W W ^ ^ / / ) ) _ _ ' ' _ `  . .eXeXb.c.F.R.I.K.J.J.J.J.D.D.F.F.G.XXU.eXeXeXeXeXeXeXeXeXeXeXeXeXeXeX",
"eXeXeXeXeXeXeXeXeXeX+XP.G.F.F.F.F.F.G.P.N b eXeXeXeXeXeXeXeXeXeXeXeX .` _ ) ) / / / ^ W W W Q Q ^ ^ ^ / / ) _ _ _ ' _ ` `  .eXeXeXb.c.!.T.L.K.J.D.D.D.F.F.G.P.XXeXeXeXeXeXeXeXeXeXeXeXeXeXeXeXeX",
"eXeXeXeXeXeXeXeXeXeXeXm.P.G.G.G.G.P.P.eXeXeXeXeXeXeXeXeXeXeXeXeXeX1 C ~ ) / / / ^ ^ W W Q Q Q ~ ~ ( ( ( / ) ) _ _ _ _ ` `  .eXeXeXeXeXeX!.I.K.F.F.F.F.G.G.P.XX+XeXeXeXeXeXeXeXeXeXeXeXeXeXeXeXeX",
"eXeXeXeXeXeXeXeXeXeXeXeXeXXXP.P.P.XXeXeXeXeXeXeXeXeXeXeXeXeXeXq 5 & * S / / / ^ W W W Q Q ! eXeXeXeX! ( / ) ) _ _ _ _ ` `  .eXeXeXeXeXeXU.T.I.I.G.G.G.P.XXU.eXeXeXeXeXeXeXeXeXeXeXeXeXeXeXeXeXeX",
"eXeXeXeXeXeXeXeXeXeXeXeXeXeXoXOXoXeXeXeXeXeXeXeXeXeXeXeXeXeX2 < % @ O = S S S OXY.Y.@XI Q eXeXeXeXeX{ ( ( / ) ) _ _ _ _ `  .eXeXeXeXeXeXeX$XOXXXXXXXXX>XeXeXeXeXeXeXeXeXeXeXeXeXeXeXeXeXeXeXeXeX",
"eXeXeXeXeXeXeXeXeXeXeXeXeXeXeXeXeXeXeXeXeXeXeXeXeXeXeXeXeX3 < # O o X X - W.Y.Y.Y.R.T.OXE eXeXeXeXeXeX( ( / / ) ) _ _ _ `  .eXeXeXeXeXeXeX>X$X$XoX+XeXeXeXeXeXeXeXeXeXeXeXeXeXeXeXeXeXeXeXeXeXeX",
"eXeXeXeXeXeXeXeXeXeXeXeXeXeXeXeXeXeXeXeXeXeXeXeXeXeXeXs 9 < $ + o X . X X ; Y.Y.Y.I.!.$XeXeXeXeXeXeXeX~ ( / / / ) ) _ _ `  ...eXeXeXeXeXeXeXeXeXeXeXeXeXeXeXeXeXeXeXeXeXeXeXeXeXeXeXeXeXeXeXeXeX",
"eXeXeXeXeXeXeXeXeXeXeXeXeXeXeXeXeXeXeXeXeXeXeXeXeXeXeXeX9 < # o X . . . . . > L.I.T.!.#XeXeXeXeXeXeXeX~ ( ^ / / R _._._.'.;X:XeXeXeXeXeXeXeXeXeXeXeXeXeXeXeXeXeXeXeXeXeXeXeXeXeXeXeXeXeXeXeXeXeX",
"eXeXeXeXeXeXeXeXeXeXeXeXeXeXeXeXeXeXeXeXeXeXeXeXeXeXeXeXeX< # O X . . . . . . b I.T.oXeXeXeXeXeXeXeXeX] ~ Q ^ / @X/._._.).&X;XeXeXeXeXeXeXeXeXeXeXeXeXeXeXeXeXeXeXeXeXeXeXeXeXeXeXeXeXeXeXeXeXeX",
"eXeXeXeXeXeXeXeXeXeXeXeXeXeXeXeXeXeXeXeXeXeXeXeXeXeXeXeXeX7 & + X .   . .   . @ x.oXeXeXeXeXeXeXeXeXeX[ ~ Q Q S Q.(.(.(.).&X;XeXeXeXeXeXeXeXeXeXeXeXeXeXeXeXeXeXeXeXeXeXeXeXeXeXeXeXeXeXeXeXeXeX",
"eXeXeXeXeXeXeXeXeXeXeXeXeXeXeXeXeXeXeXeXeXeXeXeXeXeXeXeXeXeX2 $ O X .       X O = eXeXeXeXeXeXeXeXeXeXeXT S OXY.W.W.Q.Q.(.~.&XeXeXeXeXeXeXeXeXeXeXeXeXeXeXeXeXeXeXeXeXeXeXeXeXeXeXeXeXeXeXeXeXeX",
"eXeXeXeXeXeXeXeXeXeXeXeXeXeXeXeXeXeXeXeXeXeXeXeXeXeXeXeXeXeXeX1 # O X     . X O & eXeXeXeXeXeXeXeXeXeXeX!.T.Y.Y.Y.Y.W.W.R.).~.eXeXeXeXeXeXeXeXeXeXeXeXeXeXeXeXeXeXeXeXeXeXeXeXeXeXeXeXeXeXeXeXeX",
"eXeXeXeXeXeXeXeXeXeXeXeXeXeXeXeXeXeXeXeXeXeXeXeXeXeXeXeXeXeXeXeX3 @ o .   . X + 4 eXeXeXeXeXeXeXeXeXeXeX& + o . . . X X X o $ 2 eXeXeXeXeXeXeXeXeXeXeXeXeXeXeXeXeXeXeXeXeXeXeXeXeXeXeXeXeXeXeXeX",
"eXeXeXeXeXeXeXeXeXeXeXeXeXeXeXeXeXeXeXeXeXeXeXeXeXeXeXeXeXeXeXeXeX& + X . . o # 4 eXeXeXeXeXeXeXeXeXeXeX< + X . . . . . . X O % 1 eXeXeXeXeXeXeXeXeXeXeXeXeXeXeXeXeXeXeXeXeXeXeXeXeXeXeXeXeXeXeX",
"eXeXeXeXeXeXeXeXeXeXeXeXeXeXeXeXeXeXeXeXeXeXeXeXeXeXeXeXeXeXeXeXeXeX& + o X O $ q eXeXeXeXeXeXeXeXeXeXeX< + X     . . . . . o O $ 3 eXeXeXeXeXeXeXeXeXeXeXeXeXeXeXeXeXeXeXeXeXeXeXeXeXeXeXeXeXeX",
"eXeXeXeXeXeXeXeXeXeXeXeXeXeXeXeXeXeXeXeXeXeXeXeXeXeXeXeXeXeXeXeXeXeX7 $ O O + % eXeXeXeXeXeXeXeXeXeXeXeX< @ X .       .   . . X + $ < eXeXeXeXeXeXeXeXeXeXeXeXeXeXeXeXeXeXeXeXeXeXeXeXeXeXeXeXeX",
"eXeXeXeXeXeXeXeXeXeXeXeXeXeXeXeXeXeXeXeXeXeXeXeXeXeXeXeXeXeXeXeXeXeXeX2 % # $ < eXeXeXeXeXeXeXeXeXeXeXeX3 @ X .               . X O $ < eXeXeXeXeXeXeXeXeXeXeXeXeXeXeXeXeXeXeXeXeXeXeXeXeXeXeXeX",
"eXeXeXeXeXeXeXeXeXeXeXeXeXeXeXeXeXeXeXeXeXeXeXeXeXeXeXeXeXeXeXeXeXeXeXeX1 < < 5 eXeXeXeXeXeXeXeXeXeXeXeX4 # o . .             . X X O $ < q eXeXeXeXeXeXeXeXeXeXeXeXeXeXeXeXeXeXeXeXeXeXeXeXeXeX",
"eXeXeXeXeXeXeXeXeXeXeXeXeXeXeXeXeXeXeXeXeXeXeXeXeXeXeXeXeXeXeXeXeXeXeXeXeX3 9 7 eXeXeXeXeXeXeXeXeXeXeXeX7 & + o . X . . . . X . X o O # < 9 eXeXeXeXeXeXeXeXeXeXeXeXeXeXeXeXeXeXeXeXeXeXeXeXeXeX",
"eXeXeXeXeXeXeXeXeXeXeXeXeXeXeXeXeXeXeXeXeXeXeXeXeXeXeXeXeXeXeXeXeXeXeXeXeXeXeXeXeXeXeXeXeXeXeXeXeXeXeXeXeX< % # + O + + + + + O + + # % < 9 eXeXeXeXeXeXeXeXeXeXeXeXeXeXeXeXeXeXeXeXeXeXeXeXeXeX",
"eXeXeXeXeXeXeXeXeXeXeXeXeXeXeXeXeXeXeXeXeXeXeXeXeXeXeXeXeXeXeXeXeXeXeXeXeXeXeXeXeXeXeXeXeXeXeXeXeXeXeXeXeX9 5 < < & & & & & & & & < < 5 5 9 eXeXeXeXeXeXeXeXeXeXeXeXeXeXeXeXeXeXeXeXeXeXeXeXeXeX"
};
