/* XPM */
static char *result[] = {
/* columns rows colors chars-per-pixel */
"96 128 215 2 ",
"   c #333437",
".  c #343639",
"X  c #36383B",
"o  c #383A3C",
"O  c #393B3E",
"+  c #3A3C3F",
"@  c #5A4A3E",
"#  c #3B3D40",
"$  c #3C3E40",
"%  c #3C3E41",
"&  c #3D3F42",
"*  c #3E4144",
"=  c #3F4448",
"-  c #3A4F4C",
";  c #385C55",
":  c #35695D",
">  c #197E64",
",  c #3E7067",
"<  c #347A6A",
"1  c #3C7C6E",
"2  c #2C6E7A",
"3  c #404244",
"4  c #414346",
"5  c #434547",
"6  c #404747",
"7  c #434649",
"8  c #444548",
"9  c #444748",
"0  c #454749",
"q  c #464749",
"w  c #47494B",
"e  c #43484F",
"r  c #46484C",
"t  c #594E4A",
"y  c #5B5345",
"u  c #454A51",
"i  c #484D54",
"p  c #4A4F55",
"a  c #4C5157",
"s  c #4E535A",
"d  c #435C5D",
"f  c #50545A",
"g  c #52565B",
"h  c #51565C",
"j  c #52565D",
"k  c #53575E",
"l  c #53585D",
"z  c #474A61",
"x  c #575D64",
"c  c #585B61",
"v  c #406762",
"b  c #41746C",
"n  c #A2734C",
"m  c #1F856B",
"M  c #21876D",
"N  c #29816A",
"B  c #218A6F",
"V  c #238F74",
"C  c #288078",
"Z  c #3F8476",
"A  c #3C8E7C",
"S  c #259578",
"D  c #269A7C",
"F  c #35A67B",
"G  c #6BB15C",
"H  c #78B352",
"J  c #5DAD62",
"K  c #50AD6B",
"L  c #40A470",
"P  c #43AA75",
"I  c #77A97E",
"U  c #C3BC1F",
"Y  c #D6C419",
"T  c #F0C807",
"R  c #FCC900",
"E  c #FFCC00",
"W  c #E4C710",
"Q  c #86B64B",
"!  c #94B942",
"~  c #939F7B",
"^  c #B09967",
"/  c #BD9863",
"(  c #99A675",
")  c #BAA26B",
"_  c #CB8A54",
"`  c #D28F56",
"'  c #D69157",
"]  c #DB9458",
"[  c #D9975D",
"{  c #E0985B",
"}  c #E49A5B",
"|  c #E69B5D",
" . c #EA9E5E",
".. c #D29762",
"X. c #D99861",
"o. c #C18B74",
"O. c #D19371",
"+. c #385789",
"@. c #346687",
"#. c #2E7580",
"$. c #387C92",
"%. c #404491",
"&. c #424395",
"*. c #434597",
"=. c #44469A",
"-. c #46489E",
";. c #416398",
":. c #427E9E",
">. c #494BA4",
",. c #4B4DA9",
"<. c #4D50A7",
"1. c #5153A9",
"2. c #5456AC",
"3. c #5758AA",
"4. c #5B5DA9",
"5. c #5B5DAB",
"6. c #585BB3",
"7. c #5C5FBA",
"8. c #4661A0",
"9. c #4D6DA0",
"0. c #516AA2",
"q. c #5D60B7",
"w. c #5779B6",
"e. c #5E71BD",
"r. c #5A7DB9",
"t. c #7C6DA1",
"y. c #6063B9",
"u. c #6164BD",
"i. c #6366BF",
"p. c #6467C0",
"a. c #6467C2",
"s. c #6568C3",
"d. c #636EC1",
"f. c #6669C5",
"g. c #676AC6",
"h. c #6A6CC0",
"j. c #6C6EC1",
"k. c #A17E8E",
"l. c #8175A9",
"z. c #2F8D8C",
"x. c #2C9680",
"c. c #279F80",
"v. c #2B9D81",
"b. c #329D80",
"n. c #329C81",
"m. c #349A92",
"M. c #28A282",
"N. c #2CA284",
"B. c #28A585",
"V. c #29A686",
"C. c #2FA487",
"Z. c #2CAA8A",
"A. c #2FAD8D",
"S. c #32A084",
"D. c #36A186",
"F. c #33A487",
"G. c #3BA187",
"H. c #35A589",
"J. c #3DA389",
"K. c #3BA58B",
"L. c #3FA58B",
"P. c #34A88A",
"I. c #37A98C",
"U. c #36AB8D",
"Y. c #37AD8F",
"T. c #3CAA8E",
"R. c #38AF91",
"E. c #3DAE91",
"W. c #33B090",
"Q. c #35B494",
"!. c #38B192",
"~. c #38B394",
"^. c #3CB294",
"/. c #39B595",
"(. c #3AB797",
"). c #3DB596",
"_. c #3EB79A",
"`. c #3ABA99",
"'. c #3DBA9A",
"]. c #3BBC9B",
"[. c #3FBB9C",
"{. c #3CBD9C",
"}. c #3CBE9D",
"|. c #3DBF9E",
" X c #40A38A",
".X c #41A78D",
"XX c #40A78E",
"oX c #44A78D",
"OX c #45A78F",
"+X c #58AC88",
"@X c #41AB90",
"#X c #45AA91",
"$X c #46AB90",
"%X c #46AC91",
"&X c #44AE92",
"*X c #43B095",
"=X c #42B195",
"-X c #45B396",
";X c #43B799",
":X c #45B498",
">X c #44B598",
",X c #47B89B",
"<X c #44BA9C",
"1X c #47BA9D",
"2X c #44BD9E",
"3X c #47BC9E",
"4X c #4C8EAA",
"5X c #4E92AC",
"6X c #4A9DA9",
"7X c #5485B3",
"8X c #528FB1",
"9X c #7487A4",
"0X c #44ACA4",
"qX c #B38684",
"wX c None",
/* pixels */
"wXwXwXwXwXwXwXwXwXwXwXwXwXwXwXwXwXwXwXwXwXwXwXwXwXwXwXwXwXwXwXwXwXwXwXwXwXwXwXwXwXwXwXwXwXwXwXwXwXwXwXwXwXwXwXwXwXwXwXwXwXwXwXwXwXwXwXwXwXwXwXwXwXwXwXwXwXwXwXwXwXwXwXwXwXwXwXwXwXwXwXwXwXwXwXwX",
"wXwXwXwXwXwXwXwXwXwXwXwXwXwXwXwXwXwXwXwXwXwXwXwXwXwXwXwXwXwXwXwXwXwXwXwXwXwXwXwXwXwXwXwXwXwXwXwXwXwXwXwXwXwXwXwXwXwXwXwXwXwXwXwXwXwXwXwXwXwXwXwXwXwXwXwXwXwXwXwXwXwXwXwXwXwXwXwXwXwXwXwXwXwXwXwX",
"wXwXwXwXwXwXwXwXwXwXwXwXwXwXwXwXwXwXwXwXwXwXwXwXwXwXwXwXwXwXwXwXwXwXwXwXwXwXwXwXwXwXwXwXwXwXwXwXwXwXwXwXwXwXwXwXwXwXwXwXwXwXwXwXwXwXwXwXwXwXwXwXwXwXwXwXwXwXwXwXwXwXwXwXwXwXwXwXwXwXwXwXwXwXwXwX",
"wXwXwXwXwXwXwXwXwXwXwXwXwXwXwXwXwXwXwXwXwXwXwXwXwXwXwXwXwXwXwXwXwXwXwXwXwXwXwXwXwXwXwXwXwXwXwXwXwXwXwXwXwXwXwXwXwXwXwXwXwXwXwXwXwXwXwXwXwXwXwXwXwXwXwXwXwXwXwXwXwXwXwXwXwXwXwXwXwXwXwXwXwXwXwXwX",
"wXwXwXwXwXwXwXwXwXwXwXwXwXwXwXwXwXwXwXwXwXwXwXwXwXwXwXwXwXwXwXwXwXwXwXwXwXwXwXwXwXwXwXwXwXwXwXwXwXwXwXwXwXwXwXwXwXwXwXwXwXwXwXwXwXwXwXwXwXwXwXwXwXwXwXwXwXwXwXwXwXwXwXwXwXwXwXwXwXwXwXwXwXwXwXwX",
"wXwXwXwXwXwXwXwXwXwXwXwXwXwXwXwXwXwXwXwXwXwXwXwXwXwXwXwXwXwXwXwXwXwXwXwXwXwXwXwXwXwXwXwXwXwXwXwXwXwXwXwXwXwXwXwXwXwXwXwXwXwXwXwXwXwXwXwXwXwXwXwXwXwXwXwXwXwXwXwXwXwXwXwXwXwXwXwXwXwXwXwXwXwXwXwX",
"wXwXwXwXwXwXwXwXwXwXwXwXwXwXwXwXwXwXwXwXwXwXwXwXwXwXwXwXwXwXwXwXwXwXwXwXwXwXwXwXwXwXwXwXwXwXwXwXwXwXwXwXwXwXwXwXwXwXwXwXwXwXwXwXwXwXwXwXwXwXwXwXwXwXwXwXwXwXwXwXwXwXwXwXwXwXwXwXwXwXwXwXwXwXwXwX",
"wXwXwXwXwXwXwXwXwXwXwXwXwXwXwXwXwXwXwXwXwXwXwXwXwXwXwXwXwXwXwXwXwXwXwXwXwXwXwXwXwXwXwXwXwXwXwXwXwXwXwXwXwXwXwXwXwXwXwXwXwXwXwXwXwXwXwXwXwXwXwXwXwXwXwXwXwXwXwXwXwXwXwXwXwXwXwXwXwXwXwXwXwXwXwXwX",
"wXwXwXwXwXwXwXwXwXwXwXwXwXwXwXwXwXwXwXwXwXwXwXwXwXwXwXwXwXwXwXwXwXwXwXwXwXwXwXwXwXwXwXwXwXwXwXwXwXwXwXwXwXwXwXwXwXwXwXwXwXwXwXwXwXwXwXwXwXwXwXwXwXwXwXwXwXwXwXwXwXwXwXwXwXwXwXwXwXwXwXwXwXwXwXwX",
"wXwXwXwXwXwXwXwXwXwXwXwXwXwXwXwXwXwXwXwXwXwXwXwXwXwXwXwXwXwXwXwXwXwXwXwXwXwXwXwXwXwXwXwXwXwXwXwXwXwXwXwXwXwXwXwXwXwXwXwXwXwXwXwXwXwXwXwXwXwXwXwXwXwXwXwXwXwXwXwXwXwXwXwXwXwXwXwXwXwXwXwXwXwXwXwX",
"wXwXwXwXwXwXwXwXwXwXwXwXwXwXwXwXwXwXwXwXwXwXwXwXwXwXwXwXwXwXwXwXwXwXwXwXwXwXwXwXwXwXwXwXwXwXwXwXwXwXwXwXwXwXwXwXwXwXwXwXwXwXwXwXwXwXwXwXwXwXwXwXwXwXwXwXwXwXwXwXwXwXwXwXwXwXwXwXwXwXwXwXwXwXwXwX",
"wXwXwXwXwXwXwXwXwXwXwXwXwXwXwXwXwXwXwXwXwXwXwXwXwXwXwXwXwXwXwXwXwXwXwXwXwXwXwXwXwXwXwXwXwXwXwXwXwXwXwXwXwXwXwXwXwXwXwXwXwXwXwXwXwXwXwXwXwXwXwXwXwXwXwXwXwXwXwXwXwXwXwXwXwXwXwXwXwXwXwXwXwXwXwXwX",
"wXwXwXwXwXwXwXwXwXwXwXwXwXwXwXwXwXwXwXwXwXwXwXwXwXwXwXwXwXwXwXwXwXwXwXwXwXwXwXwXwXwXwXwXwXwXwXwXwXwXwXwXwXwXwXwXwXwXwXwXwXwXwXwXwXwXwXwXwXwXwXwXwXwXwXwXwXwXwXwXwXwXwXwXwXwXwXwXwXwXwXwXwXwXwXwX",
"wXwXwXwXwXwXwXwXwXwXwXwXwXwXwXwXwXwXwXwXwXwXwXwXwXwXwXwXwXwXwXwXwXwXwXwXwXwXwXwXwXwXwXwXwXwXwXwXwXwXwXwXwXwXwXwXwXwXwXwXwXwXwXwXwXwXwXwXwXwXwXwXwXwXwXwXwXwXwXwXwXwXwXwXwXwXwXwXwXwXwXwXwXwXwXwX",
"wXwXwXwXwXwXwXwXwXwXwXwXwXwXwXwXwXwXwXwXwXwXwXwXwXwXwXwXwXwXwXwXwXwXwXwXwXwXwXwXwXwXwXwXwXwXwXwXwXwXwXwXwXwXwXwXwXwXwXwXwXwXwXwXwXwXwXwXwXwXwXwXwXwXwXwXwXwXwXwXwXwXwXwXwXwXwXwXwXwXwXwXwXwXwXwX",
"wXwXwXwXwXwXwXwXwXwXwXwXwXwXwXwXwXwXwXwXwXwXwXwXwXwXwXwXwXwXwXwXwXwXwXwXwXwXwXwXwXwXwXwXwXwXwXwXwXwXwXwXwXwXwXwXwXwXwXwXwXwXwXwXwXwXwXwXwXwXwXwXwXwXwXwXwXwXwXwXwXwXwXwXwXwXwXwXwXwXwXwXwXwXwXwX",
"wXwXwXwXwXwXwXwXwXwXwXwXwXwXwXwXwXwXwXwXwXwXwXwXwXwXwXwXwXwXwXwXwXwXwXwXwXwXwXwXwXwXwXwXwXwXwXwXwXwXwXwXwXwXwXwXwXwXwXwXwXwXwXwXwXwXwXwXwXwXwXwXwXwXwXwXwXwXwXwXwXwXwXwXwXwXwXwXwXwXwXwXwXwXwXwX",
"wXwXwXwXwXwXwXwXwXwXwXwXwXwXwXwXwXwXwXwXwXwXwXwXwXwXwXwXwXwXwXwXwXwXwXwXwXwXwXwXwXwXwXwXwXwXwXwXwXwXwXwXwXwXwXwXwXwXwXwXwXwXwXwXwXwXwXwXwXwXwXwXwXwXwXwXwXwXwXwXwXwXwXwXwXwXwXwXwXwXwXwXwXwXwXwX",
"wXwXwXwXwXwXwXwXwXwXwXwXwXwXwXwXwXwXwXwXwXwXwXwXwXwXwXwXwXwXwXwXwXwXwXwXwXwXwXwXwXwXwXwXwXwXwXwXwXwXwXwXwXwXwXwXwXwXwXwXwXwXwXwXwXwXwXwXwXwXwXwXwXwXwXwXwXwXwXwXwXwXwXwXwXwXwXwXwXwXwXwXwXwXwXwX",
"wXwXwXwXwXwXwXwXwXwXwXwXwXwXwXwXwXwXwXwXwXwXwXwXwXwXwXwXwXwXwXwXwXwXwXwXwXwXwXwXwXwXwXwXwXwXwXwXwXwXwXwXwXwXwXwXwXwXwXwXwXwXwXwXwXwXwXwXwXwXwXwXwXwXwXwXwXwXwXwXwXwXwXwXwXwXwXwXwXwXwXwXwXwXwXwX",
"wXwXwXwXwXwXwXwXwXwXwXwXwXwXwXwXwXwXwXwXwXwXwXwXwXwXwXwXwXwXwXwXwXwXwXwXwXwXwXwXwXwXwXwXwXwXwXwXwXwXwXwXwXwXwXwXwXwXwXwXwXwXwXwXwXwXwXwXwXwXwXwXwXwXwXwXwXwXwXwXwXwXwXwXwXwXwXwXwXwXwXwXwXwXwXwX",
"wXwXwXwXwXwXwXwXwXwXwXwXwXwXwXwXwXwXwXwXwXwXwXwXwXwXwXwXwXwXwXwXwXwXwXwXwXwXwXwXwXwXwXwXwXwXwXwXwXwXwXwXwXwXwXwXwXwXwXwXwXwXwXwXwXwXwXwXwXwXwXwXwXwXwXwXwXwXwXwXwXwXwXwXwXwXwXwXwXwXwXwXwXwXwXwX",
"wXwXwXwXwXwXwXwXwXwXwXwXwXwXwXwXwXwXwXwXwXwXwXwXwXwXwXwXwXwXwXwXwXwXwXwXwXwXwXwXwXwXwXwXwXwXwXwXwXwXwXwXwXwXwXwXwXwXwXwXwXwXwXwXwXwXwXwXwXwXwXwXwXwXwXwXwXwXwXwXwXwXwXwXwXwXwXwXwXwXwXwXwXwXwXwX",
"wXwXwXwXwXwXwXwXwXwXwXwXwXwXwXwXwXwXwXwXwXwXwXwXwXwXwXwXwXwXwXwXwXwXwXwXwXwXwXwXwXwXwXwXwXwXwXwXwXwXwXwXwXwXwXwXwXwXwXwXwXwXwXwXwXwXwXwXwXwXwXwXwXwXwXwXwXwXwXwXwXwXwXwXwXwXwXwXwXwXwXwXwXwXwXwX",
"wXwXwXwXwXwXwXwXwXwXwXwXwXwXwXwXwXwXwXwXwXwXwXwXwXwXwXwXwXwXwXwXwXwXwXwXwXwXwXwXwXwXwXwXwXwXwXwXwXwXwXwXwXwXwXwXwXwXwXwXwXwXwXwXwXwXwXwXwXwXwXwXwXwXwXwXwXwXwXwXwXwXwXwXwXwXwXwXwXwXwXwXwXwXwXwX",
"wXwXwXwXwXwXwXwXwXwXwXwXwXwXwXwXwXwXwXwXwXwXwXwXwXwXwXwXwXwXwXwXwXwXwXwXwXwXwXwXwXwXwXwXwXwXwXwXwXwXwXwXwXwXwXwXwXwXwXwXwXwXwXwXwXwXwXwXwXwXwXwXwXwXwXwXwXwXwXwXwXwXwXwXwXwXwXwXwXwXwXwXwXwXwXwX",
"wXwXwXwXwXwXwXwXwXwXwXwXwXwXwXwXwXwXwXwXwXwXwXwXwXwXwXwXwXwXwXwXwXwXwXwXwXwXwXwXwXwXwXwXwXwXwXwXwXwXwXwXwXwXwXwXwXwXwXwXwXwXwXwXwXwXwXwXwXwXwXwXwXwXwXwXwXwXwXwXwXwXwXwXwXwXwXwXwXwXwXwXwXwXwXwX",
"wXwXwXwXwXwXwXwXwXwXwXwXwXwXwXwXwXwXwXwXwXwXwXwXwXwXwXwXwXwXwXwXwXwXwXwXwXwXwXwXwXwXwXwXwXwXwXwXwXwXwXwXwXwXwXwXwXwXwXwXwXwXwXwXwXwXwXwXwXwXwXwXwXwXwXwXwXwXwXwXwXwXwXwXwXwXwXwXwXwXwXwXwXwXwXwX",
"wXwXwXwXwXwXwXwXwXwXwXwXwXwXwXwXwXwXwXwXwXwXwXwXwXwXwXwXwXwXwXwXwXwXwXwXwXwXwXwXwXwXwXwXwXwXwXwXwXwXwXwXwXwXwXwXwXwXwXwXwXwXwXwXwXwXwXwXwXwXwXwXwXwXwXwXwXwXwXwXwXwXwXwXwXwXwXwXwXwXwXwXwXwXwXwX",
"wXwXwXwXwXwXwXwXwXwXwXwXwXwXwXwXwXwXwXwXwXwXwXwXwXwXwXwXwXwXwXwXwXwXwXwXwXwXwXwXwXwXwXwXwXwXwXwXwXwXwXwXx c l wXwXwXwXwXwXwXwXwXwXwXwXwXwXwXwXwXwXwXwXwXwXwXwXwXwXwXwXwXwXwXwXwXwXwXwXwXwXwXwXwX",
"wXwXwXwXwXwXwXwXwXwXwXwXwXwXwXwXwXwXwXwXwXwXwXwXwXwXwXwXwXwXwXwXwXwXwXwXwXwXwXwXwXwXwXwXwXwXwXwXwXwXwXwXh h h k wXwXwXwXwXwXwXwXwXwXwXwXwXwXwXwXwXwXwXwXwXwXwXwXwXwXwXwXwXwXwXwXwXwXwXwXwXwXwXwX",
"wXwXwXwXwXwXwXwXwXwXwXwXwXwXwXwXwXwXwXwXwXwXwXwXwXwXwXwXwXwXwXwXwXwXwXwXwXwXwXwXwXwXwXwXwXwXwXwXwXwXwXg h s s h k wXwXwXwXwXwXwXwXwXwXwXwXwXwXwXwXwXwXwXwXwXwXwXwXwXwXwXwXwXwXwXwXwXwXwXwXwXwXwX",
"wXwXwXwXwXwXwXwXwXwXwXwXwXwXwXwXwXwXwXwXwXwXwXwXwXwXwXwXwXwXwXwXwXwXwXwXwXwXwXwXwXwXwXwXwXwXwXwXwXwXl s a p p a s l wXwXwXwXwXwXwXwXwXwXwXwXwXwXwXwXwXwXwXwXwXwXwXwXwXwXwXwXwXwXwXwXwXwXwXwXwXwX",
"wXwXwXwXwXwXwXwXwXwXwXwXwXwXwXwXwXwXwXwXwXwXwXwXwXwXwXwXwXwXwXwXwXwXwXwXwXwXwXwXwXwXwXwXwXwXwXwXwXwXs p i e e i a s k wXwXwXwXwXwXwXwXwXwXwXwXwXwXwXwXwXwXwXwXwXwXwXwXwXwXwXwXwXwXwXwXwXwXwXwXwX",
"wXwXwXwXwXwXwXwXwXwXwXwXwXwXwXwXwXwXwXwXwXwXwXwXwXwXwXwXwXwXwXwXwXwXwXwXwXwXwXwXwXwXwXwXwXwXwXwXwXh a i 4 % % 4 i a s j wXwXwXwXwXwXwXwXwXwXwXwXwXwXwXwXwXwXwXwXwXwXwXwXwXwXwXwXwXwXwXwXwXwXwXwX",
"wXwXwXwXwXwXwXwXwXwXwXwXwXwXwXwXwXwXwXwXwXwXwXwXwXwXwXwXwXwXwXwXwXwXwXwXwXwXwXwXwXwXwXwXwXwXwXwXf a p 7 % # # # 7 i p s f wXwXwXwXwXwXwXwXwXwXwXwXwXwXwXwXwXwXwXwXwXwXwXwXwXwXwXwXwXwXwXwXwXwXwX",
"wXwXwXwXwXwXwXwXwXwXwXwXwXwXwXwXwXwXwXwXwXwXwXwXwXwXwXwXwXwXwXwXwXwXwXwXwXwXwXwXwXwXwXwXwXwXwXf a p e % % % % % % e i p a s g wXwXwXwXwXwXwXwXk j j h h j wXwXwXwXwXwXwXwXwXwXwXwXwXwXwXwXwXwXwX",
"wXwXwXwXwXwXwXwXwXwXwXwXwXwXwXwXwXwXwXwXwXwXwXwXwXwXwXwXwXwXwXwXwXwXwXwXwXwXwXwXwXwXwXwXwXwXh a p u % % % % % % % % e i p a a s s h h h h s s s a a a s h wXwXwXwXwXwXwXwXwXwXwXwXwXwXwXwXwXwXwX",
"wXwXwXwXwXwXwXwXwXwXwXwXwXwXwXwXwXwXwXwXwXwXwXwXwXwXwXwXwXwXwXwXwXwXwXwXwXwXwXwXwXwXwXwXl h a p e & % % % % % % % % & e i i i p a a p p p p i i i u i i a l wXwXwXwXwXwXwXwXwXwXwXwXwXwXwXwXwXwX",
"wXwXwXwXwXwXwXwXwXwXwXwXwXwXwXwXwXwXwXwXwXwXwXwXwXwXwXwXwXwXwXwXwXwXwXwXwXwXwXwXwXwXwXg s a i u * % % % % % % % % % % % = u u i i i i u u u u u u e e u p f wXwXwXwXwXwXwXwXwXwXwXwXwXwXwXwXwXwX",
"wXwXwXwXwXwXwXwXwXwXwXwXwXwXwXwXwXwXwXwXwXwXwXwXwXwXwXwXwXwXwXwXwXwXwXwXwXwXwXwXwXj h a p i u * % % % % % % % % % % % % % = e u u u u u u u e e e e e e i a wXwXwXwXwXwXwXwXwXwXwXwXwXwXwXwXwXwX",
"wXwXwXwXwXwXwXwXwXwXwXwXwXwXwXwXwXwXwXwXwXwXwXwXwXwXwXwXwXwXwXp p f l wXwXwXwXj h s a p i u * % % % % % % % % % % % % % % % & 7 u u u e e e e e = = = = e i wXwXwXwXwXwXwXwXwXwXwXwXwXwXwXwXwXwX",
"wXwXwXwXwXwXwXwXwXwXwXwXwXwXwXwXwXwXwXwXwXwXwXwXwXwXwXwXwXwXr w w 7 i a s s s a a p i i e & % % % % % % % % % % % % % % % % % % 7 u u u u u e e & O o + & 4 wXwXwXwXwXwXwXwXwXwXwXwXwXwXwXwXwXwX",
"wXwXwXwXwXwXwXwXwXwXwXwXwXwXwXwXwXwXwXwXwXwXwXwXwXwXwXwXwXwXw 7 4 3 * 7 i p i p i i u 7 % % % % % % % % % % % % % % % % % % % % * u u e e e e e # o o O % 3 8 wXwXwXwXwXwXwXwXwXwXwXwXwXwXwXwXwX",
"wXwXwXwXwXwXwXwXwXwXwXwXwXwXwXwXwXwXwXwXwXwXwXwXwXwXwXwXwXr 7 3 & & % & & = u u u u = % % % % % % % % % % % % % % % % % % % % % * u e u e e e e O o o o $ 3 8 wXwXwXwXwXwXwXwXwXwXwXwXwXwXwXwXwX",
"wXwXwXwXwXwXwXwXwXwXwXwXwXwXwXwXwXwXwXwXwXwXwXwXwXwXwXwXwX6 4 * % + + # # # % = 7 * % % % % % % % % % % % % % % % % % % % % % % % u e e u e e * O o o o + 3 8 wXwXwXwXwXwXwXwXwXwXwXwXwXwXwXwXwX",
"wXwXwXwXwXwXwXwXwXwXwXwXwXwXwXwXwXwXwXwXwXwXwXwXwXwXwXwXwX7 3 # + + + # # # % % % % % % % % % % % % % % % % % % % % % % % % % % % u e u e e e O o o X o # * 8 wXwXwXwXwXwXwXwXwXwXwXwXwXwXwXwXwX",
"wXwXwXwXwXwXwXwXwXwXwXwXwXwXwXwXwXwXwXwXwXwXwXwXwXwXwXwXwX7 & # O + + # # # % % % % % % % % % % % % % % % % % % % % % % % % % % * e u e e e & O o o X O $ 3 0 wXwXwXwXwXwXwXwXwXwXwXwXwXwXwXwXwX",
"wXwXwXwXwXwXwXwXwXwXwXwXwXwXwXwXwXwXwXwXwXwXwXwXwXwXwXwX8 4 & + O + + # # # % % % % % % % % % % % % % % % % % % % % % % % % % % * e e u e = O O o o X o $ 4 wXwXwXwXwXwXwXwXwXwXwXwXwXwXwXwXwXwX",
"wXwXwXwXwXwXwXwXwXwXwXwXwXwXwXwXwXwXwXwXwXwXwXwXwXwXwXwX9 4 & + O + + # # # % % % % % % % % % % % % % % % % % % % % % % % % % % = e u e = + O o o X X O & 4 wXwXwXwXwXwXwXwXwXwXwXwXwXwXwXwXwXwX",
"wXwXwXwXwXwXwXwXwXwXwXwXwXwXwXwXwXwXwXwXwXwXwXwXwXwXwXwXw 4 % + O + # # # # % % % % % % % % % % % % % % % % % % % % % % % % % % = e e * + + O o o X o # * 9 wXwXwXwXwXwXwXwXwXwXwXwXwXwXwXwXwXwX",
"wXwXwXwXwXwXwXwXwXwXwXwXwXwXwXwXwXwXwXwXwXwXwXwXwXwXwXwXw 4 % + + + # # # % % % % % % % % % % % % % % % % % % % % % % % % % % % e = # # + O O o o o O $ 4 wXwXwXwXwXwXwXwXwXwXwXwXwXwXwXwXwXwXwX",
"wXwXwXwXwXwXwXwXwXwXwXwXwXwXwXwXwXwXwXwXwXwXwXwXwXwXwXwXw 4 % + + + # # # % % % % % % % % % % % % % % % % % % % % % % % % % % % + # # + + O O o o o + * 6 wXwXwXwXwXwXwXwXwXwXwXwXwXwXwXwXwXwXwX",
"wXwXwXwXwXwXwXwXwXwXwXwXwXwXwXwXwXwXwXwXwXwXwXwXwXwXwXwX5 4 & + + + # # # % % % % % % % % % % % % % % % % % % % % % % % % % % % # # # + + O O o o O % 4 wXwXwXwXwXwXwXwXwXwXwXwXwXwXwXwXwXwXwXwX",
"wXwXwXwXwXwXwXwXwXwXwXwXwXwXwXwXwXwXwXwXwXwXwXwXwXwXwXwX0 4 & # + * # # # % % % % % % % % % % % % % % % % % % % % % % % % % % % # # # + + O O o O # 3 9 wXwXwXwXwXwXwXwXwXwXwXwXwXwXwXwXwXwXwXwX",
"wXwXwXwXwXwXwXwXwXwXwXwXwXwXwXwXwXwXwXwXwXwXwXwXwXwXwXwXwX7 * $ + G.^.1 - % % % % % % % % % % % % % % % % % % % % % % % = 1 G.Z : * # + + O O O + * 7 wXwXwXwXwXwXwXwXwXwXwXwXwXwXwXwXwXwXwXwXwX",
"wXwXwXwXwXwXwXwXwXwXwXwXwXwXwXwXwXwXwXwXwXwXwXwXwXwXwXwXwX7 * $ + A {.}.|.A v = % % % % % % % % % % % % % % % % % ; v A |.|.|.|.}.{.K.A ; O O # & 4 8 wXwXwXwXwXwXwXwXwXwXwXwXwXwXwXwXwXwXwXwXwX",
"wXwXwXwXwXwXwXwXwXwXwXwXwXwXwXwXwXwXwXwXwXwXwXwXwXwXwXwXwX7 * & + 1 {.}.|.|.|. Xb u e u = % % % % % % % = v 1 A (.|.|.|.|.|.|.|.}.{.{.].: O + # * 7 wXwXwXwXwXwXwXwXwXwXwXwXwXwXwXwXwXwXwXwXwXwX",
"wXwXwXwXwXwXwXwXwXwXwXwXwXwXwXwXwXwXwXwXwXwXwXwXwXwXwXwXwXw * & # 1 {.Z , d u u u u u u 1 |.|.|.|.|.|.|.|.|.|.|.|.|.|.|.|.|.|.|.}.}.{.].- + # * 4 q wXwXwXwXwXwXwXwXwXwXwXwXwXwXwXwXwXwXwXwXwXwX",
"wXwXwXwXwXwXwXwXwXwXwXwXwXwXwXwXwXwXwXwXwXwXwXwXwXwXwXwXwXw 3 & # 1 }.d u u u u u u u u d |.|.|.|.|.|.|.|.|.|.|.|.|.|.|.|.|.|.|.|.}.{.].+ + % * 7 wXwXwXwXwXwXwXwXwXwXwXwXwXwXwXwXwXwXwXwXwXwXwX",
"wXwXwXwXwXwXwXwXwXwXwXwXwXwXwXwXwXwXwXwXwXwXwXwXwXwXwXwXwX7 3 & # : }.1 u u u u u u d , Z |.|.|.|.|.|.|.|.|.|.|.|.|.|.|.|.|.|.|.|.}.{.J.+ # & 4 8 wXwXwXwXwXwXwXwXwXwXwXwXwXwXwXwXwXwXwXwXwXwXwX",
"wXwXwXwXwXwXwXwXwXwXwXwXwXwXwXwXwXwXwXwXwXwXwXwXwXwXwXwXwX7 * % # ; }.A u v b A  X|.|.|.|.|.|.|.|.|.|.|.|.|.|.|.|.|.|.|.|.|.|.|.|.}.{.A + % * 4 r wXwXwXwXwXwXwXwXwXwXwXwXwXwXwXwXwXwXwXwXwXwXwX",
"wXwXwXwXwXwXwXwXwXwXwXwXwXwXwXwXwXwXwXwXwXwXwXwXwXwXwXwXwX4 & # # ; }.}.|.{.W.A.A.A.A.W.{.|.|.|.|.|.|.|.|.|.|.|.|.b i v 1 A T.|.|.}.{., + % * 4 wXwXwXwXwXwXwXwXwXwXwXwXwXwXwXwXwXwXwXwXwXwXwXwX",
"wXwXwXwXwXwXwXwXwXwXwXwXwXwXwXwXwXwXwXwXwXwXwXwXwXwXwX,X;X* & + # - {.}.(.V.V.G ! ! ! P Z.{.|.|.|.|.|.|.|.|.|.|.|.d u u u u u u v b A ; + % * 4 wXwXwXwXwXwXwXwXwXwXwXwXwXwXwXwXwXwXwXwXwXwXwXwX",
"wXwXwXwXwXwXwXwXwXwXwXwXwXwXwXwXwXwXwXwXwXwXwXwXwXwX:X;X_.% + + + # {.`.V.V.G E E E E W V.A.|.|.|.|.|.|.|.|.|.|._.u u u u u u u u e b # + # * 4 wXwXwXwXwXwXwXwXwXwXwXwXwXwXwXwXwXwXwXwXwXwXwXwX",
"wXwXwXwXwXwXwXwXwXwXwXwXwXwXwXwXwXwXwXwXwXwXwXwXwX-X=X).).+ O + + # {.A.B.V.T E E E E E G V.`.|.|.|.|.|.|.|.|.|.^.Z v d u u u u e u v + + + % * ,XwXwXwXwXwXwXwXwXwXwXwXwXwXwXwXwXwXwXwXwXwXwXwX",
"wXwXwXwXwXwXwXwXwXwXwXwXwXwXwXwXwXwXwXwXwXwXwXwX>X=XE.^.N.; O O + - {.B.B.J E E E E E E ! V.W.|.|.|.|.|.|.|.|.|.|.|.|.|._. XA b v e , + + O # ; ;X:XwXwXwXwXwXwXwXwXwXwXwXwXwXwXwXwXwXwXwXwXwXwX",
"wXwXwXwXwXwXwXwXwXwXwXwXwXwXwXwXwXwXwXwXwXwXwXwX&XE.E.C.D S - O - T.].B.B.K E E E E E E Q V.A.|.|.|.|.|.|.|.|.|.|.].A.V.V.B.V.W.`.].1 + O O O , ^.=X-XwXwXwXwXwXwXwXwXwXwXwXwXwXwXwXwXwXwXwXwXwX",
"wXwXwXwXwXwXwXwXwXwXwXwXwXwXwXwXwXwXwXwXwXwXwX#X&XE.I.S D D N.(.`.`.].B.B.B.W E E E E T P V.A.|.|.|.|.|.|.|.|.|.{.V.P Q ! ! Q F B./.; O O o o : R.E.=X#XwXwXwXwXwXwXwXwXwXwXwXwXwXwXwXwXwXwXwXwX",
"wXwXwXwXwXwXwXwXwXwXwXwXwXwXwXwXwXwXwXwXwXwXwXOX@XT.S.S D D N.(.(.`.].M.B.B.K W E E W K V.V.W.|.|.|.|.|.|.|.|.|.Z.V.Y E E R R H M.V.1 O O o o N N.E.@X&XwXwXwXwXwXwXwXwXwXwXwXwXwXwXwXwXwXwXwXwX",
"wXwXwXwXwXwXwXwXwXwXwXwXwXwXwXwXwXwXwXwXwXwXwXOX@XT.S.S S D N./.(.`.`.Z.B.B.B.P J J F V.V.V.(.].(.(.(.`.|.|.|.Q.V.H E E E R R T M.c.A O o o ; S S I.T.@XwXwXwXwXwXwXwXwXwXwXwXwXwXwXwXwXwXwXwXwX",
"wXwXwXwXwXwXwXwXwXwXwXwXwXwXwXwXwXwXwXwXwXwXwX#X@XT.F.S S D M./.(.`.`.(.B.B.B.V.V.V.V.V.V.A.|.A.V.V.V.V.A.|.|.Z.V.! E E R R R R J c.N.D.A N S S S S.T.@XwXwXwXwXwXwXwXwXwXwXwXwXwXwXwXwXwXwXwXwX",
"wXwXwXwXwXwXwXwXwXwXwXwXwXwXwXwXwXwXwXwXwXwXwXwX@XT.I.S S D M./.(.(.`.].Q.B.B.V.V.V.V.V.Z.{.(.V.V.V.V.V.V.Q.|.V.V.Q E E R R R R L c.N.~.Y.D S S V v.K..XwXwXwXwXwXwXwXwXwXwXwXwXwXwXwXwXwXwXwXwX",
"wXwXwXwXwXwXwXwXwXwXwXwXwXwXwXwXwXwXwXwXwXwXwXwX%X@XT.F.S D M./.(.(.`.].{./.Z.V.V.V.V.W.|.|.`.V.V.V.V.V.V.Q.|.V.V.P E R R R R U c.c.N.!.P.S S S V S.K..XwXwXwXwXwXwXwXwXwXwXwXwXwXwXwXwXwXwXwXwX",
"wXwXwXwXwXwXwXwXwXwXwXwXwXwXwXwXwXwXwXwXwXwXwXwXwX&X@XE.U.v.D /.(.(.`.].{.{.}.`.(.(.].|.|.|.|.Q.Z.V.V.Z.A.|.|.Z.V.V.G T R R U F c.D N.!.C.S S V V H.K..XwXwXwXwXwXwXwXwXwXwXwXwXwXwXwXwXwXwXwXwX",
"wXwXwXwXwXwXwXwXwXwXwXwXwXwXwXwXwXwXwXwXwXwXwXwXwX$X&X=X^.^.)./.(.`.`.].{.{.}.|.|.|.|.|.|.|.|.|.|.|.|.|.|.|.|.W.V.V.B.F J J M.c.c.D P.R.N.S S V S.K..X.XwXwXwXwXwXwXwXwXwXwXwXwXwXwXwXwXwXwXwXwX",
"wXwXwXwXwXwXwXwXwXwXwXwXwXwXwXwXwXwXwXwXwXwXwXwXwXwXwX:X:X).).).(.`.`.].{.{.}.|.|.|.|.|.|.|.|.|.|.|.|.|.|.|.|.}.Z.B.B.B.M.M.c.c.c.c.!.Y.D S S S.K.K..X$XwXwXwXwXwXwXwXwXwXwXwXwXwXwXwXwXwXwXwXwX",
"wXwXwXwXwXwXwXwXwXwXwXwXwXwXwXwXwXwXwXwXwXwXwXwXwXwXwXwX1X;X;X_.'.'.].].{.}.}.|.|.|.|.|.|.|.`.W.C.v.v.N.~.|.|.|.].V.B.B.M.M.c.c.c.Y.!.R.P.F.I.K.K..XoXwXwXwXwXwXwXwXwXwXwXwXwXwXwXwXwXwXwXwXwXwX",
"wXwXwXwXwXwXwXwXwXwXwXwXwXwXwXwXwXwXwXwXwXwXwXwXwXwXwXwXwXwXwX<X[.'.].{.{.}.|.|.|.|.|.|.|.C.> > > > > > > v.|.|.|.`.Z.B.M.M.c.Z.~.~.!.R.E.E.T..X@XOXwXwXwXwXwXwXwXwXwXwXwXwXwXwXwXwXwXwXwXwXwXwX",
"wXwXwXwXwXwXwXwXwXwXwXwXwXwXwXwXwXwXwXwXwXwXwXwXwXwXwXwXwXwXwX2X[.[.].{.{.}.|.|.|.|.|.|.|.> > > > > > > > > D |.|.|.}.(./.Q./.(./.^.^.^.E.&X&XXXwXwXwXwXwXwXwXwXwXwXwXwXwXwXwXwXwXwXwXwXwXwXwXwX",
"wXwXwXwXwXwXwXwXwXwXwXwXwXwXwXwXwXwXwXwXwXwXwXwXwXwXwXwXwXwXwX3X2X[.{.{.}.}.|.|.|.|.|.|.|.B > m v.v.v.v.> > B |.|.|.}.{.{.].`.(.).).).*XwXwXwXwXwXwXwXwXwXwXwXwXwXwXwXwXwXwXwXwXwXwXwXwXwXwXwXwX",
"wXwXwXwXwXwXwXwXwXwXwXwXwXwXwXwXwXwXwXwXwXwXwXwXwXwXwXwXwXwXwX1X2X[.{.{.}.}.|.|.|.|.|.|.|.W.V `.|.|.|.|.P.V P.|.|.|.}.{.{.].`.(._._.:XwXwXwXwXwXwXwXwXwXwXwXwXwXwXwXwXwXwXwXwXwXwXwXwXwXwXwXwXwX",
"wXwXwXwXwXwXwXwXwXwXwXwXwXwXwXwXwXwXwXwXwXwXwXwXwXwXwXwXwXwXwX1X2X[.{.{.}.}.|.|.|.|.|.|.|.|.|.|.|.|.|.|.|.|.|.|.|.|.}.{.{.].'.'._.;X,XwXwXwXwXwXwXwXwXwXwXwXwXwXwXwXwXwXwXwXwXwXwXwXwXwXwXwXwXwX",
"wXwXwXwXwXwXwXwXwXwXwXwXwXwXwXwXwXwXwXwXwXwXwXwXwXwXwXwXwXwXwX1X2X[.{.{.}.}.|.|.|.|.|.|.|.|.|.|.|.|.|.|.|.|.|.|.|.|.}.}.{.].'.[.<X3XwXwXwXwXwXwXwXwXwXwXwXwXwXwXwXwXwXwXwXwXwXwXwXwXwXwXwXwXwXwX",
"wXwXwXwXwXwXwXwXwXwXwXwXwXwXwXwXwXwXwXwXwXwXwXwXwXwXwXwXwXwX5.2.2.6.2.8.;.;.x.v.C.C.C.C.W.W.W.W.(.|.|.|.|.|.|.|.|.|.|.}.{.{.'.[.>XwXwXwXwXwXwXwXwXwXwXwXwXwXwXwXwXwXwXwXwXwXwXwXwXwXwXwXwXwXwXwX",
"wXwXwXwXwXwXwXwXwXwXwXwXwXwXwXwXwXwXwXwXwXwXwXwXwXwXwXwXwX2.2.s.s.p.6.-.-.=.*.#.V V B B M m m m m m m M C ;.;.;.;.:.:.4X5X5X4X8.wXwXwXwXwXwXwXwXwXwXwXwXwXwXwXwXwXwXwXwXwXwXwXwXwXwXwXwXwXwXwXwX",
"wXwXwXwXwXwXwXwXwXwXwXwXwXwXwXwXwXwXwXwXwXwXwXwXwXwXwX3.2.1.6.s.s.p.1.-.-.=.=.*.%.#.V B B B M M M M B 2 %.%.%.*.*.=.6.y.u.i.7.<.1.wXwXwXwXwXwXwXwXwXwXwXwXwXwXwXwXwXwXwXwXwXwXwXwXwXwXwXwXwXwXwX",
"wXwXwXwXwXwXwXwXwXwXwXwXwXwXwXwXwXwXwXwXwXwXwXwXwXwX3.2.1.<.6.s.a.s.6.>.-.-.=.=.*.*.+.C V B B B B B +.%.%.&.*.*.>.q.y.u.u.a.6.<.1.2.wXwXwXwXwXwXwXwXwXwXwXwXwXwXwXwXwXwXwXwXwXwXwXwXwXwXwXwXwXwX",
"wXwXwXwXwXwXwXwXwXwXwXwXwXwXwXwXwXwXwXwXwXwXwX4.3.2.1.<.<.<.2.p.a.a.p.u.2.>.-.-.=.=.*.*.@.C V V C +.&.&.*.*.=.<.y.y.u.i.a.s.2.<.<.1.3.wXwXwXwXwXwXwXwXwXwXwXwXwXwXwXwXwXwXwXwXwXwXwXwXwXwXwXwXwX",
"wXwXwXwXwXwXwXwXwXwXwXwXwXwXwXwXwXwXwXwXwXwXwX0.2.1.<.,.>.>.,.p.p.a.a.a.u.q.1.-.-.=.=.=.*.*.@.#.*.*.*.*.=.=.2.y.y.u.i.a.f.f.2.,.,.<.1.3.wXwXwXwXwXwXwXwXwXwXwXwXwXwXwXwXwXwXwXwXwXwXwXwXwXwXwXwX",
"wXwXwXwXwXwXwXwXwXwXwXwXwXwXwXwXwXwXwXwXwXwXwXH.S.$.8.>.>.>.>.7.p.p.p.a.a.i.u.q.<.-.-.-.=.=.=.1.=.=.=.=.>.6.y.u.u.i.s.f.g.g.,.,.,.<.1.2.3.5.wXwXwXwXwXwXwXwXwXwXwXwXwXwXwXwXwXwXwXwXwXwXwXwXwXwX",
"wXwXwXwXwXwXwXwXwXwXwXwXwXwXwXwXwXwXwXwXwXwXH.C.N.M.$.>.>.>.>.6.i.p.p.p.r.s.i.i.u.6.<.-.-.-.<.y.>.-.-.1.q.u.u.i.p.f.g.g.g.s.,.,.,.N.N.C.XXwXwXwXwXwXwXwXwXwXwXwXwXwXwXwXwXwXwXwXwXwXwXwXwXwXwXwX",
"wXwXwXwXwXwXwXwXwXwXwXwXwXwXwXwXwXwXwXwXwX3XP.N.M.M.>.>.>.>.>.1.i.i.p.p._.5Xs.a.a.i.i.6.>.>.q.u.q.>.6.u.i.i.a.s.f.g.g.g.g.u.,.,.,.z.N.C.F.wXwXwXwXwXwXwXwXwXwXwXwXwXwXwXwXwXwXwXwXwXwXwXwXwXwXwX",
"wXwXwXwXwXwXwXwXwXwXwXwXwXwXwXwXwXwXwXwX,X2X).N.M.x.>.>.>.>.>.>.i.i.i.p.6X].7Xs.f.f.f.s.i.6.p.p.p.u.p.a.s.f.g.g.g.g.g.g.g.7.,.,.,.z.M.N.F.-XwXwXwXwXwXwXwXwXwXwXwXwXwXwXwXwXwXwXwXwXwXwXwXwXwXwX",
"wXwXwXwXwXwXwXwXwXwXwXwXwXwXwXwXwXwXwX1X2X<X[.W.M.z.>.>.>.>.>.>.q.i.i.p.e.]._.e.f.f.f.g.g.g.f.f.f.f.g.g.g.g.g.g.g.g.g.g.g.7.,.,.,.v.M.C.).<XwXwXwXwXwXwXwXwXwXwXwXwXwXwXwXwXwXwXwXwXwXwXwXwXwXwX",
"wXwXwXwXwXwXwXwXwXwXwXwXwXwXwXwXwXwXwX2X2X[.'.].Z.z.>.>.>.>.>.>.6.p.i.i.p.6X].6Xf.f.f.f.g.g.g.g.d.g.g.g.g.g.g.g.g.g.g.g.g.:.8.,.<.B.Z.`.[.<X3XwXwXwXwXwXwXwXwXwXwXwXwXwXwXwXwXwXwXwXwXwXwXwXwXwX",
"wXwXwXwXwXwXwXwXwXwXwXwXwXwXwXwXwXwX3X2X[.'.].].(.M.M.c.c.M.;.>.2.p.p.i.p.d._._.d.f.f.f.f.g.d.0X8Xg.g.g.g.g.g.g.g.g.g.g.g.m.V.V.B.A.{.].[.<X<XwXwXwXwXwXwXwXwXwXwXwXwXwXwXwXwXwXwXwXwXwXwXwXwXwX",
"wXwXwXwXwXwXwXwXwXwXwXwXwXwXwXwXwX3X<X[.[.].`.].`.Q.M.c.M.N.8.<.wXs.p.p.p.p.7X].8Xf.f.f.f.f.0X}.e.g.g.g.g.g.g.g.g.g.g.g.g.V.V.V.Q.}.{.].'.[.<X>XwXwXwXwXwXwXwXwXwXwXwXwXwXwXwXwXwXwXwXwXwXwXwXwX",
"wXwXwXwXwXwXwXwXwXwXwXwXwXwXwXwX,X<X[.'.'.].].`.'.`.A.M.N.C.8.wXwXj.h.s.p.p.a.0X0Xs.f.f.f.6X}.8Xf.f.f.g.g.g.g.g.g.g.g.g.e.V.V.`.}.{.{.].'.'.[.<XwXwXwXwXwXwXwXwXwXwXwXwXwXwXwXwXwXwXwXwXwXwXwXwX",
"wXwXwXwXwXwXwXwXwXwXwXwXwXwXwXwX<X<X'.'.`.`.`.'.`.`.'.C.C.F.9.wXwXwXh.h.p.p.a.d.8Xs.s.s.r.{.0Xd.f.f.f.f.f.f.g.g.g.g.g.g.w.Z.`.}.}.{.{.].`.'._.;X#XwXwXwXwXwXwXwXwXwXwXwXwXwXwXwXwXwXwXwXwXwXwXwX",
"wXwXwXwXwXwXwXwXwXwXwXwXwXwXwX<X;X_.(.`.`.'.`.`.`.'._.).F.b.wXwXwXwXh.h.s.p.p.a.a.a.s.d._.].r.s.s.f.f.f.f.f.f.f.f.f.f.f.8X].}.}.{.{.{.].`.'._._.<X>XwXwXwXwXwXwXwXwXwXwXwXwXwXwXwXwXwXwXwXwXwXwX",
"wXwXwXwXwXwXwXwXwXwXwXwXwXwX1X:X).).(.(.(.`.`.'.`.(.'.<X>XwXwXwXwXwXh.h.s.p.p.a.p.a.p.5X].8Xa.s.s.s.s.f.f.f.f.f.f.f.f.f.8X{.{.{.{.{.].`.`.(.).).;X:XwXwXwXwXwXwXwXwXwXwXwXwXwXwXwXwXwXwXwXwXwXwX",
"wXwXwXwXwXwXwXwXwXwXwXwXwXwX:X=X^./.(.(.(.(.(.(.(.(._.<XwXwXwXwXwXwXj.h.p.p.p.p.p.p.e.`.5Xp.p.a.a.s.s.s.f.f.qXh.f.f.f.f.9X{.{.{.].].`.`.`.(.(.).).:XwXwXwXwXwXwXwXwXwXwXwXwXwXwXwXwXwXwXwXwXwXwX",
"wXwXwXwXwXwXwXwXwXwXwXwXwX*X=X^.^.~.~./.(.(.(./.(.)._.;XwXwXwXwXwXwXwXh.p.p.i.i.i.i.e.7Xi.i.i.p.p.a.s.s.s.k. .O.h.s.s.s.k.`.].`.].`.`.`.(.(./.^.^.=X*XwXwXwXwXwXwXwXwXwXwXwXwXwXwXwXwXwXwXwXwXwX",
"wXwXwXwXwXwXwXwXwXwXwXwXwX&XE.E.R.!.!.~.~./././././.).;X#XwXwXwXwXwXwXh.p.i.u.u.u.u.u.u.i.u.i.i.p.p.a.s.l. . . .o.s.s.s.l.].`.`.`.`.(.(.(./.~.!.^.=X:XwXwXwXwXwXwXwXwXwXwXwXwXwXwXwXwXwXwXwXwXwX",
"wXwXwXwXwXwXwXwXwXwXwXwX$X&XE.Y.Y.R.R.!.!.!.~.!.!.~.^.).L.wXwXwXwXwX5.h.i.u.u.u.u.y.u.y.u.u.u.i.i.p.p.h.|  . . . .qXa.p.l.`.`.`.(.(.(.(./.~.!.R.R.E.=XwXwXwXwXwXwXwXwXwXwXwXwXwXwXwXwXwXwXwXwXwX",
"wXwXwXwXwXwXwXwXwXwXwXwXoX@XT.U.U.Y.Y.Y.R.R.R.!.R.R.^.^.F.wXwXwXr 6 z i.u.u.y.y.y.y.y.y.u.y.u.u.u.i.p.o. . . . . . .O.o.~ (.(.(.(.(./.~.~.!.R.Y.Y.E.&XwXwXwXwXwXwXwXwXwXwXwXwXwXwXwXwXwXwXwXwXwX",
"wXwXwXwXwXwXwXwXwXwXwXwX@XT.I.P.I.U.U.Y.Y.Y.Y.Y.Y.Y.Y.R.v.< 5 4 4 * z y.y.y.y.y.t.t.t.k.k.qXo.o.[ } | | |  . . . .| | | ) (.(././.~.~.!.!.R.Y.Y.U.T.@X#XwXwXwXwXwXwXwXwXwXwXwXwXwXwXwXwXwXwXwXwX",
"wXwXwXwXwXwXwXwXwXwXwXwX.XK.K.H.P.P.I.U.U.U.U.U.U.U.U.I.D : % % $ + t o.o.` ] ] ] ] ] ] ] { { { { } | | |  .| | | | | } ( (./.~.~.!.!.R.Y.Y.U.I.I.T.@XOXwXwXwXwXwXwXwXwXwXwXwXwXwXwXwXwXwXwXwXwX",
"wXwXwXwXwXwXwXwXwXwXwXwX.XK.H.F.F.H.P.P.P.H.P.P.P.P.I.F.S : o o o o 3 ] ] ] ' ] ] ' ] ] ] ] ] { { { } | | | | | | | } } I /.~.!.!.R.Y.Y.Y.U.I.P.I.K..XOXwXwXwXwXwXwXwXwXwXwXwXwXwXwXwXwXwXwXwXwX",
"wXwXwXwXwXwXwXwXwXwXwXwX.XJ.D.D.F.F.H.F.H.H.H.H.H.H.I.v.S : o X X . X _ ' ' ' ' ' ' ' ' [ [ ] { { { } | | | | | | } } { &X~.!.R.Y.Y.Y.U.I.P.P.H.H.K..XOXwXwXwXwXwXwXwXwXwXwXwXwXwXwXwXwXwXwXwXwX",
"wXwXwXwXwXwXwXwXwXwXwXwXXX XG.D.D.S.F.F.F.F.F.F.H.H.H.S S 6 o o . . . n ` ` ` ` ` ' ' ' [ [ [ [ { { { } | | | | } } { [ U.!.R.Y.Y.U.I.I.P.H.H.F.H.K..X#XwXwXwXwXwXwXwXwXwXwXwXwXwXwXwXwXwXwXwXwX",
"wXwXwXwXwXwXwXwXwXwXwXwXwX.XJ.D.D.D.S.S.S.S.S.D.D.K.S.x.b.0 + o X . . @ ` ` ` ` ` ' ^ ^ ..wXwXX.{ { { } } } } } } { { ^ P.!.R.Y.U.U.P.P.H.F.F.D.D.K..XwXwXwXwXwXwXwXwXwXwXwXwXwXwXwXwXwXwXwXwXwX",
"wXwXwXwXwXwXwXwXwXwXwXwXwXoX XJ.G.D.D.S.S.S.D.D.G.L.n.wXwXwX& + X . . . @ @ y  XT.@X&XwXwXwXwXwX{ { { { { } } } } { { / n.E.R.U.I.P.H.H.F.F.D.D.D.J..XwXwXwXwXwXwXwXwXwXwXwXwXwXwXwXwXwXwXwXwXwX",
"wXwXwXwXwXwXwXwXwXwXwXwXwXwX#X XJ.G.G.D.D.D.D.G.J.wXwXwXwXwX0 & o X       . X 1 @XXXwXwXwXwXwXwX[ { { { [ +X/././.).).wXwXE.E.I.I.H.F.F.D.D.D.D.G. XOXwXwXwXwXwXwXwXwXwXwXwXwXwXwXwXwXwXwXwXwXwX",
"wXwXwXwXwXwXwXwXwXwXwXwXwXwXwXwX#X XJ.G.G.G.G. XoXwXwXwXwXwXwX3 + X     . X O - $XwXwXwXwXwXwXX.[ [ ] [ I ~.~.~.^.^.=XwXwX*XE.T.I.H.H.D.D.D.G.G. XL.wXwXwXwXwXwXwXwXwXwXwXwXwXwXwXwXwXwXwXwXwXwX",
"wXwXwXwXwXwXwXwXwXwXwXwXwXwXwXwXwXwX$XL. X X X.XwXwXwXwXwXwXwX8 & o .   . X # 8 wXwXwXwXwXwXwX..[ ] ^ +X!.!.~.!.^.^.=XwXwXwX&X@XT.K.K.K.J.J. X XoXwXwXwXwXwXwXwXwXwXwXwXwXwXwXwXwXwXwXwXwXwXwXwX",
"wXwXwXwXwXwXwXwXwXwXwXwXwXwXwXwXwXwXwXwXwXOXOX$XwXwXwXwXwXwXwXwX* O . . X O & wXwXwXwXwXwXwXwX~ ~ +XY.R.R.R.R.R.!.E.=XwXwXwX&X&X@X.X.X.X.XOX#XwXwXwXwXwXwXwXwXwXwXwXwXwXwXwXwXwXwXwXwXwXwXwXwXwX",
"wXwXwXwXwXwXwXwXwXwXwXwXwXwXwXwXwXwXwXwXwXwXwXwXwXwXwXwXwXwXwXwX8 $ o X X # 6 wXwXwXwXwXwXwXwX&XE.Y.Y.Y.Y.Y.Y.Y.R.E.>XwXwXwXwXwXwXwXwXwXwXwXwXwXwXwXwXwXwXwXwXwXwXwXwXwXwXwXwXwXwXwXwXwXwXwXwXwX",
"wXwXwXwXwXwXwXwXwXwXwXwXwXwXwXwXwXwXwXwXwXwXwXwXwXwXwXwXwXwXwXwXwX3 + o + & r wXwXwXwXwXwXwXwX4 # o . . X . X . o # 6 wXwXwXwXwXwXwXwXwXwXwXwXwXwXwXwXwXwXwXwXwXwXwXwXwXwXwXwXwXwXwXwXwXwXwXwXwX",
"wXwXwXwXwXwXwXwXwXwXwXwXwXwXwXwXwXwXwXwXwXwXwXwXwXwXwXwXwXwXwXwXwX9 * $ & 4 wXwXwXwXwXwXwXwXwX* + X . . . . . . X o $ 5 wXwXwXwXwXwXwXwXwXwXwXwXwXwXwXwXwXwXwXwXwXwXwXwXwXwXwXwXwXwXwXwXwXwXwXwX",
"wXwXwXwXwXwXwXwXwXwXwXwXwXwXwXwXwXwXwXwXwXwXwXwXwXwXwXwXwXwXwXwXwXwX7 3 4 5 wXwXwXwXwXwXwXwX0 & O . . . . . . . . X + & q wXwXwXwXwXwXwXwXwXwXwXwXwXwXwXwXwXwXwXwXwXwXwXwXwXwXwXwXwXwXwXwXwXwXwX",
"wXwXwXwXwXwXwXwXwXwXwXwXwXwXwXwXwXwXwXwXwXwXwXwXwXwXwXwXwXwXwXwXwXwX9 w w wXwXwXwXwXwXwXwXwX5 $ o .               . X + * 0 wXwXwXwXwXwXwXwXwXwXwXwXwXwXwXwXwXwXwXwXwXwXwXwXwXwXwXwXwXwXwXwXwXwX",
"wXwXwXwXwXwXwXwXwXwXwXwXwXwXwXwXwXwXwXwXwXwXwXwXwXwXwXwXwXwXwXwXwXwXwX0 wXwXwXwXwXwXwXwXwXwX4 $ X                 . . X $ 4 wXwXwXwXwXwXwXwXwXwXwXwXwXwXwXwXwXwXwXwXwXwXwXwXwXwXwXwXwXwXwXwXwXwX",
"wXwXwXwXwXwXwXwXwXwXwXwXwXwXwXwXwXwXwXwXwXwXwXwXwXwXwXwXwXwXwXwXwXwXwXwXwXwXwXwXwXwXwXwXwXwX4 # X .                 . X O & 7 wXwXwXwXwXwXwXwXwXwXwXwXwXwXwXwXwXwXwXwXwXwXwXwXwXwXwXwXwXwXwXwXwX",
"wXwXwXwXwXwXwXwXwXwXwXwXwXwXwXwXwXwXwXwXwXwXwXwXwXwXwXwXwXwXwXwXwXwXwXwXwXwXwXwXwXwXwXwXwXwX4 $ o X . . . . . . X . X X + & 7 q wXwXwXwXwXwXwXwXwXwXwXwXwXwXwXwXwXwXwXwXwXwXwXwXwXwXwXwXwXwXwXwX",
"wXwXwXwXwXwXwXwXwXwXwXwXwXwXwXwXwXwXwXwXwXwXwXwXwXwXwXwXwXwXwXwXwXwXwXwXwXwXwXwXwXwXwXwXwXwX7 3 $ + O O + + + + O O + + % 3 7 wXwXwXwXwXwXwXwXwXwXwXwXwXwXwXwXwXwXwXwXwXwXwXwXwXwXwXwXwXwXwXwXwX",
"wXwXwXwXwXwXwXwXwXwXwXwXwXwXwXwXwXwXwXwXwXwXwXwXwXwXwXwXwXwXwXwXwXwXwXwXwXwXwXwXwXwXwXwXwX0 w 7 4 4 3 3 3 3 3 3 3 3 3 4 4 7 w wXwXwXwXwXwXwXwXwXwXwXwXwXwXwXwXwXwXwXwXwXwXwXwXwXwXwXwXwXwXwXwXwX"
};
