/* XPM */
static char *result[] = {
/* columns rows colors chars-per-pixel */
"96 128 213 2 ",
"   c #323437",
".  c #343638",
"X  c #36373A",
"o  c #383A3C",
"O  c #393B3E",
"+  c #3A3C3F",
"@  c #3B3D40",
"#  c #3C3E41",
"$  c #3D3F42",
"%  c #3E4144",
"&  c #3B4F4C",
"*  c #38544F",
"=  c #3A5B55",
"-  c #3D5E59",
";  c #197E64",
":  c #377264",
">  c #3C7B6D",
",  c #277F77",
"<  c #2D737E",
"1  c #414344",
"2  c #404245",
"3  c #424446",
"4  c #424546",
"5  c #424549",
"6  c #454748",
"7  c #454649",
"8  c #454749",
"9  c #46484A",
"0  c #46494B",
"q  c #43484F",
"w  c #46484C",
"e  c #49494C",
"r  c #4B4D4E",
"t  c #454A51",
"y  c #484D54",
"u  c #485053",
"i  c #4B5056",
"p  c #4D5258",
"a  c #425B58",
"s  c #50545B",
"d  c #51565B",
"f  c #51555C",
"g  c #51565C",
"h  c #51575D",
"j  c #52575D",
"k  c #53575D",
"l  c #535A5D",
"z  c #53585E",
"x  c #555960",
"c  c #426A66",
"v  c #21866C",
"b  c #228C71",
"n  c #358673",
"m  c #3F8577",
"M  c #388F79",
"N  c #249276",
"B  c #259578",
"V  c #26987B",
"C  c #279C7E",
"Z  c #35A87D",
"A  c #69AF5A",
"S  c #5AAD64",
"D  c #42AA75",
"F  c #BBBF28",
"G  c #AEBD32",
"H  c #CEC21D",
"J  c #ECC507",
"K  c #FCC900",
"L  c #FFCC00",
"P  c #F1C908",
"I  c #8FB340",
"U  c #80B54E",
"Y  c #94B943",
"T  c #8B8D69",
"R  c #B49C67",
"E  c #BE8B74",
"W  c #B1847E",
"Q  c #86A478",
"!  c #92A477",
"~  c #B7A16B",
"^  c #BFA66E",
"/  c #D69157",
"(  c #D4925A",
")  c #D6945D",
"_  c #D5955F",
"`  c #D99358",
"'  c #DC9559",
"]  c #DF965A",
"[  c #DA965C",
"{  c #E1985B",
"}  c #E19B5F",
"|  c #E49B5C",
" . c #EA9E5E",
".. c #C49F66",
"X. c #D59661",
"o. c #D69761",
"O. c #DA9B65",
"+. c #DD9B64",
"@. c #CD9171",
"#. c #E29D63",
"$. c #3B4F8D",
"%. c #346386",
"&. c #414292",
"*. c #434597",
"=. c #45469B",
"-. c #41609A",
";. c #43699A",
":. c #474AA0",
">. c #494BA4",
",. c #4C4EA9",
"<. c #5053A9",
"1. c #5455A8",
"2. c #5557AD",
"3. c #5759AC",
"4. c #595AAB",
"5. c #5B5EAB",
"6. c #585BB4",
"7. c #4F6FAB",
"8. c #5D60B7",
"9. c #5F6FBC",
"0. c #597CB8",
"q. c #6765B2",
"w. c #6062B9",
"e. c #6164BC",
"r. c #6265BC",
"t. c #6265BE",
"y. c #6568BD",
"u. c #696ABB",
"i. c #6B6BBB",
"p. c #6A6DBE",
"a. c #6366C0",
"s. c #6467C2",
"d. c #6568C3",
"f. c #626EC0",
"g. c #6669C5",
"h. c #676AC6",
"j. c #A07D8A",
"k. c #8070A2",
"l. c #8273A9",
"z. c #2E8E8A",
"x. c #35808C",
"c. c #279F80",
"v. c #2B9E82",
"b. c #3F9481",
"n. c #339A81",
"m. c #3C9D85",
"M. c #399C97",
"N. c #28A283",
"B. c #28A585",
"V. c #29A686",
"C. c #2DA485",
"Z. c #2FA788",
"A. c #2BA989",
"S. c #2FAD8D",
"D. c #33A185",
"F. c #37A085",
"G. c #34A487",
"H. c #35A68A",
"J. c #39A388",
"K. c #3EA28A",
"L. c #3EA58B",
"P. c #3BA78C",
"I. c #36A98C",
"U. c #37AB8D",
"Y. c #3FA88E",
"T. c #37AE90",
"R. c #3BAD90",
"E. c #3EAE91",
"W. c #33B090",
"Q. c #37B595",
"!. c #38B092",
"~. c #38B394",
"^. c #3BB395",
"/. c #3DB194",
"(. c #3AB797",
"). c #3DB699",
"_. c #38B898",
"`. c #3AB999",
"'. c #3BBB9A",
"]. c #3EBA9B",
"[. c #3CBC9C",
"{. c #3CBE9D",
"}. c #3DBF9E",
"|. c #468299",
" X c #41839D",
".X c #44A68D",
"XX c #43A88E",
"oX c #57AA86",
"OX c #43AC91",
"+X c #45AE93",
"@X c #46AF93",
"#X c #44AD94",
"$X c #44AE94",
"%X c #46AF94",
"&X c #42B194",
"*X c #42B497",
"=X c #46B398",
"-X c #41B799",
";X c #46B79B",
":X c #48B79B",
">X c #44BA9B",
",X c #42BC9D",
"<X c #46BC9E",
"1X c #48BB9E",
"2X c #57B993",
"3X c #78AD82",
"4X c #4F90AE",
"5X c #4A99A8",
"6X c #5387B1",
"7X c #44A9A4",
"8X c #A9838E",
"9X c #A18198",
"0X c None",
/* pixels */
"0X0X0X0X0X0X0X0X0X0X0X0X0X0X0X0X0X0X0X0X0X0X0X0X0X0X0X0X0X0X0X0X0X0X0X0X0X0X0X0X0X0X0X0X0X0X0X0X0X0X0X0X0X0X0X0X0X0X0X0X0X0X0X0X0X0X0X0X0X0X0X0X0X0X0X0X0X0X0X0X0X0X0X0X0X0X0X0X0X0X0X0X0X0X0X0X",
"0X0X0X0X0X0X0X0X0X0X0X0X0X0X0X0X0X0X0X0X0X0X0X0X0X0X0X0X0X0X0X0X0X0X0X0X0X0X0X0X0X0X0X0X0X0X0X0X0X0X0X0X0X0X0X0X0X0X0X0X0X0X0X0X0X0X0X0X0X0X0X0X0X0X0X0X0X0X0X0X0X0X0X0X0X0X0X0X0X0X0X0X0X0X0X0X",
"0X0X0X0X0X0X0X0X0X0X0X0X0X0X0X0X0X0X0X0X0X0X0X0X0X0X0X0X0X0X0X0X0X0X0X0X0X0X0X0X0X0X0X0X0X0X0X0X0X0X0X0X0X0X0X0X0X0X0X0X0X0X0X0X0X0X0X0X0X0X0X0X0X0X0X0X0X0X0X0X0X0X0X0X0X0X0X0X0X0X0X0X0X0X0X0X",
"0X0X0X0X0X0X0X0X0X0X0X0X0X0X0X0X0X0X0X0X0X0X0X0X0X0X0X0X0X0X0X0X0X0X0X0X0X0X0X0X0X0X0X0X0X0X0X0X0X0X0X0X0X0X0X0X0X0X0X0X0X0X0X0X0X0X0X0X0X0X0X0X0X0X0X0X0X0X0X0X0X0X0X0X0X0X0X0X0X0X0X0X0X0X0X0X",
"0X0X0X0X0X0X0X0X0X0X0X0X0X0X0X0X0X0X0X0X0X0X0X0X0X0X0X0X0X0X0X0X0X0X0X0X0X0X0X0X0X0X0X0X0X0X0X0X0X0X0X0X0X0X0X0X0X0X0X0X0X0X0X0X0X0X0X0X0X0X0X0X0X0X0X0X0X0X0X0X0X0X0X0X0X0X0X0X0X0X0X0X0X0X0X0X",
"0X0X0X0X0X0X0X0X0X0X0X0X0X0X0X0X0X0X0X0X0X0X0X0X0X0X0X0X0X0X0X0X0X0X0X0X0X0X0X0X0X0X0X0X0X0X0X0X0X0X0X0X0X0X0X0X0X0X0X0X0X0X0X0X0X0X0X0X0X0X0X0X0X0X0X0X0X0X0X0X0X0X0X0X0X0X0X0X0X0X0X0X0X0X0X0X",
"0X0X0X0X0X0X0X0X0X0X0X0X0X0X0X0X0X0X0X0X0X0X0X0X0X0X0X0X0X0X0X0X0X0X0X0X0X0X0X0X0X0X0X0X0X0X0X0X0X0X0X0X0X0X0X0X0X0X0X0X0X0X0X0X0X0X0X0X0X0X0X0X0X0X0X0X0X0X0X0X0X0X0X0X0X0X0X0X0X0X0X0X0X0X0X0X",
"0X0X0X0X0X0X0X0X0X0X0X0X0X0X0X0X0X0X0X0X0X0X0X0X0X0X0X0X0X0X0X0X0X0X0X0X0X0X0X0X0X0X0X0X0X0X0X0X0X0X0X0X0X0X0X0X0X0X0X0X0X0X0X0X0X0X0X0X0X0X0X0X0X0X0X0X0X0X0X0X0X0X0X0X0X0X0X0X0X0X0X0X0X0X0X0X",
"0X0X0X0X0X0X0X0X0X0X0X0X0X0X0X0X0X0X0X0X0X0X0X0X0X0X0X0X0X0X0X0X0X0X0X0X0X0X0X0X0X0X0X0X0X0X0X0X0X0X0X0X0X0X0X0X0X0X0X0X0X0X0X0X0X0X0X0X0X0X0X0X0X0X0X0X0X0X0X0X0X0X0X0X0X0X0X0X0X0X0X0X0X0X0X0X",
"0X0X0X0X0X0X0X0X0X0X0X0X0X0X0X0X0X0X0X0X0X0X0X0X0X0X0X0X0X0X0X0X0X0X0X0X0X0X0X0X0X0X0X0X0X0X0X0X0X0X0X0X0X0X0X0X0X0X0X0X0X0X0X0X0X0X0X0X0X0X0X0X0X0X0X0X0X0X0X0X0X0X0X0X0X0X0X0X0X0X0X0X0X0X0X0X",
"0X0X0X0X0X0X0X0X0X0X0X0X0X0X0X0X0X0X0X0X0X0X0X0X0X0X0X0X0X0X0X0X0X0X0X0X0X0X0X0X0X0X0X0X0X0X0X0X0X0X0X0X0X0X0X0X0X0X0X0X0X0X0X0X0X0X0X0X0X0X0X0X0X0X0X0X0X0X0X0X0X0X0X0X0X0X0X0X0X0X0X0X0X0X0X0X",
"0X0X0X0X0X0X0X0X0X0X0X0X0X0X0X0X0X0X0X0X0X0X0X0X0X0X0X0X0X0X0X0X0X0X0X0X0X0X0X0X0X0X0X0X0X0X0X0X0X0X0X0X0X0X0X0X0X0X0X0X0X0X0X0X0X0X0X0X0X0X0X0X0X0X0X0X0X0X0X0X0X0X0X0X0X0X0X0X0X0X0X0X0X0X0X0X",
"0X0X0X0X0X0X0X0X0X0X0X0X0X0X0X0X0X0X0X0X0X0X0X0X0X0X0X0X0X0X0X0X0X0X0X0X0X0X0X0X0X0X0X0X0X0X0X0X0X0X0X0X0X0X0X0X0X0X0X0X0X0X0X0X0X0X0X0X0X0X0X0X0X0X0X0X0X0X0X0X0X0X0X0X0X0X0X0X0X0X0X0X0X0X0X0X",
"0X0X0X0X0X0X0X0X0X0X0X0X0X0X0X0X0X0X0X0X0X0X0X0X0X0X0X0X0X0X0X0X0X0X0X0X0X0X0X0X0X0X0X0X0X0X0X0X0X0X0X0X0X0X0X0X0X0X0X0X0X0X0X0X0X0X0X0X0X0X0X0X0X0X0X0X0X0X0X0X0X0X0X0X0X0X0X0X0X0X0X0X0X0X0X0X",
"0X0X0X0X0X0X0X0X0X0X0X0X0X0X0X0X0X0X0X0X0X0X0X0X0X0X0X0X0X0X0X0X0X0X0X0X0X0X0X0X0X0X0X0X0X0X0X0X0X0X0X0X0X0X0X0X0X0X0X0X0X0X0X0X0X0X0X0X0X0X0X0X0X0X0X0X0X0X0X0X0X0X0X0X0X0X0X0X0X0X0X0X0X0X0X0X",
"0X0X0X0X0X0X0X0X0X0X0X0X0X0X0X0X0X0X0X0X0X0X0X0X0X0X0X0X0X0X0X0X0X0X0X0X0X0X0X0X0X0X0X0X0X0X0X0X0X0X0X0X0X0X0X0X0X0X0X0X0X0X0X0X0X0X0X0X0X0X0X0X0X0X0X0X0X0X0X0X0X0X0X0X0X0X0X0X0X0X0X0X0X0X0X0X",
"0X0X0X0X0X0X0X0X0X0X0X0X0X0X0X0X0X0X0X0X0X0X0X0X0X0X0X0X0X0X0X0X0X0X0X0X0X0X0X0X0X0X0X0X0X0X0X0X0X0X0X0X0X0X0X0X0X0X0X0X0X0X0X0X0X0X0X0X0X0X0X0X0X0X0X0X0X0X0X0X0X0X0X0X0X0X0X0X0X0X0X0X0X0X0X0X",
"0X0X0X0X0X0X0X0X0X0X0X0X0X0X0X0X0X0X0X0X0X0X0X0X0X0X0X0X0X0X0X0X0X0X0X0X0X0X0X0X0X0X0X0X0X0X0X0X0X0X0X0X0X0X0X0X0X0X0X0X0X0X0X0X0X0X0X0X0X0X0X0X0X0X0X0X0X0X0X0X0X0X0X0X0X0X0X0X0X0X0X0X0X0X0X0X",
"0X0X0X0X0X0X0X0X0X0X0X0X0X0X0X0X0X0X0X0X0X0X0X0X0X0X0X0X0X0X0X0X0X0X0X0X0X0X0X0X0X0X0X0X0X0X0X0X0X0X0X0X0X0X0X0X0X0X0X0X0X0X0X0X0X0X0X0X0X0X0X0X0X0X0X0X0X0X0X0X0X0X0X0X0X0X0X0X0X0X0X0X0X0X0X0X",
"0X0X0X0X0X0X0X0X0X0X0X0X0X0X0X0X0X0X0X0X0X0X0X0X0X0X0X0X0X0X0X0X0X0X0X0X0X0X0X0X0X0X0X0X0X0X0X0X0X0X0X0X0X0X0X0X0X0X0X0X0X0X0X0X0X0X0X0X0X0X0X0X0X0X0X0X0X0X0X0X0X0X0X0X0X0X0X0X0X0X0X0X0X0X0X0X",
"0X0X0X0X0X0X0X0X0X0X0X0X0X0X0X0X0X0X0X0X0X0X0X0X0X0X0X0X0X0X0X0X0X0X0X0X0X0X0X0X0X0X0X0X0X0X0X0X0X0X0X0X0X0X0X0X0X0X0X0X0X0X0X0X0X0X0X0X0X0X0X0X0X0X0X0X0X0X0X0X0X0X0X0X0X0X0X0X0X0X0X0X0X0X0X0X",
"0X0X0X0X0X0X0X0X0X0X0X0X0X0X0X0X0X0X0X0X0X0X0X0X0X0X0X0X0X0X0X0X0X0X0X0X0X0X0X0X0X0X0X0X0X0X0X0X0X0X0X0X0X0X0X0X0X0X0X0X0X0X0X0X0X0X0X0X0X0X0X0X0X0X0X0X0X0X0X0X0X0X0X0X0X0X0X0X0X0X0X0X0X0X0X0X",
"0X0X0X0X0X0X0X0X0X0X0X0X0X0X0X0X0X0X0X0X0X0X0X0X0X0X0X0X0X0X0X0X0X0X0X0X0X0X0X0X0X0X0X0X0X0X0X0X0X0X0X0X0X0X0X0X0X0X0X0X0X0X0X0X0X0X0X0X0X0X0X0X0X0X0X0X0X0X0X0X0X0X0X0X0X0X0X0X0X0X0X0X0X0X0X0X",
"0X0X0X0X0X0X0X0X0X0X0X0X0X0X0X0X0X0X0X0X0X0X0X0X0X0X0X0X0X0X0X0X0X0X0X0X0X0X0X0X0X0X0X0X0X0X0X0X0X0X0X0X0X0X0X0X0X0X0X0X0X0X0X0X0X0X0X0X0X0X0X0X0X0X0X0X0X0X0X0X0X0X0X0X0X0X0X0X0X0X0X0X0X0X0X0X",
"0X0X0X0X0X0X0X0X0X0X0X0X0X0X0X0X0X0X0X0X0X0X0X0X0X0X0X0X0X0X0X0X0X0X0X0X0X0X0X0X0X0X0X0X0X0X0X0X0X0X0X0X0X0X0X0X0X0X0X0X0X0X0X0X0X0X0X0X0X0X0X0X0X0X0X0X0X0X0X0X0X0X0X0X0X0X0X0X0X0X0X0X0X0X0X0X",
"0X0X0X0X0X0X0X0X0X0X0X0X0X0X0X0X0X0X0X0X0X0X0X0X0X0X0X0X0X0X0X0X0X0X0X0X0X0X0X0X0X0X0X0X0X0X0X0Xz z 0X0X0X0X0X0X0X0X0X0X0X0X0X0X0X0X0X0X0X0X0X0X0X0X0X0X0X0X0X0X0X0X0X0X0X0X0X0X0X0X0X0X0X0X0X0X",
"0X0X0X0X0X0X0X0X0X0X0X0X0X0X0X0X0X0X0X0X0X0X0X0X0X0X0X0X0X0X0X0X0X0X0X0X0X0X0X0X0X0X0X0X0X0X0Xg z z z x 0X0X0X0X0X0X0X0X0X0X0X0X0X0X0X0X0X0X0X0X0X0X0X0X0X0X0X0X0X0X0X0X0X0X0X0X0X0X0X0X0X0X0X0X",
"0X0X0X0X0X0X0X0X0X0X0X0X0X0X0X0X0X0X0X0X0X0X0X0X0X0X0X0X0X0X0X0X0X0X0X0X0X0X0X0X0X0X0X0X0X0X0Xs p i p s j 0X0X0X0X0X0X0X0X0X0X0X0X0X0X0X0X0X0X0X0X0X0X0X0X0X0X0X0X0X0X0X0X0X0X0X0X0X0X0X0X0X0X0X",
"0X0X0X0X0X0X0X0X0X0X0X0X0X0X0X0X0X0X0X0X0X0X0X0X0X0X0X0X0X0X0X0X0X0X0X0X0X0X0X0X0X0X0X0X0X0Xg p y y i p s d 0X0X0X0X0X0X0X0X0X0X0X0X0X0X0X0X0X0X0X0X0X0X0X0X0X0X0X0X0X0X0X0X0X0X0X0X0X0X0X0X0X0X",
"0X0X0X0X0X0X0X0X0X0X0X0X0X0X0X0X0X0X0X0X0X0X0X0X0X0X0X0X0X0X0X0X0X0X0X0X0X0X0X0X0X0X0X0X0Xj p y t q q y i p g 0X0X0X0X0X0X0X0X0X0X0X0X0X0X0X0X0X0X0X0X0X0X0X0X0X0X0X0X0X0X0X0X0X0X0X0X0X0X0X0X0X",
"0X0X0X0X0X0X0X0X0X0X0X0X0X0X0X0X0X0X0X0X0X0X0X0X0X0X0X0X0X0X0X0X0X0X0X0X0X0X0X0X0X0X0X0X0Xs i y $ @ # 2 t y p s f 0X0X0X0X0X0X0X0X0X0Xh d s s s z 0X0X0X0X0X0X0X0X0X0X0X0X0X0X0X0X0X0X0X0X0X0X0X",
"0X0X0X0X0X0X0X0X0X0X0X0X0X0X0X0X0X0X0X0X0X0X0X0X0X0X0X0X0X0X0X0X0X0X0X0X0X0X0X0X0X0X0X0Xg i y 5 @ @ @ # 2 y y i p s g f h h h z z s s p i i i i s j 0X0X0X0X0X0X0X0X0X0X0X0X0X0X0X0X0X0X0X0X0X0X",
"0X0X0X0X0X0X0X0X0X0X0X0X0X0X0X0X0X0X0X0X0X0X0X0X0X0X0X0X0X0X0X0X0X0X0X0X0X0X0X0X0X0X0Xf p i t # @ # # # # % t y y i p p p p p p i i y y y t t y i s 0X0X0X0X0X0X0X0X0X0X0X0X0X0X0X0X0X0X0X0X0X0X",
"0X0X0X0X0X0X0X0X0X0X0X0X0X0X0X0X0X0X0X0X0X0X0X0X0X0X0X0X0X0X0X0X0X0X0X0X0X0X0X0X0X0Xj s i t $ @ # # # # # # % q y y y y y i y y y t t t t q q t y i 0X0X0X0X0X0X0X0X0X0X0X0X0X0X0X0X0X0X0X0X0X0X",
"0X0X0X0X0X0X0X0X0X0X0X0X0X0X0X0X0X0X0X0X0X0X0X0X0X0X0X0X0X0X0X0X0X0X0X0X0X0X0X0X0Xj s i y 5 @ # # # # # # # # # 5 t t y t t t y t t q q q q q q t i f 0X0X0X0X0X0X0X0X0X0X0X0X0X0X0X0X0X0X0X0X0X",
"0X0X0X0X0X0X0X0X0X0X0X0X0X0X0X0X0X0X0X0X0X0X0X0X0X0X0X0X0X0X0X0X0X0X0X0X0X0X0X0Xl s i y 5 # # # # # # # # # # # # % q t t t t t t q t q q 5 5 % 2 5 9 0X0X0X0X0X0X0X0X0X0X0X0X0X0X0X0X0X0X0X0X0X",
"0X0X0X0X0X0X0X0X0X0X0X0X0X0X0X0X0X0X0X0X0X0X0X0X0X0X0X0X0X0X0X0X0X0X0X0X0X0X0Xk s i y q # # # # # # # # # # # # # # # % 5 t t t t t q q q O O o + % 5 0X0X0X0X0X0X0X0X0X0X0X0X0X0X0X0X0X0X0X0X0X",
"0X0X0X0X0X0X0X0X0X0X0X0X0X0X0X0X0X0X0X0X0X0X0X0X0X0X0X0X0X0X0X0X0X0X0X0X0X0Xd s i y t % # # # # # # # # # # # # # # # # # q t t t q t q 5 O O o + $ 3 0X0X0X0X0X0X0X0X0X0X0X0X0X0X0X0X0X0X0X0X0X",
"0X0X0X0X0X0X0X0X0X0X0X0X0X0X0X0X0X0X0X0X0X0X0X0X0X0X0X0X0X0X0X0X0X0X0X0Xj s p i y t % # # # # # # # # # # # # # # # # # # 5 t t q t q q 2 O o o + $ 3 0X0X0X0X0X0X0X0X0X0X0X0X0X0X0X0X0X0X0X0X0X",
"0X0X0X0X0X0X0X0X0X0X0X0X0X0X0X0X0X0X0X0X0X0X0X0X0X0X0X0Xy y p s s s s s p i y y t 2 # # # # # # # # # # # # # # # # # # # % t t t q q q $ O o o + # 2 0X0X0X0X0X0X0X0X0X0X0X0X0X0X0X0X0X0X0X0X0X",
"0X0X0X0X0X0X0X0X0X0X0X0X0X0X0X0X0X0X0X0X0X0X0X0X0X0X0X0 9 5 3 9 y i i y y y y t 2 # # # # # # # # # # # # # # # # # # # # $ t q q t q q + O o o O # 2 0X0X0X0X0X0X0X0X0X0X0X0X0X0X0X0X0X0X0X0X0X",
"0X0X0X0X0X0X0X0X0X0X0X0X0X0X0X0X0X0X0X0X0X0X0X0X0X0X0X9 3 % % $ $ 5 t t y t t 2 # # # # # # # # # # # # # # # # # # # # # # t q t q q % O O o o O # 3 0X0X0X0X0X0X0X0X0X0X0X0X0X0X0X0X0X0X0X0X0X",
"0X0X0X0X0X0X0X0X0X0X0X0X0X0X0X0X0X0X0X0X0X0X0X0X0X0Xw 5 % # @ @ @ @ @ % q q % # # # # # # # # # # # # # # # # # # # # # # # t q q t 5 + O o o o O # 3 0X0X0X0X0X0X0X0X0X0X0X0X0X0X0X0X0X0X0X0X0X",
"0X0X0X0X0X0X0X0X0X0X0X0X0X0X0X0X0X0X0X0X0X0X0X0X0X0X4 3 $ + O + + @ @ @ # # # # # # # # # # # # # # # # # # # # # # # # # $ t q q q @ + O o o o O $ 3 0X0X0X0X0X0X0X0X0X0X0X0X0X0X0X0X0X0X0X0X0X",
"0X0X0X0X0X0X0X0X0X0X0X0X0X0X0X0X0X0X0X0X0X0X0X0X0X0X9 2 # O O + + @ @ @ # # # # # # # # # # # # # # # # # # # # # # # # # % t q q $ + + O o o o @ % 5 0X0X0X0X0X0X0X0X0X0X0X0X0X0X0X0X0X0X0X0X0X",
"0X0X0X0X0X0X0X0X0X0X0X0X0X0X0X0X0X0X0X0X0X0X0X0X0X0X5 % @ o O + + @ @ @ # # # # # # # # # # # # # # # # # # # # # # # # # % t 5 @ @ + + O o o O @ 2 7 0X0X0X0X0X0X0X0X0X0X0X0X0X0X0X0X0X0X0X0X0X",
"0X0X0X0X0X0X0X0X0X0X0X0X0X0X0X0X0X0X0X0X0X0X0X0X0X0X5 $ @ o O + + @ @ @ # # # # # # # # # # # # # # # # # # # # # # # # # % % @ @ @ + O O o o O $ 3 0X0X0X0X0X0X0X0X0X0X0X0X0X0X0X0X0X0X0X0X0X0X",
"0X0X0X0X0X0X0X0X0X0X0X0X0X0X0X0X0X0X0X0X0X0X0X0X0X0X5 $ @ o O + + @ @ @ # # # # # # # # # # # # # # # # # # # # # # # # # # @ @ @ @ + + O o O @ 2 4 0X0X0X0X0X0X0X0X0X0X0X0X0X0X0X0X0X0X0X0X0X0X",
"0X0X0X0X0X0X0X0X0X0X0X0X0X0X0X0X0X0X0X0X0X0X0X0X0X0X5 % @ o O + + @ @ @ # # # # # # # # # # # # # # # # # # # # # # # # # # # @ @ @ + + O o + $ 3 0X0X0X0X0X0X0X0X0X0X0X0X0X0X0X0X0X0X0X0X0X0X0X",
"0X0X0X0X0X0X0X0X0X0X0X0X0X0X0X0X0X0X0X0X0X0X0X0X0X0X5 % @ O O + + @ @ @ # # # # # # # # # # # # # # # # # # # # # # # # # # # @ @ @ + + O + @ 2 7 0X0X0X0X0X0X0X0X0X0X0X0X0X0X0X0X0X0X0X0X0X0X0X",
"0X0X0X0X0X0X0X0X0X0X0X0X0X0X0X0X0X0X0X0X0X0X0X0X0X0X5 % @ O O + @ @ @ @ # # # # # # # # # # # # # # # # # # # # # # 2 m m.m.> : = * + + O @ $ 3 w 0X0X0X0X0X0X0X0X0X0X0X0X0X0X0X0X0X0X0X0X0X0X0X",
"0X0X0X0X0X0X0X0X0X0X0X0X0X0X0X0X0X0X0X0X0X0X0X0X0X0X9 2 # + O + @ @ @ @ # # # # # # # # # # # # # # # # # # # # & : ).}.}.}.}.{.[.[.= + + $ 2 9 0X0X0X0X0X0X0X0X0X0X0X0X0X0X0X0X0X0X0X0X0X0X0X0X",
"0X0X0X0X0X0X0X0X0X0X0X0X0X0X0X0X0X0X0X0X0X0X0X0X0X0X8 3 # + + = * @ @ # # # # # # # # # # # # # # # # # # # - M }.}.}.}.}.}.}.{.[.[.= + @ % 3 6 0X0X0X0X0X0X0X0X0X0X0X0X0X0X0X0X0X0X0X0X0X0X0X0X",
"0X0X0X0X0X0X0X0X0X0X0X0X0X0X0X0X0X0X0X0X0X0X0X0X0X0Xe 3 $ @ + n [.[.P.m - * # # # 2 % # # # # # # # - > b.E.}.}.}.}.}.}.}.}.}.{.{.[.@ + $ % 5 0X0X0X0X0X0X0X0X0X0X0X0X0X0X0X0X0X0X0X0X0X0X0X0X0X",
"0X0X0X0X0X0X0X0X0X0X0X0X0X0X0X0X0X0X0X0X0X0X0X0X0X0X0X5 % @ + > [.[.{.}.}.).m t t t c m.m.m.m.m.P.}.}.}.}.}.}.}.}.}.}.}.}.}.}.}.{.[.@ + $ 2 9 0X0X0X0X0X0X0X0X0X0X0X0X0X0X0X0X0X0X0X0X0X0X0X0X0X",
"0X0X0X0X0X0X0X0X0X0X0X0X0X0X0X0X0X0X0X0X0X0X0X0X0X0X0X9 % # + = [.[.).b.c t t t t t - }.}.}.}.}.}.}.}.}.}.}.}.}.}.}.}.}.}.}.}.}.{.[.@ + $ 3 9 0X0X0X0X0X0X0X0X0X0X0X0X0X0X0X0X0X0X0X0X0X0X0X0X0X",
"0X0X0X0X0X0X0X0X0X0X0X0X0X0X0X0X0X0X0X0X0X0X0X0X0X0X0X9 2 # + % [.m q t t t t t t t t /.}.}.}.}.}.}.}.}.}.}.}.}.}.}.}.}.}.}.}.}.{.[.@ + $ 3 e 0X0X0X0X0X0X0X0X0X0X0X0X0X0X0X0X0X0X0X0X0X0X0X0X0X",
"0X0X0X0X0X0X0X0X0X0X0X0X0X0X0X0X0X0X0X0X0X0X0X0X0X0X0X9 3 $ + @ [.b.q t t t t t c b./.}.}.}.}.}.}.}.}.}.}.}.}.Y.c c c m m m K.K.K.m.@ + $ 2 7 0X0X0X0X0X0X0X0X0X0X0X0X0X0X0X0X0X0X0X0X0X0X0X0X0X",
"0X0X0X0X0X0X0X0X0X0X0X0X0X0X0X0X0X0X0X0X0X0X0X0X0X0X0X7 3 $ + @ m./.q t y > m.).}.}.}.}.}.}.}.}.}.}.}.}.}.}.}.K.t t t t t t t t q > @ + $ % u 0X0X0X0X0X0X0X0X0X0X0X0X0X0X0X0X0X0X0X0X0X0X0X0X0X",
"0X0X0X0X0X0X0X0X0X0X0X0X0X0X0X0X0X0X0X0X0X0X0X0X0X0X0X7 2 $ + + m [.m K.'.W.S.S.S.S.Q.}.}.}.}.}.}.}.}.}.}.}.}.K.t t t t t t t q t m @ + # $ > :X0X0X0X0X0X0X0X0X0X0X0X0X0X0X0X0X0X0X0X0X0X0X0X0X",
"0X0X0X0X0X0X0X0X0X0X0X0X0X0X0X0X0X0X0X0X0X0X0X0X0X0X0Xa % # + @ > [.{.Q.V.Z U Y Y U D V.[.}.}.}.}.}.}.}.}.}.}.K.t t t t t t t q t m.@ + + # > -X;X0X0X0X0X0X0X0X0X0X0X0X0X0X0X0X0X0X0X0X0X0X0X0X",
"0X0X0X0X0X0X0X0X0X0X0X0X0X0X0X0X0X0X0X0X0X0X0X0X0X0X>Xm $ @ + + = [.'.V.V.U L L L L H V.A.}.}.}.}.}.}.}.}.}.}.}.}.}.).K.K.K.m m m > + + O + > ^.*X*X0X0X0X0X0X0X0X0X0X0X0X0X0X0X0X0X0X0X0X0X0X0X",
"0X0X0X0X0X0X0X0X0X0X0X0X0X0X0X0X0X0X0X0X0X0X0X0X0X%X*Xb.# + + + % [.W.B.Z P L L L L L U V.Q.}.}.}.}.}.}.}.}.}.}.}.Q.A.V.V.B.A.W.[.> + O O o n T./.&X%X0X0X0X0X0X0X0X0X0X0X0X0X0X0X0X0X0X0X0X0X0X",
"0X0X0X0X0X0X0X0X0X0X0X0X0X0X0X0X0X0X0X0X0X0X0X0X=X*X*X^.+ O + + + [.A.B.S L L L L L L Y V.A.}.}.}.}.}.}.}.}.}.}.W.V.Z G H F S B.W.> + O O o v C R.E.OX#X0X0X0X0X0X0X0X0X0X0X0X0X0X0X0X0X0X0X0X0X",
"0X0X0X0X0X0X0X0X0X0X0X0X0X0X0X0X0X0X0X0X0X0X0X0X&X&X/.Z.* O O + - [.B.B.D L L L L L L U V.V.}.}.}.}.}.}.}.}.}._.V.U P L L K H N.N.n O O o + N B D.R.OX+X0X0X0X0X0X0X0X0X0X0X0X0X0X0X0X0X0X0X0X0X",
"0X0X0X0X0X0X0X0X0X0X0X0X0X0X0X0X0X0X0X0X0X0X0XOX&XE.I.V N : = = P.[.B.B.B.H L L L L L D V.V.}.}.}.}.}.}.}.}.}.A.V.P L L K K K U N.N.M : : b V B V P.Y.OX0X0X0X0X0X0X0X0X0X0X0X0X0X0X0X0X0X0X0X0X",
"0X0X0X0X0X0X0X0X0X0X0X0X0X0X0X0X0X0X0X0X0X0X0XOXOXR.v.V C c.(.(.`.'.A.B.B.Z H L L P A V.V.A.}.}.[._._._.}.}.`.V.V.L L L K K K I c.c.W.~.C.V B B N P.Y.OX0X0X0X0X0X0X0X0X0X0X0X0X0X0X0X0X0X0X0X0X",
"0X0X0X0X0X0X0X0X0X0X0X0X0X0X0X0X0X0X0X0X0X0X0XOXE.R.V V C C (.(.`.'.W.B.B.B.V.S S Z V.V.V.W.'.S.V.V.V.V.Q.}._.V.V.P L K K K K I c.c.Z.!.v.B B N B P.Y.XX0X0X0X0X0X0X0X0X0X0X0X0X0X0X0X0X0X0X0X0X",
"0X0X0X0X0X0X0X0X0X0X0X0X0X0X0X0X0X0X0X0X0X0X0XOXY.R.B V V C !.(.`.'.`.V.B.B.V.V.V.V.V.V.A.}.S.V.V.V.V.V.V.}._.V.V.G L K K K K S c.C Z.!.C B N N V P.Y.L.0X0X0X0X0X0X0X0X0X0X0X0X0X0X0X0X0X0X0X0X",
"0X0X0X0X0X0X0X0X0X0X0X0X0X0X0X0X0X0X0X0X0X0X0XOXY.R.C V V C W.(.`.'.[._.B.B.V.V.V.V.V.A.`.}.S.V.V.V.V.V.V.}.`.V.V.Z F K K J A c.c.C I.T.C B N N G.P.XX#X0X0X0X0X0X0X0X0X0X0X0X0X0X0X0X0X0X0X0X0X",
"0X0X0X0X0X0X0X0X0X0X0X0X0X0X0X0X0X0X0X0X0X0X0X+XOXE.D.V V C Z.(.`.'.[.[.'.S.V.V.V.V.S.'.}.}.[.S.V.V.V.A.`.}.}.A.V.B.B.B.N.N.c.c.C C T.T.C N B G.P.Y.XX0X0X0X0X0X0X0X0X0X0X0X0X0X0X0X0X0X0X0X0X0X",
"0X0X0X0X0X0X0X0X0X0X0X0X0X0X0X0X0X0X0X0X0X0X0X0XOXE.E.C.C C Z.(.`.'.[.[.[.{.`._._.`.}.}.}.}.}.}.}.}.}.}.}.}.}.Q.V.B.B.B.N.N.c.c.C Z.!.T.H.G.P.P.Y.XX@X0X0X0X0X0X0X0X0X0X0X0X0X0X0X0X0X0X0X0X0X0X",
"0X0X0X0X0X0X0X0X0X0X0X0X0X0X0X0X0X0X0X0X0X0X0X0X+X&X/./.I.c.C.(.`.'.[.[.{.{.}.}.}.}.}.}.}.}.}.}.}.}.}.}.}.}.}.}.S.B.B.B.N.N.c.c.Z.~.!.R.R.R.Y.Y.XX0X0X0X0X0X0X0X0X0X0X0X0X0X0X0X0X0X0X0X0X0X0X0X",
"0X0X0X0X0X0X0X0X0X0X0X0X0X0X0X0X0X0X0X0X0X0X0X0X0X%X*X*X).).).`.'.'.[.[.{.{.}.}.}.}.}.}.}.}.}.Q.C.v.v.v.Z.Q.}.}.}.Q.A.B.N.N.N.S.Q.^./.E.E.E.OX%X0X0X0X0X0X0X0X0X0X0X0X0X0X0X0X0X0X0X0X0X0X0X0X0X",
"0X0X0X0X0X0X0X0X0X0X0X0X0X0X0X0X0X0X0X0X0X0X0X0X0X0X=X;X-X-X].].'.[.[.[.{.}.}.}.}.}.}.}.}.}.v.; ; ; ; ; ; v S.}.}.{.'.Q.Q.~.`.(.^.^./.&X0X0X0X0X0X0X0X0X0X0X0X0X0X0X0X0X0X0X0X0X0X0X0X0X0X0X0X0X",
"0X0X0X0X0X0X0X0X0X0X0X0X0X0X0X0X0X0X0X0X0X0X0X0X0X0X0X0X1X<X,X,X].[.[.[.{.}.}.}.}.}.}.}.}.B ; ; ; ; ; ; ; ; ; ~.}.}.{.[.[.'.`.(.(.).*X=X0X0X0X0X0X0X0X0X0X0X0X0X0X0X0X0X0X0X0X0X0X0X0X0X0X0X0X0X",
"0X0X0X0X0X0X0X0X0X0X0X0X0X0X0X0X0X0X0X0X0X0X0X0X0X0X0X0X0X0X0X>X,X[.[.{.{.}.}.}.}.}.}.}.}.B ; ; b v.v.v.N ; ; Q.}.}.{.[.[.'.`.).).-X;X0X0X0X0X0X0X0X0X0X0X0X0X0X0X0X0X0X0X0X0X0X0X0X0X0X0X0X0X0X",
"0X0X0X0X0X0X0X0X0X0X0X0X0X0X0X0X0X0X0X0X0X0X0X0X0X0X0X0X0X0X0X@X,X[.[.{.{.}.}.}.}.}.}.}.}.~.; N }.}.}.}.}.W.W.}.}.}.{.[.[.[.'.].-X;X:X0X0X0X0X0X0X0X0X0X0X0X0X0X0X0X0X0X0X0X0X0X0X0X0X0X0X0X0X0X",
"0X0X0X0X0X0X0X0X0X0X0X0X0X0X0X0X0X0X0X0X0X0X0X0X0X0X0X0X0X0X0X#X,X[.[.{.{.}.}.}.}.}.}.}.}.}.}.}.}.}.}.}.}.}.}.}.}.}.{.{.[.[.].].,X1X0X0X0X0X0X0X0X0X0X0X0X0X0X0X0X0X0X0X0X0X0X0X0X0X0X0X0X0X0X0X",
"0X0X0X0X0X0X0X0X0X0X0X0X0X0X0X0X0X0X0X0X0X0X0X0X0X0X0X0X0X0X1.7.,X[.[.[.{.{.}.}.}.}.}.}.}.}.}.}.}.}.}.}.}.}.}.}.}.}.}.{.[.[.].,X#X0X0X0X0X0X0X0X0X0X0X0X0X0X0X0X0X0X0X0X0X0X0X0X0X0X0X0X0X0X0X0X",
"0X0X0X0X0X0X0X0X0X0X0X0X0X0X0X0X0X0X0X0X0X0X0X0X0X0X0X0X3.2.<.7.[.[.[.[.{.{.{.}.}.}.}.}.}.}.}.}.}.}.T.W.!.T.M.M. X X X X4X4X7.<.0X0X0X0X0X0X0X0X0X0X0X0X0X0X0X0X0X0X0X0X0X0X0X0X0X0X0X0X0X0X0X0X",
"0X0X0X0X0X0X0X0X0X0X0X0X0X0X0X0X0X0X0X0X0X0X0X0X0X0X0X2.2.<.<.s.4X4X X X X X-.x.C V V V v v v v v v v v , $.&.&.*.*.=.2.w.r.8.,.<.0X0X0X0X0X0X0X0X0X0X0X0X0X0X0X0X0X0X0X0X0X0X0X0X0X0X0X0X0X0X0X",
"0X0X0X0X0X0X0X0X0X0X0X0X0X0X0X0X0X0X0X0X0X0X0X0X0X4.2.<.<.,.2.d.s.a.,.:.:.=.*.*.$.< b b b v v v v v v < &.&.&.*.*.=.6.w.e.a.e.,.<.2.0X0X0X0X0X0X0X0X0X0X0X0X0X0X0X0X0X0X0X0X0X0X0X0X0X0X0X0X0X0X",
"0X0X0X0X0X0X0X0X0X0X0X0X0X0X0X0X0X0X0X0X0X0X0X4.2.<.<.,.,.>.6.s.s.s.6.:.:.=.=.*.*.*.$., b b b b b b %.&.&.&.*.*.:.8.w.r.a.s.6.,.,.<.1.0X0X0X0X0X0X0X0X0X0X0X0X0X0X0X0X0X0X0X0X0X0X0X0X0X0X0X0X0X",
"0X0X0X0X0X0X0X0X0X0X0X0X0X0X0X0X0X0X0X0X0X0X0X|.;.<.,.,.>.>.<.a.a.s.a.e.2.:.=.=.=.*.*.*.%., b b , $.&.&.*.*.=.<.w.w.r.a.s.d.2.,.,.<.<.1.0X0X0X0X0X0X0X0X0X0X0X0X0X0X0X0X0X0X0X0X0X0X0X0X0X0X0X0X",
"0X0X0X0X0X0X0X0X0X0X0X0X0X0X0X0X0X0X0X0X0X0X#XG.C.n.;.>.>.>.,.a.a.a.a.a.t.8.<.:.=.=.=.=.*.*.%.< *.*.*.*.=.=.2.w.w.r.a.s.g.h.2.,.,.,.<.2.1.5.0X0X0X0X0X0X0X0X0X0X0X0X0X0X0X0X0X0X0X0X0X0X0X0X0X0X",
"0X0X0X0X0X0X0X0X0X0X0X0X0X0X0X0X0X0X0X0X0X@XH.C.C.N.;.>.>.>.>.8.a.a.a.a.a.t.e.8.,.:.:.=.=.=.=.<.=.=.=.=.:.6.w.e.r.a.d.g.h.h.,.,.,.v.C.Z.L.0X0X0X0X0X0X0X0X0X0X0X0X0X0X0X0X0X0X0X0X0X0X0X0X0X0X0X",
"0X0X0X0X0X0X0X0X0X0X0X0X0X0X0X0X0X0X0X0X0X<XU.C.N.c.>.>.>.>.>.6.r.t.a.a.0.s.t.t.t.6.>.:.:.:.<.w.>.:.:.<.8.e.r.a.s.g.h.h.h.d.,.,.,.z.C.C.G.0X0X0X0X0X0X0X0X0X0X0X0X0X0X0X0X0X0X0X0X0X0X0X0X0X0X0X",
"0X0X0X0X0X0X0X0X0X0X0X0X0X0X0X0X0X0X0X0X1X<X].C.N.z.>.>.:.:.:.<.r.r.r.a.).4Xs.s.a.a.t.6.>.:.8.r.8.:.6.r.a.a.s.d.g.h.h.h.h.t.,.,.,.z.N.C.G.%X0X0X0X0X0X0X0X0X0X0X0X0X0X0X0X0X0X0X0X0X0X0X0X0X0X0X",
"0X0X0X0X0X0X0X0X0X0X0X0X0X0X0X0X0X0X0X:X<X,X].~.N.z.>.:.>.:.:.:.e.e.r.r.5X`.6Xd.d.g.d.d.a.6.a.a.a.e.s.s.d.g.h.h.h.h.h.h.h.8.,.,.,.v.B.Z.).<X0X0X0X0X0X0X0X0X0X0X0X0X0X0X0X0X0X0X0X0X0X0X0X0X0X0X",
"0X0X0X0X0X0X0X0X0X0X0X0X0X0X0X0X0X0X0X<X,X].`.`.S.z.-.-.-.-.:.:.8.r.e.r.9.`.).9.d.g.g.g.h.h.g.g.g.g.h.h.h.h.h.h.h.h.h.h.h.7.-.,.,.B.A.'.].<X1X0X0X0X0X0X0X0X0X0X0X0X0X0X0X0X0X0X0X0X0X0X0X0X0X0X",
"0X0X0X0X0X0X0X0X0X0X0X0X0X0X0X0X0X0X<X,X].].`.`.`.B.c.C C C -.:.2.r.r.r.r.5X`.5Xd.d.g.g.g.h.h.h.f.g.g.h.h.h.h.h.h.h.h.h.h.M.V.V.V.S.[.[.].,X<X0X0X0X0X0X0X0X0X0X0X0X0X0X0X0X0X0X0X0X0X0X0X0X0X0X",
"0X0X0X0X0X0X0X0X0X0X0X0X0X0X0X0X0X<X,X].].'.`.`.(.~.c.c.c.v.-.1.0Xy.r.r.r.9.).).f.d.g.g.g.g.f.7X4Xg.g.g.g.g.g.g.h.h.h.h.h.M.V.V.Q.{.[.[.].].,X>X0X0X0X0X0X0X0X0X0X0X0X0X0X0X0X0X0X0X0X0X0X0X0X0X",
"0X0X0X0X0X0X0X0X0X0X0X0X0X0X0X0X1X,X].].`.`.`.`.`.(.W.C v.v.;.0X0Xu.y.r.r.t.6X'.6Xd.d.g.g.g.7X[.9.g.g.g.g.g.g.g.g.g.h.h.h.V.V.`.}.{.[.[.'.].].<X0X0X0X0X0X0X0X0X0X0X0X0X0X0X0X0X0X0X0X0X0X0X0X0X",
"0X0X0X0X0X0X0X0X0X0X0X0X0X0X0X$X;X-X).`.`.`.`.(.(.(.^.Z.v.D.0X0X0Xi.y.y.r.t.a.7X7Xd.d.d.d.5X[.4Xd.d.d.d.d.d.d.g.g.g.g.g.9.A.'.}.}.{.[.[.'.`.].-X;X;X0X0X0X0X0X0X0X0X0X0X0X0X0X0X0X0X0X0X0X0X0X0X",
"0X0X0X0X0X0X0X0X0X0X0X0X0X0X0X;X-X).).`.(.`.`.(.(.Q.^./.G.0X0X0X0X0Xu.y.r.r.a.f.4Xs.d.d.0.[.).f.s.s.s.s.d.d.d.d.d.g.g.g.0.[.}.}.{.{.[.[.'.`.).-X-X;X0X0X0X0X0X0X0X0X0X0X0X0X0X0X0X0X0X0X0X0X0X0X",
"0X0X0X0X0X0X0X0X0X0X0X0X0X0X:X*X).(.(.(.(.(.(.(.~.^.^.*X$X0X0X0X0X0Xp.y.r.r.a.a.s.s.s.f.).'.0.s.s.a.a.s.s.s.s.d.d.d.g.g.9X3X{.{.{.[.[.[.'.`.(.).-X*X#X0X0X0X0X0X0X0X0X0X0X0X0X0X0X0X0X0X0X0X0X0X",
"0X0X0X0X0X0X0X0X0X0X0X0X0X0X&X*X^.^.Q.(.(.(.(.Q.~.^./.*X0X0X0X0X0X0Xp.y.y.t.a.a.a.s.s.5X'.6Xa.a.a.a.a.a.a.a.s.s.d.d.d.g.8X .2X{.{.[.[.'.`.(.(.^.^.*X%X0X0X0X0X0X0X0X0X0X0X0X0X0X0X0X0X0X0X0X0X0X",
"0X0X0X0X0X0X0X0X0X0X0X0X0X+X&X/.!.~.~.~.~.~.~.~.~.!./.*X0X0X0X0X0X0Xi.u.y.t.t.a.a.a.9.`.5Xa.a.t.r.r.r.t.t.a.8Xu.s.d.d.d.8X .#.2X[.[.[.'.`.(.Q.^.^./.&X0X0X0X0X0X0X0X0X0X0X0X0X0X0X0X0X0X0X0X0X0X",
"0X0X0X0X0X0X0X0X0X0X0X0X0X&XE.R.!.!.!.~.~.~.~.!.!.!./.&X$X0X0X0X0X0X0Xu.y.t.t.a.a.t.9.6Xt.t.r.r.e.e.e.r.r.j.| @.u.s.d.d.9X . .^ [.[.'.`.(.(.~.~./.E.&X0X0X0X0X0X0X0X0X0X0X0X0X0X0X0X0X0X0X0X0X0X",
"0X0X0X0X0X0X0X0X0X0X0X0X#XOXE.U.T.T.T.!.!.!.!.!.T.T.R.&XJ.0X0X0X0X0X0Xp.y.t.t.a.a.a.t.r.r.e.e.w.w.w.w.w.k.{ | | E s.s.d.l. . . .3X'.`.`.(.Q.~.!.T.E.&X$X0X0X0X0X0X0X0X0X0X0X0X0X0X0X0X0X0X0X0X0X",
"0X0X0X0X0X0X0X0X0X0X0X0X+XY.P.U.U.U.T.T.T.T.U.T.T.T.R.E.J.0X0X0X0X0X0Xp.y.y.t.t.t.t.r.r.e.w.w.w.w.w.w.q.) { { | | W s.s.l. . . .o.'.`.(.(.~.!.!.T.R.E.OX0X0X0X0X0X0X0X0X0X0X0X0X0X0X0X0X0X0X0X0X",
"0X0X0X0X0X0X0X0X0X0X0X0XOXY.P.H.I.I.I.U.U.U.U.U.U.I.U.E.n.0X0X0X0X0X0Xp.y.y.r.t.r.t.r.e.w.w.w.8.8.8.8.E ' ] ] { | | @.@.@. . . . .3X(.(.~.~.!.T.U.R.Y.OX0X0X0X0X0X0X0X0X0X0X0X0X0X0X0X0X0X0X0X0X",
"0X0X0X0X0X0X0X0X0X0X0X0XXXP.H.H.H.H.I.I.I.I.I.I.I.I.U.P.n.0X0X0X0X0X0Xp.y.y.t.t.l.k.k.j.j.W E E ( ` ` ` ' ' ] { { | | |  . .|  .| ~ (.Q.~.!.T.T.U.U.Y.OX0X0X0X0X0X0X0X0X0X0X0X0X0X0X0X0X0X0X0X0X",
"0X0X0X0X0X0X0X0X0X0X0X0XXXP.J.G.G.H.H.H.H.H.H.H.H.H.P.J.n.0X0X0X0X0X0XE E o.| | { { ] ] ' ` ` / / / / / ` ' ' ] { | | | | |  .| | | &X~.~.!.T.U.I.P.Y.XX0X0X0X0X0X0X0X0X0X0X0X0X0X0X0X0X0X0X0X0X",
"0X0X0X0X0X0X0X0X0X0X0X0XXXK.J.G.D.G.G.G.G.G.H.H.H.I.P.n.n.0X0X0X0X0X0X#.} | | { { { ] ' ` ` / / / / / ( ` ` ' ] ] { | | | | | | | { 3X~.!.T.U.I.H.P.Y.XX0X0X0X0X0X0X0X0X0X0X0X0X0X0X0X0X0X0X0X0X",
"0X0X0X0X0X0X0X0X0X0X0X0X.XK.J.F.D.D.D.D.D.G.G.G.H.P.P.n.m.0X0X0X0X0XO.#.} | | { { ] ] ' ` / ( ( ( ( ( ( ) ) [ ' ] { { | ..~ ~ ~ ~ R 3X!.T.T.I.I.H.P.Y..X0X0X0X0X0X0X0X0X0X0X0X0X0X0X0X0X0X0X0X0X",
"0X0X0X0X0X0X0X0X0X0X0X0X0XXXK.J.F.D.D.D.D.D.D.G.J.P.F.n.0X0X0X0X0X0X+.#.} | | { { ] ' ` ` ( ( ( ) ) o.o.o.) +.[ ' ] { { &X(.(.(.~.~.!.!.T.U.I.I.H.P.XX@X0X0X0X0X0X0X0X0X0X0X0X0X0X0X0X0X0X0X0X0X",
"0X0X0X0X0X0X0X0X0X0X0X0X0X#XK.K.J.F.F.F.D.F.F.J.P.OX0X0X0X0X0X0X0X0X#.#.| | | { { ] ' ` ) ) X.0X0X0X0X0X0X0X0X[ [ ' ] ! ~.~.~.~.~.!.!.T.U.I.I.P.P.Y.XX0X0X0X0X0X0X0X0X0X0X0X0X0X0X0X0X0X0X0X0X0X",
"0X0X0X0X0X0X0X0X0X0X0X0X0X0X0X%XK.K.J.F.F.F.J.K.XX0X0X0X0X0X0X0X0X0X#.} | | { { ] ] ' ` ) _ 0X0X0X0X0X0X0X0X0X) ` ` R OX~.~.~.~.!.!.T.R.U.R.P.P.Y.XX0X0X0X0X0X0X0X0X0X0X0X0X0X0X0X0X0X0X0X0X0X0X",
"0X0X0X0X0X0X0X0X0X0X0X0X0X0X0X0X0XL.K.K.K.K.K.XX$X0X0X0X0X0X0X0X0X+.#.} | | { { ] ' ' ) o.O.0X0X0X0X0X0X0X0X0XT Q oXT.!.!.!.!.!.T.T.R.R.R.Y.Y.XXXX@X0X0X0X0X0X0X0X0X0X0X0X0X0X0X0X0X0X0X0X0X0X0X",
"0X0X0X0X0X0X0X0X0X0X0X0X0X0X0X0X0X0X0X.XXXXXXXXX0X0X0X0X0X0X0X0X0X#.#.} | | { { ] ' [ ) o.0X0X0X0X0X0X0X0X0X0X% % * : M T.T.T.T.T.R.R.E.E.OX%X$X0X0X0X0X0X0X0X0X0X0X0X0X0X0X0X0X0X0X0X0X0X0X0X0X",
"0X0X0X0X0X0X0X0X0X0X0X0X0X0X0X0X0X0X0X0X0X0X0X0X0X0X0X0X0X0X0X0X0X#.} | { { { ] ] ' [ o.X.0X0X0X0X0X0X0X0X0X0 $ o X X X X * : M J.R.#X0X0X0X0X0X0X0X0X0X0X0X0X0X0X0X0X0X0X0X0X0X0X0X0X0X0X0X0X0X",
"0X0X0X0X0X0X0X0X0X0X0X0X0X0X0X0X0X0X0X0X0X0X0X0X0X0X0X0X0X0X0X0X+.#.} { { { { ] ' [ [ o.0X0X0X0X0X0X0X0X0X0X3 @ o X . X . X . X o & 0X0X0X0X0X0X0X0X0X0X0X0X0X0X0X0X0X0X0X0X0X0X0X0X0X0X0X0X0X0X",
"0X0X0X0X0X0X0X0X0X0X0X0X0X0X0X0X0X0X0X0X0X0X0X0X0X0X0X0X0X0X0X0X#.} { { { Q ~.~.!./.&X+X0X0X0X0X0X0X0X0X0X0X2 + X . . . . . . . o @ 4 0X0X0X0X0X0X0X0X0X0X0X0X0X0X0X0X0X0X0X0X0X0X0X0X0X0X0X0X0X",
"0X0X0X0X0X0X0X0X0X0X0X0X0X0X0X0X0X0X0X0X0X0X0X0X0X0X0X0X0X0X0X0X} { ] ] Q ~.~.!.!.E.&X0X0X0X0X0X0X0X0X0X0X8 $ o X   .   . . . . X O $ 0X0X0X0X0X0X0X0X0X0X0X0X0X0X0X0X0X0X0X0X0X0X0X0X0X0X0X0X0X",
"0X0X0X0X0X0X0X0X0X0X0X0X0X0X0X0X0X0X0X0X0X0X0X0X0X0X0X0X0X0X0X+.[ [ R oX!.!.!.!.R.E.&X0X0X0X0X0X0X0X0X0X0X7 $ O X           .   . X @ 1 0X0X0X0X0X0X0X0X0X0X0X0X0X0X0X0X0X0X0X0X0X0X0X0X0X0X0X0X",
"0X0X0X0X0X0X0X0X0X0X0X0X0X0X0X0X0X0X0X0X0X0X0X0X0X0X0X0X0X0X0X! Q oXT.!.!.T.T.T.R.E.#X0X0X0X0X0X0X0X0X0X0X5 $ O X X .   .         X O $ 6 0X0X0X0X0X0X0X0X0X0X0X0X0X0X0X0X0X0X0X0X0X0X0X0X0X0X0X",
"0X0X0X0X0X0X0X0X0X0X0X0X0X0X0X0X0X0X0X0X0X0X0X0X0X0X0X0X0X0X$X&XR.R.T.T.T.T.T.U.R.OX0X0X0X0X0X0X0X0X0X0Xr 9 2 $ + o o X X . . . . X o # 2 0X0X0X0X0X0X0X0X0X0X0X0X0X0X0X0X0X0X0X0X0X0X0X0X0X0X0X",
"0X0X0X0X0X0X0X0X0X0X0X0X0X0X0X0X0X0X0X0X0X0X0X0X0X0X0X0X0X0X3 $ O X X X X X X o O 1 0X0X0X0X0X0X0X0X0X0X0X0X8 1 2 $ # @ O o o X X X o @ 2 7 0X0X0X0X0X0X0X0X0X0X0X0X0X0X0X0X0X0X0X0X0X0X0X0X0X0X",
"0X0X0X0X0X0X0X0X0X0X0X0X0X0X0X0X0X0X0X0X0X0X0X0X0X0X0X0X0Xw 2 @ o . . . X . . X o $ 0X0X0X0X0X0X0X0X0X0X0X0X0X0X0X0X8 1 2 $ # + O o O # 2 9 0X0X0X0X0X0X0X0X0X0X0X0X0X0X0X0X0X0X0X0X0X0X0X0X0X0X",
"0X0X0X0X0X0X0X0X0X0X0X0X0X0X0X0X0X0X0X0X0X0X0X0X0X0X0X0X0X1 $ o X . . . . . . X X @ 2 0X0X0X0X0X0X0X0X0X0X0X0X0X0X0X0X0X0X0X6 4 % % % 2 3 9 0X0X0X0X0X0X0X0X0X0X0X0X0X0X0X0X0X0X0X0X0X0X0X0X0X0X",
"0X0X0X0X0X0X0X0X0X0X0X0X0X0X0X0X0X0X0X0X0X0X0X0X0X0X0X0X0X% O X     .   .       X o $ 7 0X0X0X0X0X0X0X0X0X0X0X0X0X0X0X0X0X0X0X0X0X0X6 4 9 8 0X0X0X0X0X0X0X0X0X0X0X0X0X0X0X0X0X0X0X0X0X0X0X0X0X0X",
"0X0X0X0X0X0X0X0X0X0X0X0X0X0X0X0X0X0X0X0X0X0X0X0X0X0X0X0X4 # o X                 . o @ 2 0X0X0X0X0X0X0X0X0X0X0X0X0X0X0X0X0X0X0X0X0X0X0X0X0X0X0X0X0X0X0X0X0X0X0X0X0X0X0X0X0X0X0X0X0X0X0X0X0X0X0X0X",
"0X0X0X0X0X0X0X0X0X0X0X0X0X0X0X0X0X0X0X0X0X0X0X0X0X0X0X0X2 @ o .     .   .       . X + 2 4 0X0X0X0X0X0X0X0X0X0X0X0X0X0X0X0X0X0X0X0X0X0X0X0X0X0X0X0X0X0X0X0X0X0X0X0X0X0X0X0X0X0X0X0X0X0X0X0X0X0X0X",
"0X0X0X0X0X0X0X0X0X0X0X0X0X0X0X0X0X0X0X0X0X0X0X0X0X0X0X6 2 # o X X X . . . . . X X o # 2 9 0X0X0X0X0X0X0X0X0X0X0X0X0X0X0X0X0X0X0X0X0X0X0X0X0X0X0X0X0X0X0X0X0X0X0X0X0X0X0X0X0X0X0X0X0X0X0X0X0X0X0X",
"0X0X0X0X0X0X0X0X0X0X0X0X0X0X0X0X0X0X0X0X0X0X0X0X0X0X0X9 3 % # + O O + + + + + O + # % 5 6 0X0X0X0X0X0X0X0X0X0X0X0X0X0X0X0X0X0X0X0X0X0X0X0X0X0X0X0X0X0X0X0X0X0X0X0X0X0X0X0X0X0X0X0X0X0X0X0X0X0X0X",
"0X0X0X0X0X0X0X0X0X0X0X0X0X0X0X0X0X0X0X0X0X0X0X0X0X0X0Xt 9 3 3 2 2 2 2 2 2 2 2 2 2 3 5 9 0X0X0X0X0X0X0X0X0X0X0X0X0X0X0X0X0X0X0X0X0X0X0X0X0X0X0X0X0X0X0X0X0X0X0X0X0X0X0X0X0X0X0X0X0X0X0X0X0X0X0X0X"
};
