/* XPM */
static char *result[] = {
/* columns rows colors chars-per-pixel */
"96 128 212 2 ",
"   c #333437",
".  c #353639",
"X  c #37393C",
"o  c #393B3D",
"O  c #3A3C3F",
"+  c #3B3D40",
"@  c #3C3E41",
"#  c #3D3F42",
"$  c #3F4144",
"%  c #384645",
"&  c #3B4D4B",
"*  c #375550",
"=  c #3C5D57",
"-  c #326359",
";  c #3A655D",
":  c #197E64",
">  c #327D6B",
",  c #3C796B",
"<  c #277F77",
"1  c #2D737F",
"2  c #414346",
"3  c #424445",
"4  c #424446",
"5  c #454748",
"6  c #444649",
"7  c #454749",
"8  c #474749",
"9  c #42474E",
"0  c #47484B",
"q  c #46494B",
"w  c #494949",
"e  c #444950",
"r  c #454A51",
"t  c #474D53",
"y  c #4A4E55",
"u  c #4C5052",
"i  c #4D5158",
"p  c #435B5C",
"a  c #50555B",
"s  c #51555B",
"d  c #52555A",
"f  c #52565B",
"g  c #51555C",
"h  c #51565C",
"j  c #53575D",
"k  c #53565E",
"l  c #636F5B",
"z  c #555A60",
"x  c #426663",
"c  c #4C6260",
"v  c #426E69",
"b  c #407C71",
"n  c #20856B",
"m  c #21886E",
"M  c #228D72",
"N  c #3D8777",
"B  c #249377",
"V  c #279679",
"C  c #25987A",
"Z  c #269C7E",
"A  c #3D937F",
"S  c #35A67B",
"D  c #6BB15C",
"F  c #619877",
"G  c #5DAF63",
"H  c #41A773",
"J  c #9EB838",
"K  c #BCC029",
"L  c #D6C418",
"P  c #ECC507",
"I  c #FCC900",
"U  c #FFCC00",
"Y  c #F1C908",
"T  c #C8C120",
"R  c #84B44A",
"E  c #92B742",
"W  c #B88776",
"Q  c #83A87C",
"!  c #90A577",
"~  c #A9A16D",
"^  c #D79258",
"/  c #D5935C",
"(  c #D6955E",
")  c #DB9458",
"_  c #DE965A",
"`  c #DA975D",
"'  c #E0985A",
"]  c #E1985B",
"[  c #E39A5B",
"{  c #E59B5C",
"}  c #EA9E5E",
"|  c #D39660",
" . c #D89761",
".. c #D89763",
"X. c #D69863",
"o. c #DB9963",
"O. c #DE9B61",
"+. c #C99073",
"@. c #E29D62",
"#. c #C4A168",
"$. c #E0A067",
"%. c #3B4F8D",
"&. c #346386",
"*. c #414392",
"=. c #434598",
"-. c #45479C",
";. c #405F99",
":. c #406998",
">. c #484AA1",
",. c #494BA4",
"<. c #4B4EA8",
"1. c #4F51A8",
"2. c #5354A7",
"3. c #5355AB",
"4. c #5558AA",
"5. c #5759AC",
"6. c #5759AF",
"7. c #595AAB",
"8. c #5B5EAB",
"9. c #595DB5",
"0. c #4C67A4",
"q. c #5D60B7",
"w. c #5E6FBB",
"e. c #5A7CB8",
"r. c #7B73AD",
"t. c #6765B2",
"y. c #6062B9",
"u. c #6265BC",
"i. c #6265BE",
"p. c #6366BF",
"a. c #6568BC",
"s. c #6A6BBB",
"d. c #696BBC",
"f. c #6467C1",
"g. c #6467C2",
"h. c #626EC0",
"j. c #6568C4",
"k. c #6669C5",
"l. c #676AC6",
"z. c #A07D8A",
"x. c #8171A3",
"c. c #8574A9",
"v. c #2E8E8A",
"b. c #2A9E81",
"n. c #2D9F83",
"m. c #309982",
"M. c #369B81",
"N. c #3C9C84",
"B. c #3C9E9A",
"V. c #27A182",
"C. c #28A484",
"Z. c #29A686",
"A. c #2EA486",
"S. c #2BA989",
"D. c #34A185",
"F. c #36A287",
"G. c #33A588",
"H. c #35A78A",
"J. c #3AA389",
"K. c #3BA38A",
"L. c #3EA289",
"P. c #3BA78C",
"I. c #36AA8D",
"U. c #30AC8C",
"Y. c #37AD8F",
"T. c #3FAA8F",
"R. c #38AC8E",
"E. c #36AF91",
"W. c #3CAD90",
"Q. c #32B191",
"!. c #35B493",
"~. c #38B092",
"^. c #3CB193",
"/. c #38B394",
"(. c #3AB495",
"). c #3AB797",
"_. c #3DB49C",
"`. c #38B898",
"'. c #3BB999",
"]. c #3ABB9A",
"[. c #3FBB9B",
"{. c #3CBC9C",
"}. c #3CBE9D",
"|. c #3DBF9E",
" X c #468299",
".X c #41A78D",
"XX c #42A68D",
"oX c #5FA681",
"OX c #53AB88",
"+X c #44A794",
"@X c #44AB91",
"#X c #41AE92",
"$X c #44AD93",
"%X c #44AE93",
"&X c #43B296",
"*X c #46B094",
"=X c #46B096",
"-X c #40B698",
";X c #45B79A",
":X c #49B299",
">X c #45B99B",
",X c #45BC9D",
"<X c #48B99D",
"1X c #6DAA81",
"2X c #6DAB82",
"3X c #5287AF",
"4X c #499CA7",
"5X c #4E92AC",
"6X c #45A6A4",
"7X c #41AEA1",
"8X c #A68292",
"9X c None",
/* pixels */
"9X9X9X9X9X9X9X9X9X9X9X9X9X9X9X9X9X9X9X9X9X9X9X9X9X9X9X9X9X9X9X9X9X9X9X9X9X9X9X9X9X9X9X9X9X9X9X9X9X9X9X9X9X9X9X9X9X9X9X9X9X9X9X9X9X9X9X9X9X9X9X9X9X9X9X9X9X9X9X9X9X9X9X9X9X9X9X9X9X9X9X9X9X9X9X9X",
"9X9X9X9X9X9X9X9X9X9X9X9X9X9X9X9X9X9X9X9X9X9X9X9X9X9X9X9X9X9X9X9X9X9X9X9X9X9X9X9X9X9X9X9X9X9X9X9X9X9X9X9X9X9X9X9X9X9X9X9X9X9X9X9X9X9X9X9X9X9X9X9X9X9X9X9X9X9X9X9X9X9X9X9X9X9X9X9X9X9X9X9X9X9X9X9X",
"9X9X9X9X9X9X9X9X9X9X9X9X9X9X9X9X9X9X9X9X9X9X9X9X9X9X9X9X9X9X9X9X9X9X9X9X9X9X9X9X9X9X9X9X9X9X9X9X9X9X9X9X9X9X9X9X9X9X9X9X9X9X9X9X9X9X9X9X9X9X9X9X9X9X9X9X9X9X9X9X9X9X9X9X9X9X9X9X9X9X9X9X9X9X9X9X",
"9X9X9X9X9X9X9X9X9X9X9X9X9X9X9X9X9X9X9X9X9X9X9X9X9X9X9X9X9X9X9X9X9X9X9X9X9X9X9X9X9X9X9X9X9X9X9X9X9X9X9X9X9X9X9X9X9X9X9X9X9X9X9X9X9X9X9X9X9X9X9X9X9X9X9X9X9X9X9X9X9X9X9X9X9X9X9X9X9X9X9X9X9X9X9X9X",
"9X9X9X9X9X9X9X9X9X9X9X9X9X9X9X9X9X9X9X9X9X9X9X9X9X9X9X9X9X9X9X9X9X9X9X9X9X9X9X9X9X9X9X9X9X9X9X9X9X9X9X9X9X9X9X9X9X9X9X9X9X9X9X9X9X9X9X9X9X9X9X9X9X9X9X9X9X9X9X9X9X9X9X9X9X9X9X9X9X9X9X9X9X9X9X9X",
"9X9X9X9X9X9X9X9X9X9X9X9X9X9X9X9X9X9X9X9X9X9X9X9X9X9X9X9X9X9X9X9X9X9X9X9X9X9X9X9X9X9X9X9X9X9X9X9X9X9X9X9X9X9X9X9X9X9X9X9X9X9X9X9X9X9X9X9X9X9X9X9X9X9X9X9X9X9X9X9X9X9X9X9X9X9X9X9X9X9X9X9X9X9X9X9X",
"9X9X9X9X9X9X9X9X9X9X9X9X9X9X9X9X9X9X9X9X9X9X9X9X9X9X9X9X9X9X9X9X9X9X9X9X9X9X9X9X9X9X9X9X9X9X9X9X9X9X9X9X9X9X9X9X9X9X9X9X9X9X9X9X9X9X9X9X9X9X9X9X9X9X9X9X9X9X9X9X9X9X9X9X9X9X9X9X9X9X9X9X9X9X9X9X",
"9X9X9X9X9X9X9X9X9X9X9X9X9X9X9X9X9X9X9X9X9X9X9X9X9X9X9X9X9X9X9X9X9X9X9X9X9X9X9X9X9X9X9X9X9X9X9X9X9X9X9X9X9X9X9X9X9X9X9X9X9X9X9X9X9X9X9X9X9X9X9X9X9X9X9X9X9X9X9X9X9X9X9X9X9X9X9X9X9X9X9X9X9X9X9X9X",
"9X9X9X9X9X9X9X9X9X9X9X9X9X9X9X9X9X9X9X9X9X9X9X9X9X9X9X9X9X9X9X9X9X9X9X9X9X9X9X9X9X9X9X9X9X9X9X9X9X9X9X9X9X9X9X9X9X9X9X9X9X9X9X9X9X9X9X9X9X9X9X9X9X9X9X9X9X9X9X9X9X9X9X9X9X9X9X9X9X9X9X9X9X9X9X9X",
"9X9X9X9X9X9X9X9X9X9X9X9X9X9X9X9X9X9X9X9X9X9X9X9X9X9X9X9X9X9X9X9X9X9X9X9X9X9X9X9X9X9X9X9X9X9X9X9X9X9X9X9X9X9X9X9X9X9X9X9X9X9X9X9X9X9X9X9X9X9X9X9X9X9X9X9X9X9X9X9X9X9X9X9X9X9X9X9X9X9X9X9X9X9X9X9X",
"9X9X9X9X9X9X9X9X9X9X9X9X9X9X9X9X9X9X9X9X9X9X9X9X9X9X9X9X9X9X9X9X9X9X9X9X9X9X9X9X9X9X9X9X9X9X9X9X9X9X9X9X9X9X9X9X9X9X9X9X9X9X9X9X9X9X9X9X9X9X9X9X9X9X9X9X9X9X9X9X9X9X9X9X9X9X9X9X9X9X9X9X9X9X9X9X",
"9X9X9X9X9X9X9X9X9X9X9X9X9X9X9X9X9X9X9X9X9X9X9X9X9X9X9X9X9X9X9X9X9X9X9X9X9X9X9X9X9X9X9X9X9X9X9X9X9X9X9X9X9X9X9X9X9X9X9X9X9X9X9X9X9X9X9X9X9X9X9X9X9X9X9X9X9X9X9X9X9X9X9X9X9X9X9X9X9X9X9X9X9X9X9X9X",
"9X9X9X9X9X9X9X9X9X9X9X9X9X9X9X9X9X9X9X9X9X9X9X9X9X9X9X9X9X9X9X9X9X9X9X9X9X9X9X9X9X9X9X9X9X9X9X9X9X9X9X9X9X9X9X9X9X9X9X9X9X9X9X9X9X9X9X9X9X9X9X9X9X9X9X9X9X9X9X9X9X9X9X9X9X9X9X9X9X9X9X9X9X9X9X9X",
"9X9X9X9X9X9X9X9X9X9X9X9X9X9X9X9X9X9X9X9X9X9X9X9X9X9X9X9X9X9X9X9X9X9X9X9X9X9X9X9X9X9X9X9X9X9X9X9X9X9X9X9X9X9X9X9X9X9X9X9X9X9X9X9X9X9X9X9X9X9X9X9X9X9X9X9X9X9X9X9X9X9X9X9X9X9X9X9X9X9X9X9X9X9X9X9X",
"9X9X9X9X9X9X9X9X9X9X9X9X9X9X9X9X9X9X9X9X9X9X9X9X9X9X9X9X9X9X9X9X9X9X9X9X9X9X9X9X9X9X9X9X9X9X9X9X9X9X9X9X9X9X9X9X9X9X9X9X9X9X9X9X9X9X9X9X9X9X9X9X9X9X9X9X9X9X9X9X9X9X9X9X9X9X9X9X9X9X9X9X9X9X9X9X",
"9X9X9X9X9X9X9X9X9X9X9X9X9X9X9X9X9X9X9X9X9X9X9X9X9X9X9X9X9X9X9X9X9X9X9X9X9X9X9X9X9X9X9X9X9X9X9X9X9X9X9X9X9X9X9X9X9X9X9X9X9X9X9X9X9X9X9X9X9X9X9X9X9X9X9X9X9X9X9X9X9X9X9X9X9X9X9X9X9X9X9X9X9X9X9X9X",
"9X9X9X9X9X9X9X9X9X9X9X9X9X9X9X9X9X9X9X9X9X9X9X9X9X9X9X9X9X9X9X9X9X9X9X9X9X9X9X9X9X9X9X9X9X9X9X9X9X9X9X9X9X9X9X9X9X9X9X9X9X9X9X9X9X9X9X9X9X9X9X9X9X9X9X9X9X9X9X9X9X9X9X9X9X9X9X9X9X9X9X9X9X9X9X9X",
"9X9X9X9X9X9X9X9X9X9X9X9X9X9X9X9X9X9X9X9X9X9X9X9X9X9X9X9X9X9X9X9X9X9X9X9X9X9X9X9X9X9X9X9X9X9X9X9X9X9X9X9X9X9X9X9X9X9X9X9X9X9X9X9X9X9X9X9X9X9X9X9X9X9X9X9X9X9X9X9X9X9X9X9X9X9X9X9X9X9X9X9X9X9X9X9X",
"9X9X9X9X9X9X9X9X9X9X9X9X9X9X9X9X9X9X9X9X9X9X9X9X9X9X9X9X9X9X9X9X9X9X9X9X9X9X9X9X9X9X9X9X9X9X9X9X9X9X9X9X9X9X9X9X9X9X9X9X9X9X9X9X9X9X9X9X9X9X9X9X9X9X9X9X9X9X9X9X9X9X9X9X9X9X9X9X9X9X9X9X9X9X9X9X",
"9X9X9X9X9X9X9X9X9X9X9X9X9X9X9X9X9X9X9X9X9X9X9X9X9X9X9X9X9X9X9X9X9X9X9X9X9X9X9X9X9X9X9X9X9X9X9X9X9X9X9X9X9X9X9X9X9X9X9X9X9X9X9X9X9X9X9X9X9X9X9X9X9X9X9X9X9X9X9X9X9X9X9X9X9X9X9X9X9X9X9X9X9X9X9X9X",
"9X9X9X9X9X9X9X9X9X9X9X9X9X9X9X9X9X9X9X9X9X9X9X9X9X9X9X9X9X9X9X9X9X9X9X9X9X9X9X9X9X9X9X9X9X9X9X9X9X9X9X9X9X9X9X9X9X9X9X9X9X9X9X9X9X9X9X9X9X9X9X9X9X9X9X9X9X9X9X9X9X9X9X9X9X9X9X9X9X9X9X9X9X9X9X9X",
"9X9X9X9X9X9X9X9X9X9X9X9X9X9X9X9X9X9X9X9X9X9X9X9X9X9X9X9X9X9X9X9X9X9X9X9X9X9X9X9X9X9X9X9X9X9X9X9X9X9X9X9X9X9X9X9X9X9X9X9X9X9X9X9X9X9X9X9X9X9X9X9X9X9X9X9X9X9X9X9X9X9X9X9X9X9X9X9X9X9X9X9X9X9X9X9X",
"9X9X9X9X9X9X9X9X9X9X9X9X9X9X9X9X9X9X9X9X9X9X9X9X9X9X9X9X9X9X9X9X9X9X9X9X9X9X9X9X9X9X9X9X9X9X9X9X9X9X9X9X9X9X9X9X9X9X9X9X9X9X9X9X9X9X9X9X9X9X9X9X9X9X9X9X9X9X9X9X9X9X9X9X9X9X9X9X9X9X9X9X9X9X9X9X",
"9X9X9X9X9X9X9X9X9X9X9X9X9X9X9X9X9X9X9X9X9X9X9X9X9X9X9X9X9X9X9X9X9X9X9X9X9X9X9X9X9X9X9X9X9X9X9X9X9X9X9X9X9X9X9X9X9X9X9X9X9X9X9X9X9X9X9X9X9X9X9X9X9X9X9X9X9X9X9X9X9X9X9X9X9X9X9X9X9X9X9X9X9X9X9X9X",
"9X9X9X9X9X9X9X9X9X9X9X9X9X9X9X9X9X9X9X9X9X9X9X9X9X9X9X9X9X9X9X9X9X9X9X9X9X9X9X9X9X9X9X9X9X9X9X9X9X9X9X9X9X9X9X9X9X9X9X9X9X9X9X9X9X9X9X9X9X9X9X9X9X9X9X9X9X9X9X9X9X9X9X9X9X9X9X9X9X9X9X9X9X9X9X9X",
"9X9X9X9X9X9X9X9X9X9X9X9X9X9X9X9X9X9X9X9X9X9X9X9X9X9X9X9X9X9X9X9X9X9X9X9X9X9X9X9X9X9X9X9X9X9X9X9X9X9Xs z 9X9X9X9X9X9X9X9X9X9X9X9X9X9X9X9X9X9X9X9X9X9X9X9X9X9X9X9X9X9X9X9X9X9X9X9X9X9X9X9X9X9X9X9X",
"9X9X9X9X9X9X9X9X9X9X9X9X9X9X9X9X9X9X9X9X9X9X9X9X9X9X9X9X9X9X9X9X9X9X9X9X9X9X9X9X9X9X9X9X9X9X9X9X9Xz s s h 9X9X9X9X9X9X9X9X9X9X9X9X9X9X9X9X9X9X9X9X9X9X9X9X9X9X9X9X9X9X9X9X9X9X9X9X9X9X9X9X9X9X9X",
"9X9X9X9X9X9X9X9X9X9X9X9X9X9X9X9X9X9X9X9X9X9X9X9X9X9X9X9X9X9X9X9X9X9X9X9X9X9X9X9X9X9X9X9X9X9X9X9X9Xs i i i s 9X9X9X9X9X9X9X9X9X9X9X9X9X9X9X9X9X9X9X9X9X9X9X9X9X9X9X9X9X9X9X9X9X9X9X9X9X9X9X9X9X9X",
"9X9X9X9X9X9X9X9X9X9X9X9X9X9X9X9X9X9X9X9X9X9X9X9X9X9X9X9X9X9X9X9X9X9X9X9X9X9X9X9X9X9X9X9X9X9X9X9Xs i y t y i s k 9X9X9X9X9X9X9X9X9X9X9X9X9X9X9X9X9X9X9X9X9X9X9X9X9X9X9X9X9X9X9X9X9X9X9X9X9X9X9X9X",
"9X9X9X9X9X9X9X9X9X9X9X9X9X9X9X9X9X9X9X9X9X9X9X9X9X9X9X9X9X9X9X9X9X9X9X9X9X9X9X9X9X9X9X9X9X9X9Xh i y r 9 r y i s f 9X9X9X9X9X9X9X9X9X9X9X9X9X9X9X9X9X9X9X9X9X9X9X9X9X9X9X9X9X9X9X9X9X9X9X9X9X9X9X",
"9X9X9X9X9X9X9X9X9X9X9X9X9X9X9X9X9X9X9X9X9X9X9X9X9X9X9X9X9X9X9X9X9X9X9X9X9X9X9X9X9X9X9X9X9X9Xc i y r @ + @ 9 t y i s j 9X9X9X9X9X9X9X9X9X9X9X9X9X9X9X9X9X9X9X9X9X9X9X9X9X9X9X9X9X9X9X9X9X9X9X9X9X",
"9X9X9X9X9X9X9X9X9X9X9X9X9X9X9X9X9X9X9X9X9X9X9X9X9X9X9X9X9X9X9X9X9X9X9X9X9X9X9X9X9X9X9X9X9X9Xs i t $ + + + @ e t y i i s k 9X9X9X9X9X9Xk g s s s s s f 9X9X9X9X9X9X9X9X9X9X9X9X9X9X9X9X9X9X9X9X9X",
"9X9X9X9X9X9X9X9X9X9X9X9X9X9X9X9X9X9X9X9X9X9X9X9X9X9X9X9X9X9X9X9X9X9X9X9X9X9X9X9X9X9X9X9X9Xh i y 6 + @ @ @ @ @ e t t y i i s s s s s s i i i y y y i s 9X9X9X9X9X9X9X9X9X9X9X9X9X9X9X9X9X9X9X9X9X",
"9X9X9X9X9X9X9X9X9X9X9X9X9X9X9X9X9X9X9X9X9X9X9X9X9X9X9X9X9X9X9X9X9X9X9X9X9X9X9X9X9X9X9X9Xh i y e @ @ @ @ @ @ @ @ 9 r t t y y i i i y y y y t r r r t i d 9X9X9X9X9X9X9X9X9X9X9X9X9X9X9X9X9X9X9X9X",
"9X9X9X9X9X9X9X9X9X9X9X9X9X9X9X9X9X9X9X9X9X9X9X9X9X9X9X9X9X9X9X9X9X9X9X9X9X9X9X9X9X9X9Xh i y r # @ @ @ @ @ @ @ @ @ 2 r r t t t t t t r r r e e e e r y i 9X9X9X9X9X9X9X9X9X9X9X9X9X9X9X9X9X9X9X9X",
"9X9X9X9X9X9X9X9X9X9X9X9X9X9X9X9X9X9X9X9X9X9X9X9X9X9X9X9X9X9X9X9X9X9X9X9X9X9X9X9X9X9Xs i y r $ @ @ @ @ @ @ @ @ @ @ @ $ 9 r r r r r r e e e e 9 9 9 9 t y 9X9X9X9X9X9X9X9X9X9X9X9X9X9X9X9X9X9X9X9X",
"9X9X9X9X9X9X9X9X9X9X9X9X9X9X9X9X9X9X9X9X9X9X9X9X9X9X9X9X9X9X9X9X9X9X9X9X9X9X9X9Xk s i y r 2 @ @ @ @ @ @ @ @ @ @ @ @ @ @ 2 9 r r r r e e e 9 9 2 $ 2 2 6 9X9X9X9X9X9X9X9X9X9X9X9X9X9X9X9X9X9X9X9X",
"9X9X9X9X9X9X9X9X9X9X9X9X9X9X9X9X9X9X9X9X9X9X9X9X9X9X9X9X9X9X9X9X9X9X9X9X9X9X9Xh s y y t 2 @ @ @ @ @ @ @ @ @ @ @ @ @ @ @ @ @ 9 r r r e e e 9 $ o o o # 2 0 9X9X9X9X9X9X9X9X9X9X9X9X9X9X9X9X9X9X9X",
"9X9X9X9X9X9X9X9X9X9X9X9X9X9X9X9X9X9X9X9X9X9X9X9X9X9X9X9X9Xu y s h g a a h s s i y y t 2 @ @ @ @ @ @ @ @ @ @ @ @ @ @ @ @ @ @ $ r r e e e 9 e @ o o o + $ 3 9X9X9X9X9X9X9X9X9X9X9X9X9X9X9X9X9X9X9X",
"9X9X9X9X9X9X9X9X9X9X9X9X9X9X9X9X9X9X9X9X9X9X9X9X9X9X9X9X9Xq q 6 r i i i i y y y t r 2 @ @ @ @ @ @ @ @ @ @ @ @ @ @ @ @ @ @ @ @ e r e e e e 9 o o X o O $ 6 9X9X9X9X9X9X9X9X9X9X9X9X9X9X9X9X9X9X9X",
"9X9X9X9X9X9X9X9X9X9X9X9X9X9X9X9X9X9X9X9X9X9X9X9X9X9X9X9X0 6 2 $ $ 2 9 t t t t r r 2 @ @ @ @ @ @ @ @ @ @ @ @ @ @ @ @ @ @ @ @ @ 9 r e e 9 e 2 o o X o O $ 6 9X9X9X9X9X9X9X9X9X9X9X9X9X9X9X9X9X9X9X",
"9X9X9X9X9X9X9X9X9X9X9X9X9X9X9X9X9X9X9X9X9X9X9X9X9X9X9X9Xq 2 # @ @ + @ # 9 r r e # @ @ @ @ @ @ @ @ @ @ @ @ @ @ @ @ @ @ @ @ @ @ 9 e e e e 9 @ o o X X o $ 6 9X9X9X9X9X9X9X9X9X9X9X9X9X9X9X9X9X9X9X",
"9X9X9X9X9X9X9X9X9X9X9X9X9X9X9X9X9X9X9X9X9X9X9X9X9X9X9Xw 6 # @ O O O + + + @ 2 # @ @ @ @ @ @ @ @ @ @ @ @ @ @ @ @ @ @ @ @ @ @ @ 9 e e e 9 2 o o o X X O $ 0 9X9X9X9X9X9X9X9X9X9X9X9X9X9X9X9X9X9X9X",
"9X9X9X9X9X9X9X9X9X9X9X9X9X9X9X9X9X9X9X9X9X9X9X9X9X9X9X4 2 # + o O O + + + @ @ @ @ @ @ @ @ @ @ @ @ @ @ @ @ @ @ @ @ @ @ @ @ @ @ 9 e e e 9 O o o X X o + $ 8 9X9X9X9X9X9X9X9X9X9X9X9X9X9X9X9X9X9X9X",
"9X9X9X9X9X9X9X9X9X9X9X9X9X9X9X9X9X9X9X9X9X9X9X9X9X9X9Xq $ @ O o O O + + + @ @ @ @ @ @ @ @ @ @ @ @ @ @ @ @ @ @ @ @ @ @ @ @ @ @ 9 e e 9 O O o o X X o + 2 9X9X9X9X9X9X9X9X9X9X9X9X9X9X9X9X9X9X9X9X",
"9X9X9X9X9X9X9X9X9X9X9X9X9X9X9X9X9X9X9X9X9X9X9X9X9X9X9X6 $ + o o O O + + + @ @ @ @ @ @ @ @ @ @ @ @ @ @ @ @ @ @ @ @ @ @ @ @ @ @ e e 9 + O O o o X X o # 2 9X9X9X9X9X9X9X9X9X9X9X9X9X9X9X9X9X9X9X9X",
"9X9X9X9X9X9X9X9X9X9X9X9X9X9X9X9X9X9X9X9X9X9X9X9X9X9X9X6 $ + o o O + + + + @ @ @ @ @ @ @ @ @ @ @ @ @ @ @ @ @ @ @ @ @ @ @ @ @ @ e 2 + + O o o o X o O $ 5 9X9X9X9X9X9X9X9X9X9X9X9X9X9X9X9X9X9X9X9X",
"9X9X9X9X9X9X9X9X9X9X9X9X9X9X9X9X9X9X9X9X9X9X9X9X9X9X9X6 # + o o O + + + + @ @ @ @ @ @ @ @ @ @ @ @ @ @ @ @ @ @ @ @ @ @ @ @ @ @ + + + + O o o o X o @ 2 9X9X9X9X9X9X9X9X9X9X9X9X9X9X9X9X9X9X9X9X9X",
"9X9X9X9X9X9X9X9X9X9X9X9X9X9X9X9X9X9X9X9X9X9X9X9X9X9X9X6 $ + o o O + + + @ @ @ @ @ @ @ @ @ @ @ @ @ @ @ @ @ @ @ @ @ @ @ @ @ @ @ + + + + O o o o o + $ 5 9X9X9X9X9X9X9X9X9X9X9X9X9X9X9X9X9X9X9X9X9X",
"9X9X9X9X9X9X9X9X9X9X9X9X9X9X9X9X9X9X9X9X9X9X9X9X9X9X9X6 $ + o O O + + + @ @ @ @ @ @ @ @ @ @ @ @ @ @ @ @ @ @ @ @ @ @ @ @ @ @ @ + + + + O o o o O # 2 9X9X9X9X9X9X9X9X9X9X9X9X9X9X9X9X9X9X9X9X9X9X",
"9X9X9X9X9X9X9X9X9X9X9X9X9X9X9X9X9X9X9X9X9X9X9X9X9X9X9Xq 2 + O O O + + + @ @ @ @ @ @ @ @ @ @ @ @ @ @ @ @ @ @ @ @ @ @ @ @ & = & + + + + O o o O @ 2 5 9X9X9X9X9X9X9X9X9X9X9X9X9X9X9X9X9X9X9X9X9X9X",
"9X9X9X9X9X9X9X9X9X9X9X9X9X9X9X9X9X9X9X9X9X9X9X9X9X9X9X5 2 @ O O % + + + @ @ @ @ @ @ @ @ @ @ @ @ @ @ @ @ @ @ @ @ @ @ & N ).|.|.}.N.N , & O o + # 2 9X9X9X9X9X9X9X9X9X9X9X9X9X9X9X9X9X9X9X9X9X9X9X",
"9X9X9X9X9X9X9X9X9X9X9X9X9X9X9X9X9X9X9X9X9X9X9X9X9X9X9X0 2 # O O (.J.N ; @ @ @ @ @ @ @ @ @ @ @ @ @ @ @ @ @ @ @ & N N.|.|.|.|.|.|.}.{.{.* O O @ 2 5 9X9X9X9X9X9X9X9X9X9X9X9X9X9X9X9X9X9X9X9X9X9X9X",
"9X9X9X9X9X9X9X9X9X9X9X9X9X9X9X9X9X9X9X9X9X9X9X9X9X9X9Xw 6 $ @ O N.{.}.}.W.N., = & 2 9 # @ @ @ @ @ @ & = ; A P.|.|.|.|.|.|.|.|.|.}.{.{.O O + # 6 9X9X9X9X9X9X9X9X9X9X9X9X9X9X9X9X9X9X9X9X9X9X9X9X",
"9X9X9X9X9X9X9X9X9X9X9X9X9X9X9X9X9X9X9X9X9X9X9X9X9X9X9X9X6 $ @ O N {.}.|.'.A , p r r r A |.|.|.|.|.|.|.|.|.|.|.|.|.|.|.|.|.|.|.|.}.{.(.O O @ $ 6 9X9X9X9X9X9X9X9X9X9X9X9X9X9X9X9X9X9X9X9X9X9X9X9X",
"9X9X9X9X9X9X9X9X9X9X9X9X9X9X9X9X9X9X9X9X9X9X9X9X9X9X9X9X6 $ # O , {.N p r r r r r r r v |.|.|.|.|.|.|.|.|.|.|.|.|.|.|.|.|.|.|.|.}.{.N.+ + @ 2 4 9X9X9X9X9X9X9X9X9X9X9X9X9X9X9X9X9X9X9X9X9X9X9X9X",
"9X9X9X9X9X9X9X9X9X9X9X9X9X9X9X9X9X9X9X9X9X9X9X9X9X9X9X9Xq $ # O ; {.p r r r r r r r r v |.|.|.|.|.|.|.|.|.|.|.|.|.|.|.|.|.|.|.|.}.{.A + + # 2 0 9X9X9X9X9X9X9X9X9X9X9X9X9X9X9X9X9X9X9X9X9X9X9X9X",
"9X9X9X9X9X9X9X9X9X9X9X9X9X9X9X9X9X9X9X9X9X9X9X9X9X9X9X9X6 $ # O = {.b r r r r p b N.'.|.|.|.|.|.|.|.|.|.|.|.|.|.L.N A L.'.|.|.|.}.}., + + # 6 7 9X9X9X9X9X9X9X9X9X9X9X9X9X9X9X9X9X9X9X9X9X9X9X9X",
"9X9X9X9X9X9X9X9X9X9X9X9X9X9X9X9X9X9X9X9X9X9X9X9X9X9X9X9X6 $ @ O + {.A t , A R.`.`.`.{.|.|.|.|.|.|.|.|.|.|.|.|.|.N r r r r r p x N N , + + # 2 9X9X9X9X9X9X9X9X9X9X9X9X9X9X9X9X9X9X9X9X9X9X9X9X9X",
"9X9X9X9X9X9X9X9X9X9X9X9X9X9X9X9X9X9X9X9X9X9X9X9X9X9X9X9Xq # @ O + (.}.|.`.S.Z.Z.Z.Z.Z.Q.{.|.|.|.|.|.|.|.|.|.|.|.v r r r r r r r e p = O + @ $ c 9X9X9X9X9X9X9X9X9X9X9X9X9X9X9X9X9X9X9X9X9X9X9X9X",
"9X9X9X9X9X9X9X9X9X9X9X9X9X9X9X9X9X9X9X9X9X9X9X9X9X9X:X;X= @ + O + N.}.`.Z.Z.E U U U T Z.U.|.|.|.|.|.|.|.|.|.|.|.x r r r r r r e e x * O O + # N.>X9X9X9X9X9X9X9X9X9X9X9X9X9X9X9X9X9X9X9X9X9X9X9X",
"9X9X9X9X9X9X9X9X9X9X9X9X9X9X9X9X9X9X9X9X9X9X9X9X9X@X;X-X; + O O + N {.S.Z.G U U U U U E Z.Q.|.|.|.|.|.|.|.|.|.|.T.L.A N N x x t e b O O O O + #X&X<X9X9X9X9X9X9X9X9X9X9X9X9X9X9X9X9X9X9X9X9X9X9X",
"9X9X9X9X9X9X9X9X9X9X9X9X9X9X9X9X9X9X9X9X9X9X9X9X*X&X&X(., o o O O , `.C.C.K U U U U U Y Z.Z.|.|.|.|.|.|.|.|.|.|.|.|.`.Q.Q.Q.!.`.{.(.O O o o O (.&X&X+X9X9X9X9X9X9X9X9X9X9X9X9X9X9X9X9X9X9X9X9X9X",
"9X9X9X9X9X9X9X9X9X9X9X9X9X9X9X9X9X9X9X9X9X9X9X9X&X#X^.~.> o o O O A Q.C.C.T U U U U U U Z.Z.`.|.|.|.|.|.|.|.|.|.].S.S G G G S C.U.N.O o o o % G.^.#X&X9X9X9X9X9X9X9X9X9X9X9X9X9X9X9X9X9X9X9X9X9X",
"9X9X9X9X9X9X9X9X9X9X9X9X9X9X9X9X9X9X9X9X9X9X9X:X&XW.W.b.Z - % O , ].Q.C.C.J U U U U U L Z.Z.`.|.|.|.|.|.|.|.|.|.S.Z.L U U I P S V.Q.o o o X * C G.W.#X=X9X9X9X9X9X9X9X9X9X9X9X9X9X9X9X9X9X9X9X9X",
"9X9X9X9X9X9X9X9X9X9X9X9X9X9X9X9X9X9X9X9X9X9X9X=X#XW.A.C Z Z E.).'.].Q.C.Z.H Y U U U U D Z.Z.`.|.|.|.|.|.|.|.|.Q.Z.D U U I I I R V.V.* o o X > C V W.T.@X9X9X9X9X9X9X9X9X9X9X9X9X9X9X9X9X9X9X9X9X",
"9X9X9X9X9X9X9X9X9X9X9X9X9X9X9X9X9X9X9X9X9X9X9X@XT.W.b.C Z Z E.).'.'./.C.C.C.H K T T G Z.Z.Z.|.|.].`.`.`.].|.|.Z.Z.K U U I I I T V.V.U.A N m C B B F.T.@X9X9X9X9X9X9X9X9X9X9X9X9X9X9X9X9X9X9X9X9X",
"9X9X9X9X9X9X9X9X9X9X9X9X9X9X9X9X9X9X9X9X9X9X9X@XT.W.Z C C Z U.).'.'.].Z.C.Z.Z.Z.Z.Z.Z.Z.Z.Q.{.S.Z.Z.Z.Z.U.|.].Z.Z.T U I I I I T V.Z A./.A.C B B B D.P.@X9X9X9X9X9X9X9X9X9X9X9X9X9X9X9X9X9X9X9X9X",
"9X9X9X9X9X9X9X9X9X9X9X9X9X9X9X9X9X9X9X9X9X9X9X@XT.W.n.C C Z U.).).'.].!.C.C.Z.Z.Z.Z.Z.Z.Z.{.Q.Z.Z.Z.Z.Z.Z.`.`.Z.Z.R U I I I I J Z Z n.~.A.B B B M F.P.XX9X9X9X9X9X9X9X9X9X9X9X9X9X9X9X9X9X9X9X9X",
"9X9X9X9X9X9X9X9X9X9X9X9X9X9X9X9X9X9X9X9X9X9X9X@X#XW.H.C C Z A.).).'.].{.Q.C.Z.Z.Z.Z.Z.S.].|.!.Z.Z.Z.Z.Z.Z.].`.Z.Z.S L I I I P H Z Z b.E.Z B B B V J.P.XX9X9X9X9X9X9X9X9X9X9X9X9X9X9X9X9X9X9X9X9X",
"9X9X9X9X9X9X9X9X9X9X9X9X9X9X9X9X9X9X9X9X9X9X9X9X@X#XW.n.C Z C.).).'.].{.{.`.U.U.U.U.Q.{.|.|.|.!.S.Z.Z.S.`.|.|.Z.Z.C.C.R E E S V.Z Z G.Y.Z B B B D.J.XX.X9X9X9X9X9X9X9X9X9X9X9X9X9X9X9X9X9X9X9X9X",
"9X9X9X9X9X9X9X9X9X9X9X9X9X9X9X9X9X9X9X9X9X9X9X9X$X#X#X^.G.Z C.).'.'.].{.{.}.|.|.|.|.|.|.|.|.|.|.|.|.|.|.|.|.|.Q.Z.C.C.C.C.V.V.Z Z Z Y.Y.C B V F.J.XXXX9X9X9X9X9X9X9X9X9X9X9X9X9X9X9X9X9X9X9X9X9X",
"9X9X9X9X9X9X9X9X9X9X9X9X9X9X9X9X9X9X9X9X9X9X9X9X9X&X&X&X^.~.~.).'.'.{.{.{.}.|.|.|.|.|.|.|.|.|.|.|.|.|.|.|.|.|.}.S.C.C.C.V.V.V.Z Z H.E.Y.G.F.P.P.XXXX9X9X9X9X9X9X9X9X9X9X9X9X9X9X9X9X9X9X9X9X9X9X",
"9X9X9X9X9X9X9X9X9X9X9X9X9X9X9X9X9X9X9X9X9X9X9X9X9X9X=X;X;X-X-X'.'.].{.{.{.}.|.|.|.|.|.|.|.|.|.].E.b.b.b.A.).|.|.{.U.C.C.V.V.V.V.Y.~.~.W.W.T.T.T.$X9X9X9X9X9X9X9X9X9X9X9X9X9X9X9X9X9X9X9X9X9X9X9X",
"9X9X9X9X9X9X9X9X9X9X9X9X9X9X9X9X9X9X9X9X9X9X9X9X9X9X9X:X;X,X,X[.[.].{.{.}.}.|.|.|.|.|.|.|.].M : : : : : : n !.|.|.}.`.Q.Q.U.U.)./.^.^.^.#X@X@X@X9X9X9X9X9X9X9X9X9X9X9X9X9X9X9X9X9X9X9X9X9X9X9X9X",
"9X9X9X9X9X9X9X9X9X9X9X9X9X9X9X9X9X9X9X9X9X9X9X9X9X9X9X9X9X9X9X>X[.[.{.{.}.}.|.|.|.|.|.|.|.V : : : : : : : : n |.|.}.{.{.{.].).).(.(.^.@X9X9X9X9X9X9X9X9X9X9X9X9X9X9X9X9X9X9X9X9X9X9X9X9X9X9X9X9X",
"9X9X9X9X9X9X9X9X9X9X9X9X9X9X9X9X9X9X9X9X9X9X9X9X9X9X9X9X9X9X9X>X[.|.{.{.}.|.|.|.|.|.|.|.|.M : : Z b.b.b.m : : |.|.}.}.{.{.'.'.).).-X&X9X9X9X9X9X9X9X9X9X9X9X9X9X9X9X9X9X9X9X9X9X9X9X9X9X9X9X9X9X",
"9X9X9X9X9X9X9X9X9X9X9X9X9X9X9X9X9X9X9X9X9X9X9X9X9X9X9X9X9X9X9X*X,X[.{.}.}.|.|.|.|.|.|.|.|.U.M b.|.|.|.|.].b.U.|.|.|.}.{.{.'.'.'.-X;X<X9X9X9X9X9X9X9X9X9X9X9X9X9X9X9X9X9X9X9X9X9X9X9X9X9X9X9X9X9X",
"9X9X9X9X9X9X9X9X9X9X9X9X9X9X9X9X9X9X9X9X9X9X9X9X9X9X9X9X9X9X9X:X,X[.{.}.}.|.|.|.|.|.|.|.|.|.|.|.|.|.|.|.|.|.|.|.|.|.}.{.{.].'.[.;X;X9X9X9X9X9X9X9X9X9X9X9X9X9X9X9X9X9X9X9X9X9X9X9X9X9X9X9X9X9X9X",
"9X9X9X9X9X9X9X9X9X9X9X9X9X9X9X9X9X9X9X9X9X9X9X9X9X9X9X9X9X9X4.3X|.{.{.{.}.}.|.|.|.|.|.|.|.|.|.|.|.|.|.|.|.|.|.|.|.|.}.{.{.{.[.[.,X9X9X9X9X9X9X9X9X9X9X9X9X9X9X9X9X9X9X9X9X9X9X9X9X9X9X9X9X9X9X9X",
"9X9X9X9X9X9X9X9X9X9X9X9X9X9X9X9X9X9X9X9X9X9X9X9X9X9X9X9X5.3.3.0.6X6X6XB.B.B.~.!.!.!.E.E.E.E.E.E.E.E.E.E.E.E.B.B.B.B.B.B.6X6X6X+X9X9X9X9X9X9X9X9X9X9X9X9X9X9X9X9X9X9X9X9X9X9X9X9X9X9X9X9X9X9X9X9X",
"9X9X9X9X9X9X9X9X9X9X9X9X9X9X9X9X9X9X9X9X9X9X9X9X9X9X9X6.3.1.1.f.j.p.6.>.-.=.=.1 M M M m n n n n n n n n < %.*.*.=.=.-.3.y.u.y.1.9X9X9X9X9X9X9X9X9X9X9X9X9X9X9X9X9X9X9X9X9X9X9X9X9X9X9X9X9X9X9X9X",
"9X9X9X9X9X9X9X9X9X9X9X9X9X9X9X9X9X9X9X9X9X9X9X9X9X7.3.3.1.1.6.g.g.f.1.>.-.-.=.=.%.1 M M m m m m m m m 1 *.*.*.=.=.-.6.y.u.p.y.1.3.9X9X9X9X9X9X9X9X9X9X9X9X9X9X9X9X9X9X9X9X9X9X9X9X9X9X9X9X9X9X9X",
"9X9X9X9X9X9X9X9X9X9X9X9X9X9X9X9X9X9X9X9X9X9X9X7.6.3.1.1.<.<.6.f.f.g.9.>.>.-.-.=.=.=.%.< M M M m M m &.*.*.*.=.=.>.q.y.u.i.f.9.1.3.2.9X9X9X9X9X9X9X9X9X9X9X9X9X9X9X9X9X9X9X9X9X9X9X9X9X9X9X9X9X9X",
"9X9X9X9X9X9X9X9X9X9X9X9X9X9X9X9X9X9X9X9X9X9X9X X0.1.<.<.,.,.3.f.f.f.p.u.3.>.-.-.=.=.=.=.&.< M M < %.*.*.=.=.=.1.y.y.u.p.f.j.3.<.1.3.2.9X9X9X9X9X9X9X9X9X9X9X9X9X9X9X9X9X9X9X9X9X9X9X9X9X9X9X9X9X",
"9X9X9X9X9X9X9X9X9X9X9X9X9X9X9X9X9X9X9X9X9X9X.XG.A.m.:.,.,.,.<.p.p.p.f.p.i.q.1.-.-.-.-.=.=.=.&.1 *.=.=.=.=.-.6.y.y.u.p.g.k.k.3.<.<.1.3.4.8.9X9X9X9X9X9X9X9X9X9X9X9X9X9X9X9X9X9X9X9X9X9X9X9X9X9X9X",
"9X9X9X9X9X9X9X9X9X9X9X9X9X9X9X9X9X9X9X9X9X*XH.A.n.V.:.,.,.,.,.q.p.p.p.f.p.i.u.q.<.-.-.-.-.-.-.3.=.=.-.-.>.9.y.u.u.p.j.k.l.l.<.<.n.A.G.K.9X9X9X9X9X9X9X9X9X9X9X9X9X9X9X9X9X9X9X9X9X9X9X9X9X9X9X9X",
"9X9X9X9X9X9X9X9X9X9X9X9X9X9X9X9X9X9X9X9X9X,XI.A.C.V.,.,.,.,.>.6.u.i.p.p.e.f.p.i.i.9.,.>.>.-.1.y.,.-.-.1.q.u.u.p.f.k.l.l.l.j.<.<.v.C.A.G.9X9X9X9X9X9X9X9X9X9X9X9X9X9X9X9X9X9X9X9X9X9X9X9X9X9X9X9X",
"9X9X9X9X9X9X9X9X9X9X9X9X9X9X9X9X9X9X9X9X<X,X[.A.V.v.,.,.>.>.>.1.u.u.u.i._.5Xg.f.p.p.i.9.,.>.q.u.9.>.6.u.p.p.f.j.k.l.l.l.l.i.<.<.v.C.A.G.$X9X9X9X9X9X9X9X9X9X9X9X9X9X9X9X9X9X9X9X9X9X9X9X9X9X9X9X",
"9X9X9X9X9X9X9X9X9X9X9X9X9X9X9X9X9X9X9X=X,X[.[./.V.v.,.>.>.>.>.>.u.u.u.u.4X'.3Xg.j.k.j.g.p.9.f.f.f.u.f.g.g.k.l.l.l.l.l.l.l.q.<.<.m.C.A.-X,X9X9X9X9X9X9X9X9X9X9X9X9X9X9X9X9X9X9X9X9X9X9X9X9X9X9X9X",
"9X9X9X9X9X9X9X9X9X9X9X9X9X9X9X9X9X9X9X,X,X[.'.'.U.v.;.;.;.;.>.>.9.u.u.u.w.'._.w.g.k.k.k.l.l.k.k.k.k.l.l.l.l.l.l.l.l.l.l.l.9.<.<.C.S.'.[.,X<X9X9X9X9X9X9X9X9X9X9X9X9X9X9X9X9X9X9X9X9X9X9X9X9X9X9X",
"9X9X9X9X9X9X9X9X9X9X9X9X9X9X9X9X9X9X,X,X[.[.'.'.'.C.Z Z Z Z ;.>.6.u.u.u.u.4X'.4Xg.j.k.k.k.l.l.l.h.k.k.k.k.k.l.l.l.l.l.l.k.B.Z.Z.U.{.{.[.,X,X9X9X9X9X9X9X9X9X9X9X9X9X9X9X9X9X9X9X9X9X9X9X9X9X9X9X",
"9X9X9X9X9X9X9X9X9X9X9X9X9X9X9X9X9X,X,X[.[.'.'.'.)./.b.Z b.b.;.2.9Xa.u.u.u.w._._.h.j.k.k.k.k.h.6X3Xk.k.k.k.k.k.k.k.l.l.l.l.B.Z.!.}.{.{.{.[.,X>X9X9X9X9X9X9X9X9X9X9X9X9X9X9X9X9X9X9X9X9X9X9X9X9X9X",
"9X9X9X9X9X9X9X9X9X9X9X9X9X9X9X9X<X,X[.[.'.'.'.'.).).U.Z b.n.;.9X9Xa.a.u.u.i.3X'.3Xg.j.k.k.k.7X{.h.k.k.k.k.k.k.k.k.k.k.l.l.Z.].|.}.{.{.].[.[.,X9X9X9X9X9X9X9X9X9X9X9X9X9X9X9X9X9X9X9X9X9X9X9X9X9X",
"9X9X9X9X9X9X9X9X9X9X9X9X9X9X9X%X;X-X'.'.'.'.'.'.).).(.G.n.D.9X9X9Xs.a.a.u.i.p.6X7Xg.j.j.j.4X{.5Xj.j.g.j.g.j.g.k.k.k.k.k.h.].|.}.}.{.{.].'.[.;X;X;X9X9X9X9X9X9X9X9X9X9X9X9X9X9X9X9X9X9X9X9X9X9X9X",
"9X9X9X9X9X9X9X9X9X9X9X9X9X9X9X;X-X-X).'.).'.).).).(.(.^.F.9X9X9X9X9Xd.a.u.u.p.h.5Xg.g.g.e.{.7Xh.g.g.g.g.g.g.g.g.j.j.k.k.r.,X}.}.}.{.{.].'.).-X;X;X9X9X9X9X9X9X9X9X9X9X9X9X9X9X9X9X9X9X9X9X9X9X9X",
"9X9X9X9X9X9X9X9X9X9X9X9X9X9X=X-X-X).).).).).).).(.(.(.-X%X9X9X9X9X9Xd.a.u.u.p.p.f.g.g.h._.].e.f.f.f.f.f.f.f.g.g.g.j.k.k.8X#.,X}.{.{.{.'.'.).).-X&X:X9X9X9X9X9X9X9X9X9X9X9X9X9X9X9X9X9X9X9X9X9X9X",
"9X9X9X9X9X9X9X9X9X9X9X9X9X9X&X&X(.(.(.).).(.).(./.(.^.&X9X9X9X9X9X9Xd.a.a.i.i.p.f.f.f.5X'.3Xf.p.p.p.p.p.p.f.f.f.g.g.j.j.8X} #.;X{.{.].].).).(.(.&X$X9X9X9X9X9X9X9X9X9X9X9X9X9X9X9X9X9X9X9X9X9X9X",
"9X9X9X9X9X9X9X9X9X9X9X9X9X=X&X^.^././.(.(.(./././.~.^.&X9X9X9X9X9X9Xs.d.a.u.i.p.f.f.w.'.5Xp.p.i.i.u.i.u.i.p.8Xd.f.g.g.j.8X} } #.{.{.'.'.).).(.^.^.&X9X9X9X9X9X9X9X9X9X9X9X9X9X9X9X9X9X9X9X9X9X9X",
"9X9X9X9X9X9X9X9X9X9X9X9X9X&XW.W.~.~.~././././.~.~.~.^.&X%X9X9X9X9X9X9Xd.a.u.i.p.p.p.w.3Xp.i.u.u.u.u.u.u.u.z.[ +.d.f.g.g.8X} } } Q ].'.).).(./.^.#X&X9X9X9X9X9X9X9X9X9X9X9X9X9X9X9X9X9X9X9X9X9X9X",
"9X9X9X9X9X9X9X9X9X9X9X9X:X#XW.R.Y.Y.E.~.~.~.~.E.Y.Y.W.#XJ.9X9X9X9X9X9Xd.a.u.i.p.p.p.p.i.u.u.u.u.y.y.y.y.x.] ] [ W f.f.g.c.} } } O.;X'.).(./.~.~.W.#X%X9X9X9X9X9X9X9X9X9X9X9X9X9X9X9X9X9X9X9X9X9X",
"9X9X9X9X9X9X9X9X9X9X9X9X=XT.P.I.I.R.Y.Y.Y.Y.Y.Y.Y.R.R.W.F.9X9X9X9X9X9Xd.a.a.i.i.p.p.i.i.u.u.y.y.y.y.y.t./ ' ' ] [ W f.f.c.} } } } ~ ).).(./.~.Y.W.#X+X9X9X9X9X9X9X9X9X9X9X9X9X9X9X9X9X9X9X9X9X9X",
"9X9X9X9X9X9X9X9X9X9X9X9X@XT.P.H.H.I.I.I.I.I.I.I.I.I.R.W.M.9X9X9X9X9X9Xd.a.a.i.i.i.i.u.u.u.y.y.y.q.q.q.W _ _ ' ' [ [ +.+.+.} } { { { &X(./.~.Y.R.R.T.@X9X9X9X9X9X9X9X9X9X9X9X9X9X9X9X9X9X9X9X9X9X",
"9X9X9X9X9X9X9X9X9X9X9X9XXXP.H.H.H.H.H.I.I.I.I.I.H.H.I.P.m.9X9X9X9X9X9Xd.a.a.u.i.r.x.x.z.z.W W W / ) ) ^ ) ) _ ' ] [ [ { } { { { { [ Q /.~.E.Y.I.R.T.@X9X9X9X9X9X9X9X9X9X9X9X9X9X9X9X9X9X9X9X9X9X",
"9X9X9X9X9X9X9X9X9X9X9X9XXXP.F.F.G.G.H.H.H.H.H.H.H.H.P.F.M.9X9X9X9X9X9X+.+.| [ [ [ ] ] ' _ ) ) ^ ^ ^ ^ ^ ^ ) ) _ ' ] [ [ { { { { [ [ #./.~.Y.I.I.P.T.@X9X9X9X9X9X9X9X9X9X9X9X9X9X9X9X9X9X9X9X9X9X",
"9X9X9X9X9X9X9X9X9X9X9X9XXXL.J.F.D.F.G.F.G.G.G.G.G.H.P.m.M.9X9X9X9X9X9X@.@.{ [ [ [ ] ' _ ) ) ^ ^ ^ ^ ^ ^ ^ ^ ) _ _ ' ] [ [ { { [ [ ' _ ~.Y.R.I.H.P.T.@X9X9X9X9X9X9X9X9X9X9X9X9X9X9X9X9X9X9X9X9X9X",
"9X9X9X9X9X9X9X9X9X9X9X9X@XL.J.F.D.D.D.D.D.D.F.F.F.P.J.m.M.9X9X9X9X9X9X@.@.[ [ [ [ ] ' _ ) ) ^ ^ / / / / / / ` ` _ _ ' ] ] ] ] ] ' _ _ OXY.I.H.H.P.XX@X9X9X9X9X9X9X9X9X9X9X9X9X9X9X9X9X9X9X9X9X9X",
"9X9X9X9X9X9X9X9X9X9X9X9X9XXXL.J.D.D.D.D.D.D.D.F.J.P.M.M.9X9X9X9X9X9X$.@.@.[ [ [ ] ' _ _ ) ^ / / | | | | | |  .o.` _ _ ' ' ! ! ~ ~ | ) oXR.I.H.P.P.XX*X9X9X9X9X9X9X9X9X9X9X9X9X9X9X9X9X9X9X9X9X9X",
"9X9X9X9X9X9X9X9X9X9X9X9X9X.XXXL.J.F.D.D.D.D.D.F.P.+X9X9X9X9X9X9X9X9Xo.@.[ [ [ [ [ ' _ ) ) / ( 9X9X9X9X9X9X9X9X9X` ) ) _ #./././.~.~.Y.R.I.I.P.P.XX@X9X9X9X9X9X9X9X9X9X9X9X9X9X9X9X9X9X9X9X9X9X9X",
"9X9X9X9X9X9X9X9X9X9X9X9X9X9X9X$XL.L.J.F.F.D.J.J.XX9X9X9X9X9X9X9X9X9X@.@.[ [ [ [ ] ' _ ) ` ` 9X9X9X9X9X9X9X9X9X9X/ ^ ) | OX~.~.~.~.Y.Y.R.R.P.P.T.XX9X9X9X9X9X9X9X9X9X9X9X9X9X9X9X9X9X9X9X9X9X9X9X",
"9X9X9X9X9X9X9X9X9X9X9X9X9X9X9X9X9XK.L.L.L.L.L.XX%X9X9X9X9X9X9X9X9X9X@.@.[ [ [ [ ] ' _ ` ` ` 9X9X9X9X9X9X9X9X9Xw l F oXT.E.E.E.Y.Y.Y.R.W.T.T.T.@X*X9X9X9X9X9X9X9X9X9X9X9X9X9X9X9X9X9X9X9X9X9X9X9X",
"9X9X9X9X9X9X9X9X9X9X9X9X9X9X9X9X9X9X9X@XXXXXXXXX9X9X9X9X9X9X9X9X9X$.@.O.[ [ [ ] ] _ _ ` ` X.9X9X9X9X9X9X9X9X9X2 + X * > F.Y.Y.Y.R.R.W.T.@X$X%X9X9X9X9X9X9X9X9X9X9X9X9X9X9X9X9X9X9X9X9X9X9X9X9X9X",
"9X9X9X9X9X9X9X9X9X9X9X9X9X9X9X9X9X9X9X9X9X9X9X9X9X9X9X9X9X9X9X9X9Xo.@.[ [ [ [ ] ' _ _ ` ` 9X9X9X9X9X9X9X9X9Xw $ O X . . . - N I.R.W.@X9X9X9X9X9X9X9X9X9X9X9X9X9X9X9X9X9X9X9X9X9X9X9X9X9X9X9X9X9X",
"9X9X9X9X9X9X9X9X9X9X9X9X9X9X9X9X9X9X9X9X9X9X9X9X9X9X9X9X9X9X9X9X9XO.O.] ] ] ] ] ' _ ` ` ..9X9X9X9X9X9X9X9X9X2 @ X . . . . . . % ; N.9X9X9X9X9X9X9X9X9X9X9X9X9X9X9X9X9X9X9X9X9X9X9X9X9X9X9X9X9X9X",
"9X9X9X9X9X9X9X9X9X9X9X9X9X9X9X9X9X9X9X9X9X9X9X9X9X9X9X9X9X9X9X9X9XO.O.] ' ' 2X/./.^.^.&X:X9X9X9X9X9X9X9X9X9X$ O X .     . . . . X + 9X9X9X9X9X9X9X9X9X9X9X9X9X9X9X9X9X9X9X9X9X9X9X9X9X9X9X9X9X9X",
"9X9X9X9X9X9X9X9X9X9X9X9X9X9X9X9X9X9X9X9X9X9X9X9X9X9X9X9X9X9X9X9X .O.` _ | 1X/./.~.^.^.&X9X9X9X9X9X9X9X9X9X5 # o .             . X + 4 9X9X9X9X9X9X9X9X9X9X9X9X9X9X9X9X9X9X9X9X9X9X9X9X9X9X9X9X9X",
"9X9X9X9X9X9X9X9X9X9X9X9X9X9X9X9X9X9X9X9X9X9X9X9X9X9X9X9X9X9X9X9XO.` ` ~ #X~.~.~.~.^.#X$X9X9X9X9X9X9X9X9X9X6 $ o X .             . o $ 9X9X9X9X9X9X9X9X9X9X9X9X9X9X9X9X9X9X9X9X9X9X9X9X9X9X9X9X9X",
"9X9X9X9X9X9X9X9X9X9X9X9X9X9X9X9X9X9X9X9X9X9X9X9X9X9X9X9X9X9X9X9X! Q OXE.~.~.~.E.Y.^.#X*X9X9X9X9X9X9X9X9X0 q 2 # O X . . .       . X # 8 9X9X9X9X9X9X9X9X9X9X9X9X9X9X9X9X9X9X9X9X9X9X9X9X9X9X9X9X",
"9X9X9X9X9X9X9X9X9X9X9X9X9X9X9X9X9X9X9X9X9X9X9X9X9X9X9X9X9X9X9X+X#XW.R.Y.Y.Y.Y.Y.R.W.#X9X9X9X9X9X9X9X9X9X9X9X7 4 $ @ O o X . . . . X + 2 9X9X9X9X9X9X9X9X9X9X9X9X9X9X9X9X9X9X9X9X9X9X9X9X9X9X9X9X",
"9X9X9X9X9X9X9X9X9X9X9X9X9X9X9X9X9X9X9X9X9X9X9X9X9X9X9X9X9X9X9X2 @ X X . . . . . . O # 9X9X9X9X9X9X9X9X9X9X9X9X9X9Xw 2 # @ o X X X X + $ 7 9X9X9X9X9X9X9X9X9X9X9X9X9X9X9X9X9X9X9X9X9X9X9X9X9X9X9X",
"9X9X9X9X9X9X9X9X9X9X9X9X9X9X9X9X9X9X9X9X9X9X9X9X9X9X9X9X9X9X9X$ + X . . . . . . . o @ 3 9X9X9X9X9X9X9X9X9X9X9X9X9X9X9X9X3 $ @ + o o @ $ 5 9X9X9X9X9X9X9X9X9X9X9X9X9X9X9X9X9X9X9X9X9X9X9X9X9X9X9X",
"9X9X9X9X9X9X9X9X9X9X9X9X9X9X9X9X9X9X9X9X9X9X9X9X9X9X9X9X9X9X4 # o . . . . . . . . X O $ 9X9X9X9X9X9X9X9X9X9X9X9X9X9X9X9X9X9X9X4 $ $ $ 6 q 9X9X9X9X9X9X9X9X9X9X9X9X9X9X9X9X9X9X9X9X9X9X9X9X9X9X9X",
"9X9X9X9X9X9X9X9X9X9X9X9X9X9X9X9X9X9X9X9X9X9X9X9X9X9X9X9X9X9X$ O . .               . X @ 2 9X9X9X9X9X9X9X9X9X9X9X9X9X9X9X9X9X9X9X9Xw 5 q 8 9X9X9X9X9X9X9X9X9X9X9X9X9X9X9X9X9X9X9X9X9X9X9X9X9X9X9X",
"9X9X9X9X9X9X9X9X9X9X9X9X9X9X9X9X9X9X9X9X9X9X9X9X9X9X9X9X9X7 # o .                   . o $ 0 9X9X9X9X9X9X9X9X9X9X9X9X9X9X9X9X9X9X9X9X9X9X9X9X9X9X9X9X9X9X9X9X9X9X9X9X9X9X9X9X9X9X9X9X9X9X9X9X9X9X",
"9X9X9X9X9X9X9X9X9X9X9X9X9X9X9X9X9X9X9X9X9X9X9X9X9X9X9X9X9X5 @ o .                 . . o @ 6 9X9X9X9X9X9X9X9X9X9X9X9X9X9X9X9X9X9X9X9X9X9X9X9X9X9X9X9X9X9X9X9X9X9X9X9X9X9X9X9X9X9X9X9X9X9X9X9X9X9X",
"9X9X9X9X9X9X9X9X9X9X9X9X9X9X9X9X9X9X9X9X9X9X9X9X9X9X9X9X9X2 # o X . . . . . . . . . X o @ 2 w 9X9X9X9X9X9X9X9X9X9X9X9X9X9X9X9X9X9X9X9X9X9X9X9X9X9X9X9X9X9X9X9X9X9X9X9X9X9X9X9X9X9X9X9X9X9X9X9X9X",
"9X9X9X9X9X9X9X9X9X9X9X9X9X9X9X9X9X9X9X9X9X9X9X9X9X9X9X9Xw 6 $ @ O o O O O O O O o O O @ $ 6 9X9X9X9X9X9X9X9X9X9X9X9X9X9X9X9X9X9X9X9X9X9X9X9X9X9X9X9X9X9X9X9X9X9X9X9X9X9X9X9X9X9X9X9X9X9X9X9X9X9X",
"9X9X9X9X9X9X9X9X9X9X9X9X9X9X9X9X9X9X9X9X9X9X9X9X9X9X9X9Xy q 6 2 2 $ $ $ $ $ $ $ $ $ 2 2 6 5 9X9X9X9X9X9X9X9X9X9X9X9X9X9X9X9X9X9X9X9X9X9X9X9X9X9X9X9X9X9X9X9X9X9X9X9X9X9X9X9X9X9X9X9X9X9X9X9X9X9X"
};
