/* XPM */
static char *planks1752045519[] = {
/* columns rows colors chars-per-pixel */
"480 480 255 2 ",
"   c #070200",
".  c #130B06",
"X  c #19140B",
"o  c #1A0F10",
"O  c #1C1917",
"+  c #25180E",
"@  c #261C16",
"#  c #221E1B",
"$  c #23211E",
"%  c #2B241B",
"&  c #34271D",
"*  c #251E20",
"=  c #252422",
"-  c #2A2624",
";  c #292727",
":  c #2B2926",
">  c #2D2B2A",
",  c #342C24",
"<  c #392C27",
"1  c #322E2B",
"2  c #33312E",
"3  c #3A3629",
"4  c #3B342C",
"5  c #322F30",
"6  c #353432",
"7  c #3A3634",
"8  c #373836",
"9  c #3B3935",
"0  c #3C3C3A",
"q  c #412F2F",
"w  c #43372C",
"e  c #433B34",
"r  c #483A37",
"t  c #423D3B",
"y  c #3E4038",
"u  c #484437",
"i  c #4C4A35",
"p  c #44423C",
"a  c #4B433C",
"s  c #53483C",
"d  c #634A3E",
"f  c #3F3F40",
"g  c #4A3D43",
"h  c #454342",
"j  c #4B4542",
"k  c #4C4A44",
"l  c #4C4B49",
"z  c #524543",
"x  c #534B44",
"c  c #544D4A",
"v  c #564E4F",
"b  c #5A4C49",
"n  c #545145",
"m  c #54524C",
"M  c #5B5749",
"N  c #5C544C",
"B  c #565451",
"V  c #5C5552",
"C  c #5A5757",
"Z  c #5D5B54",
"A  c #5D5C5A",
"S  c #62554C",
"D  c #68534F",
"F  c #63594C",
"G  c #625553",
"H  c #635C54",
"J  c #695D55",
"K  c #65555A",
"L  c #645D5B",
"P  c #6A5D5B",
"I  c #5F6159",
"U  c #646255",
"Y  c #6B6256",
"T  c #6C6955",
"R  c #64625C",
"E  c #6B635C",
"W  c #686859",
"Q  c #6C695D",
"!  c #72655C",
"~  c #726A5D",
"^  c #78695B",
"/  c #5E5E62",
"(  c #685D62",
")  c #735E68",
"_  c #656362",
"`  c #6B6462",
"'  c #696667",
"]  c #6D6A63",
"[  c #6D6C6A",
"{  c #726563",
"}  c #736B64",
"|  c #796D64",
" . c #73656B",
".. c #736D6A",
"X. c #796E6B",
"o. c #6E7167",
"O. c #747265",
"+. c #7A7265",
"@. c #75726C",
"#. c #7B746D",
"$. c #77796B",
"%. c #7C796D",
"&. c #6F6E72",
"*. c #776D72",
"=. c #757472",
"-. c #7B7572",
";. c #767874",
":. c #7D7A74",
">. c #7C757A",
",. c #7E7C7A",
"<. c #82756D",
"1. c #87796A",
"2. c #837A6E",
"3. c #827673",
"4. c #887272",
"5. c #837C75",
"6. c #897D75",
"7. c #83757A",
"8. c #847D7A",
"9. c #897E7B",
"0. c #A3796A",
"q. c #7C816F",
"w. c #7E8274",
"e. c #7E827A",
"r. c #848275",
"t. c #8A8275",
"y. c #85837C",
"u. c #8A847D",
"i. c #86897C",
"p. c #8F8E7A",
"a. c #8C8A7E",
"s. c #91867D",
"d. c #958878",
"f. c #918A7E",
"g. c #B38878",
"h. c #7E7C82",
"j. c #847D83",
"k. c #8A7E84",
"l. c #917D87",
"z. c #7E8482",
"x. c #858483",
"c. c #8B8583",
"v. c #868983",
"b. c #8C8A84",
"n. c #868689",
"m. c #8B858A",
"M. c #8D8B8A",
"N. c #918683",
"B. c #928B85",
"V. c #948888",
"C. c #938D8A",
"Z. c #998D8B",
"A. c #8D9085",
"S. c #8D918A",
"D. c #949186",
"F. c #94928C",
"G. c #999488",
"H. c #9A938C",
"J. c #9B998D",
"K. c #8D8B91",
"L. c #938D92",
"P. c #988B93",
"I. c #8D9391",
"U. c #959492",
"Y. c #9B9592",
"T. c #969993",
"R. c #9C9A94",
"E. c #96969A",
"W. c #9B969A",
"Q. c #9D9B9A",
"!. c #A1988D",
"~. c #B49288",
"^. c #A19693",
"/. c #A29B95",
"(. c #A59998",
"). c #A29D9B",
"_. c #A99D9B",
"`. c #99A18E",
"'. c #9DA196",
"]. c #9EA19B",
"[. c #99A599",
"{. c #A3A196",
"}. c #A7A69A",
"|. c #A4A29C",
" X c #AAA39D",
".X c #ABA99D",
"XX c #B1A99C",
"oX c #9C96A1",
"OX c #9D9CA1",
"+X c #A29DA2",
"@X c #A79CA4",
"#X c #B09FAB",
"$X c #9EA3A2",
"%X c #A4A3A2",
"&X c #AAA4A2",
"*X c #A5A9A3",
"=X c #ACAAA4",
"-X c #A5A3A9",
";X c #AAA5AA",
":X c #A5AAA9",
">X c #ADABAA",
",X c #B2ABA5",
"<X c #B5A9A8",
"1X c #B2ADAB",
"2X c #ADB1A5",
"3X c #AEB1AB",
"4X c #B6B6AB",
"5X c #B4B2AC",
"6X c #B9B3AD",
"7X c #ACA7B4",
"8X c #AEADB2",
"9X c #B3AEB2",
"0X c #B7ADB6",
"qX c #AFB3B2",
"wX c #B5B3B3",
"eX c #BAB5B3",
"rX c #B5B9B3",
"tX c #BBBAB4",
"yX c #B5B4B9",
"uX c #BAB5BA",
"iX c #B6B9BA",
"pX c #BDBCBA",
"aX c #CEA59A",
"sX c #CFB3A7",
"dX c #C2BCB5",
"fX c #C5BAB9",
"gX c #C2BEBB",
"hX c #BEC1B6",
"jX c #BEC2BC",
"kX c #C4C2BD",
"lX c #C8C4BD",
"zX c #BEBDC2",
"xX c #C3BEC3",
"cX c #BEC3C3",
"vX c #C5C4C3",
"bX c #C9C6C4",
"nX c #CBCAC6",
"mX c #C7C7C8",
"MX c #CDCCCA",
"NX c #D1CAC6",
"BX c #D1CECC",
"VX c #CED1CB",
"CX c #D5D2CA",
"ZX c #D3D1CD",
"AX c #CECED1",
"SX c #D5D4D2",
"DX c #D6D7D7",
"FX c #D9D6D4",
"GX c #DBD9D6",
"HX c #DCDCDA",
"JX c #E1DEDB",
"KX c #E2E1DE",
"LX c #DEDFE0",
"PX c #E6E5E4",
"IX c #F4F2EE",
/* pixels */
"rX$.@.J.u :.J.}.wXS.w.'.i.,.3X>XLXDXnX_ y 8 J.@.o.].k ] r.kX4XY.=XR.R.%X8.C ..j k O.|.7X=.-.7 c.8.M.]./.L C.F.Y.| /.J.a.dX/.(.<.D _.,X>XvX1X=X].kXZXnXnXtX_.x a PXHXgXj * = 3.r.Z.X.x J.).C.| 9.#.Y.-.:.M.=Xk.L =.&X(.vX).j.W.F.T.W.C.Q.C.Z.(.` W.L.Y.1X'.t c.=X>X|. X1XJ.5.v.c.<XyX>XwXgXb.R.GXMXiXN 8 1 1 } ] B.}.G.G.r.|.F.b.}.t.u.F.Y.r.B.#.5.c.;XF.x.a |.3X=X}.5X|.$.a.a.T.b.|.|.rX>X|.A.J.e.T.2X=X;.r.=XS.n e.>Xe.T.tXVXGXKXDX$.6 8 2Xq.2XrXT.F.$.`.}.hXA.i.tXF.;.rX4XJ.u.'.T.i./.n J.3XVXhXq.:.'.n i.R.=XrXT.i.}.b.v.wX3X>X=XvX*X4XhXT.:.:.*Xm $.p.kXKXFXnXi.h 6 = _ -.m M ;.=X0Xh.8.a M.c.S.&X|.] H.Y./.<.|./.D.kX_._.6.J ,X<X6XbXwX5X|.vXSXVXnXgX&XS N 6X1XuX9.| <.y.s.H.3.V R.&XF.BXMXC.Z ; = U.>Xm.' y.=X_.vX;Xm.).R.Q.).W.|.U.Y.@XX.(.W.R.wX}.k V.>X5X&X&X4X/.u.b.C.1XpX9XrXvXC.).R.v.C...u.^. X#.$.H.=X^.R.a.JXCXpXB.9 - > '.a.G.:.u.C.>X/.b.m &XwX1X.XrX=X5.G.D.'.F..X*XtX3X=XS.'.v.[.4X5X,.a.1XT.Z z.3Xv.'.kXVX'.hXDXhX*X2XrXi.2XhXT.'.w.[.KXKX[.n y : w.rX4X'.D.[.[.b.}.F {.4XVX",
"5XS.U O.i q.S.F.=X}.'.J.$.I 3XqXGXZXnXZ 6 h }.m S.=XB k T kXXXt.e.S.;.L.8.A ` < u E R.E.E.j.# ` ..:.).9.! ).C.6.J rX6XB.tXY.s.! S !././.nXF.{.5XbXnXrXrXfX_.% b JXHXtXt # # Q ] N.G 2 J.b.8.} #.P F.C.F.Q.>.*.N =.F.Y.=Xm.Z c.b.).+XL.U.&Xc.*.` Y.&XU.U.J.a ( ^.).Y.F.b.u.a.F.X.c.:XQ.3XkX&XR.ZXMXpXN.a 6 > } 5.G.{.a.%.R.&XF.6.F.%.O.r.R.3.F.-...y.Y.F.F.p ;XnXR.b.=XF.1.G.a..Xe.B.4XQ.5X5Xv..Xb.F.'.rXe.G.5Xv.k [ T.A.'.'..XZXKXkXI y 2 [.$.2X4X[.*Xw.4X`.hX4Xw.3Xq.w.*XhX2XO.*Xw.$.B.i J.3XhXrXS.U O.i %.S.F.=X}.'.T.$.I 3XwX).|.kX`.'.jX|.M A.>Xm k T kXGXnX5Xi.8 > ; A _ , u E Y.E.P.j.# ` ..,.).9.{ (.C.8.J rX5XV.rX!.N.! S !.(./.bXF./.5XbXnXrXrXgX_.@ n 1X0X<X#.^ E Q ] V.G 3 R.M.8.kXkX8.B 1 > ].>.*.N =.F.Y.>Xm.Z c.c.).).C.U.&Xc.*.E Y.;XU.U.J.u ) Y.Q.R.F.c.u.b.F.#.c.:XQ.wXkX&X/.S.v.L.^.B.Y.b.] 6.F./.i.%.R.GXBX6Xy.7 $ : /.-.F.-...y.U.Z.C.p ;XnXJ.b.=XF.2.G.a..X:.V.wXQ.5X5Xv..Xa.H.|.5Xi.F.5Xv.a o.T.A.'.'.}.T.jXhX`.3XA.}.O.4XrX'.*X,.2XSXKXkXk 9 : e.=XjX2XO.}.e.;.B.i J.rXjX",
"*X;.Z %.s W _ e.R.2X|.A.;.Z F.v.mXDXjXI 8 y S.o.I k y o.+.+.2.@.A @.v.Y.*.*.;.4 n E n.W.;XoXo c.9.c.&XC.E /.c.3.J 4XXXu.gXfX(.D w G.u.B.BX%X,X4XtXpXtX5X).tXe } JXmX(.e , # ] w.).{ @ F.c.3.! #.5.b.C.c.W.E.H m i.;X|.F.m.H ,.U.C.c.;.8.c.|  .V M.;Xc.` D.e ( _.,XrX).M.v.@.F...C.9X*X&XQ.U.|.MXFXbXN.p 6 1 L c.u.{.:.-.&XY.H.8.R.y.#.y.r...| 3.c.c.Z.;.=Xa W.%XA.S.|.=Xt.r.J.2X].y.hXR.hXwXS.|.H.|.}.hXi.5XnXT.p q.*Xv.G.i.A.VXDXrXo.y > *X$.J.hXA.T.,.3X2X2XA.;.rXW %.'.hXlXJ.2Xo.I ' R A..XwX2X;.Z $.s W _ e.R.2X|.A.;.Z F.v.x.2XrX'.*X4XS.] I l p o.+.+.vXkXQ._ t 6 = *.-.6 c E c.W.7XW.o c.9.c.*XZ.R /.c.3.Y 4X.Xu.gXfX(.G w G.u.B.BX%X,X4XtXpXhX1X_.tXe } fXC.C.~ d.Y ] w.).{ @ D.c.3.gXgXb.c 1 > W.E.K m i.=X_.C.M.A ,.U.V.n.-.8.c... .V b.;Xc.` D.t ) (.=XwX).F.b.@.F...C.9X*X&XQ.U.|.S.*X&X^.B.|.H.G c.y.{.:.-.=XAXMX5Xb.p = : r...| 3.c.n.F.:.=Xh Y.&XA.S.&X=Xr.r.J.=X|.i.jXR.hXwXS.|.G.|.}.hXi.5XmX`.p ;.*Xa.F.p.A.D.}.2X4X4XA..XO.R.hXb.T.w.2XHXGXT.y y $ $.R.tXlXJ.2Xo.I ] R b..XrX",
"3X$.u U n Z o.w.i.T.S.S.F.o.Q.U.VXSX3XI y 6 S.r.e.I p Q O.1.O.R.e.Q.W.;.;.' ,.N z 7.;.-X@Xj.o =.:.|.T.F.@.>XY.X.n .X6X#._.1X<X! u J./.R.ZX1XF./.1XwXtX=XL._.< h HXMX1Xt : % -.;.Q.u.3 %.c.u.} } -.-.u.8.n.+X*.G U.R.F./.%XR -.y.u.j.( >.-.9.V.L ].c.[ P u.3 b (.).9XMX5XlXR.R.N.(.%XU.eXS.Q.wXDXSXMX` p 6 1 } y.V.R.b.b.&X%XF.r.|.c.8.r.B...2.@.Z.C.Q...F.r c.].F.R.|.v.} }.XX5X.XF.5X=XjX5Xi.b.G.Q..XjXJ.lXrXS.m _ T.A.p.i.4XjXVX*XI 2 > hXq.A.3X;.T.v.4X[.[.y.Z |.O.q.i.}.4Xi.hXe._ W u :.F..XrX;.u U n Z o.w.i.T.S.A.T.o.Q.U.T.*X|.T.3X}.T.w.e.Z k W } 1.kXZXqXv.l - = ' 8.N u ,.>.-X-Xj.o @.:.|.U.U.#.>XH.X.n XX6X<._.1X<X~ u J./.R.ZX5XF./.1XrXtX=XL._.< h 1XY.&X{ 6.<.%.;./.c.3 $.c.u.gXtXb.h > ; m.%X..G U.R.F.Q.+XP -.y.x.j.` >.3.9.V.L ].c...L a.3 z (.).wXMX5XlXR.R.b.(.%XU.eXS.Q.wX=X).;X2.B.|.C.} y.B./.b.b.|.FXMX6XF.0 ; : B...2.@.C.C.(.[ Z.p c.Q.F.R.].v.} }..X4X*XF.3X=XjX5Xi.b.G.Q..XjXJ.lXrXS.M _ [.v.p.i.4X$.'.[.}.A.i.kX%.A.3X;.T.v.rXGXVXS.8 8 = q.i.*X4Xi.hXe._ W u w.F.=X",
"kXw.i I i o.e.I w.].*XA.F.o.iXS.SXSX*XZ 6 8 u.%.:Xw.k R r.`.a.wX>X8.A H y.%Xn.V j -.>XW.&.k.o ,.[ ] ,.E...wXU.#.Q ,X(.c.C.R.^.J s XX XlXvX|.=X|.{.1XiXMXtX^.; M GXvX9Xj ; = y.9.R.Z.r @.8.9.#.N.#...8.c.OXOX` c :.M.B.L.K.7.c.M./.Y.' Z.u./._.8.>XR.C.3.:.u z &XR.:XvXtXlX}.S.D.1X>XR.|.+Xx./.HXDXAXV.4 2 ; 9.x.:.B.T./.M.;X=X{.kXc.V.6.D.#.B.&XV.8.M.v.x.7 8.8X=XS.U.5X5.D.B.1X}.A.5X>X*XrX,.b.S.,XhXrXJ.kX=XA.Z o.U.}.2X'.GXVXSX2XZ 2 : rXS.'.2XZ F.Q `.F.2XS.Q 2Xw.i.R.T.*Xq.4XT.e.$.3 ~ b.3XkXw.i I i o.w.I w.].*XS.S.@.rXS.&X=XT.'.'.*Xy.%.*X,.h R y.!.nXHXMX' 6 O ; %Xn.V s -.1XoX>.k.o ,.[ ] h.T.o.wXU.#.Q ,X_.u.V./.Y.J s XX|.lXvX|. X|.{.>XpXMXrX(.% B 1Xu.&X<.<.^ 6.r.).C.r #.9.9.fXbXc.t ; ; OXOX` c ,.C.b.U.K.8.c.M./.W.' C.u.).(.5.1XR.V.-.:.p z =XR.>XvXrXlX}.S.b.=X>XR.|.|.j.Q.1X*XwX/.#.H.-.u.x.-.F.T./.M.GXGXmX6Xp > : G.@.N.&XN.9.M.v.x.7 j.3X=XS.U.5X5.F.B.1X}.S.5X2X|.rX,.v.M.,XhXrXT.kX*Xb.B @.T.}.2X'.GX`.}.*X`.J.p.rXS.'.2XZ F.~ `.VXDX`.9 8 = i.'.T.=X%.5XF.y.$.3 Q b.3X",
"[.I i Z i q.T.$.$.v.'.v.$.=.T.T.MXSX2XB 8 8 y.{.[.S.Z o.a.XXJ.Q.T.' ' Z 8.8X;XH z Y.+XW.j.&.. U.&._ x.:Xx.vX(.8.%.{.V.c.-.b.&X{ & }.).pXpX6XtX6X6X.XpXGXMX&X@ m PXHXtXz % = G.#.8.=.r u.] 3.3.u.6.-.3.' %X$X..x F.&X=X9Xj.h.9.c.F.W.*.=.N.#.V.c.&X|.H.c.b.i K %XF.).MXSXnXF.D.R.1X4X).c._.%X_.AXLXVX` > > 6 -.M.R.=Xb.-.v.U.R.u.R.v.} ..'.5.u. XH.C.%Xx.-.3 7.Q.=X*XjXwX] Z v.4X2XR.vX*XJ.jX*X|.{.rX3XrXy.rX$Xo.I ] rX3XhX:XVXVXVX3XM y : *X'.`.}.k :.Z $.`.2XS.O.`.Z Q T.R.}.w..XT.S.i.3 ~ i.].*XI i Z M o.T.$.$.v.R.v.@.@.T.T.b.*X].J.|.=Xi.|.[.S.R O.p.XXZXZXjXA 1 O ; 8X;XH z Y.+XE.h.&.. U.o.( x.;Xx.vX(.y.%./.V.c.#.b.&X{ & }.).gXpXwXdX6X6X.XpXGXMX_.@ m kXeX<X9.<.1.G.X.7.=.r a.' 3.bXlXC.h ; * %X$X..x F.&X=X8Xj.,.j.c.F.W.*.#.N.#.B.V.&X|.H.V.p.s G %XC.).MXSXnXF.D./.6XwX).c._.&X).Y.iXwX5.J N.).-.b./.|.b.-.b.BXZXwXM.0 $ = '.5.u. XH.C.|.n.=.3 7.Q.=X*XjXwX] Z a.4X2XR.kX=XR.kX*X.X].tX3XhXv.4X*Xo.U ] rX3XhX:XVXS.F.}.G.4Xq.*X[.`.[.n :.Z $.VXHX[.y 6 $ Q F.[.}.w.*XT.S.i.3 O.i.|.",
"T.;.Z Z U W i._ ,.[ v.S.v.] *X3XVXLX[.Z 8 6 $.u.=X=Xl l :.!.f.[ =.1X] b.Y.K.xX{ 4 ..K.K.OX .  S.M.+XK.oXM.mX7X:.+. XH.y.{ t.dX3.& XXgX*X=XrXvXeXdXY.pXZXmXV.@ E PXJXgXj - : 6.8...} s R.u.9.t.! c.c.-.c.v.E.#.z v.=XrX8X7X*.( =.c.m.[ [ -.` | #.>XY.u.3.].W e Q.R.G.dXHXnX].'.-.|.rXr.c.=X|.F.FXPXjXc 1 = t Z.%XF.>Xi...c.5XJ.:.J.=XK -.6Xu.` c.-.9. XW.Y.V @.Y.R.>XqXQ.;.T.=X'.w.A.3XR.R.rX%Xi..XnX|.hXw.S.>Xe.k l VX3X2X}.rXkXjX3XW 8 > hX[.q.p.B o.%.G.p.3XS.@.F.R O.'.].5Xi.rX[.i.A.i i.R.T.T.,.Z Z U W w./ e.[ v.S.v.o.*X3XT.jXU.T.[.|.#.i.=X*Xl k ,.J.nXkX:X|.6 ; 6 K.xX{ 7 ' K.m.OX'   S.K.OXL.oXK.AX7X-.+.}.H.u.} 9.dX3.& XXgX*X=XeXvXeXfXY.pXZXMXV.@ W VXdX6X7.| t.r.8...] s R.c.5.bXeXY.l = > v.E.#.j y.=XrX8X7X>.( =.c.m.....=.E X.#.>XR.y.3.'.U e (.R.G.fXHXMXQ.R.:.).4Xy.c.=X|.G. XpXT.H E #.<XZ.@XF.2Xi.@.c.HXMX1Xy.m # = eXu.` b.3.9.|.Q.Y.V X.Y.T.>XwXQ.:.T.=X'.q.b.3XR.R.rX%Xy..XlX}.rX:.S.>X,.k m VX3X3X}.rXe.w.}.2X}.f.rX[.q.A.m o.$.G.nXGX[.p 2 $ o.'.}.4Xi.hX[.i.G.i f.R.[.",
"T.F.] M q.p.S.w.E.;.U.v.[.;.z.3XGXSX].k : 8 $.~ F.R.k 2 2.t.%.} C.c.V A Q.OXwX7.: ' n.L.oX/ . vX0X8X@Xj.n.zXM.8.a.6X&XZ.Q G.dX{ w .X1X&XW.).=XY.C.-.wXvXxXk.& ..PXHXtXc % # r.&Xu.E x %.` s.6.! @.8. ...[ x.8.P $.R.).yX#XK.C R 8.W.( -.i.3.#.H M.y.:.=.|.r.r (.b...^.5X].x.J.u.&X=X|.|.=XM.R.HXPXMXR e 2 9 [ V.b.{./.] F.|.R.i..Xb.E V.{.` P Z.K 3.Y.L.=XR >.%X/.'.S.Q.$..X4X'.r.F.*XF.F.rXQ.$.}.5XrX4X$.b.8XT.k m jXhXhX2XjXVXjXA.I 2 = 4X[.q.A.k o.w.[.p.*XT.] J.W Z J.*X5X$.e.`.i.`.M q.T.S.'.F.] M q.p.`.q.E.;.F.v.[.;.z.3X*X|.F.i.i.3X@.~ F.T.k 2 $.t.lXgXuX-.; O 6 OXwX7.: [ n.K.oX( . vXqX9X@Xh.n.yXM.8.c.6X&XF.E G.dX{ w .X1X&XW.).=XY.V.-.rXvXzXk.& ..ZX6X6XZ.^ +.r.&Xu.E x #.} s.bXtXc.j # - ..x.8.P $.T.Q.yX#Xl.C E 8.E.( #.y.8.#.G n.u.:.=.|.i.a W.b.../.3X].i.J.u..X>X|.|.=XM.R.rXMX>X} 9.!.6X..V.b.{./.[ F.FXMX4XT.p # > |.E P Z.K 3.W.L.=XR -.%X/.R.S.Q.$.|.4X[.r.F.*XT.D.rX[.@.}.rX4XrX$.b.qXT.k l jXhXhX2XjXv.q.r.`.`.+.rX[.w.p.l ] i.}.nXVX}.y 2 $ Z F.*X3X$.e.`.w.`.n q.R.I.",
"v.T.&.i i.O.[.e.R.T.*Xw.S.@.;.*XHXSX=Xy = 8 W Z V R ;.8 F t.r.{ #.3...Z %XmXAXc.$ C.n.Q.8X*.. &X0X+X-XK ] 7X-XF.8.C.|. X+.G.^.S w G._.v.c.).eX_.} ..iXzXgX7.e r.IXPXeXe O $ G.3XM.5.K D.R t.u.! H { [ ..b.=.....M.R.&XcXuXk.( =.x.L.-.C.U.b.^.8.M.b.;.8.F.#.r n.F.b.D.F.M.J.R.C.=XR.>XeXF.u.F.FXLXSX:.t 9 1 G { G.R.|.E c.&X5XF.F.r.} #.$.V #.Y...s.*XM.=XH ' ;XY.lXwX*Xv.bXlXrX5XM.tX>XD.rX`.$.v.[.rXhXi.S.:XU._ n [.|.tX|.rXVXvXv.U 8 $ 2X2XA.`.9 R A.[.`.[.[.o.`.U Z =Xi.].$.T.*X,.i.Z A.[.e.M.[.o.k r.O.[.e.R.T.*Xw.S.@.;.*X3X].].o.$.*XW Z V R ;.8 U t.bXgX,X` 1 O 8 xXAXn.; C.n.oX9X*.. &X9X+X-XK [ ;X-XF.6.C. X X+.G./.S u f.{.c.c._.wX|.} ..tXzXgX7.e r.SXvX,X| d %.D.5XM.:.K D.Y y.bXtX;.0 = = v.=.....M.R.%XxXuXk./ -.y.L.>.C.U.V.Y.8.b.M.;.9.F.#.r c.F.b.D.F.A.F.R.B.=XQ.=XeXF.y.F.;XpXiXb.9.,XB.G { G.R.|.E c.FXHXiXe.9 = = #.V #.Y.| s.:XS.:XU ] =XR.lX5X*Xv.vXvX4XwXM.tX3XD.4X`.$.b.[.rXhXi.S.:XT._ m [.|.tX|.hXT.e.$.[..XO.2X*XA.`.9 R A.[.VXVX:Xy 2 $ I =Xi.].$.J.=Xe.i.Z A.'.x.",
"v.E.e.k D.y.S._ '.*XI.v..X;.o.3XPXVXR.l > 2 v.k c m =X[ M %.5.@...*.-.,.n.j.xX@X; Y.0X+Xm.*.. 9.>XK.mXW...T.iXF.V.9.8.B.r.u._.S w f.{.,XC.-.vX).u.r.vXpX;X3.< @.PXPXgXr # 1 =XrX=XR.| F.N #.6.| E { C R ;.h.[ M.y.R.>XyXzXl.( ,.,.L.>.8.Y.).k.c.b.y.G 8.R.H e x.R.}.1X5X6X3Xb.,.,XtXtXtXR.T.r.SXPXMX@.9 2 : H P 2./.F.#.B.T.T.b.c.R.] 3.......=XB.Z.hXM.] s ..=XC.kXvX>Xn.tXlX&XrXS.U.].`.1X=Xw.$.Q.3X2Xi.@.3Xx.I y S.|.T.T.[.VXjXS.W 8 : A.S.p.'.p y..X[.3X*Xz.W A.m W ].A.|.w.S.=X:.G.n i.4X;.S.E.;.k D.y.I._ T.*XS.A..X=.o.3XnXR.b.b.v.S.v.s x m *X[ m $.lXgX;X' 8 : > z.xX@X- Y.9X-XK.*.. 9.>XL.mXW...T.iXF.C.9.5.B.5.u. XS w f.{.,XZ.;.vX).c.y.vXdX;X3.< @.ZXvX<X<.F D.2XwX=X^.{ F.V O.bXdX8.7 O # ;.h.[ M.i.R.8XrXzXl.( 8.,.L.>.8.R.Q.c.c.v.y.G 8.Y.H e c.R.}.5X4XwX5XS.8.,XtXiXtXR.T.r.(.jX=Xy.7.^.u.H P 5./.F.#.B.ZXCXrX@.l $ ; ..@...&XV.D.iXM.] s  .;XC.kXvX8Xn.eXlX&XrXS.U.Q.R.4X*Xe.@.Q.qX2Xi.@.3Xx.I y S.|.T.J.[.S.:.i..X{.q.D.S.i.'.p e..X[.DXDX`.3 > O W ].S.|.w.S.*X,.G.n i.rXi.",
"rX$X&.m i.F.Q._ I.:X[.i.T.;.] 4XPXDXR.R 8 6 [.s W n R.I.R r.B.F.M.m.m.m.;XE.#X9.j ;XOXE.j.*.@ #.bXj.+XW.8.c.*X*XY./.! t.| F. XJ w 1.D.].C.F.pX|.&XY.bXfX^.7.- @.KXJX&Xr # > =XpX9Xc.8.c.] } X.*.| `  .:.9.j.;.;.e.R.5XU.9X0X*.m...Z.&.>.W.m.3.Y :.@.` #.F.k < k.H.H.6X=X>XnXR.y.=XgXvXMX5X.X,.bXSXmXc.1 1 ; V c.R.gX-.{ b.&Xy.C.F.B.O.F.u.B.c.&X-.5.3X,.R n ' eXM.].[.yXR.).>X>XiX*X|.=XT.].|.w.A v.2XT.i.o.T.i.o.y $XrX[.2X2XVXVX|.o.2 $ `.A.T.rXu i.=XR.rXjX$Xo.A.I o.T.}.}.T.M.].R r.s F.rXT.rX%X=.m i.T.]._ T.:X[.v.T.;.o.3XAX|.b.*X}.[.R.k W m Q.U.Y r.nXBXtX-.g ; 0 P.;X8.j -X+XE.j. .@ #.bXj.+XW.8.c.*X*XY./.` t.| F. XJ w 1.D.|.C.U.pX|._.Y.nXpX^.7.- @.gX0X^.4.J b.=XgX0Xc.7.b.' | gXfX9.8 = ; 9.j.;.-.8.H.wXU.9X7X*.m...Z.*.,.U.m.3.Y :.@.] @.F.k < k.H.H.6X=X>XnXR.y.,XgXbXnX5X=X,.c.%X=XY.| s.c.C N.H.gX-.` b.FXnXeXy.p = 2 y.F.u.&X-.5.3X,.R n  .wXC.Q.[.iXY.).>X=XiX*X|.=X'.].|.w.Z v.2XT.i.o.R.i.o.y *XrX[.2X*XA.F.T.1XT.T G.J.J.4Xu i.2X`.HXLX3Xy > O o.J.].].J.b.}.Z r.s D.wX[.",
"hX].z.I r.T.[.Z v.$Xv.] T.o.o.*XLXVXv.l > 6 [.l i.v.>X5XW r.D.Y.U.9.8.j.W.8XL.v j m.m.L.+X*., N v.....B 8.@.b.R.V.C.-.B.Z 6.6XX.i ~ b.>XK.M.jX>X(.F.iX+X&X(.o $.PXFX(.j # ; >XzX^. .8.-.O.| V.^.Z.:.` T.M.[ [ ( v.F.rX7XW.W.7.L.C ` ( =.j.` { ` ..] Z -.S.i @ V.R.u.|.Q.=XnXcXF._.CXrXiXwX=Xb.bXZXnXc.4 5 : Y X.F./.B.W b.5X XC.rX&X8.F.b.8.3.v.G.F.%X,.H.Q K *X$XQ.Q.M.-.R.J.F.hXQ.*XjX}.T.|.b.-.$.T.T.J.O.y.i.B k '.*XrX2X[.lXmX3X_ = $ }.2X2X[.M w.'.T..XhXrXS.p.T W J.{.iXR.v.J.M J.F e.*X*XhX$Xz.I r.F.[.Z v.$Xv._ T.@.o.*XcX].o.i.v.|.*Xk i.v.=X1XW r.BXBXgX=.8 ; 5 9XL.b j m.n.P.+X*., N x...[ C 8.@.b.R.C.V.#.C.Z 6.6XX.u ~ b.>XM.M.pX5X).F.uX+X&X(.X %.bX<XZ.X.H %.>XxX^.[ 9.3...| MXMX).j * 5 M.[ .._ v.T.rX7XW.(.>.L.C _ ( *.j.` { { @.] G ;.S.i # V.R.y.|.Q.=XmXkXS.(.CXrXiX4X=Xc.u.Q.=XY.{ ^.u.Y X.H./.C.W B.HXFXpX=Xl ; > b.5.3.b.G.F.%X8.G.Q H *X].Q.Q.M.;.R.R.F.hXQ.*XjX].F.|.b.;.@.T.T.J.O.:.i.B p [.*XhX2X*Xe.b.=X2Xw.$.{.3X2X[.M w.[.T.GXLXjXm > $ W J.'.jX'.v.F.Z J.Z y.*X3X",
"=XS.n.[ J.2X[.o.T.3X4Xz.|.e.$.T.SXSXT.h > 6 ].m r.[.v.*XD.r.~ 5.-.3.C.%Xc.7.*.{ , U.m.n.7X).# 7 Y.V.8...` B =.M.2.X.(.c.H %.fXH.s p. X;X:X&XQ.jX=X&XpXgX<XP.@ R PXPXH.j # @ R.tXV...c.Y.#.E 6X3.8.R.E U.n.m.8.L y.|.:XxXK.;Xj.>.) ( ( L ` v { u.c.;.} ).F.y % N.c.7.&X).=XBXHXU.c.bXrX>XF.e.H.mXvXjXo.; ; - ` -.b.c.5.] b.R.dXY.=XR.` 8.b.r.-.8.&XB.M.C..XF.j 1X>XrXQ.M.c.c.w.F.tX[.|.jX].F.'.-.r.:.|.[.}.J +.$.Q a wXwX5X].i.nXVX5XI 2 $ %.=XF.A.i W [.'.J.rX'.o.q.$.F p.$.3X[.=.w.n b.M w.2XrX5XM.n.[ J.2X$X] T.3XrXe.}.e.@.T.%X*Xv.;.M.Q.].m r.[.b.*XD.r.dXlX>X' g 8 > h.*.{ , F.K.n.7XW.@ 7 Y.C.8...` V ;.M.5.X.^.N.H %.fXZ.s f.|.;X:X&XQ.kX=X XpXxX<XL.@ R NXfXN.3.E N R.wXV...c.Y.#.Y HXxXC.A O 5 v.n.8.A y.|.-XmXL.#Xj.>.` ( ( L ` B ` c.c.-...R.F.y & c.c.7. X).=XBXHXJ.c.bXrX>XT.5.H.v.8.R.y.V #.=.{ -.b.c.8.] b.ZXJXgX(.h = ; b.y.3.5.&XF.M.V..XF.j 1X>XrXQ.M.b.c.y.G.tX[.|.pX].F.].:.i.:.*X].}.Y +.$.] a wXwX3X[.a.i.T.=X'.S.O.%.3XF.A.i W [.`.SXKX*Xy = = U p.q.:X[.=.e.n A.M w.2XrX",
"S.T.I./ F.qXOXA `.$X2X}.[.S.e.8XSXVX[.m > : S.N @.e.,.Q.B.2.Y H ` c.j.n.L.>...` % R.>XM.7X;X; < >XL.C.=.` ....b.s.t.xXgX` a.<X6.S B._.W.W.OXF.wX&XG.SXeX(.Z.- G JXxXW.j O # B.wXk.*.b.*.P L V.( ,.Q...[.>X+XK.Q.Y.wXwX>XyXuXP.V.L.....j ..E 9.C.M.M.b.c.b.n + #.c.Y.G.6X&XvXjXF.V.1XkXpXi...Y.VXMXtXc.6 1 ; R c.%XF.b. XF.@.V.u.|.|.E ).c.|.u.b.3.;.=. XQ.] t (.U.>X>XQ.@.] >X.X5X|.Q.wX*X&Xv.Z b.|.F.y.u.n ~ @.I p qX3XM.'.q.VXnX*XB 0 $ A.*X,.J.k $.}.G.}.|.v.U q.$.Q J.q.T.wX;.] p @.Z i.5X>XT.T.I.I S.qX].A T.[.2X|.[.S.,.3X[.R.F.S.v.i.F.V @.e.,.Q.D.2.pXrX&X-.0 > 5 &.*.` % Q.;XM.<X;X; 1 >XL.b.-.`  .[ b.u.6.lXxX` a.,X6.F B. XW.W.$XF.5X&XY.AXwX(.Z.; V 6X9.N.3.b ] C.wXk...M.*.E L MXeXC.A = 6 7X%XL.W.R.wXwX;XyXuXP.V.Z.' *.j ..P 5.C.M.M.C.c.b.n + ..c.Y.Z.eX&XvXcXF.C.1XpXjXi...H.U.S.v.Y...H.3.R N.|.F.b. XF.kXMXwXF.l $ 6 v.|.u.c.-.#.-.|.Q.] t (.F.8X>XQ.@.] 2X.X5X|.Q.wX=X*Xv.U a.{.F.i.t.n } @.Z p wX3Xv.'.q.A.A.'.T.2XQ A.*X:.J.k %.[.F.CXZX`.3 : = W `.q.T.hX;.] p @.Z i.5XrX",
"M.[.I.I b.*XT._ T.T.3X=X[.I.] I.DXVXI.C 6 ; ] s _ ,.R I 8.f.r.@.#.&X%X).L.L.' G % F.%Xn.8.P.* 6 yXoX' F.8.m.L.y.(.! fXmX#.#.Y.X.| B.8.H.Y.U.=X=Xc.| MXMX=X3.. $.JXJXdXg = ; ).yX7.C y.] ` (...-.] ).' U.:X>XW.pXyX>XmX7X9XP.j.k.,.' ( j ' =.@._ wX3X*X@.>.O.& Z.x.H.9.Y.H.Y.1XF./.tX>X>X3XR.H.BXDXpXy.7 $ ; ] ..&X&X;.H.&Xi.#.D.c.C...=X*X=X^.H.5.5.Z.B.Z.y.9 9.c.Q.pXiXu...*X'.3XwX|.jX=X}.T.A R.&XF.T.f.s o.A.o.3 %X'.}.CX.XnXkX2XI 0 O S.*Xy.`.9 w.F.i..XrX`.O.p.q.%.p.$.S.[.I i.y i M i.2X[.S.[.I.I b.*XE.W T.T.3X2X[.I.o.I.*XU.v.E.J.e.] i ] ,.I I w.f.bXjX;XU.l 6 > L. .G % F.%XM.h.E.# 6 eXoX' F.8.m.U.9._.! gXbX-.X.^.X.+.b.8.Z.Y.L.*X;Xc.} bXMX=X3.. @.dXdX<X4.~ u.|.rXj.C 9.] ` (.gXgX,./ = > -X>XW.pXwX>XMX7X;XE.j.k.>.[ ( j ' *.$._ wX>X&X@.-.O.; Z.x.Z.u.H.H.Y.>XF./.tX>X>X3XR.H.U.Q.U.U.-.` u.] ..;X|.;.G.%XnXkXdX:.h * 9 %X=X/.Y.5.5.Z.b.C.9.t y.c.Q.iXrXu...*X/.3XrX|.jX=X}.T.Z R.&XS.F.b.s o.A.O.3 |.[.}.CX.XA.e.'.[.3XI A.*Xy.'.9 w.G.i.DXHX*Xy > : w.e.q.I.[.I e.p i M a.=X[.",
"e.[.S.I i.:Xe.R *X3X=X:XQ.:X;.$.AXjXT.I 8 6 ;.O.r.4XS.&.[.{.#.5X8.&.L.xXn.P.W.N % c.Q. .,.@X# k *X@X( E U.W.).3.-.x Y.eX9.u.9.6.H H ] -.uX%XW.,.C.X.5XpX;X{ o :.JXPXfXq # 6 uXxXP.v S.:.V.#.c.C.{ C.` U.7X;XQ.:X9X>XzX7X&Xm. .C.L.,.7.g C P H U 8XQ.R.....#., >.U.F.-.Y.u.c.1XR..XkX|.|.5X|.:.bXAXwX,.8 $ ; G b C.T.} 8.Q.R.u.!.M.<X..-.).%XZ.1X3.B.u.b.c.v.2 c.C.Q.3XrXb.=.%X=X|.U.z.vX>XR.rXA.;.] i.b.#.n %.S.o.y x.'.rXnX5XhXiX[.B 0 O w.%Xr.G.B $.'.v.'.3X$Xq.q.A.b.I Q S.v.I |.l n %.q..X5Xv.[.I.I i.:X,.W =X3X>X*XOX*X;.@.U.;.v.].*XQ.;.O.:.4XS.&.Q.{.kXHX6X( h h > E.P.B @ b.). .,.@X@ j :X@X( ` U.E.).3.#.x F.eX9.u.u.6.G U ] #.tX;XQ.8.C.X.6XpX;X{ X -.6XbX6X{ { Y.uXxXP.b S.;.C.X.bXMXy.m = 5 7X;XQ.:X9X>XpX7X;Xm. .C.L.8.7.g C _ H H wXQ.R.o...<.< >.Y.F.-.Y.u.c.1XR..XkX). X5X|.:.8.Q.v.M.:.` :.G b C.R.[ 9./.VXnXfX3.B = - Q.&XZ.1X3.B.u.b.x.v.4 c.C.Q.qXtXb.=.%X*X|.U.z.vX>XR.rXv.-.] i.M.#.n %.S.o.y x.'.rXlX4Xo.o.J.S.2Xm w.$Xr.D.m $.|.A.VXGX:Xy : > A.U W v.z.I |.k n $.q..XrX",
"v.:X*Xo.$.*Xz.U |.hXrX|.3X[.I S.mXiX*XC 5 8 z.R :.rXSX$X:Xw.~ =XW.*.v { wX1XW.' < ] ).>.(.@X; p ;Xm.( M.wX3.*.m.P.b #./.V.b.F.#.J #.@.Z.Q.%XR.Z.V.` >XvX^.9.+ r.JXPX&Xj # ; W.1XC.Z '.u.L.Y.U.L.E C.7.Y.8XL.T.+XY.M.MXxX;XoX*.8.;XM.P.v B y.` F wX].o.] -.6.r 1XF.Q.c.R./.c.|.).|.eXB...=XpXB.nXMXpXC.8 = = H E ;X).@.8.c.|.F.R.m.U...c.F.H.|.eX..H c.B.-.O.7 u.r.5XrX[.F.&.] r.R.M.v.tX*XrXVXS.W %.b.F.[ a i.=.r.u i.R.Q.jXR.kXjX|.C f O J.hXw.G.@.o.|.i.[.2Xv._ w.`.`.W R A.z.I *X9 U w.%.[.:XS.*X$Xo.$.*Xz.I [.hXrX[.3X].I S.v.o.U.I.E.>Xv.H :.rXSX:X:Xw.pXDXxX/ = * 0 1XW.[ < ` Q.,.(.@X; p ;Xm.( M.wX8.*.M.Y.b X./.B.b.F.-.J #...Z.Q.|.R.Z.V.` 2XvXR.9.@ r.pXbX(.3.E 8.W.1XM.V '.v.P.W.BXmX,.c ; 6 >XS.W.OXE.b.mXcX7XoX=.8.;XM.W.b m e.{ N wXOX@.] -.r.r ,XF.Q.c.R.).c.|.|..XrXb...>XtXB.C.F.U.Q.c.#.;.H E >XQ.@.r.c.FXMXgX-.h = ; F.R.|.wX..H c.C.8.] 7 u.r.5XrX[.M.=.] r.R.M.v.iX*XtXVXS.W $.b.F...a i.$.:.p v.R.Q.gXR.$.;.J.T.jXU T.jXe.A.o.o.}.i.SXDXT.y = 6 `.W _ v.v.I *X9 Z q.$.].3X",
"S.$X$Xz.o.S.`.o.F.T.v.[.[.n._ e.VXpXT.C 5 8 S.m A.rXPXT.$XT.2.u.8.*.` N (.7X@X*.e R @Xh.W.(.- l Y.n.&.` (.8.W.&X#Xa t.R./.R._.u.H u.8.8.T.>Xc.:.Y.%.*XSXeX^.@ c.PXLX1Xj 6 5 )./.W.L R.&X-.C.;XV.t -.-.%XU.;.W.+X+Xb.nXcX7X:X;.C.).x.W.g -.1X9.` U.:X$XU.|.R.x 9.b.Q.|..XF.c.e.=XrXR.=XB.b.v.H.MXbXpXL.h - 1 Y x C.|.#.-.y.c.M.G.U.wX,.F.Y.F.C.%Xy.G y.-.@.@.9 H } |.3X%Xy.R W w.5X].R.mX*XrXrX$.Q @.y.T.@.e v.w.Z 9 R :.y.|.2XZXtXR.I 0 $ [.3Xe.i.U e.T.p.{.hXi.B o.q.q.I I `.2XW |.k @.i.M ,.b.T.$X$Xz.o.S.`.o.S.T.v.].].v.' e.U.&.S.T.S.:XM.m F.rXLXI.$XR.lXnX1X( 5 O 6 7X+X*.w R @Xh.Y.W., l Y.n.=.` R.7.W.&X&Xz 9.Y._.Y.|.9.H u.8.8.T.1Xc.;.H.%.=XSXeXZ.@ b.bXgX_.5.R.Y.+X^.W.P R.&X-.Z.FXmXR h = 6 W.-.W.+X%XC.MXxX8X;X>.C.OXj.W.g ;.5X9.{ U.>X].F.|./.n 9.b.R.|.&XF.c.e.=XeXR.=XB.b.b.H.b.8.U.+XC.y.u.Y x C.|.#.-.9.mXMXgXy.A ; 5 U.F.Z.|.9.F r.-.$.@.7 Z } |.3X%Xy.R W w.5X|.R.mX*XqXrX@.Q @.v.T.O.9 v.:.Z 3 R ,.y.|.2XR.o.b.'.=XQ `.3Xw.A.U i.T.i.SXKX`.> = : q.I I '.*XW |.k @.a.B e.S.",
"v.3X[.I.' T.I._ ;.S.v.$.U.v.;.v.SXpXqXA 6 f S.m ;.rXLX8X$XM.O.v.F.n.k.( ' c.W.(.x m >.( n.0X5 l C.=.P c ..=.c.n.X.r u.*X>X&X).V.G ] 7.W.U.eXY.#.a.Z 5XVX6XZ.; 8.PXLX^.g 2 > ,X|.C.X.Q.C.3.c.U.m.u v.u.R.W...U.*XW.b.pXpX8X-Xj.U.;Xn.W.r r.;XZ...@.Q.Q.F.R.R.p ` ).Q.U.&X-.Y.=XwXR.F..XR.H.#.C.pXvXgX8.t ; ; H j ).U.O.u.Z.U.R.R.M.iXR.C.C.F.#.$.8.Y r.8.b.v.h L ..U.Q.;.m ;.:.b.5XA.U.cX:Xe.|.i.] y.F.F.r.9 |.A.V y R ] ..$.|.KXjX4XW 6 # r.*Xe.J.A w.w.q.A.*XT.o.O.o.T $.;.rX:X$.rXZ R G.O.[.|.S.3X[.I.[ T.I._ ;.S.b.@.T.v.@.v.Q.[ *X].:XiXS.m ;.rXLXqX$XC.kXnXyX;.f * * c.W.).n c >.( n.yX1 l M.-.( l ..@.k.n.X.r y.|.1X&X).C.V ' 7.W.U.eXR.-.a.Z wXMX0XZ.& 6.bXpXC.3.H.C.>X|.C.X./.C.-.u.BXmXR l > 1 W...F.;XU.v.iXuX>X%Xx.U.&Xc.W.g y.;XC...@.Q.Q.F.Y.R.t ` |.Q.U.=X-.Y.=XwXH.F..XR.F.#.C.` ;.Y.L.c.c.5.H j Q.U.} u.L.ZXSXgX,.A 6 > S.F.=.#.r.E r.,.v.v.k L ..U.Q.;.m ;.:.b.5XA.U.jX:Xi.}.i.] y.U.F.y.9 }.S.M y W ] o.$.}.rX%.2X=X}.~ r.=Xr.T.Z ,.w.q.VXDX[.y $ $ W $.$.rX2Xq.rXZ R J.O.|.*X",
"v.S.3XT._ T.[.W i.A.v.e.b.I.] w.VXpXR._ 6 6 =.A @.*XDXcXzXv.2.2X>X*XW.8.H @X+XW.p c n.C.W.).o m Q.M.;...@...8.o.#.r y.3XrX|._.k.K C.=.,.=X|./.|.a.+.5XwX@X9.o | JXPX(.: = 6 >X>X@X` ).! =. XZ.7.N F.@.Y.0Xc.c.uX;Xy.$XiXeX8XM.Y.tX+Xc.g $.;XN.( 8.C.|.C.N.J.M -.%X$XR.T.8.,XgXQ.c.G.J.5.,Xy.8.bXbXmXM.l 1 > #.! xX3X%.V =.Y.M.F.C.tXR.:.v.R.@.....t.8.S.v.].n B 8.F.|.v.] 3.'.A.%Xb.T.3X3Xe.=XF.v.e.y.b.'.k |.R.y.$.R y.J.e.[.GXjX>X@.0 O r.S.W i.] ] w.i.{.[.[.q.U A.w.S.e.R..X2X|.m U a.r.=XrXS.I.:XT.' T.[.W i.b.v.i.A.I._ e.U.;.b.*XQ.].;.Z O.:XDXcXpXv.kXGXMXE.h - # @X+X).r m m.L.P.+Xo m Q.c.-...@...8...=.r r.5XwX|._.c.P V.-.8.&X|./.|.a.#.1XwX|.l.X X.pXmXZ.x ] Y.5X,X@X` ).{ #.&XNXxX$.B = 6 0Xc.b.eX<Xx.|.iXwX9Xm.Y.uX@Xl.g @.>XN.P ,.C.%XC.c.J.N 3.%X$XR.U.5.,XdXQ.c.H.J.2.1Xy.8.u.c.(.Y.|.Z.N.-.P gX5X%.V =.MXMXiX8.C 1 ; b.R...@...y.8.M.u.|.k B 3.U.|.v.` 5.'.A.|.b.T.qX:Xw.2XF.b.e.y.y.'.k ].R.v.%.R 6.T.r.'.=X$.'.hX2XM 5.F.U i.W o.q.p.SXVX*Xy $ > w.S.e.R.*X.X[.m Y a.r.*XrX",
"e.e.I.[.o.T.z.o.w.I.S.S.z.S.;.o.MXqX;.I ; 5 e.Z ] ,.U.cXmXR.Q .X*X3XW.M.G Z.' 8., @.eXv.,.k.o j wXx.L K ..c.:.,.b.s %.3XwX>XY.c.c.b.| F.=XF.v.c.B.%.,X=X_.k.+ 5.JXPX@X, > 6 wXU.V.' _.` { u.=XV.u '.;.|.@X8._.wX+Xb.qXyX>XAXuXY.@Xj.@Xg M >XN.H D.y.M.-.5.R.H 9.+X-X=X&XC.,X1Xb.Z.B.| +.J.T.$.vXBXgX} 0 - > <.) mX].y.7.8.M.>XR.c.C.] } -.T.#.A ] u.M.R.R.S.Z _ V.y.b.|.R.O.>XR.3XF.M.U.iX'.i.}.T.W Q |.rXM T.|.R.] M #.i.T.`.SXVX3X_ 8 # O.T.o.b.W $.i.p.[.[.hXQ W 2X[.'.,.o.jXjXT.m U r.U ] [.i.e.I.[.o.T.v.' ;.T.S.T.v.v.;.o.b.m I ].,.U.y.M o.,.U.cXmXQ.kXSXnX].l > O C.[ 7.2 O.tXb.,.k.o j wXj.L H @.c.:.,.B.s %.3XwX>XW.c.N.c...F.=XF.b.c.D.<.,X=X_.k.+ %.eXMXZ.b i.R.wXF.C. .).` { 9.DXmX` A ; 6 +X8.|.wX).b.3XiX>XAXuXY.+Xj.W.g M >Xc.G D.y.A.:.8.R.H 9.+X%X=X;XC.,X1Xb.H.V...+.J.F.=.:.Z.Y.8.8.8.c.-.{ xX+Xc.8.8.mXGXkX-.h $ = =.T.#.Z ] u.c.Q.R.A.B ' C.y.b.]./.O.,XR.3XF.S.U.yX].i.{.J.W W }.rXn T.*XT.] N $.i.R.T.}.T.*X*X:XR $.F.o.v.W %.i.f.SXSXhXy $ 8 [.'.;.o.kXhXT.m U q.T ] $X",
"e.w.v.:X;.I.I.I q.[.'.e.e.z.z.o.MX3Xo.h $ O ;.M $.] ;.cX%XO.%.2XiXwXOX,.' -.*.P 3 z 9.n.j.V.& B -XL.L &.` y.;Xv.#.r 5..XQ.Q.U.m.:.c.V.R.F.).c.8.5.| B.&XdXZ.@ } FXPXl.7 1 6 eXb.V.9.1Xc.3.8.iXl.9 >XL.;X&XV.1X;X(.c.3X3X_.AXiX).9X*.(.g Z iXW.} y.:.S.} X.r.r z :.M.&X=X$.V.Y.C.V.#.#.s.D.=XM.nXNXpX..h > ; u.X.AXpXR.G.R.).R.b.y.b.@.#.F.R.R N V.c.c.=X|.T.Z L H.R.MXS.%.~ D.v.[.w.b.%XrX*Xe.R Q @.T.F.3X9 *XhX[.I R O.@.T.`.VXmX*XI y = W }.i.S.r.b.A.v.S.hX*XI W q.[.S.=.M.T.3Xw.n W i.U ;.T.v.w.A.:X;.S.F.R ;.T.`.e.e.S.v.o.J.k m w./ B :.m $.] ;.jX$X..kXHXSX*Xl ; = >.&.P < x x.k.,.V.& B :XL.( X.` u.=Xv.%.r 5.&XQ.).G.m.3.u.b.R.F.R.b.8.3.| B.&XfXZ.@ ] &XNX<.K M._.eXM.V.8.1Xc.3.5.KXbXL _ 5 8 &Xb.1X;X(.b.qX8X+XAXpX).9X&.Y.g Z fXW.| y.-.M.] ..5.u z ,.M.%X=X$.V.Y.C.N.#.#.d.D.=XS.b.F.Z.8.Z.c.y.9.X.BXzXT.H.R.SXSXeX[ t = = U.J.E V C.c.c.>X XT.Z L H./.MXS.;.Q D.v.].e.v.%XrX*Xi.R ] @.T.F.4Xy =XiX].R R O.#.F.'.`.v.R.[.rX$.W |.i.F.r.v.S.v.VXLX3X8 $ = [.A.;.S.T.3Xe.n W r.W ,.[.",
"v.e.S.:XM.i.v.$.o.e.:Xz.A.`.q./ wXtXi.5 O O w.#.b.%X,.o.U.i.Y =XrXQ.T.&.x.M.L H ^ e m.U.L.c.< 9 j.+X .8.{ u.3XM.X.@ 5.=XY.].=XQ.9.F.&X|.>XrX|.Q.C.! ..|.vXV.% { fXPX<X< 6 5  X;XC.c.^.8.N.-.).*.w rXOXQ.Y.%XAX;XC.8.vXmXW.>X%XW.9Xl.W.g m tX#X} $.M.S.Q 8.#.F G -.C.v.b.-.3.R.R.F.H.<.d..X>Xb.bXvXwX#.t > = ] G 0X1Xb.c.%XqX>XF.;.y.u.#.$.] E 8.F.5.:.V.Y.F.Q p A.F.IX3Xw.Q D.v.}.D.y.1XQ.R.i.M r.i.y.@.i.p iX*XrX,.Z m E T.T.VXjX[._ 7 $ Q e.e.A.Q F.T.w.T.hXqXr.U w.'.`.A.].T.e.R n $.o.w.rXqXI.e.S.:Xv.e.v.;.o.i.*Xv.e.I.;.W m R o.Z m p e.$.b.|.,.o.F.y.pXGXAXI.l * = M.L H ^ e m.U.K.C.2 7 j.+X' 8.` c.3XM.X.@ 5.=XY.Q.=XQ.y.H.&X|.5XwX).Q.Z.` ..%XnXZ.% Q J CX(.D  XY.&X&XC.V.^.3.N.-.AXxXA o.6 6 L.%XBX#XC.8.vXvXW.;X*XY.9Xl.).g n tX+X| :.M.S.Q 8.$.F G -.M.b.b.-.3.R.R.F.H.<.d..X>XC.r.:.y.c.u.b...} G 0X1Xv.c.%XHXDXpX_ p : = @.] Q 8.H.3.:.B.R.F.Q p b.J.IX3Xw.Q A.v.|.G.r.5X[.R.e.M r.v.y.@.w.a tX*XrX;.Z M _ `.S.S.:.S.*X}.U Q v.e.b.W U.F.r.VXHXjXi $ = [.`.b.].I.e.R n #.O.q.rXrX",
"z.2X$X:Xn.@.*Xv.o.z.jXjXI.q.e.q.rXvXv.0 = O T.:.,.v.] w.=XR.F |.rX:XW.=.I.C.c.<.r x %X;XK.).t t |.1X .Z Y _ ,.T.9.@ 5.6X>XQ.&X1XC.8.F.rXMXvXR.(.(.-.B.|.;X_.@ =.BXPX@X, h > 8.Q.C.C.-.K K c.U.) a >XwXY.c.).mX^.3.F.mXAX(.M.).U.7X .,Xg k %XV.O.M.x.S.@.[ @.a G -.).Y.F.R.s.F.v.:.;.} #.).tX|.GXbXeXN 1 6 - b.l (.+XM.v.M.qXmX=X:.r.-.@.=.] R ` B.8.-.C./.S.W 0 b.F.SXnXi.Q R.].|.A.O.R.M.R.:X] b.F.F.=.@.r S.:XT.l o.] Q A.|.HXiX,.I y $ A.2X_ J.:.|.T.Q A.jX3XF.o.i.i.F.e.v.[.o.M c ] q.q.:XjXS.2X$X:Xv.;.*Xv.] v.hXjX[.;.e.;.V i.@.o.o.I T.;.,.v.] e.2XR.rXCXSXoXh = 5 C.c.<.r x %X;XL.(.e p %X;X..Z P _ ,.U.5.@ 5.6X1XQ.*X>XC.8.F.rXmXvXQ.).Q.<.V.).+X(.@ O.^.FXP.b gXn.8.Q.b.C.=.P P c.BXuX` _ f 6 c._.MXW.3.F.mXAX_.M.W.W.7X&.<Xg k *XV.#.v.x.F.@...$.u G #.).Y.F.R.s.F.v.:.;.} #.).tX|.,Xy.V.Y } /.8.b.c ^.%XC.v.M.HXPXMX] 7 = = =.] R E B.8.-.C.'.S.R t b.F.SXnXi.~ R.].}.b.O.R.S.Q.*X] v.G.S.-.@.t M.:XE.m o.] _ S.}.3X$.R [.hXW A.=X_ J.:.|.R.T VXLXhXB = > e.G.e.S.[.o.V n ] ;.w.2XcX",
"S.cXjX$XW o.rXT.o.[.*X3X$Xz.z.o.gXpXr.B $ O _ ;.m ;.z.w.;.G.n |.>XQ.M.T.b.v.U.;., n U.iX;XQ.c B >XQ.L Z } @.=.v.9.& r.>X>X|.:XkX>X).B.kXmX>X5X|.C.9.R.%XB.7.+ v.IXSX^.* t 5 rX&X|.|.1XdXX.F.Q.K N rXkXwXc.8.vXK.9.y.mXSX9XwX@X+XzXoXmXg 9 G.C...&Xb.Q.R.c.R.U H :.F.b.:.R.u.i.J.J.T.:.} /.T.` FXbXbX:.6 5 2 |.c P.&X=XM.U.%X%X).b.;.E #.y.8.] H -.G.8.).b.U.V t y.|.F.VXb.W C.4X[.;.M @.@.Q.>X[.G.y.M.:.q.$ :.3Xn.o.:.i.o.S.[.SXtX@.m y $ q.rXe.v.b.|.|.R A.hX2X[.r.R.b.w.w.w.T.v.;.R @.i.i.I.3XT.cXcX$X_ o.rXT.o.[.*X3X$Xz.S.o.} O.Q T.Q Z _ w.M ,.i.;.:.F.4XSXmXI.f 5 ; v.U.;.< n U.iX;XQ.c B 9XW.L Z } @.$.v.8.& 5.1X>X].3XjX8X_.b.kXMX>X>X|.C.9.R.|.C.7.@ i.CX,Xl.r pX/.eX&X). X1XdXX.Z.SXwX@.&.g 0 k.8.vXK.9.y.vXDX7XwX%X@XzXOXxXg t L.C...%XM.Q.R.b.R.H K 3.F.b.:.R.b.i.H.J.F.,.} ).T.E =Xr. XB.#.(.U.|.c H.&X=XM.U.DXSXvX,.6 $ = u.8.] H :.G.8.|.C.F.V t y.|.F.VXA.R F.4X'.;.M @.@.].3X'.F.y.S.,.r.$ ;.>Xv.o.:.i.] S.}.}.~ n F.rXQ q.4Xe.b.b.|.[.W nXHXrXI : 6 z.e.e.e.`.v.;.R @.i.i.S.rX",
"v.3X$XI._ o.3X$Xv.S.2X:X[.I.e.m tXwXw.R ; $ m q.q.e.F.I.R Q i a.Q.E.M.:X*XF.>.9.t n ' W.7Xx.N p T.>.R ] #.y.8.c.{ & a.hXpX.X3XjX>XQ.b.5XmXI.Q.>XZ.E b.eX&X5.w J.PXNXN.< g 0 bXY.&XpXxXfXG r.(.K 7 5XwX1XP...8Xm.c.U.zXMX;XMXxXk.-XyXxXv $ [.:.#.%X,.F.S.,.5X2.X.-.c.R.Y.].5./.b.5Xb.:.r.R.&XX.kXgXbXS.f 5 2 .XE V.R.5XQ.*XT.Q.U.M.C.O.! v.F.C.:.V.F.#.R.b.U.R j C.C.R.jXi.Z H.1X'.e.M ).e.F.*X.XG.e.S.W F., O.T.S.;.,.T.;.T.R.VX5Xb.Z 0 > T 2Xe.b.i.A.=X] e.>XkX[.o.].z.;.@.w.T.i.i.R Z O.J.3XqXS.:X$XI._ o.3X].v.v.2X$XI.z.q.m Z R W |.w.Z m $.,.y.F.F.I ] 5XbXcXv.f 9 8 I.>.y.t k ' W.7Xj.N p T.>.R ] -.y.y.c. .& i.pXpX&X3XjX>XR.i.wXvXU.Q.3XC.( M.eX&X7.< J.bXC.4.b kX5XbXY.&XgXvXgXG y.SX0XA ' 0 0 E...8Xm.c.R.pXMX;XMXxXj.-X7XxXv $ %X8.*.*X8.S.M.:.5X2.X.;.b.R.R.R.5./.b.5Xb.:.r./.|.@.#..._.|.c.Y.U.*XE V.Y.wXQ.*XMXSXpX:.p $ # v.C.F.;.V.F.@.R.c.U.R u C.C.R.jXi.V H.5X'.,.M ].,.U.:X|.G.:.S.I G.: ..T.S.;.,.T.;.T.T.T.Z %.[..Xp.T 2Xw.S.a.b.=Xo.mXDXnXI = 6 z.q.o.w.I.i.i.R Z O.J.:XiX",
"z.[.[.z.I o.kXnXz.o.I.rX:Xz.o.z.rXhX].A = O B _ I o.;.S.e.G.3 v.v.Q.%XrXpX>X>.C.< R ;.n.9X9XG 4 x.....:.y.F.Y.U.#.& a.kXMX5XR.=XU.#.] *XvXW.*XR.8.P y.*XwXN., R.PXFX#X, 7 0 ^.3.&XbXdX;XG 8.n.b 6 &XeX1X(. .yXP.:.>XiXxX;XMXxXj.h.oX7Xv % [.W.^.M.8.>X;.-.=X6. .).).pX>X.XH.D.|./.B.-.} 9.5Xb.vXkX1Xy.9 5 6 *X` 7./.5XQ.*X&X>X=XU.$.Q #...@.b.b.H.=XC.c.-.M.] c b.n.C.*Xv.O.&X>XF.S.$.S.x.v.U.o.i.,.;.w.w.: $.}.'.o.i.R.i.T.J.VXrX4XB 2 $ U A.o.r.] :.3X$.w.*XjX3X] v.[.A.@.$.e.,.] R o.w.R.3X:XS.[.[.z.I o.lXnXv.o.I.hX:XI.o.z.B O.F.[.e.B B _ Z ] ;.U.e.G.>XnXrXS.v f p ;X>.C.3 R ;.v.9X9XK 4 x.[ ..:.8.F.R.L.+.% f.lXMXqXR.=XU.%.] =XxXW.=X^.7.P y.*X6Xc.% R.NX<X(.N eX9X^.3.&XbXgX;XV y.MX<XV R f 8 ). .wXL.:.>XpXxX;XAXxXk.k.OX@Xb % T.Q.(.M.y.>X=.-.=Xt...(.).pX>X.XH.D.|./.B.;.} k.5Xb.-...u.F.8.Y.).=X_ 7./.rXT.=XFXHXnXv.6 $ = ..$.b.b.F.,XV.c.=.C.] b b.v.U.*Xv.O.&X>XF.S.$.U.x.b.F.o.y.w.q.w.w.: %.}.'.o.i.[.v.T.T.S.Z }.T.J.O.U p.o.i.Q ;.5Xq.jXSXVXo.= ; [.S.$.q.e.:.] R o.w.R.3X>X",
"z.$X[.[.o.I 3XlXq.o.T.qXcXz.q.e.iXvXnXC ; $ W m h C ,.T.a.}.s b.=X].qXmX%XL.j.8., p >.E.OXm.b @ [ j.U.@.y.M.Q.U.s.w a.MXcXQ.T.3XU.u.r.2XmX=X|.V.^.P :.>X1X(.w >XIXHX#X, 0 6 7...u.gXW.Z.j.).W.z & T.>X9Xc.j.cXj.C.kXZXxX0XFXxXOXm.l.P.b % ].9XV.R.F.Q.x.Q.F.F ! ).0XMX=Xc.r.#.C.c.D.;.....U.Y.MXCXeX_ > = 5 &XZ X._.4X|.Y.>X4XR.Q.r.5.u.B.c.:.8.:.c.H.] :.Y.@.c -.x.%XT.b.@.|.4X=X*XT.].S.U.|.S.@.] $.T.F.2 W v.|.v.;.F.o.|.T.DXrX[._ : - F F.] '.b.S.*Xq.i.hXrX|.$.M.3XF.I B $.;.O.Z R i.F.*X>Xz.[.[.[.o.I 3XlX;.o.T.qXcXz.e.q._ i.kXE.e.I I m 0 Z ;.T.v.{.4XnXnXS.C h 6 U.j.9.< 0 >.W.).m.c @ ..j.U.#.e.M.Q.U.u.w A.VXpXQ.T.5XU.u.:.3XmX,X{.f.^.J =.=X1X_.& 1XJXdX@Xz wX(.>.P y.kX).Z.u.+XAX<Xm C 0 0 c.9.xXh.C.jXMXmX9XSXxX@XK.m.E.v % ].wXc.R.F.Q.x.Q.F.F ` ).0XMX=Xc.y.#.B.c.D.;.| ..F.R.B.^.c.;.G X.U.|.A X.|.5X|.Y.GXHXkXv.y ; > V.c.:.8.,.u.H.] ,.U.@.c -.j.%XU.b.#.R.4X2X*XT.[.S.U.].F.@.] $.T.S.3 W v.*Xv.=.F.o.|.R.[.o.F.*Xi.O.U F.o.'.b.S.[.q.bXLXhXI = > qXS.I Z o.;.@.Z R i.S.:XwX",
"e.T.[.:Xz._ R.*XS.o.[.:XjXI.z.o.iXkXrX&.5 $ I I l B ,.Q.;.r.i 5.3X*XmXAXx.K.x.&.$ 2 b.[ T.n.... =.>.F.e.:.c.T.W.5.e v.mXvXQ.>XpX>XV.r.*X<X^.aXaXs.D { wXdX@Xr wXIXJX;X5 g 0 jXL.V 8.+XC.U.%XW.b 1 T.>XtX(.j.xXm.b.=XvXvXQ.xXwXuXyXoX@Xb % R._.-.5X&Xe.v.K.T.%.x >.).HXeXC.B.u.c.X.C.Y.#.-.a.-.kXFXeXR 9 > 8 E.] | Y./.R.y.rX}.;.U.).i.%.B.y.....v...u.;.@.Z.=.t [ M.>X%XS.u /.R.nXA.;.$.R.Q.qXhXS.] i.R.*Xj R =XrXv.] A.] '.F.SXiXR.o.> ; Q R.R %.D.T.].O.G.T.T.[._ v.*X`.$.e.Q.y.` R O.r.G.jX*Xz.T.[.:XS.I [.*Xz.q.[.:XhX[.z.&./ w.3XrXT.R I I m B w.[.;.r.5XvXAXQ./ l : I.n.&.$ 3 b.[ W.m.... @.>.S.x.;.c.U.R.6.e v.bXmX].>XpX=XC.y.*X>X^.aXXXd.S E 4XtX(.q rXKXMX(.G vX9XgXN.c :. XC.R.;XAX1XZ C 8 f @X7.vXl.y.&XpXvX(.pX9XuX8XOX+Xb $ '._.#.1X&X,.v.K.R.%.z >.).HXeXD.B.u.c...C.Y.#.-.a.-.O. Xu.$.8.C._.R.] ..Y./.R.r.JXSX>Xv.k : - b.y.....c...u.;.#.Z.$.t [ M.3X|.S.u ).R.nXS.q.o.H.|.3XjXF.] y.'.|.k I *XrXM.] A.] [.F.|._ b.3XS.r.~ R.R %.D.R.].o.VXVX[.I = > *X`.$.e.T.y.Q R O.r.J.jX=X",
"z.[.[.I.;.I '.2XI.e.:XcXcX[.[.I.jXiXrX[ = $ o.v.e.e.$.U.=.}.n w.*X%XDXAXU.:Xn...@ p |.x.A =. .. =._ @.x.;.=.M.T.9.4 r.3XvXrX1XpX>X).r.M.m.<.~.sX~.! E 5X0X_.s fXIXPX_.; 0 0 SXC.r.).c.V.=XL.@X( y 3XrXkX0Xy.xX>.@.M.%XpX).;XW.zX7XyX@Xv O b.Y.} Q.wXn.e.z.U.O., ( c.>X=X|.5.|./.-.#.Y.@.5.R.u.kXMX;X` t 1 > v.c ..F./.=XV.|.R.x.=X:.D.8.u.c.M.#.c.y.V.v...G.$.k S.F.*X4XiXR M.|.}.*Xv.] B.=X>XS.b.y.r.y.F.k m ].*XI.x.8.@.e.;.VXvXF.I 8 2 y i.w.@.{.R.T.] T.[.2XrXe.M.hX[.w.*X3Xv.} } @.2.A.rXb.S.[.[.I.o.I [.=XI.e.:XcXcX[.[.I.o.o.3XwX,.A [ v.y.e.=.U.=.{.4XvXmXU.&.l 5 -Xn...@ p Q.n.C =.' . =._ @.x.;.;.M.T.9.4 ,.5XvXrX1XpX>X|.w.M.V.^ ~.aX~.J H 1XuX^.q jXJXmXL.c hXiXFX7.5. XN.B.3XW.DXuXI o.f y fXk.zX>.@.U.*XtX%X;XL.pX7X9X@Xb O b.Y...W.6Xn.,.z.F.@., ( c.>X=X|.5.|./.3.#.R.@.2.R.a.#.b.#.#.b.Y.j.c.l | F./.&XB.DXSXrXR.8 > ; u.v.C.=.b.y.c.v.[ Z.%.k F.S.*X5XiXR M.}.|.|.v.] A.=X>XS.S.y.r.r.T.k m [.*XM.x.y.O.e.;.F.v.e.|.[.D.p i.y.#.R.T.T.o.VXVXhX' : > iX[.w.*X3Xb.` } @.%.p.rXT.",
"i.;.e.z./ Z '.rXq.o.jXcXcX[.z.I.vXpX].R = = z.;.,.U.$.,.M..X~ w.*XwXMXzXyX;XE.9.O N m.j.C ( ..# >.( R C R [ u.=.Z.r ] =XpXpXiX;XT.).%.^.6.0.g.aXsXd.#.5X<X@Xb 9XPXHXP.7 0 0 xX..5.6Xy.B.>X|.;Xk.n nXkXvXuXW.eX( @.|.5XjXpXOX=.pXoX7X+Xg X .X2XH.m.).E.U.,.x.Z , =.*.8.Y.4Xy.b.).:.' y.y.a.R.r.gXnX1X..p 2 O y.v K F.F.M.%XtX&XS.=XR.}.8.M.y.R.y.u.#.u.C.v...-.t R.F.F.Q.iX_ y.=XT.J.@.} O.b.wX].A.e.-.G.|.B u q.M.*XU.$.Q W.Q.LXGXS.B 6 2 u q.i.-.}.F.v.e.D.T.nXrXe.;.3X[.e.S.tXA.W ..e.#.p.[.F.S.o.z.z./ Z [.jXq.o.jXcXcXI.I.I.=.@.F.*Xo.=.M.$.,.T.@.,.M..XjXkXmX*X_ f 8 >XE.9.O M m.j.A ( ..# ;._ L Z L [ y.-.Z.e ` =XpXpXpX%XY.].-.Q.t.0.g.aXsX~.4.,X<X@Xr 5XMXbXk.P vX0XxXK ..dXc.F.wX;XHXxX[ e.h h uXE.yX .-.|.5XeXtX;X8.pX+X7X+Xz X }.>XZ.M.$XT.E.e.y.U , =.*.8.Y.wXy.b._.-.' y.u.b.R.r.X.u.5.r.V.F._ 9.x L Z.F.M.%XJXFXiXR.k 6 ; b.u.R.y.u.#.s.C.v...;.t Q.F.F.Q.iX_ y.*XR.J.$.} @.b.wX].M.e.:.F.|.B a :.v.:XI.-.Q ].R.rX3Xi.F.[.`.w %.y.-.|.F.v.y.VXVXVXo.; = 3X[.e.S.rXS.W ] x.#.p.[.T.",
"o.S.S.h.w.o.F.S.;.W qX$X:X:X[.;.SXvX}.A $ = $XW S.,._ =.Q.R.T :.3XrX>XzXyXU.L...X ] n.L.j.' ..O x...R I ` U.,.#.9., B.wXtXpXpX=XF.R.#.s.<.0.g.aXsXsX!.,X0X_.b uXPXDX(.0 8 0 gX7.=.C.u.R.wXQ.;XN.e nXvXlX0XV.uX7.y.=X=X|.,XbX).bXyXOX+XK . i.:XH.W.>XvXrXF.c.;.3 { c.c.^.wXC.b.).] ..C.R.2.R.F.bXZXeX5.l > $ c...b c.G.F.;X|.3X|.=X>XR.Y.y.y.|.c.#.X.7.8.R R D.7 A i.R.v.Q.V C.Q.F.w.] E H.:.qXjX*X_ y.}.T.l y A.v.$Xn.v.$.U.Q.DXnXrXo.> 2 3 o.A.b.H.;.S.'.e.rXkXhXe.] ].>XT.R.|.|.5.] i.O.J.S.[.;.M.I.e.;.o.`.z.q._ hX[.:X:XI.;.Q.v.F.].R o.%XR M.,.R =.Q.{.hXjXVX:XB h 0 L.U...o ] n.L.j.` X.o x.*.R A ' U.,.%.9., B.4XtXpXpX>XF.R.$.Z.<.0.g.aXsXsX~. XfX(.w dXBXpX+X..wX0XpXK ] F.u.{.gX%XGXbXZ ;.h h <Xn.yX8.y.|.*X&XwXvXQ.MXyXW.+XG X w.>XZ.W.>XmXrXF.c.:., ` V.c.R.6XC.b.Q.] ..C.R.%.R.F.N.H.B.C./.C.] v...b c.F.Y.=XSXGXvXQ.B 6 2 r.v.|.x.#...7.8.R E B.7 I y.R.b.Q.V M.).F.:.] ` G.-.yXjX*XR u.|.J.k y A.v.$Xx.c.$.U.].:XA.=XrXA.D.u @.D.b.G.;.S.[.cXHXcX;.: = |.>XU.[.|.}.5.] i.O.J.S.%X",
"_ z.[.I._ W a.A.z.w.3X[.jXVXI.;.VXVX[./ $ O o.I :.A y.z.o.J.T O.|.*X*XyX;XS.M.#.@ R m.m.>.L.>.. -.j.>.=.8.Q.e.U.=., G.rXmXVXmX3XU.b.L c b g.~.aXsXaXt./.>X;XG gXPXHX0Xt 1 t gX^.c.9.B.5XiX+X;Xj.< hXuXgX;X*.;X7.,.Q.|.4XjX9X$XAX-XP.P.( . q.|.l.%X>XvX3XC.Y.1XF 8.;.{ (.tXR.R.[.} -.y.] R f.R.bXBX5X=.t ; - L.=.b c.a.i.M.b.*XE.>X).-.F.^.R.v.;.O.#.9.c.-.] =Xu :.w.-.b.v.Z y.F.T.A.B n r.v..XnX].] e.&X[.] 9 .Xb.].=.y.Z I.R.HXcX`._ 8 8 s w.`.v.R.o._ J.w.kX>X[.T.r.2X=X'.i.A.:.M O.:.M y.T.v.] v.[.I.o.I p.S.z.w.3X[.hXVXS.;.U.F.T.%XI R o.I ,.A i.e.o.J.tXjXbXT.m f 8 I.M.#.+ W M.m.>.L.7.. ;.k.-.;.,.Q.x.F.#.& G.rXbXMXvX1XF.b.A k d 0.g.aXsXsXt.F.1X_.e nXHXbX9X .R.6XpXc.X.u.f.rXvX>XDXxXZ @.p h ;X>.-Xk.v.R.|.wXvX9X:XMX@XE.L.( . w.).k.&X1XvXqXb.W.,XF 7.;.{ (.tXR.R.Q.O.#.y.] Y b.H.u.U.y.c.k.8.:.C.=.b c.a.i.M.MXDXzXQ.l = 2 /.T.b.=...#.6.c.$.[ *Xu :.w.#.b.v.Z r.U.T.A.m n w.b.&XmX[.] e.[.].] 9 }.i.|.=.,.A U.T.3Xv.A.2X*X.Xs q.`.v.'.] ] R.kXKXrXI 6 : 2X:X'.i.A.:.Z O.-.M i.T.S.",
"W v.T.[.;.R $.rXI.S.rXqXVXmXz.T.VXjXv._ $ $ Z B @.k A.i.M }.$.] T.S.%XE.iX>XZ.=.% m x...[ W.X.o ' *.&.8.L.+X).C.<.@ w.pXpXtXkX>Xi.[ m _ x ^ ~.aXsXaXB.|.>X).` 1XPXHX9Xl 1 1 1Xk.' -.3.|.:XU.Q.V.u pXpXvX@Xn.W.L.T.Q.*XpXvXwX7XzXoXOXL.K . %. XX.9XwXqX8X1X_.lX^ ..,.9.Z.Y.H.|.|.r.#.,.N E 5.H.nXZXgX,.t ; O ,.L c c.] O.-...=XU.%XY.b.F.5XF.w.} @.-...Y.y.8.R.0 e.e.@.F.v.=.:.&XF.jXS.M -.i.F.wXU.;.[ Q.rX%.3 R.v.3Xe.e...qXA.VXDX2XI 2 > 9 I A.i.T.i.Y @.r.*X.X:Xv.o.'.|.e.J.w.:.M ~ B.s R U.F.o.M.I.$X;.I $.5XI.S.rXwXVXmXz.E.I.o.$.*X_ ] C Z o.l S.y.Z }.jXjXpXe.l 8 f >XU...% B x.*. .U.*.o ' &.*.8.C.OX|.C.5.$ w.pXjXiXvX>Xv.[ m I r <.g.aXsXaXu.R.1XV.a pXSXxX).-.R.|.eX .c =.r.>XyX).AXmXZ @.f h @Xn.M.Z.|.:X*XwXxXzX7XzX-X-X+X( X O.Y...;XwX8X>X1X&XlX^ ..,.9.Z.R.F.|.}.y.@.,.M E 5.H.C.R.Y.C.c.-._ 8.R c y.] O.$.gXGXpXU.k > > 1XF.y.] O.-.X.Y.i.e.R.e e.e.@.F.M.$.:.&XF.kXS.Z -.i.F.5XU.:...].4X;.9 R.v.rXw.e.[ wXM.R.2X[.'.S.i.y I v.a.J.e.R O.bXSX3X_ > = ].|.e.T.w.$.M Q B.s R U.R.",
"I w.I.A.v.] r.rX[.`.3X$XcXVXI.[.mXcX;.l O O Z o.;.o.e.@.R A.1.W A.T.=.$XpXM.,...& a ..8.*.j. .O n. ...[ ).;Xn.*...+ ] eXuX1XtXtX|.] ,.>X5.J 4.~.aX~.B.5X1X+X8.1XFXbXW.c 8 > (.c.] ..@.R.@XL.8.k.a 4XgXmX;X8.-.Y.4XwX+X=XzXAXzXzXzX;XwX .O M ..' E.1X%XC.Y.Y.|.F ` ).&X/.c.b.4Xa.@.` y.Q | %.r.nXMXgX[ t ; = ' 8.E F.#.b.y...=XC.T.*X=XF.C.R.F.] O.-.9.|.J.T.@., @.@.c.R.T.;.C.R.|.*X*XA } } =X3Xv.:...=X>XW t 3X@..XR.Q ..T.`.SXDX[.I 2 > y m S.5.D.$.;.r.o.`.|.cXE.o.|.J.b.=X@.T.D.u Q M O.[.|._ w.I.S.v.] i.tX[.`.3X|.AXcXI.[.v.e.B b.B Z B o.;.o.y.o.I A.bXgXrXi.6 8 g M.,...& a } 7.&.j. .O m. . .[ Q.;Xn.*.| X } eXtX>XtXtX|.] %.=X<.b 1.~.sX~.5.|.>Xm.x dX0X(.j...&XQ.uX .x #.@.|.9XE.xXxXL [ h f @Xj.8.8.Q.jX9X9XmXxX0XzXzX9X7X7.O Z #.' E.;X|.F.Y.Y.).F ` _.&X/.c.b.6Xc.@.` i.E ..2.r.i.b.Y.8.c.y.@.' 8.` C.#.F.8.gXFXiXv.v 8 2 D.R.F.] @.#.9.|.U.R.@., =.=.b.R.U.;.C.R.|.*X%XZ ~ O.,X3Xv.5.@.=X>XW t 5X@.*X'.Q @.T.R.'.}.J.|.S.M.p Z T.:.F.;.%.r.jXVX2X;.6 = [.J.b.>XO.R.B.u W M $.[.|.",
"Z $.S.I.[.v.:.hXT.T.T.S.hXiXT.T.VXVXI.l O O B o.:.i.@.B [ .X5.] S.*XF.iXiXv.,.` u c ` ' _ L.( o L ( ..' c.>.c.+XX.@ } =X X=X|.=X.XS.T.*X9.U.6.! ^.| y.R.wX&X7.W.AXxXW.c 1 8 W.8.:.....y.E.-.8.L.4 5XzX;XP.,.L.K v.mXzXuXAXzX7XzXzX8X7X).= B 8.9.K.8.^.=Xy.W.c.i ( (.x.8.c.u.|.F...} y.@...B.H.BXnX1X' 7 > 6 =.8.P F.R.F.-.=.v.;.m.%XY.5.b.|.R.5.y.$.3.b.Y.&Xr.2 ,.i.F.-.F.@.} b./.vXe.M y.a.1XT.:.:.M.=X=X;.h nXF.3XrX:.Z *X4XSXHX2XI 6 8 W o.}.r.B.] :.w.i.4XH.jXT.B ] r.'.].S.M.W 3 M o.'.T.i.U $.S.S.].v.:.hXT.T.T.F.jXqXT.T.T.T.v.w.Z m m o.:.i.@.B [ }.lXpXpXT.h 0 0 v.;.` u c ] ' _ U.( o / ( ..} c.>.c.+XX.@ ..=X X=X|.=X&XM.Y.&X6.N...D ~.1.} S.eXV.z ).V.c.+X*.c.&X1X-.H O.} C.@X3.vXBXC ' f 8 L.x.W.G v.mX7X*XAXzX;XyXzX7XuXoX= m c.c.M.8.Y.=Xv.G.b.a L _.y.8.b.y.).F...} 8.$.| B.H.G.c.r.-.=.M.C.-.7.K Z.R.F.;.vXMX>X,.l 2 = V.|.R.5.y.#.5.b.Y.%Xy., :.y.F.;.F.@.} b.R.bXe.N y.b.1XR.,.-.b.;X>X$.p mXF.2XrXq.M =X4X[.rX|.[.T.:XW Q |.i.B.] :.w.bXGX}.;.6 O _ r.'.|.A.A.E 3 Z O.'.T.b.",
"Z i.2X[.$X;.o.'.[.].F.y.Q.v.S.$XVXVXx.6 = O y u m ] W l R A.} W e.tX>X=XwXM.x.;.w m ` ' W.;X( o L ( H } b.*.C.yXZ.@ } F.8.&Xy.C./.].Q.3Xy.).Y.' | D x.M.$XwXc.7.FXvXC.v ; 8 eX).*.8.c.x.+X-.-.@Xz >XOX>Xm.n.).G i.mX@XE.xXzX@XyXzXyXAXoX; h |.m.,.] V.&X>X).R.n r (.M.).C.C.V.M.8.E C.b.t.H.R.vXvX5X` 6 1 ; -...x V.F.=XF.y.}.y.Y.|.|.i.V.|.@.5.U.i.V.$.;.c.;., x.M.|.b.R.,.V C.v.].T.N C.=X2XhX}.W :..X|.R 0 vX*XrXv.w.R 5XvXDXHX|.I 6 > n M S.%.e.W v.b.i.rX.X3XI.Z Q i.] |.5X2XZ u Z U }.*XW Q i.*X[.[.;.o.'.Q.].F.i.[.n.n.$XI.Q.@.A Q k 0 p m ] E l R b.pXtX3X3XZ 8 0 M.x.:.e m ` ' ).;X( o A L K } c.*.V.uXL.+ } G.8.%X8.b./.R.Q.3Xy.Y.U.G <.g <.9.=X@XJ 8.H.=X_.*. .).9XZ.N C.8.M.7X*.kXFX` _ 6 0 E.j.^.G $.mX-XU.zXuXW.xX7X+XxXl.> l ].c.,...m.|.1XQ.Q.x t +Xm.).C.C.M.C.8.R F.b.y.H.R.r.5.8.-...Z.v.-...c V.F.=XF.mXSX4Xv.l 8 : C. X@.5.U.i.B.@.;.c.:.2 v.M.).b.T.,.C b.b.'.T.N F..X:XhX}.W ,.|.$XR e vX=XrXA.;.W 3XbX:X3XT.'.T.S.n M S.%.r.W v.b.nXKX1X' ; O Q i.] |.5X*XI u Z U }.*X} ",
"o.A.rX2Xv.l I hX>XQ.M.r.[.:Xz.&.cXmXo.: O $ Z y ] M R @.V y.5.] ;.*XQ.%XR.,.R.8.a L *.>.L.m.v + ..,.G } c.Y.W.9XV.% H ] -.R.).Y.Y.Q.5X>Xv.8X1X).Z...Q.Q.+XQ.V.k.HXbXj.c 1 0 pX9X*.*.,.y.U.3.-.W.N *XU.uX@X>.E.G o.cX-XU.zXzXP.mX7XK.xXh.; B R.x.,.=.8.R.R.&XF.2 z @XU.8.].&Xy.y.R.Q 8.:.-.B.,XbXvXeXR 1 ; = 8.-.e ..C.F.T.S.rXY.|.5XrXH.^.|.b.} R.B.#.y.y.....3 E v.Y.:.M.$.R v.w.v.R.V R.2XVXDX:Xo.o.S.v.l : =X.X4X;.v.U .XVXLXVX[.o.> $ n Z `.$.b.S.S.S.;.=XA.*XE.W 3X$.$.*XkX|.I n n Q jXjXV %.A.hX:XS.m I rX3XR.b.w.[.:Xz.;.;.M.k n R W Z u W Z R @.Z i.lXkX3XT.h 6 6 e.Q.,.a L *.>.L.m.v O =.,.H ] k.W.W.9XV.- H ' -.R.|.Y.Y.R.3X5Xz.>X;X|.d.D b.Z.;X7.b C.*XvX#X7.` Q.>X(.z =.L v.U...pXSX*._ 7 8 +X>.P.N =.iX9XU.mXzXP.AXyXE.xXj.; C %Xl.,.;.9.R.R.%XD.3 z @XU.7.Q.&Xy.r.R.] 9.-.#.b.=Xu.5.b.#.R X.-.8.=.e ..B.F.Y.MXLXjXC.C f 2 Y.|.V.] R.F.X.r.8.@...< R b.Y.:.M.%.R b.w.v.T.V R.2XVXDX*X] @.A.x.m : ;X*X3X;.i.W |.mXjX'.T.3Xb.W s Z T.$.b.S.S.A.cXSXQ./ 6 = 3X$.$.=XkX|.I n n W jXkXR ",
"i.i.A.[.i.o.R rX].[.b.O.S.rXz.;.vXvXe.: # : ] m o.O.Z R R J.f.2.i.[.M.Q.T.%X%X5.J } *.( j.>.v # =.-.C.8.c.M.%XmXm.; @.V.;X=XwX&XY.B.%X1XY.*XR.Y.%Xc.&XM.@XW.c.-.DXxX*.t > 0 zXuX..` -._ b.b.;.9X( *XiXOXW.>.W.c ;.yXyXL.AXzXoXAXyXoXzXj.1 l 1XE.h.y.j.U.v.m.J.n t L.L.#.Z.c.:.F.R.] y.Y.} -.b.lXvX&X] > = = @.K j ..8.>X|.8.Y.c.Q.>XwXb.5.)./.8.C.r.} V.] y.b., :.v.9.R.>X:.] R.b.U.e.l ).&XkXPXi.U ;.F.T.A = ;.i.'.e.w.i.5XkXHXvX*X;.= $ W W R.@.c.S.M.b.v.].v.jX[.o.3XJ.A..X3XS.W y p $.}.nX} A.i.A.`.i.o.I rX].].i.o.I.qXz.w.,.z.] j R i.] m O.O.H R A J.nXkXrXS.h 6 6 %X%X3.J { *.( >.>.v # =.-.C.8.c.M.*XvXm.- #.V.&X=XrX|.Y.c.|.>XZ.*XY.Y.>X{ c.[ +X>.N 8.3XVX9X>.[ |.jX0Xz Z B R 8.k.uXHX-.' g 7 P.>.W.B b.$XL.Z.mXzXj.oXyX+XxXk.6 C 0XL.j.y.j.U.b.c.Y.n e L.U.=.Z.v.:.F.R.] y.Y.} -.c.t.-.#.:.K { -.#.L j ..r.>X|.vXAXrXS.C y ; 3.).).8.F.:.| b.] 9.v., -.v.y./.>X,.] R.v.T.e.c Q..XkXPXv.I :.S.T.Z = ;.a.'.e.,.r.rXjXwXM.Q.lXo.$.W W R.o.i.M.M.b.MXZXT.e.6 $ 3XG.S..X3XA.W p p $.}.nX$.",
"R r.J.2Xv.;.W Q.T.$X] Z e.cX*X2XAXvXT.1 $ = B n Z x c } R .XE Z b.&XU.>XvX>XV.P x u.'  .P.@XC $ %Xn...P.;XM.%X;Xm.< #.b.>X*XwX=XM.:.(.+X:.&X;X%XuXL.>XL.OX-Xm.*.HXbX' C * 7 zXuXm.' v.8.F.V...+XL tXzX>XL.>.(.C F.oXL.U.xXxX*.K.yX#XxXl.7 A 0XP.x.,.M.%XR.c.{.%.c j.n.3.:.:.C.R.3X#.` Y.8.b.3.pXnX>X` > # - W ` M P #.U.:.,.>X@X>X%XiX|...c.M.-.F.r.} 3.P c.-.4 ] :.;./.].'.] F.F.=XS.m R.R.nXDXS.L ] y.R.$.$ Q..X'.[.e.$.3X4XLXVXqXo.2 = %.~ }.o.;.e.,.F.*XR.e.:XI._ i.a.G.2X3XT.W 3 $.a.'.3Xc o.i.J.:Xv.;.W '.Q.$Xo.I w.cX*X*XQ.v.M.N R @.Z l Z n x ] R =XpXrXwXT.h 8 g >XM.P x y... .P.@XG $ +Xc...Y.;XM.-X;XV.< @.V.1X=XwX;Xb.-.Q.(.@.=X).(.uX{ F.L U.(.G | >XmX%XL.` 5XvX%XB P =.y.L.k.wXBX&.&.f t oX*.G.R OX:XE.%XmXAXK.oX-XE.xXE.8 C Q.W.v.,.M.+XR.b.{.%.c 8.M.3.:.3.C.R.>X%.E Y.8.c.7.} B.$.#.` ` 5.E ` N P #.T.:.xXHXbXE.m f 6 ..c.M.;.H.y.| 3.R c.-.4 ] :.-./.].R.] F.F.>XS.l R.R.MXFXS.U } y.Q.$.O [..X'.|.w.#.3XwXhX[.*XrXS.$.q.] .Xo.,.e.,.S.DXVXS./ 2 $ i.p.F.2X2XT.W 3 $.a.'.3XV ",
"m w.'.[.r.W Z F.>XQ.;.m [.rX:Xv.vXbX'.y = O i.=.Z Z Z k n 2Xa.U R.3Xv.U.W.T.( x % P 8.m.L.yX .- -.v...V.C.+X7XyXk.; F.|.%X(.*X=XQ.[ Q.pX8.=XtXwX9XY.>XY.Q.-X;X7.FXxXP h # 8 -X;X&.L m.=.F.m.` C.` eX1XwX+X*.Z._ $X:XU.;XmXmXoXoXOXL.zXoXr C ,.T.U.,.M.Q.Y.M..X%.V L.T.8.3.#.8.8.=Xv.y.%Xb.5.3.nXMX1X7.1 O ; R ` 3 G #.v.R 8.F.y.W.L.1XC.9.R.|.@.y.|.8.7.@.A #.t H n.M.b.R.e.W H.F.rX3XZ b.[.tXcX$XQ ] ;.b.] O |.nXJ.:.,.Q i.A.LXLX>Xl 6 ; r.U 2Xv.;.S.v.o.S.5Xb.U.S._ o.2.b.}.5X2XR 8 o.F.*X}.e I r.'.[.w.W Z C.>XQ.:.m [.rX:Xb.;.S.S.O.#.m y.#.Z Z Z k m ,XnXtXkX|.8 6 5 E._ z % P 7.b.P.yX*.; ;.M...V.C.%X>X9X8.- Y.).%X(.=X=XQ.] Q.pX#.|.eX5XtX7.H...Q.@XX.9.;XMX@X9.m 4XxX).G } x.i.E.*.<XxX8.;.0 0 @X .c.c.8X8XOXm.DXAXzXAX7XoXmX#Xt V ;.F.U.x.C.Y.Q.b.&Xr.C L.U.7.6.=.8.6.=Xv.y.|.b.3.5.u.G.:.Z.` Z #.P _ 3 C #.x.I vXMX5Xm.h 0 > x.(.].@.8.|.6.8...A #.r Z v.M.M.R.e.W H.G.rX>XV b.].rXjX%XQ ] ;.a.o.O Q.lX`.$.,.] i.A.rXrX].M.T.e.r.Z 4Xv.=.T.M.] VXGXR.B 2 $ o.2.i.}.4X3XW 9 o.S.=X|.s ",
"Z 2X[.hX'.@.n $.5XF.I U [.rXqXI.cXVXJ.2 # O ;.@.S.} $.Z I 2Xa.~ v.=XU.A B M.` r o E -.C.7.P.( ; ` c.` M.).W.:X+X*.+ Q.pXY.R.wXrXC.$.1X6X#.5XiX*X|.W.OXW.W.W.9XC.AXuXM.c # 8 oXoX .H 8.;.R.>.L b.:.eX;X9X+X .c.C.qX8X).n.HXAXzXAX7XoXAX0Xr c *.M.Q.Q.F.c.=XV.R.$.r %X>X#.u.|.b.c.)...8.,.C.3.5.vXvX>X] 8 - - 8.O.e B #.v.R 5.Y.-.=.C.M.y.W.).F...-.|.8.=.` -.-.u G =.i.b.S.=.#.=X/.2X%X[ :.T.T.T.M.R :.;.y.$.O c.].e.i.e.} $.'.ZXDXT.C 2 2 [.u S.I.&.S.:XS.'.kXR.%XT.;.U M b.3X3X3Xw.i Z v.'.'.U U 2X{.hX'.@.n $.qXI.U U }.rXqXS.;.T.v.M R m ;.=.A.o.o.I R =XnXjXrXR.l O O M.' r o ` -.Z.7.P.( # ` c.' n.).W.-X-XX.@ R.pXY.Y.wXiXC.o.=X6X| 1XwX&X=X7.V.@.;X_.5.V.3XAXxXP.H |.AX&XE ..[ U.pXv &XxXn.' 0 0 7X( 8.y.T.wX+Xh.AXzXxXLXzXOXmXpXj p -.U.$XE.C.c.>XV.Y.O.t @X>X=.u.|.c.b.Q...8.,.F.3.5.8.5.@.3.-.-.-.8.o.e b #.v.R vXZX1XE h > ; Q.|.F...-.|.8.@.` =.-.u H =.y.b.F.=.#.&XR.3X*X@.:.T.T.R.v._ :.;.y.#.O c.].i.y.i.} %.T.'.:Xv.R.S.R.'.u S.I.o.A.*XS.VXLX=XI 8 = Z M b.3X3X>Xw.i B v.R.'.] ",
"M rX|.T.i.;.n p =.R.W U }.nXcXjXDXSX=X0 6 ; m Q @.0 V ] [ @.G.~ y.:X;XA g &.8.t X @.` X.P -.( , 3.=.' +XY.OX:XE.7.@ |.6XrXeXvX>X,.[ &X).@.3X>XQ.9XQ.;X1XW.m.@Xm.MXgXx.j = 6 OXL.` @.n...Q.j.O.&X>.%X>X>X7X .3.y.E.wX+X7.mXxXmXPXzXOXzXxXb 9 =.*X:XU.v.U.pXc.V.~ 4 m.9X-.9._.Y.|.R.r.y.y.8.#.@.MXvX=Xk 8 = = 8.} u ` -.R.[ @.F.M.N.&XT.+Xc.c.y.O.c.M.8.` v.y.8.a _ e.$.;.-.T.Q /.|.5XU.A b.R.M.F.o.Z ,.=.@.@.X 8.o.i.R.:.E A.F.mXmXS._ 8 8 R.M J.T.,.,.T.[.iX|.a.[.hXS.$.O.J.2X3X*Xi.u M {.|.R.Y I 4X*XT.e.;.n p ;.R.W W [.VXcXhX[.$X{.o.R.8.m W @.y V ] [ O.CXdXqXI.m O O =.j.h . ..` ..P -.( , -.*...).Y.OX;XE.7.# Q.6XrXeXvX1X,.] %XY.R 5X%X].1X9.c.:.=X9.| a.=XDXAXV.t D.mX@X..8.` ].zXb ;XMXV.( 8 6 @X) *.C.K.*X@XP.xXzX8XDXzXoX8XpX( 3 =.:XOXT.C.U.pXc.B.o.1 V.wX-.9.|.Y.).R.r.y.y.,.#.#.F.y.[ V ;.;.{ 8.| u E -.(.} gXMXiX=.v 5 6 b.c.:.} j.M.8.` v.y.8.p R ,.@.;.$.U.} Q.|.5XS.A b.R.S.F.[ Z ,.$.@.@.O ,.o.e.T.:.E A.S.v.A.w.*X|.2X`.n J.[.,.:.T.].LXZXU.I f > q.O.J.2X3X2Xi.p Z |.}.R.] ",
"n T.*X|.S.e.R a.G.=X2.H R.nXVX$XcXMX*Xl ; = } '.;.m I w.,.} 2.i.|.%X=XS.A ' ,.C . Z L ( K K ) , V ` 8.%XQ.;XOXW.*.@ F.+XwX5XkX;XZ.;.&XwXV.=X>X1XeX&X;XyXC.j.W.>.FXMX8.7 = 6 +XOX( c.c.` &XL.$.R.j.|.Q.W.@X*.@.F.L.%X%XL.AXuX0XAXzXoX:XzX .: =.%XM.+X|.Z.rXb.Q.:.>  .U.y.Y.8.(.Y.:.@...=.F.#.H vXvX%XK 8 = = ..{ z { ..|.b.#.b.b.u.F.%XQ.y.] R -.c.=.y.] @.R ,.u A M.c.e.b.R.#.8.8.B.3X..] i.r.M.o._ @.$.o.-.# n.e.F.T.;.W y.@.VXHXv.o.y 6 `.i `.i.R T.T.=.>XwX|.Q.kX*X%.q.'.tX4X[.`.o.I ,.R.'.R Z T.*X|.S.v.W A.F.=X:.F R.mXVX$X;.Q.R.y.y.] ] }.,.m Z ,.,.} lXbXmXI.B 5 O _ >.v X Z L ` G K ) < S ` 8.+XQ.:XoXW.=.# F.%XwXwXvX>XS.@.|.1Xr.=X=XwX1XC.k.c.F.X.| 9.Q.AXyX7.3 F.pX&XX.8.[ Q.7Xz >XSXoX/ 5 1 AX>.` wXQ.W.oXk.l.oXM.zX7XoX-XwX7.< v.].U.>X_.U.4Xb.Q.:.1  .F.u.Z.9.(.Q.,.....=.F.#.H ;.:.o.] ;.X.#.X.` z { ..|.v.kXMXeXX.j 6 6 8.` L @.y.=.y.] ..R :.p Z M.v.y.b.R.#.8.8.C.3XO.] v.r.b.;.R @.@.o.;.# x.i.T.F.,.W i.o.J.rX;.rXrX'.J.i '.x./ T.T.;.HXHX>XI f 6 q.q.{.rXrX[.`.o.I w.R.{.] ",
"k 3XrXT.o.I I kXnX5Xa.n q.mXDX$XVXmXM.y ; = o.4XC.m R _ r. X2.c.pX>X&X].n.' -.g   m } [ R -.b < E 8.U.8XpXwXoX+Xc.@ b.>X=X>XiX1X>Xy.U.1XH.;X].%X).Q.%X>XW.n.@XK.AXuXb.l 1 0 OX+XK C.C.' v.3.@.>Xl.C.Y.).SXj.( 0XOXW.OXm.j.W.M.uX9XOX+X9Xk.4 Y.E.+XvX|.Y.>XM.T.w.7 l.+X=...C.C.x.5.@...i.-...y.kXpX=X3.8 ; > ....a x { U.|.8.b.R.c.Z.&Xy.;.-.-.#.:.,.5.@._ P F.l P Q.n.U.>XF.#.y.] R.5XF.@.#.@.b.v.[ @.@.[ _ O 8.].v.e.@.U %.F.SXDXv.o.0 2 [.i '.e./ F.}.] 3XwX1X].mX3XR O.R.lXrX3XhX-.-./.v.F.] n 3XrXT.o.A I hXnX5Xu.n q.nXSX*XI.n.e.;.,.#.o.4Xb.B W _ r..XvXbXDX%Xl 8 > [ -.g   m { .._ =.v < _ 8.U.3XpXwXoX%XN.+ C.>X>X>XiX1X5X:.F.wXC.(.R.>XY.9.3.C.F.| <.7.F.vXOX*.a &XpX;X8.U.[ 8.T.q 1XHX@XC 6 6 LX*.i jXzX;X-X8...*.n.yXxX+X>XwXoXz Q.OXY.vX=XW.=XM.T.:.7 V.+X#.[ Z.C.v.8.@.@.y.#...y.#.[ ..V.-.8.b.....a l { Y.|.vXMXkX#.h 6 : @.$.=...#.,.r.O.R R S.n L Q.n.U.=XT.<.r.[ R.qXF.$.@.#.M.x.O.=.@.] _ O 8.].v.e.@.R $.F.*X=Xe.rX2XJ.{.i {.e.I S.|.o.GXGXeXI f 8 I o.[.lX4X2XrX#.:.R.b.U.@.",
"m *XhX[.I I Z .XtXiXS.M $.cXDXqXDXvXM.k = > ] *XF.I o.] D.B.^ r.cXvXn.T.Q.&.-.g . -.=.m.E.M.G < P ).v.>XDXAXpXOX*.X w.&XW.Q.pX;X).b.R.Z.-.Y.1X(.W.;XwX>XW.>.9Xl.pX<X,.B 8 8 7X7Xj y.;X..-.-.} ;XL.U.(.&XDX>.x kXxX;X:X7...*.n.yXxX+X8XwX;XN %X-Xm.vXkX1X).M.Q.;.r +XuXC.] b.C.=.b.-.;.).:.b.Y.nXpXQ.b 8 > > =.[ N Z ` F.U.$.M.6X(.c.U.G.@.y.@.#.:.y.a.#.@.} S.m ' qXQ.Q.}.b.E /.v.v.M.y.O.] } y.b.b.=.x.i.@.$ [ *Xb.;.y.w.F.3XLXHXv.C 0 f hXT J.x._ T.*Xw.F.;.y.'.VX[.;.J.y.3X5X5X.X@.R $.y.'.c I }.jX[.I I Z |.hXiXC.M $.jXDX8X*Xx.;.:.:.u.] =XG.Z o.] D.f.gXvXDXwXf 6 6 &.>.r . -.=.m.T.M.G < Y ).c.;XDXAXpXOX3.. ,.&XQ.Q.vX;X%Xy.U.(.3.C.&X&X8.C.3.C.%X3.3.7.8.wX+X7.V |.vX9Xc.Q.-.' C.g >XDX).v 7 7 @X .9 ].mX:X;XE.L.8.=XMXoX .eXmX#Xz R.7XC.vXgX1X].C.Q.;.j W.uXC.] c.C.=.c.#.-.).8.b.R.u.R b P =.L.c.@.] N c ( F.T.kXMXSXc.t 2 2 ] 5.@...@.y.b.#.o.] F.n ' wXW.Q.}.v.E R.v.v.M.i...] ] y.b.v.=.i.x.$.$ ] *Xb.;.e.:.G.5XiXrX;.T.=XhXrXQ J.v._ R.*X,.VXjXC.I l 8 w.J.i.3X5X4X2X@.R #.e./.C ",
"Z '.MXiXS.z.n e.rX=Xu.x A.jXDX3XMXVXv.A = 2 @.rX=XA @.C.G.%.+.#.wX>Xa.%X-Xz.' z . C W.W.7Xn.g 4 x u.c.%XMXAXyXk.-.; R.wX1X+XiX;Xx.,.eXpX7.Y.vXxXwXwX0X%XI.;.U.k.xX>Xv.A 8 8 zXoXt ,.eX-.9.:.] R.L.c.1X@XP. .u T.mX-X>XW.P.8.=XAXW.` tXAX#Xa S.yXZ.pXpX9X=X).M.] r W.9XV.Q.R..._ @.H } Z.b.c.F.pXbXQ.b 0 ; > { 9.L C =.&XU.,.F.U.B.9.Q.|...8.;.] 8.U.r.:.;.` b.m N OXx.|..Xv.] F.o.,.].=.R @...Q.,.-...8.R T.7 0 v.b.b.T.r.b.=XDXLX'.o.y p .XM %.3Xi.T.R.,.F.R.w.A.KX*Xe.F.y.3XkXrX'.:.A ..;.C.c Q '.nXhXS.x.m w.rX:Xi.x A.cXDX:XI.R.:.R.;.G...wX=XI $.S.H.%.kXkXZX].p 6 8 z.' k . C Y.OX7Xn.g 4 c u.n.%XMXAXyXx.*.; R.wX1X|.pX7Xn.-.wXpX{ b.nX1Xc.;X7.b.*X8.3.9.:.;XwXk.G v.yXfX-.).L.,.<Xb >XSX-XC f 7 -.) 1 2XmXzX;X(._.v.%XAX;X/.vXAXP.b F.>XL.gXpX;X%X).n.@.e L.1XM.Q.Y..._ $.G } F.b.u.C.@.c.C K 8.8.b.' 9.L B @.%XF.vXSXiX-.8 2 6 R :.@.L :.U.r.-.;.P b.l B OXx.|.|.y.} F.] :.].o.R @...].,.-...,._ U.9 0 b.b.S.F.r.v.=X%XtXA.3XtXbX.XM 2.3Xe.T.T.e.MXVXM.l l 8 z.S.y.3XkX4X'.:.H ..;.F.Z ",
"m F.2XrX[.M.e.e.5XiXD.e v.iXSX$XmXVX|.A : > ..6X%Xo.b.v.C.H.5.$.>X|.F.>XM.%X=.t   R >XP.:XL.X.7 z c.W.+XmXAXiXZ.*.@ |.pXeX(.rX;Xx.x.>XxX9.R.mXpX9X8X>X+XW.k.;Xm.eX9X)._ 6 6 8Xh.g =.8Xc.,.c.3.|.).%XeX;X,.X.9 =XmXzX:XW._.c.%XSX;X@XbXMXP.c T.OXY.xXeXU.M.9XY.S.w *.%X_.MXR.@.[ y.] ` @.-...U.vXMX>X` t > > c.c.N x =.Y.U.C.&XM.y.c.|.*X@.:.v.y.C.R.8.-.:.} y._ c ).v.>X|.;.5.] Q ;.x._ m A 5.R.[ _ ;.;.] S.: p ,.R.R.F.b.v.tXSXPXT._ y f b.s E v.v..X5XM.U.Z $.r.VXhXv.F.tXhXjX*XT.p.W c.` ..c Z F.:XqX$Xb.,.y.5XiXA.u v.iXDX$Xx.R.J.T.y.b...5X%X[ M.v.M.H.lXkXMXF.h 8 > $X-.g   _ ;XL.:XL.*.4 z c.W.+XbXAXiXC.X.$ |.pXrX(.iX;X8.;.1XvXX.F.GXiX_.1XX.C.).V.c.(.M.9XxXc.Z 5.yXfX=.>X+Xm.xX( >XSX>X_ g 8 L.l.; *XLXmX;XW.>X_.;XMXm.x.C.wXV.v T.OXY.xXwXL.M.8XY.D.r *.@X+XBXR.@.[ y.] ] @.-...U.:.C.#.#.c.c.V.c.c.c j #.U.U.nXGXtX` t 8 8 ] =.i.,.c.Y.8.=.,.] ,.R c ).v.>X|.,.6.Q _ :.x.' V Z :.T.&.' ;.;.] S., p ;.R.R.F.M.b.tX).nXv.2XrXrXv.s W v.A.=X3Xb.ZXwXi.l l y z.F.tXhXjX=XT.v.W c.` ..V ",
"m D.i.[.T.,.v.b.3XT.5.u F.$XiXU.MXVX3XI > > +.3X].y.F.M.v.u.a.J.|.R.z.>Xj.j.=.L   ,.DXW.8X+X7.r b ,.M.C.bXSXzXC.` . W |.5X).wX+XY.Y.Q.zX9.Y.MXxX>XpXpXW.@Xn.@Xc.SXxXOX&.8 5 -Xh.B ,.%Xc.,.Z.#.*XQ.1XeX%XQ.l.6 }.DXmX;XW.>X+X&XMXn.j.c.6Xk.b T.OX).pX9X>.n.W.>XR.r ` W.P.eX%XY.h.=.$.;.b.} ] |.MXvX>X5.p = ; Y.C.Y c c.b.U.R.Y.C.b.T.R.>X/.u.|.b.F.T.c.:.Q.M.|.8.l |.F.R..Xe.;.Z y.;.z.U.] @.:.;.$Xn.=.i.y.,.O 9 w.R y.M.r.b.NXGXHX`.o.2 $ I y M [.%X'.|.y.Q.I i.O.rX:X] |.FXhX2XT.T.:.F T.o._ k I A.i.[.T.,.v.M.2XT.r.a F.$XiXF.m.Q.|./.b.i.+.>X].i.b.M.c.i.nXZXvXM.0 8 ; k.>.H   ,.DXW.8X+X7.r N -.C.C.bXSXpXM.` . W %X1XQ.uX%XG.F.Q.zX*.R.PXdX=XpX-.Y. X9.H.wXL.>XxXL.L B.zXuXv.rX7Xn.bX .1XGX>X` 0 5 OX) $ `.GX8XL.n.MXW.%XmXP.n.). X^.b W.+X).9X>X7.M.W.;XR.p ` W.P.eX%XW.,.=.$.;.b.} ] %XM.;.,.B.b.;.3.Y.C.Z z y.b.U.MXFXpX;.l 6 f T.A.=Xc.C.].F.:.Q.M.).y.l ].F.R.*Xi.=.V y.=.x.T.` @.:.%.%Xx.=.e.y.e.O 9 w.W i.v.r.b.nX=XrXA.2XT.O.Z 0 M '.%X'.*Xy.AXwXJ.p f 8 { |.SXrX3XT.T.w.F J.o.' m ",
"Z v.W :.T.e._ e.*XF.y.u ,.Q.vXT.VXDXR.l $ $ %.rXwXv.-.v.=.a.f.D.&XC.;.8XL.,.{ g   M.LX-X%Xj.{ r e U.U.k.&XpX-X;X3.. O.v.=X;XL.|. X-.%XmXW.Q.MXiX>X9X8XW.+Xj.-.P.SXiXM./ 8 5 7Xh.t [ E.M.[ u.5.tX).|.wXQ.+X .1 T.SX8XU.n.mXQ.|.mXP.m.|.|.@Xc U.:X%XQ.&XC.K.Q.L.F.a c c.=.P 9.T.,._ ] ] V.r.] C.VXvX3X] 6 ; ; :.E Z V x.F.R.,.M.%XQ.C.y.T.Q.5.F.M.,.U.Y...-.b.&X[ L >XC.gX5X*Xy.E 8.v.|.;X-.R $.;.].8.=.I.%XQ.: 8 S.o.b.[.A.-.=XSXLXI.C 2 O w.u W 2X}.S.[.v.Q.e.D.r.wXx.V R..X|.lXQ.R.D.U A.S.v.m Q v.Q ;.T.e._ w.&XF.r.p ,.E.mXT.T.*Xv.M.W ] %.pXwXb.-.v.=.y.nXnXmX,.8 0 > ,.` j   M.LX;X-Xh. .r t L.U.c.&XuX;X;X#.o O.v.=X;XW.&X|.-.%XAXc./.PXfX&XBXV.V.1X-.F.rXW.wXuXV.X.W.MXpXC.qXvXW.uX) =XGX8XL 0 8 7X( $ $X;X[ %XE.@XQ.zXzX>.>.eXtX@Xv ,.Q.Q.E.+Xc.U.R.F.U.a z c.@.P 9.R.,._ ] ] V.r.] C.S.;.y.5...v.8.:.L m b j.C.T.vXSXSXv.l > 2 F.F.%XL.:.Q.&X..;.b.;X] N >XF.kXrX|.8.E ,.v.$X=X=.W @.;.Q.y.=.U.%XQ.: 7 S.o.b.|.b.:.&X&XjXe.T.T.M :.i W 3X|.A.].b.SXvX'.k 0 > C R..X.XkXR.R.S.F b.A.v.Z ",
"l x.A.e.b.e.W Z >X&Xv.V i.M.qXiXmXmXR.h ; $ Q rXvXy.,.R.o.R 5.D.=XS.F.pXc.` x.c O Y.zX$XP.K.j.; 0 *X>X=.,.;X&XpX<.@ F.&XQ.)...#.B.y.Q.vXZ.>XgX>XuXwX7XM.K.( B ..MXwXn./ * ; -XE.e [ E.T...8.@.|._.Q.>X>X9X' > $X:X*.+XT.@XQ.uXxX>.&.tXgX@XK ..I.U.S.U.#.OXQ.v.=XH G W.:...#.-.$.;.-.c.Q.b.H ,.SXMX5XR 1 : > ` -.] b ,.&XR.b.M.Q.Q.F.b.U.Y.-.C.U.;.c.c.@.8.c.M.-.G &X-.wX=X&X@.E 8.F.Q.T.y.] E ] y.;.M.E.I.v.2 x =Xe.b.T.i._ F.SXLXI.o.2 = $.y U *XF.b.|.M.3X|.i.5.3XQ.-.N.} R.rXb.[.F.W w.i.b.a A v.v.e.b.y.W F >X%Xb.V y.M.qXiXv.I.b.e.b.] ] rXcXi.y.Q.@.U vXnXMX:.h f > ' x.c O R.zXOXL.K.8.- 9 :X;X-.8.;X&XtX<.+ F.%X(.).| -.V.:.Q.AXC.>XHXvX6XmXP.G._.' F.wXW.yX9XV.-.F.GXeXZ.7XAX@X#XD =XSXvX_ f 0 >X` , *X9X` %X9X7X%XzXzXh._ +XvX7X( =.I.E.M.C.=.W.].n.=XY G Y.,...#.;.;.;.-.c._.b.H 8.%XY.r.} R ,.C.E =.R a -.=X].nXSXAXv.h > 2 F.8.Q.Y.[ U.U.@.,.n.L.;.V &X=.tX>X&X@.E 8.F.Q.U.8.] ] ] x.=.M.T.S.v.2 z *Xy.b.T.i._ M.].mXv.rXT.o.%.u Z *XF.b.|.b.HXSXJ.h 0 6 ;.V.O.{.tXb.].F.R w.i.A.m ",
"l i.[.].[.A.r.U }.R.b...c.v.%X3XVXvXF.h 5 = n T.>Xb.b.;.Z R G.N.|.,.Y.>Xn.B -.c . F.;X>.K.OX*.# k >XR.P.Y.9X_.%XX.@ R.|.Q.^.y.} ,.%X&XwXC.%XuXQ.E.).>Xc.(.K v ..MXwXK.&.; * z.E.7 ;.Q.U.( ..W |.wX>XyXwX>X..y *X9X' %X8X7X@XpXmXh._ ).bX#X .=.S.oXx.c.;.U.|.j.>XE N 7.#.-.c.W.i.x.9.s.%Xi.o.V.SXMXvXH 8 ; > ] b.} x x.Q.T.M.v.x.|.M.M.R.b...C.u.8.y.b...8.j.Q.v.m M.] 9.U.M.&.H 8.F.=Xb.y.b.;.;.,.B x.yX*XQ.j 7 b.y.e.F.,._ U.MXHXhX&.8 = o.u Z R.,.F./.b.=Xe.a.` rX:XM.y.i.kXiX,.R.y.@.F.*XA.e m i.'.|.[.S.i.U }.Q.v.O.c.v.%X3XS.e.y.,.Y.} n F.>XM.c.$.Z W VXnXvX[ l 0 ; v -.c . F.;X>.K.OX>.O k >XQ.L.W.1X+X&X<.@ R.|.Q.R.8...:./.].yXc.<XCXxXuXfXZ.@XP.X.C.+X:X+XW.j.k.c.nX1Xc.oXzXP.k.r %XMXfX' h 0 uX] 6 3X-X;XiXuXW.U.MXmXE.=.%XSX#X..;.T.Q.I.b.;.U.OX8.=XW b 7.@.-.b.R.y.x.u.c.|.i.] b.&XF.R...;.c.b.] C.Q r c.%X*XMXAXcXI.f > 5 b.:.Q.c.o.M.R...j.8.%Xv.z m.` 9.T.M...H 8.F.=Xb.y.b.;.;.,.Z x.yX%XQ.k 9 c.v.e.S.w._ U.U.hX3XtX].w.o.u M R.,.F.Q.M.DXjXG.9 0 6 b.v.i.hXiX,.R.i.@.U.*XA.k ",
"B }.[.%X].R.a.$.b.b.5.u Z o.A.|.DXVXM.0 = $ } =X$Xv.@.] i.@.6Xt.r.$.).E.m.8.M.v   @.U.L.-XE.h.* m uX;X=Xc.).%XZ.} % ].>X=XwXeX>X>Xc.F.%Xc.&XMX;Xj.x.1XC.W.L 8...uXeXQ.' > ; E.oXg ,.>XC.( R R R.&X&XwX7XuX*.y 3X-X*XrXwXW.U.mXAXoX;.$XFX#X .;.OXoX*XS.=.n.T.8.8.u r  .@.L c.W.Y.=.} { T.F.Q 8.ZXZXpXR h 6 ; ;./.F.P ).6X%Xy.c.,.].&XR.Q.F.] 5.R.c.8.,...;.U.%Xv.k n.-.y.T.U.-.Y F.C.F.|.@.,.v.F.Q.v.M.wXwXE.c : i.F.=XS.$._ R.VXLXjX' 6 * M n k ].y.b.y.:.Q.Q.u.E ,.=.;.=.R rXjXR.F.w.] b.wX[.l I ].'.*X'.R.i.@.i.b.5.u Z o.b.|.*X[.;.] E E } =XOXv.@.] v.@.KXbX5XR l 6 > j.M.b   #.U.C.;XoXh.= m iX;X=Xc.(.%XF.] & ].>X*X5XuX=X%Xb.F.>Xk.1XBX9X(.mX_.OX+X{ C.Q.).-XW.l.j.9.C. X8.Y.wX*.*.e }.nX-X( g 8 ).K ; E.cXxXqX-XK.z.zXOXL.,.pXAX7X) ..$XE.OXn.,.M.Q.8.y.p r ] @.K c.(.W.=...{ Y.S.E y.R.G.R.#.F.].8.#.).B.b &XwX*XgXMXvX,.m ; > i.] 8.&X8.,.,.} [ T.*Xy.e c.*.9.Q.F.=.L F.V.F.|.=.,.v.S.Q.v.c.yXwXE.c ; y.S.>XM.@.] U.R.qXqXqX].] M n k '.y.c.y.:.SXZXF.9 ; = =.;.R 4XjX'.F.,.Q b.wX'.V ",
"k T..X*XrX=XR.@.] R.r.F #.:.v.T.VXVXe.9 = O Q F.;Xv.o.@.T.v.}.!.u.] Q.=.j.E.,.r   E C.W.8X-Xj.O m yXM.C.' M.x.%X-.e >X).Y.jX%X:X9XU.Y.%Xc.=XwXeX+XT.9XC.Z.#.Z.` pXgXQ./ 5 5 OX-Xg F.;XW. .N E T.=XQ.;X>X^.( 6 E.zXpX8X-XK.x.zXoXK.,.zXBX0X' ] $XL.L.x.M.$X:Xc.' x 4 >.u.N ( C.Q.c.y.:.Z.,.] -.MXnX=X} j > ; -.C.H.H c.R.].:.7.;.;XR.U.R.:.5.y.R.v.c.@...u.C.,.[ j ,.,.U.-.v.=.R F.B.Q.b.] ] v.[ T.9.;.Q.T.Q.Z t U.R.|.y.S.S.'.nXLXqXI 6 = I n s T.z.] ,.c.Y.@.F.E Q.e.I i.5X*X2XS.S.,.Z v.U.F.p B T.*X*X5X>XR.@.] /.r.F %.:.v.T.T.R.] R ;.Z Q F.>Xv.o.@.T.v.SXCXwXZ l ; ; E.>.t   R M.W.7XOXn.o m yXM.F.' M.x.%X#.e >X|.R.pX8X>X5XV.R.=X9.1XgX1XN.lX1X%X>X-.Q.U.m.>XM... .` #./.Y.R.vXn.n.t |.VX;X/ > #  .G = Q.OXh.OXK.I.S.zX8XL.,.eXgX7X) 8.:Xn.U.M.L.$X*Xx.` n < 7.x.n ` C.Q.c.y.-.F.e.] =.F.v.] 5.H.Y.c.-.C.F.r k.U.-XcXMXiXS.h : 6 b.] 9.R.] ,.;.] 8.n.h.Z 6 ;.=.U.-.c.%.H F.V.Q.b.` ] v.[ T.8.;.Q.T.].C t U.R.}.v.S.S.'.v.jX:X%XT.o.R n a T.x.@.,.b.mXgX).9 6 : I e.5X*X3XS.S.e.V v.U.F.l ",
"h ,.R.|.R.T.*XQ.|.tXa.u.1XT.'.e.SXmXe.6 O $ n c.E.n.;.b.T.T.tX(.b.Z v.v.m.n.M.x   -.gX9X-X0XoX* _ jX,.[ ] Q.M.R.#.O.wXY.rXpXW.%XpX&XQ.U.U.9X>XwXP.U.>XW.L.8.L.=.mXgXv./ 5 8 -X-Xc R.|.+X-.B @.=X;XQ.c.....K 6 Q.-Xj.OXK.I.I.zX7XP.h.rXzX7X .M.8X>.U.oXQ.>XqX,...#.w >...V X.8.=.c.x.=.y.i.@.;.vXpX>XE 0 > ; -.C.b.P c.C.U.;.r.Z.6XF.M.1XC.y.y.Y.C.$.-.-.c.Y.=.@.h _ ` 8.-.v.] #.C.,.M.8.=.] 8.,.U.:.@.F.T.R.L 9 Q.;XQ.v.F.R.S.MXHXI.5 = = ;.i 9 v.v.$.M.C.vXbXdXR MXmX*Xv.>XU.4X|.].F.e.y.T.C.p m ,.R.|.'.R..XR.|.tXf.u.5XJ.'.i.[.U.' I V H x c.E.n.;.b.J.T.HXCXrXm 0 > > n.M.c   :.dX9X-XyXoX- _ jX,.[ ' Q.b.Q.#.~ yXR.wXzXQ.:XpX).).%Xb.1X+X(.V.fX,X>XW.3.>X).W.>XL.P.W.N Y a.W.Z.MXE.&Xv &XSX;XA ; O (.*.- T.P.>.U.M.8XQ.zXzX-Xn.eXbX9X .M.7X>.L.+XW.-X7X,...#.4 >...V X.j.-.m.c.@.y.r.-.-.-...@.;.y.c.3.-.v.-.u c.T.F.pXBXKXhXf ; h [.8.C.]...@.x.-.8.U.A L 8 L L 8.3.v.R ..B.,.b.y.=.[ 8.,.U.:.@.U.T.R.H 0 ).=XQ.y.F.R.S.F.rXz.B @.;.,.i e v.v.$.M.V.PXKXmX8 h h *Xb.3XF.rX'.|.T.:.i.U.b.c ",
"m 8.:.T.S.J.i.F.,XeXt.Q B.M.3X3XHXVXI.f > O z y.M.R.,.y.$.v.|.| %.} y.wXK.n.;X'   Z wX:XL.7XoX+ C iXM.F.,.T.>XR.G.^ W.+XzX*XU.kXMX).F.Q.c.R.1X%XY.v.;Xm.U.M.OXV.mXmXC./ > 6 %XE.;.U.;X_.x.N @.*X&XY.7.=.&X7.6 R.L.>.U.K.8XT.cXzX+Xn.rXxX0X .c.:X..L.7XE.m.-X;.b.E u j.=.H Y.m.8.9.C.@.y.b.#.5.vXvXwXR 7 > > B.C.Y.} Y.F.b.y.c.v.1XM.R.5X/.8.-.H.F.B.V.*.r.F.T.F.c j.` -.=.-.x.` ,.,.F.e.P P n.,.K.b.v.&XQ.R.m > ).v.R.R.|.-.S.SXLX*X5 O = e.u u b.e.,.Q.n 3.{ u.` F.SXiXv.>XS.=X|.'.].b.:.:.y.H C 9.:.T.S.T.v.S.1XeXy.E b.S.3X:XqXT.e.@.x.R z y.M.Y.,.y.$.n.SXkX>XZ 9 0 > n.;X'   Z yX;XL.0XP.O C iXM.F.e.U.>XR.F.| Q.%XpX>XR.vXAX).R.%XC.,X>X/.F.gX&XiXk.` &X+X1X>XW.Z.9.a M B.;XW.xXP.9XK &XSX>XA > 1 mX>.O T.-Xm.z.:X-X>XDXzXE.h.iXFX7X( e.>X>.L.$XM.n.$X;.c.Y e h...J Y.m.8.c.F.@.c.b.#.:.y.v.:.} -.M.C.C.U.D.b Y.|.S.tXbXGX5Xh l l Q.v.K.x.R =.8.3.v.U.z.v.p >.A ;.=.;.y.R ,.,.F.y.P P v.,.M.b.v.&XQ.R.m > Q.v.R.R.|.-.S.].tXT.C U o.e.u u v.e.,.Q.n bXpXZ.8 2 l iXb.>XM.=X|.].[.b.:.:.y.` ",
"M ,.@.Y.R.v.,.-.9.} ^ Y D.1X1X%XSXAXT.h 8 ; N F.8.:XM.,.o.@.8.M @.$._ R.M.K.,.V   Z ].rXn.E.P.# m >X=XtXC.Q.jX>XH.N (.;XeXwXnXvXjX9X*XOX=.-.;X%XU.W.:Xm.C.j.P.j.MXmX7XC ; 1 $XK.>.OXW.U.j.j _ }.%XY.M.&XmX7.* [.-Xm.x.$X-X>XDXzXoXz.iXDX7XK e.>Xc.K.M.] [ ;.-.9.:.a 9.=.b H.C.M.W.T.=.S.T...v.SXmXwX8.8 = = =.8.Y...c.V.F.C.F.-.R.B.y.b.y.-.-.R.F.F.5.} V.v.).|.Z j.;.;.] b.@.K b.y.5.[ C ..M.o.M.v.:.3XR.R.m > v.] b.Y.Y.;.pXHXZXHXy $ = o.u p =XI.y.T.E } c.F.c _ S.uXv.R.v.].|.|.:.R Z @.:.k A :.@.R.R.v.,.-.8.} ~ J F.,X1X%XQ.$XM.;.%X-.N F.8.*XI.,.[ $.bXwX=XR > 6 > K.8.B   Z Q.tXn.E.L.@ B :X=XtXC.Q.pX>XG.M (.;XeXwXMXMXmX1X;X>X>.C.dX,XdX>XZ.;X8.c.S.F.:XQ.m.-.N.F +.D.dX>X8Xk.;XK +XSXeX( 6 8 ;X( o 3XyXK.Q.mX9X%XiXoX8XK.:XSXzX*.j.-XK.oXU.[ &.;.=.3.$.u 8.@.s H.U.M.+X].=.F.T.o.c.*Xv.8.F.-.[ ` 8.c. Xb 9.M.,.tXkXbXT.f 8 0 I.R M.E.I R R } U.M.&XR.k >.' o.[ b...V c.x.:.[ Z ..b.o.F.v.:.5XR.R.m : v.] b.Y.Y.;.pX5X}.SX] R O.@.p a =XS.i.T.E pXbX|.2 $ 1 iXv.T.v.].|.|.,.R Z ..,.m ",
"m R.].|.|.R.R._ Z } ! 6.|.c.M.M.MXMXE.h 6 - M F...U.I.v.x.y.B.} y.8.M.>X>XK.` r   Z %X=Xn.E.W.1 A E.y.).%XU.wX).3.j eX;XwXiXHXVXzXuXU.U.:.F.=XwXQ.;X*Xm.C.7.W.v mXMX@Xj = ; 7XK.&.-X-X+XP.r Q }.<X=X%XeX@X( = 3XzXK.Q.cX9X%XiXoX7XK.>XMX0Xc.e.-XL.0XQ.;.=.,.=.#.a.u :.;.V R.R.x.c.U.@.U.M.] Y.MXkXtXM.p - - -...X.Y -.c.b.V.v.G c.).u.b.8.} 8./.c.8.X.@.C.M.U.>X] C.M.S.b.F.` L v.Y.8.].` M.b.@.M.] @..X%X|.V o M.8.L.8.:.8.mXGXcX].2 X $ v.u Z |.*Xb.tXi.5.R.F.a b.e.@.;.M.3XR.v.T.R.o.Z A R.] L R.].|.|.R.R._ Z } ^ 6.|.c.M.M.U.C.v.,.Q.:.M C.&.K.I.v.x.y.nXpXwX} h 0 8 K.` r   H $X=Xj.E.W.6 I W.y.Q.%XU.wX).3.j eX;XwXiXPXAXzXzX|.*X-.c.,X6X5X>XwX9X8.C.8.%XpXj.k.*.M U  XD.6X8XOX>.OXG %XnX9X` 8 0 &XK # 5XmXiXzXDX7XM.U.oXyXoX-XvX#XE.K.@Xn.9X).-.;.h.@.#.r.t ..@.c R.Q.x.U.T.=.T.S.] Y.R.#.b.|.c.8.3.8.[ } t *.y.w.iXgX1XS.h > 5 x.] R.3X' ' r.c.,.n.T.>XC c.n.U.M.M.H H v.Y.3.].' M.M.@.M.] @.|.%X|.V o C.8.F.,.,.8.nX*X,.S.m p R v.u F |.*Xb.rXi.lXBX|.; > ; @.;.A.3XR.b.T.T.o.Z A Q.@.",
"j ,.T.S.}.3X*Xi.Y t.J T c.] b.e.BXSXC.l 6 > o.C.[ M.x.U.v.=.} } Z.8.F.uXE.K.( g   R Q.c.j.n.j.# C I.] C.eX5XtX>XV.H eX&X].yXVXDXDXMXY.U.M.|.=XwX1X+XW.-.9.,.V.g iXMXE.8 # = I.j.' U.+X+XW.g W R.,X;XE.;X;X( : 2XzXyXpXDX7XM.K.oXyXOX%XvX#XoXoX-Xj.%X>X,.M.Q.v.=.%.N 8.,.E :.y.` ;.@.R c.y.] y.bXnXwX_ 6 = > 9.' @.| 8.u.c.5.;.R b.c.H.c.v.] } 5.u.u.8.b.b.C.R.wX] M.I.|.a.U.-.I &.9.C.pXh.v.|.T.b.=.F.pX=XF.m # &X8.T.[ -.y.>XHXSX].1 X = rXM s F.].$.tXb.).U.R.p =X3Xo.F.=X2XR.*X&X>Xy.:.v.y.;.m :.T.b.|.5X*Xi.Y t.J ! y.} M.e.T.|.8.c.Q.M.$.B.} M.x.U.v...gXgXpX} h 0 5 L.( g   R Q.v.h.n.h.# A M.] C.tX5XtX>XV.H eX&X].iXGXLXFXMXR.Q.b.].|.,X1XBXvX9XC.9.y.wXvXW.7.V.b /.6Xf.*XwX-X&.%Xv |.VX9XA 6 8 Q.C = :XzX+XwXDX#XL.$XoX-X;XOXpXOXm.-XOXj.E.%X;.M.Q.x.@.#.n *.&.G =.,.R y.=.L x.i.R 9.u.b.9.;.] { V.k.` Y 4 ' C.w.iXxX3XC h ; = ;.@.M.Q.@.i.].Q...M.|.:Xm x.M.*Xb.Y.[ V ..8.C.xX,.n.Q.T.v.;.F.pX=XF.m # %Xh.T.[ ;.9.>XrX&XT.Z 2 O.rXM a F.].#.pXb.SXMX|.= 8 0 o.F.*X3XR..X|.>Xi.:.b.i.y.",
"2 v.F.,.w.R.].i.M ~ ! Y ).] C.v.SXBXQ.l 6 1 ] F.` R.M.C.n.v.%.} F.....M.j.;X-.z   @.5X>XK.E.-X* B E.=.v.>X=XgXbX_.r Z./.].mXbXDXGXzX*X).F.T.>XrXuXQ.W...8.;.>.g kXvX%X0 # = h.h.( z.%X-XW.0 M R.1X;XL.-X(.K 3 :XzXoXrXSX;XL.$XOX@X;XOXuXoXj.;XoXc.>.n...j.U.M.[ 5.P m.x._ =.y.y.&.=.X.-.=.} -.SXBXtXR : O - c.@.u...c.8.-.b.u.E b.b.8.x.C.] ` F.R.5.u.y.C.C._.rX@.,.E.Q.F.b.;._ =.( ,.T.=.Q.>X|.%XU.C.xXW.*X` O @Xv.=.[ C.C.R.DXAXT.y 6 f bXZ 3 %XiXb.GXH.=XtX&Xe T.nXT.,.F.|.R.4X5X3Xv.-.b.v.` p b.F.e.w.T.].i.M ^ T Y |.] M.v.R.Y.C.x.$XF.] F.E Q.C.C.n.v.kXgXpXR 6 > ; ;X>.x   $.1X>XU.E.-X* B E.=.v.>X=XgXbX_.r H.(.].mXMXLXHXmX=X>XF.|.|.>XBXvX;X&XM.:.M.vX9X(.Y.(.z u. XY.>X>X7Xj.>XC &XSXuX( > 8 U.o.: 2X0XW.iXAXoXL.iXqXOXP.U.U.j.n.8XOXc.,.M...j.U.M.] #.b k.n.Z o.,.y.&.;...-.=.] -.Y.U.b.=.m b 8.c.=.$.r *.c.y.vXgXpX] h ; > F.Y.L.).:.&.*X,.,.W.;X%Xm ..E.%XR.b.$.I *.P ,.T.=.OX3X|.%XU.C.xXW.*X' + @Xc.=...Z.C.T.&XR.b.o.R.gXnXZ 3 %XiXb.GXY.FXHX4X$ 2 h R.:.F.|.R.rX3X3Xc.;.B.y.[ ",
"9 y.Q.'.rX3X:XR.| s S +.R.@.y.;.MXvX|.m 6 > R y.r.v.v.=.h.M.b.r.;.L ' >.k.L.) j . 5.&X;X%XyX0X@ l U.v.C.R.kXNXuX3.J u.i.4XpXMXSXDXpX&X;X;XQ.>XwXwX>X@X=.R.M.n.c MXBXuXc * = E.h.[ M.W.W.L.w Z 2XeX9XY.*XW.*.7 *X8XW.yXAXoXP.uXyXOXE.L.L.h.S.7X@Xb.v.M.:.v.L.T.9.u.J ;.Y.*.@.=.u.:._ =.#.R ] -.BXZXwX$.5 * ; C.-.8.} C.C.b.C.B.H c.c.7.b.[ E @.{.'.b.b.5.#.B.1X5X$.j.v.U.H.-.G.y...@.A ,.n.L.1X%XjXS.,.+XU.>Xv.@ U.-.] V T.x.M.AXMXtXA h k gXU a pXcXU.FXb.).wX.Xk M.=X:.] =.=XY.>X=X*Xv.@.,.y.V h e.Q.'.rX3X:XR.| s S +.R.@.y.:.F.b.H.M.Q.b.Y y.r.v.c.=.,.M.MXvX1Xm > ; ; L. .j . 5.&X;X%XyX0X@ k U.c.b.R.kXNXuX7.F u.i.rXjXAXHXFXxXwXpX X|.5X,XvX7X9X(.T.] v.SXuXY.L.V.P S !.,XpX:X@XL.>X( ;XSXpX( 5 0 -X*.% =XyX;XrXAXOXm.yXzXL.OX9X+X .K.7XOXB.F.E.y.n.U.U.,.%.s  .E._ ` -.y.@.[ ] ..[ ] =.b.Y.y.v.`  .-.C.;.#.a *.,.C.vXvXjXv.h 2 > v.8.=.x.} ,.T.' _ >X>XiXZ *.,.U.R.#.F.8.....L ,.n.L.9X|.pXS.,.%XU.>Xb.O L.-.] V U.x.M.Q.Y.5X|.nXZXgXU a pXcXU.FXb.SXHX1X: > 8 y.] =.=XY.>X*X*Xv.#.:.y.R ",
"4 y.3XT.nX>X|.T.E F F ~ R.R y.b.bXZXb.l 8 > x ..y.Q.M.8.U.Y.R.-.y.` x.W.W.' ( K   ] y.+XM.oX0X; i Q.3.M.vXCX).1X5.F 6XB.*XvXMXAXDX0X&X&X|.Y.Q.;X>XW.L.=.*XE.*.1 nXSXL.C * = z.&.@.M.:XC.L.l x G.1X;XU.wX1X*.2 *XyX;XyXmXW.m.yXpXK.OXwX@X( E.7XOXB.%X>XM.M.U.T.c.C.E *.L.=.u.u.y.8.:.b.y...@.j.SXbX&X] 2 = - c.M.6.] F.B.b.F.u.H N.8.u.c.=Xc.y.{.'..Xb.y.-.F.&XjX;.-.Q.M.F.|.pX..#.V.=.' 8.>.>X&XmXM.A E.W.8.y.# ` ;.:.#.).c.T.SXSXvX_ f h gXZ 3 ).pXQ.6X:.M.5Xb.l F.*XF.M U.wX..F.|.R.M.8.v.b.C t y.5XT.nX>X|.T.E F F ^ R.R y.b.y.R.-.v.*XM.z ..y.].M.,.L.U.DXvXwXC f 5 5 ' ( K   ] y.+XC.W.0X; k '.:.C.vXCX).1X6.J ,XV.=XmXDXHXJXuX6XpXeX).1X&XwXzXuX).cXOXvXMX@X).Z.7.z b D.{.MX+XoXn.K.( |.vX>X_ 5 0 P.( 3 :X>X7X>XzXzX*.$X8X-X7XuX7XC R.7XOXu.(.:XU.L.T.Q.8.r.z ( M.[ 3.C.F.v.S.,.9.@.-.c.Q.8.` -.} =.7.c.Q.:.p c.c.:.MXMXnXY.h > 6 -.` -.] #.y.Q.,.x.>XW.pXR =.Q.x.U.|.kX] ..C.=._ 8.>.>X%XmXM.A E.R.,.y.* ` ;.:.@.).v.U.).|.iX*XrXvXgXZ 3 ).zXR.5X;.MXGXR.: > 8 S.Z F.wX..F.}.R.M.8.v.M._ ",
"j C.>X*XiXrX&X(.V b s W b._ b.R.vXpXS.R 6 = n #.|.kX).n.M.%XC.u.U.] ..wXZ.' ( j   Z k.(.3.L.+X@ Z U.b.dXfX X).uX3.e Y.=X>XxXSXAXSX)./.&X(.,.c.Q.>XU.n.-.|.:XL.1 GXBXL.C # # h._ 9.U.).U.c.C 9 O.].;X+X9XW.( p *X;X;X>XzXzX*.OX8X$X0XyX#XC E.-XE.8.Z.%X).W.W.C.8.6.Y c.-.P 3.b.v.-.r.c.c.b.r.C.SXnX>Xm : # > v.C.y.@.c.3.c.Y.c.n B.C.u.u.|.B.#.b.b.J.y.6.a.u.V.b.:.} %XF.R.=XM.V G >.y.,.;.*.T.m.Q.K.>.:X:.R @.# M.%Xv.Z.F.M.>XHXDXgXC 0 0 >XE 9 v.pXU.R.@.|.|.C.k -.%Xv.@.S.Q.:.b.=X3XC.#.R.T.%.l F.>X.XiXrX%X/.B b s W b.R c.R.y.#.:.*X]...n %.&XkX+Xc.M.%XNXMXpXZ 6 0 1 ' ( j   Z k.(.>.L.+X@ Z F.b.dXdX&X_.pX7.e Y.=X>XmXDXLXFX;X=XpX1Xc.R.;XuX;XuX>XAXqXzXmXQ.U.j...z ^ G.6XLX9X@Xh.h.( (.iX*X_ 8 8 L.) 8 U.m.;X>XzXW.` m.:XwXOX7X7X( ].-XE.#.C.@X%X+X%XW.=.} a 7.*.G L V.;XU.|.=.M.S.C.Q.Q.v.@.N m ..Y.c.U.v.n L @.F.MXMXeXv.l > > $.;.:.` } 8.E.Q.Q.n...C.;.V >XM.Q.1Xb.m C -.z.,.-.*.Y.M.Q.K.>.:X,.R ..# M.%Xc.F.F.C.>XwX>XwXW.eXeX>XE 9 v.pXY.R.@.SXSXR.: ; 6 n...S.Q.:.V.=X>XC.$.Q.T.:.",
"9 $.R.>X>X$XT.Y.E M M E ] E u.R.VXwXR.[ 8 = H r.kXvXuXm.m.).#.u.&X` ] +X8...L g   ;.L.c.c.x.-.% w.{.lX&X XeX&XY.G e F.C.>XyXAXmXgXk.R.>X%Xx.U.%X>XW.m.-.K.0XzXg FXFX%Xl # = ,.( ..Q.U.W.Z.( 4 $.F.%X9X>XY.*.9 U.K.;X;XpXW.[ n.-XwXOX7X7X( $X+XF...m.U.7XE.Q.T.8.:.] 8.W.3.C.C.y.E @.c.c.c.c.-.MXmX>X] 2 = ; c.c.U.B.8.b.c.G.u.G ^.)./. X|.b.] c.i.B.F.b.+.} R.F.y.' Y.v.Q.Y...E y.;.=.x.Q.=.U.;.j.T.M.=Xv.U.&X1 >.U.x.-.b.C.wXFXMXyX/ 9 1 =X] 9 Y.yXU.R.%.>XR.B.l @.:X=.H M.].y.3.|.=Xb.} F.=X[ k @.R.>X1X$XY.Y.` M M E o.` y.R.F.N A.wX>X..H :.kXvXiXm.M.).xXbXbXB 1 8 ; @.K g   =.Z.c.c.n.3.% w.).kX&X_.eX=XF.H e F.C.1XzXAXAXMXm.&XfX;X..c.=XgX@X:XwXDXzXAXHX+XC.W.j.r F {.JXLX0XP.*.j.( %XvX&XA 8 6 L.K > |.L.+XOXyX#X' K.8XzXL.7X+XC E.h.n.-.c.E.>XOX$XU.[ @.n >.L.R @.C.v.8.S.@.c.%XY.,.C.-.=.o.Q =.c.c.n.&X3.c 3.F.kXbXpXH.h = = b.M.[ :.! c.x.8.,.[  .:.,.b R.M.%XY.} L 8.=.=.x.Q.@.Y.;.j.T.M.=Xb.U.&X1 >.T.c.;.c.C.wX|.R.>XQ.+XC.=XQ 0 Y.yXU.R.-.GXBXR.> = 8 @.R b.].c.3.|.=Xb.] F.*X;.",
": -.F.M.&X>X*XR.b.m H H 5.$.R.H.GXpXhX:.f = ] 6.4X>XwXC.L.M...2.Y.@.G v.>.' ..v   #.).Y.c.*.E x dXCX1X,X9XY.+XC.P u b.Q.|.mXxXuX1X8./.,X(.v.Q.U.%XC.m...8.:X@X> zXmXQ.h = # 8.Z y.Y.i.F.b.( u  X%XQ.Q.W.W.( 4 }.L.+XQ.yX;X[ M.8XzXK.7XoXK oX&.n.9.3.U.>X*X).F.x.y.O.k.%XC.C.B.r.....8.b.x.x.8.SXmX2X;.r = = 9.y.8.:.} 8.B.B.F.} Y.F.G.V.|.D.%.c.B.C.F.3.#.u.u.S.y.` %XE.%Xv.-.R 3.c...I.%XV.C.n.Y.b.] &X%X&XQ.r 9.;Xc.Z 8.b.=XHXHXmXl 8 8 Y.O.4 R.>XT.wXV.6XU.} k c.yX,...5X:X-.b.>X5XF.} '.R.` 7 %.F.M.*X>X*XR.v.M U H 5.@.J.F.1XO.4XmXiXO.} 6.5X>XyXC.L.M.gXkXgXE : > ; ' ..v   @.).Y.m.@.P z dXCX1X,XwXY.%XC.P t S.|.|.mXmXcX0X7.%XtX&X8.Q.=X=Xk.;XrXDX7XmXxX;X7X9XP.N !  XHXSX0X>.>.x.K >XSX7XC 8 8 +X .% rXW.>.,.%Xk.,.qXzXzXK.oXoXB M.' M.C.u.K.>X=X;XM.=.,.m ) zX:...b.@._ U.;.y.%XM.8.%Xy.@.b.a...{ 8.8.,.R G 8.r.jXnXpXy.2 = : &Xv.y.|.u.F.,.#.x.M.-.] [ c ;X:X:XM.=.G 3.c...U.%XM.M.m.Y.v.] %X&X%XQ.t 8.&Xx.G y.b.=X9XiXvXn.&X|.Y.O.3 T.>XT.9XV.HXMXj.: > 0 ,...6X>X-.V.>X2XF.} {.Q...",
", ] F.C.%X5X>X2Xx.m Y ! R.v.R.1XKXiXtXM.0 = b.@.Y.Q.>XL.U.).9.+.u.#.P T.W.U.k.(   ` ).W.,.>...@ U 1X(.R.&X(.1Xm.G z 5XtX=XyX>X=XpX8.C.1XQ.x.].;X=XL.c.=.h.U.j.: mXAX+Xh = = [ c -.C.V.C.c.P s R.).%X>X&X;X .6 4XW.>.,.%Xk.,.wXzXyXK.oXK.v j._ E.Y.B.W.>X).L.C.y.c...=.).Y.b.u.F.#.;.y.@.V.Y.C.MXMXwX] 8 O O y.-.v.8.:.Y.C.F.G.} C.H.F.b.F.| u.C.R.).B.] #.B.b.R.e.V M.*XQ.F.Y...` ..R >XU.n.U.C./.M.8.>X&XF.Q.B c.>XM.#.b.C._.SXDXiXB 0 8 Q.$.0 Q.5Xx.Q.c.1Xc.;.N 8.].=.#.=X>X:.B.|.2Xb.] J.,.A 9 ] F.F.%X5X2X>Xy.c Y T R.b.).1XtXO.5XHXiX5.b.X.H.Q.>XU.U.+XbXkX6X_ ; 6 1 E.k.(   E ].Y.>.,.X.@ H 5X(.^.&X).1Xc.G s 3XiX>XpXrX>XfX-.R.6X(.x.5XR.V.@.u.1XmX;XyXwXQ.pXZ.*.#.f.J.CXSX9X*.8.9.G 4XGX@Xv f 8 %X( $ '.W._ ' K.h.n.mXzX-XK.7Xj.A n.h.T.Y.b.Q.&X%XQ.Y.>.,.R v -X:.R c.;.@.+XI.>.%X>XT.Q.Q.v.=.=.Z H 8.,.8.} N |.A.mXBXiXS.8 ; > E.x.E.y.3.V.U...8.M.v.=.R 9 K.zX>XR.Q.} R ..L >XU.x.U.C.(.S.8.1X&XZ.).V c.;XM.#.c.C._.%X*X8XK.6XwX/.%.9 R.wXx.Q.c.GXbXv.1 : 6 @.@.&X:X:.D.].4Xv.] J.8.R ",
", H J.R.).=XD.Y._ s 1.Y Y.b.-.&XSXjXtX&.g ; u.#.8.Q.j.8.C.eX!.#.b.,.9.W.L.m.&.v   E =X,.;.&Xk.@ ,.wXP.>.*X&X5X_.H e |.jXwXxXwXwXxXC.Y.1X%XF.&XiX>XU.x.,.F.%Xm.> MXBX%Xl ; = ..N Z =X/.R.F.G M G.c.(.pX;X%X .; Q.E.` [ n.h.n.zXzX-XK.8Xj./ n.K.Q.W.-.T.Q.Q.U.F.C.F.8.#.(.M.r.6.R.H.#.b.E 8.Z.G.SXZXiX[ 6 = = b.r.-.y.b.b.v.Y.T.@.|.F.Y.H.i.n | /.b.F.Y.#.y.b.F.kX6XE n.+XQ.T.Q.X.8.=.L U.M.8.9X&X+XMX*XL.(.F.*X_ j.1XY.u.C.C.C.SXSXpXl 8 h 1X@.s U.qXW.tXU.%X).c.Z -.v.M.u.|.3XM.v.].2XM.Q r.G G 9 H R.R.|.=XM.H.` a 2.Y R.M.$.&X|.;.5XpXeXr.c.=.5.W.j.8.Z.eXBXlXeX' 0 6 5 K.*.v   R :X,.;.=X9.@ ,.0XL.>.=X|.9X(.H w |.jXwXxXuXwXvXc.Y.eX>Xb.pXeX).9.c.wX;XW.;XzXQ.vXk.G z <.,XNXHX;X>.M.x.K wXFX+Xv 0 8 %X .$ w.L.=.&.-X+XL.qXOXoXoXzXl.v h.M.%XC.=.Q.Q.Y.E.Q.x.v.} r >.A ` F.T.Y.*XR.v.OX8XY.C.$XU.=.] ] X.c.c.O.Q x ;X].MXnXwX:Xh = 6 3XS.U.=.{ (.).M.,.x.M.U.8.t ,.;X$X:X:X` =.=.L U.C.j.>X&X).mX:XL.).F.=XR x.1XY.u.C.C.M._.&XwXv.+XdX1X@.s U.qXQ.tXY.SXAXY.2 ; > M.u.|.3XM.y.].=XM.Q y.Z ` ",
": k }.R.F.c.v.1X@.s r.T R.R.:.C.kXZX*XC 0 = r.-.{ 8.-.V.c.<Xs.+.b.U.=.C.K.+X .g   ;.eXn.U.Z.#X* b.mXZ.c.>X>X>X1X` 4 &XnX8XBXvXtXpXP.&X6X1XR.>XvXuXM.@.y.` y.Y.x.MXZX;XB - ; ] G a J.Y.V.b.` p D.c.W.>X*X;X>.> =.L.;.*.-X+XI.yXoXOXOXzXK.v ;.m.:XC.=.U.).).M.M.,.@.C.c.c.@.-.-.c.B.L #.Z ..:.-.nXbXpX] 7 ; = 8.5.-.u.8.y.c.b.R.} &X X/. X&X+.+.y.J.-...,.v.i.y.5XkX@.W.M.T.).M.` 8.-.` U._ ` %Xv.U.uXQ.;.C.).U.[ :.&Xb.c.-.>.x.mXSXyXh 6 8 =X| z Y.>X%X%XC.>X>Xc.x ..wX).b.c.>X|.S.3XR.F.#.b.] Z 4 a |.R.F.b.c.1X@.k r.~ R.R.:.V.} |.R.U.5X} r.-...8.=.V.c.<XbXkXtXx.6 1 > @X .r   ;.eXm.Y.L.@X; M.mXZ.b.3X>X>X1X) w &XvX1XSXbXiXxXZ.,XfXuXR.gXBXbXF.] 3XzXE.cXxXW.+XV.&X#.6.6XtXFX7X8.n.8.` tXSX;XC 0 8 OX>.2 v.U.OX$XqXn.h.7XzX7XzX-Xk.t x.E.7XR...W.*XU.Q.*Xv.[ ;.j ' ` E Q.F.7.m.y...x.n...y.M.U.-.5.;.' b.r.} #.a Q.R.MXvXjX:XB 1 0 yXQ.L.L.+.&XeXrXx.>.=.j.x.t m.K.W.>XM.L 3.=.` U.A ` @XM.U.pXQ.=.M.).U.[ :.&Xb.b.-.8.x.x.+X>Xh.T.>X=X..s R.>X+X%XM.HXFXY., = 0 $Xb.b.>X].F.>X[.F.#.u.] R ",
"< k F.).T.v.Z.&Xi.R +.%.,X5XT.8.pXZX>Xc > # b.8.` c.;XY.] *.E +.C.C.x.C.,.j.*.t   @.|.U.R.( ^.q 8.7.7.R.pXvX*X+X( z gXPXSXFXeXwXbXZ.u.kXpX*X9XvXuX8.=.W.P 5.|.u.mXZX|.c : : 8.X.3 J.(.c.8...e r.Y.R.>X%X+Xj.p v.W.Q.$X8Xn.h.yXzX8X9X@Xl.t M.Q.:X>X8.c.Y.%X).c.....6.C._.H.5.y.5.B.H ..Y -.8...vXMXiX..6 - = ,...8.F.-.u.R._.|.' _.&X%X5XpXD.~ b.G.u.$.:.R.S.b.M.e.] I.v.Q.Q.R...7.v.c.*XA c.+XM.y.OX>X8.F.T.U.y.5.F.F.|.%.8.Q.MXDXQ.h 8 0 1Xu.e M.;XE.Y.C.>XE.' n =.].x.@.).F.F.|.:XW.*X] r.$.A 0 z F./.R.r.F.=Xy.W O.1.1X6XR.8.] }.|.b.b.` b.9.` c.;XY.] *.gXgXiX,.f > ; h.&.t   ..|.U.R.( ^.q 3.8.3.R.pXvX&X+X( j cXPXSXHXfXrXbXP.Y.bXvX;XvXAXmXW.y.kXcX*XSXmXW.W.m.<X_.y.y.Z.xX0X*.*.;.@.pXBX>Xv f 8 Y.>.2 T.wX*XiX8X>.&.E.zXzXOX7Xj.h T.E.:XpX#.T.>XW.>X*X,...i.j *.,.} L.v...L.8...Q.Q.} 8.Q.-.@.8.y.=.c.' k.U.z ).F.MXMXkXM.l h 9 $XU.v.*X@./.Q.qXK.W.,.[ =.0 ' h.+X*X%X| 8.c.M.%XZ c.OXM.y.OX:X8.P.Y.U.y.3.F.D.|.-.y.R.Y.(.M.,.>X4X5Xc.w C.:XY.U.L.GXMX8.> = 8 x.$.).C.U.|.%XQ.=X} y.$.R ",
": e /.6X|.4XQ.R.R.-.Y +.=X;XQ.M.bXSX=Xp : O a.c.#.%X*XL.-.Z.X.C.Y.T.m.W.Y.>.' C   R Y.Q.rXwX0X& E V V c.Q.rX9XW.c r nXPXSXSX1X1XbX%X).,X|.Q.wXpXuXc.9.). .6.R.2.kXnX>XB > ; #.G 2 &XL.Y.8.#.B #.G.M.>X;XR.,.y R.wX-XzX8X>.[ E.zXyX-X7Xj.c |.oX-XMXr.U.U.;X1Xy.;.c.N.F.>XH.#.F...:.M ..-.C.y.| lXMX6XL 6 = = 8.,.Y.c.] ;.R.|.=X$.V.R.F.=XiXy.} u.u./.b.a..XF.r.S.] ] U.C.|.R.T.C.C.F.M.x.v.M.-X@X&X>XQ.C.W.C.Z.:.b.|.|.u.%.,.&XFXbXY.h 0 h =XN., y.wX).Q.&X+XC.l M y.*XI.A C.v.@.|.%XE.Q.F.:.I ' 7 e ).6X&X5XQ.R.R.#.Y +.&X;XR.b.8.&XR.-.5.G u.c.#.@X%XL.;.Z.gXNXgXn.g 5 5 >.` C   R Y.).eXeX0X; E C V c.Q.rXwXY.b u MXPXAXFXeXwXBX_./.lXtXrXvXMXbXP.M.MXMX8XAXDX@XW.*.L.0XH.2.X.<X@X` >.] #.xXMX).h 0 8 Q.m.c R.7X9X9X7XW.=.n.mXh.h.@Xh.C M.E.:XvX-.W.OXE.wXE.>.[ v.G n.&...%XT.} -.-.=.L.S.] C.i.[ ] ..8.L.c.-.M.8.j C.Q.MXAXiX..0 l 0 E.*X%XjXv.>XuXmXM.M.E.x.R k ,.x.>X+XW.C.C.W.U.n.x.M.@X%X&X>X).C.R.C.C.8.b. X|.u.$.:.&X&Xv.b.,.9XvX>Xc., y.wXOX).&XSXMX[ 2 ; 8 I.A C.v.@.].:XE.Q.F.:.R @.",
"4 x ,X=X.X4XT.F.R.-.#.t.V.>XM.8.pXnX|.p : # y.Y.E c.L.V.V.&XB._.,X;X>.U.L.c.c.h   %.&X>XuXW.^., #...c T.;XQ.>XY.r t LXPXxXbX&XeXHX#X=X>XU.Q.>XwX;XW.C.W.` @.y.-.bXMX.Xc 6 5 8.<.k }.Z.R.u.b.u.-.5.v.>XQ.|.C.G R.>X7XqX;XL.=.K.cXh.h.$Xj.A n.$X7X3X-.c.c.H.wXc.} y.C.u.).y.@.....#.J E #.u.b.} gXbXwX] 2 = = r.u.c.-...#.8.C.|.8.C.R.U.&X*Xc.@.F.G.H.S.b.=X).C.T.M.:.x.I.U.|.W.3.=.C.x.oXqXj.@XpX;XeX%Xb.(.Y.c.y.C.=X|.u.%.-.R.SXMXC.l f h Q.} 4 ..8XqX>X=XU.c.H H ;.>XM.( y.v.:.e.T.>XU.5.;.o.C p z =X,X&X4XT.U.R.:.#.5.V.>XM.8.E F.G.+.5.E r.Y.R V.C.V.V.&XMXSXmXY.9 5 > M.c.g   $.&X>XpXE.(.& #.*.c T.*X).>XW.q a HXPXMXmX<XeXJX<X1XiX;X4XmXmXgXW.C.iXpXqXAXxXm.;X*.*.(.c.%XF.W.@X' n.[ :.mXMXL.0 8 8 &XU...).+XL.yX@XE.M.oXcX-XE.n.j.A x.M.$X%X@.x.E.%XrXn.` ' R.N ( ` *.:XU.] _ 8.{ P.%X=.m.].M.8.[ >.m.L.v.;.E c c.M.MXAXpXM.h 6 6 $XU.Q.jXZ.%XvXmXQ.E.&Xx.b.V >.n.OX%X).=...W.v.OXqXj.+XpX;XwX).M.).R.y.y.D.=X&Xy.#.:.W.Q.Y.8.c.iXMXY.} 4 @.8X8X=X=XBXvX=.2 - 9 M.R y.c.:.,.T.:XT.3.;.@.A ",
"1 r C.>X|.rXrX=XR.#.{ 7.8.W.Y.8.pXkX Xs : O E c.G ] ..K Y.tX/.B.C.W.' >.&.9.>.' . Z R.&XyX+X@Xq F.+X..].4X6X6XeX< h PXHXpXfX_.1X1XZ.wX5XQ.Q.OX:XQ.m.c.=X( W H.C.HXZX%Xm 6 6 C.^.H u.^.Y.c.5.H.c.` -.>X>X;XW.;.R.OXE.wX@XQ.K.W.mX7XP.M.k.A v.S.-Xc.[ >.M.R.&XY...8.9.F.Y.[ 6.F H u.~ G #.8.C.C.pXgX1X#.7 = ; y.:.-.#.@.#.c.R.G.-././.|.|.wXG.] J.F.|.].H.|.=X|.R.S.i.M.R.C.Y.Y.;.{ ;.n.vXAXL.U.yXW.Q.9Xc.C.U.Z.V.G.^.Y.G.5.` C.AXpXn.I l g T.] 7 b.rX7XQ.(.F.T.C H ' >XE.R y.U.C.b.Q.Q.F.E @.U.( 7 a F.=X|.rX4X=XY.#.} 7.8.W.Q.8.Y 8.Y.t.6.C E c.H ` ..L Y.eXSXbXtXM.5 = = 8.>.&.. Y R.%X0X+X&Xq C.Q...Q.0X6X4XeX4 p PXJXxXgX&XwXgX_.fXpXQ.>XpXzXW.L.m.>XoXOXvXuX7.1X .( |._.eXpX;XP.' U.-.b.MXSXoX0 0 8 &XQ.,.n.%XE.uXL.n.&.I.zXzXzX@Xj.C S.I.-Xn...j.F.T.7XL._ M.F.x ..h.' %X=X@.` F.b.+X%Xc.n.U.M.c.b...c.E.,.] Q c c.S.MXSXMXU.l 6 0 uXQ.>XpX-.L.:Xn.c.M.M.x.>XZ z.OXE.V.%X;.P >.C.mXAXE.L.zXW.).9Xc.C.U.Z.V.F.R.Y.H.2.` C.R.;.[ %XSXvXY.] 7 M.yX8XW.).MXMX=.4 = 8 E._ y.I.C.b.).Q.F.` @.T.' ",
"> a Y.pX&X/.|..X'.] L b.8.x.x.9.gXSX;Xx = O @.#.x ..=.` V.#X#.<.G.%X*.[ ` ..y.`   N -.,.1XL.@Xa R.:X|.).dXY.Y.Y.4 a HXMXvXgX_.+XY.Z.gXtXwX%XQ.$X;XC.U.>X' } ,XC.nXnXU.Z 8 8 /./.7.-.&XZ.N.@.i.Y.9.#.1X;X=X|.9.n.@XE.yXP.n.&.I.yXzXzX-Xj.L v.E.8Xv.,.U.M.>XR.@.-.H.-.5.y.c.F.Y n x S 9.5.u.3.C.bXnXpX] 0 $ = y.=.#.+.#.#.b.F.v.-.Y.).|.=X1X|.~ r.u.F.v.R.R.=X%XT.F.b.r.Q.|.x.|.Q.=.m.>XxXzX-XU.+XL.%XwXC.c.Y./.O.B.F.(.C.Y z y.ZXbXY.L h h M.} a _.wX>XL.Z.Y.U.c E H *XM.A M.Q.U.|.U.|.F.o.;.>X;.9 a Y.gX;X).}.=XQ.` R b.5.c.x.9.@._.(.u.+.N @.@.n } -.` Z.@XxXlXdXU.8 * * ` c._   n -.8.<XL.+Xa Q.:X).|.iXR.Y.Y.q a GXMXbXxX&X&XQ.Y.NXvX1X1X>XiXM.e.OXzX-XE.zXpXj.0X` b c./.eXvXzXm.*.T.*.F.SXSX@Xh 0 8 ;XW.;.8.&X-X9Xn.;.C I.iXzX7Xh.( *.T.-X:XM.y.U.n.W.n.>.[ +X%XM *.K.,.;X>Xx.' F.=X=.&.;.8.OXn.=.Y.=.C.Y.;.] Z r y.,.HXDXvXM.h 8 8 yXW.8XcX8.V.%XT.U.+XU.Q.pX..K.:XT.[ rX-X` V.yXmXmX:XE.OXL.%XwXM.c.R.Y.| B.H.).C.Y s y.H.b.c.|.gXvXM.] a  XwX;XU.L.ZXMX..8 O 8 M.R M.Q.U.%XU.|.F.o.;.;Xh.",
"r l /.kX).F.=X>Xb...E R.9.;.,.8.pXgX).m > ; F.] m ' L.} b *.3.G./.>X_ j.Y.{ &.L   n =.-.0XL.1Xr R.iXU.Q.wXC.5.*.q 7 rX3X=XwX=X1X_.C.1X1XwX1XW.>X>X_.Y.Q...J /.B.nXnXQ.A 1 2 F.b.Y.X.=X(.V.#.#.B.=.8.>X&X>XQ.8.y.*X@X9Xn.=.C I.zX7X7X>.' ,.R.8X>XS.U.Y.R.rX&X-.=.Y.(...#.| <XE N 6.<.Z.y.6.c.r.vXvXwXG 0 - - 8.%.#...#.i.u.R.Y.b.C.=X/.R.>XJ.r.G.f.=Xi.b.4XQ.3X3XS.J.b.R.T.R.|.>XU.).>XuXqXW.+X-Xx.Q.M.5.C._..X#.u.|.1XB.Z n Y.nXbXQ.A 6 6 =XF.n &XiX:Xx.).Q.).N { E >XM.$.-.%X%X).=X>Xi.C.v.OXk.x j /.kX).H.|.2Xb.@.` /.8.-.,.8.P 7.F.C.B.:.F.} N ` P.{ z *.vXBXvX).> ; 6 { ..(   m ;.>.9XE.<Xr R.pXU.W.1XZ.5.X.w 8 tX9X=XpX,X6X(.Z.gXkXgX9X+XqX;XI.iXAXyX-X8X7X*.OX( < @.^.wXzXzXm.*.L...J.ZXSXyXl 7 7 (.c.9.m.E.K.OXk.&.' -X7X7X7Xh.h.*.:X7XyXM.V.K.Y.pXS.n.,.OXrXE K M.&.x.W.,.&.Q.Q.h.x.8.' ,.c...V.y.Q.].n.@.R r U.M.FXVXpXn.8 > 6 vX>XwXpX-.c.%XQ.C.E.U.8XpX .W.W.M.n.yXyXM.;XzXmXyXOX+X+Xx.OXM.8.Z.|.&X#.u.|.1Xb.Z m Y.C.B.C.|.(.Q.;XF.b &XiX:Xc._.BXSX..0 $ 8 M.@.;._.%X|.=X>Xi.S.v.Q.M.",
"4 N ^.BX&XT.5XQ.y.] ` |.>.M.W.=.gXmXY.A 9 = b.:.] C M.H B >.&X/.=X=X*.[ T.>.*.( . V &X@XxX;XpXb %XAXW.M.wX:.).8.r p rX;X^.6X).;XF.c._.>X;X:XQ.:X%XQ.).).7.c H.D.CXBX|.R 6 > F.U.8.P  X@Xu.-.r.b.:.y.%X&X|.c.x.M.Q.K.OXk.&.[ -X:X-X7Xj.j.;.*X7X7Xn.c.9._.lXc.-.-.b.C.u.y.{ c.E x <.O.P Y } ] ..gXgX1XE 9 - $ :.3.u.R.3.b.b./.U.u.Y.F.c.B.|.=Xr.r.J.,X|.u.pXT.rXwXU.F.b.R.Q.].%XqXQ.).x.Q.8XM.x.+X:XT.,.b.U.).B.E 5.(.).F.W j V.MXvXY.A 1 0 wXL.z 9.wXK.j.W.8.>Xl G ] 5XR.#.L W.eX>X].wX5X|.y._.).t G Y.BX=XY.5X'.i.] _ |.;.M.E.-.X.C.v.|.,X} B.:.] C N.H B >.FXCXMXE.6 = 6 ,.&./   H &X@XxX@XfXv %XAXQ.M.wX3.|.7.r u eX>X(.eX&X>XF.c.1XgXpXeX&XiXzX:XmXAXzX-X@XoX*.wX*.4 Y.3.>XwXzXP.` C...M.SXSXzXl 6 6 ;XQ.;XC.=XwX+Xn.n.j.-X;X7XmX7Xl./ -X:XyXm.8.m.(.MXx.n.M.W.rX} C >.B =.E.' ' C.n.M.I.@.] 9.>.j.x.y.v.Q.x.F.>Xc U.S.SXMXvXE.k = > wX$XpXwXb.' %XwX;XM.h.8XOXC &.K.W.M.zXzXU.;XM.%X7XK.j.*X=XT.,.b.F.|.D.E -.).).F.W a V.F.5.b.R.Z.1XwXF.z 9.eXK.8.W.vXDX' 4 = 0 R.$.P Y.uX=X].wX5X|.8.|.@X",
"w x C.1X5X=XkX|.y.-.b.=XC.%XeX-.gXBXvX=.h $ ).M.U.( P P b.v.H. X&X|.x...x.=.,.n.  ] eX;XuX).<Xz %XMX+XU.Z.-.&X<Xr 3 eX<X XuXY.+Xu.b.>XuX%XW.W.%X>XL.C.W.7.k a.u.ZXmXR.V 6 1 &X/.N.b J.).-.-.5.b.8.3.|.&X>X%X;XY.*XwX+Xn.n.h.7X-X7XmX7Xm./ OX:X7Xm.8.c.C.>X..8.H.>Xv.F.r.{ X.9.N E R k } ..6.y.vXMXtX*.t ; ; -.5.i.Q.c.b.v.;XY.C.b.b.Y.C.|.F.../.}.4X*XD.5X=XpX5Xv.b.b.Q.&X>XQ.=X>X).U.W.n.E.' ,.>XQ.U.c.M.v.B.Z r. XR.F.} k Y.CXMXR.l > 7 xXU.r #.+X,.j.P.C.kXj j 8.*Xb.} L *XMX&X|.rXhX5X@.v.v.a x B.1X1X=XjX|.,.;.b.&XL.+XrX:.| W.iXpXnXE /.M.I.( ` P M.c.BXFXbXU.0 = ; *.,.n.  E eX;XpX+X<Xr %XmX+XU.Z.:.&X<Xr 6 eX1X XuX+X&X9.c.=XxX9X>XuXvX8X-XzXzX9XoX-XyX-.;X*.6 3.` OX+X;X*.C m.' i.SXHXxXl 5 5 =X>XL.;.].zXoX7.W.E.E.xX-XzX7Xj.A -X7X-Xn.*.m.W.vX,.n.OX$X>X$.( =.` >.U.[ *.C.v.x.U.[ @.&.=.9.,.y.U.M.8.v.].V >.F.HXAXzXQ.h = $ Y.=X;X:X:.8.;XwXiX:Xn.E.$X_ *.oX%XOX;X;X9X=X+X+Xz.OX` >.>XQ.U.c.M.y.B.Z y._.R.G.} j Y.^.F.M.M.c.>XxXY.r =.+X>.j.L.MXPX] - ; 8 b.] L :XmX|.|.rXkX5X$.b.M.",
"t a @.C.5X&XeXwXF.b.y.tX1XwXvXM.gXAXSX' 0 O W.W.K.' z { C.).Z._.1X=XW.*X8XW.>.>.. y.uX5X9X>.Y.v T.AX<XL.C.;.c.@X@ 4 C.&X_.#XZ.Y.k.&XtX9XwXOXU.Q.%XY.C.c.X.c $.t.BXBX|.A 2 > ).b. X) :.=X2.r.8.Y.y.-.Y.R.3X>XK.>.).zXoX,.U.E.E.xX7XyX7Xj./ OX8XoXn.7.x.9.Y.Y.c.c.tXU.u.#.#.Z.B...~ #.M =.H.5XR.vXvX5XE h > > @.#.9.M.} M.S.|.Q.^.&Xb.).T.R..X5.b.B.4X[.F.3X=X|.5Xe.y.b.=X=X>XF.*X>XY.C.Y.U.v.( 8.V.+XM.8.c.Z.C.} #. X/.B.$.p C.SXBXY.L ; > wXx.a ! %X..*.(.W.>Xl j 9.1Xy.+.] pXzXT.C.wX3X=X$.-.*Xz a @.C.wX&XrXwXF.v.r.tX>XwXvXM.` (.MX8X1Xx R.W.M.' z ` C.).BXSXBXQ.h 8 0 W.>.;.. y.pX9X1X>.W.G T.SX7XL.M.;.c.@X@ 2 C.=X_.<XY.Y.8._.iXgXpX;X7XmX>X$XyXqX9XL.E.zXL.M.L #.c.P -XW.E.) ( M.Z v.JXHXuXh 2 6 &X>XK.y.|.wX-XW.K.$XOXzX-X7X7XoX&.:XzXK.M.[ P.W.pXM.K.I.K.T.#.v A ` x.h..._ L.v.x.M.;.] ` ] :.M.c.v.&.*.c.,.c j.R.GXFXjXT.h ; = F.F.n.wXH.C M.>XpXE.,.h.OXA ,.%XM.%XM.Q.uX(.U.Q.U.M.A 8.C.$Xc.8.n.C.C.} #. X_.B.%.u C./.Q.b.).8.M.wXc.t E &X&.*._.MXDX] - : 0 u.O.] tXzXY.C.wX3X=X@.;.>X",
"t ..b.n.Q.].:XU.e.e.R &XwXpXzXc.mXSXmXA 6 O j.$XOX-.b S ..-.E Y.,X).Q.%XU.U.S.>.. [ (.L.+X>.%X3.1XxX;X&X).7.] *., 4 v.(.P.v | &X..F.1X>X&XW.Q.Q.&XQ.U.c.3.c #.B.CXbX=XL 6 6 Z.b.dXP.U H.u.H.b.C.#.X.F.Q.=X>XU.c.|.wX;XW.L.OX+XzX;X-X7X7X>.:X7Xn.M.#.R.y.c.U.V./.1X|.r.X.3.b.i.H ` Y.H Z.Y.C.y.vXvX&XE 6 = > M.8.u.y.E u.v.C.C.C.>Xb.H.1X>X2X#.@.D.4X=XJ.kX&XT.jX*XR.R.5X*X3XF.=X%Xb.u.+X7Xn.@.m.U.W.).Y.C.R.C.y.#.{.|.G.5.u 8.CXBX;X;.6 ; +X).G { &X....(.).wXr u u.1X:.#.` tXiX).|.iX=X3XU.C.R.c ] c.n.).Q.=XU.y.,.`  XwXpXzXc.u.;XzXoX@Xh x.%X$X=.b G ..;.pXBXMXC.l 8 5 W.M.>.. ] (.L.+X-.+X3.1XxX;X=X_.-.` *., 4 c.(.P.K X.&X..R.tXuXfX>X>XyXE.>XyXzXmXL.m.yXm.L.*.} 5...$XW.L.( ;.C.B A.PXHX;Xh > 2 >XQ.).U.&XuXxX+Xj.7X@X-XoXzXzXzX*.OXzXE.U.R +XOXW.-X-XM.h.W.=.L ( ` =.M.,.] R.F.v.L.$.` ..;.:.j.8.U.&Xc.c.,.j Z.&XDXAXjX&X_ 8 6 c.Y.c.wXF.@.W.W.%Xv.,.K.W.Z ..qXQ.>XE.Q.;XY.V.;X8Xx...n.Y.W.+XW.C./.C.8.#.{.{.G.w.a 5.R.).(.gXR.k.).(.H { &X....(.SXHX( - : 0 :.#.` tXpX).).iX=X3XT.F.|.",
"G ] n.Y.%XQ.wXC.v.@.A 8.1XpXzXQ.AXHXMX&.8 O T.OXh.M.v G { g W H._.7.%X9Xj.m.I.C o y.Q.E.Q.C.;XN.>XxX+X(.V.W.>Xc.< 3 >X(.<.k u.fX..-.=X0XZ.Q.*X;XY.Y.).c.3.z u.t.nXCX|.V 9 8 /.J.bXm.E wXH.F.c.G.5.=.S.R.>XQ.).Y.&XyXxX+Xj.>XOX;X+X7XzX0X>.E.7XE.v...V.8.(.eX(.|.R.b.a.6.Y.,.} y.} b.K (.b.c.8.pXkX>X} 2 # - 8.c.c.y.| B.).Y.>X.Xy.9.C.=X).*Xb.F..XR.i.v.>XR.R.rX|.y./.hX|.3XF.Q.%Xc.-.+X1Xv.=.Q.%X%XM.C.Y.).b.] y.!.XX.Xr.z 8.MXBX1X*.7 ; L.+X~ #._.h...Z.L.wXe 4 } Q.u.5.{ H.iXb.C.wXrX>X|.V.Y._ } i.T.%XR.wXL.v.@.H y.1XiXzXQ.W.1XvXzX*Xc T.OX,.M.b G { a pXMXvX .c 0 ; M.U.C o y.Q.T.+XM.;Xc.=XxX+X(.m.Q.>Xm.< 4 >X(.-.z c.dX) 8.9XfX@X+XrX9X|.iXyXvXMXL.k.+X>.;XY.R R ,.E.%X@XK C.U.H v.HXSX=Xj > 6 5XQ.>X+XQ.wXxXW.C 7XoXh.P.zXzX7X&.K.7Xh.U.` n.P.;XuXE.>.>.m.' t ( C [ k.n.,.U.,.v.M.] ` c.u.8.R ..c.Q.c.U.:.a N.>XHXAXtXQ.[ 6 2 R.Q.L.Q.Q...C.W.C.x.,.n.E.} ' :X%X>X:XQ.>XM.3.;X8Xx.=.).+X%XM.M.Y.(.v.] y.!.,X.Xr.l 3.Z.Q.%XgX%Xc.m.%X] #.|.,.&.Z.BXHXP O = 6 u.r.{ Z.pXC.c.wXtX>X).B.R.",
"B } -.=X>X*XvX:XM.c.] W C.wXvX:XSXDXMX>.7 O W.@X;.*.z Y Y k N R.Y.X.n.9XC.m.OXj.. y.Q.).;XW._.{ @XvXc.k.( R.jX9Xg 1 eX=Xk.u. X<Xk.C.1X<X7.L.;X;XE.Q.W.C.*.G G.#.ZXFX;XB 6 2 H.R.BXP.x 1XY.b.B.7.-.@.b.|.wX).>X@XW.9XxXW.A :XoXh.P.yX0XzX&.m.0Xj.U.3.-.b.&XMX+X&X.Xr.r.:.c.9.Z.:.C.&XJ W.:.H.r.vXvX1X;.8 = = =.9.3.F.-.u./.%X5XR.F.v.C.&XF.|.y.R.2XT.r.b.|.T.F.rX'.;.R.3X*X>XS.W.%XC.3.M.uXM.C Z.%XOXK.,.y.).).5.u././.{.i.k X.MXSX1X&.5 1 E.>X} ..%X[ c.3.y.S.r 4 3.).C.8.n 9.uXV.-.;XtXT.Y.` _.H ] -.;X8X%XvX:XM.v.] E F.wXvX;X+X>XvXxX&XC E.@X>.*.z P E z wXSXfXP f 0 > m.OXj.. x.Q.OX>XE._.{ @XxXc.k.P Q.kX<Xj 1 eX&X8.5._.0X7.b.1X0X8.L.pXwXR.wXiXzX0XoXm.7XP.P.` -.u.U.8X-X@Xc c.*X .$.SXNX&XC 1 8 >XQ.|.;XP.;X;X9X( >XyXoXj.oXzXzX/ h.zXh.%X-. .V.E.L.h.*.[ >.H 0 ( A / ' x.h.%Xv.c.M.v.P *.c.S.;.] ,.m.>.c.c.b 3.W.VXmX5XR.C > 8 Q.Q.>XM.M.L.;.m.U.-XM.E.mX=.h.qXM.7X+XQ.@XZ.3.W.zXn.B C.).OXM.y.c.).).:.t._./.{.i.a #.C.%X_.uXY.P.W.;X} | _...c.-.mXmXE @ - 6 V.7.m 9.eXC.:.;XrXR.W.! &X",
"Z @.-.M.*XwXyXwXM.-.$.E Z.uXSX9XFXHXMX( 6 o R.=X;X_ q J F.,.] R. XX.,.+XM.K.iXP.o y.U.%XpXW.W...@XMXZ.7.m Z.<XxXz U gXQ.F.&XtXV...(.9X^..X>X:X%X%X).F.Y.C.P -.r.ZXFX,XV 6 1 F.Y.).X.R u.Y.Z.G.8.3.:.F.3X3X+XQ.;XY.;X;X9X( 8XyXOXn.E.8XzX( e.uXj.&XY.9.8./.iXU.R.,XJ.r.#.@.-.).c.u.&XS 5.3.8.#.iXMX5X] 0 = ; ;.Y.Y.R.-.y.y.=X5Xy.C.F.u.wX*XQ.C.6XwX>X=Xb.>X*XG.4XT.;.b.].3X3XF.T.:XF.c.U.:XU.Z c.W.Q.*XW.3.R.|.r.b.pX,X.Xa.u c.BXBX|.] > ; k.;X,.y. X` M.-.+.F.a 9 D.=Xw.E N } vX9.y.F.>Xv.v.] B._ #.-.M.*XyXyXwXn.-.@.E G.pXDX9X XeXvX&X(.6 R.>X;X_ 7 J F.:.pXCXxX( 8 8 > K.zXP.o y.U.%XzXW.W...&XNXV.8.c C.>XxXz H xX).C.|.fXP...).eX@XV.Y.pX0XOXzXqXmXyXE.>.yXl.( g R M.$X;XqX-Xg ,.rX-.] SXMX|.Z 2 0 rX>X%XQ.U.qXOX9X&.wX0XE.h.h.oX7X/ x.qXm.E.j...;.*.>.x./ c -.$.t ` &.C.,.x.n.U.8.b./.%.m L Y.S.c...,.M.U.U.v.b X.F.SXMXtXF.0 2 6 R.).U.Q.M.m ' R.wX%XM.U.8XB j.cX-X:X:XQ.>XR.M.+X8XI.C c.W.W.:XY.5.J.|.u.a.pX,X=Xb.a c.Y.Y.U.5Xv.3.m.>X,.y. X` b.-.kXMXR $ > 7 :.E M ] vXy.y.F.>Xb.b.] H.",
"L Y @.Q.&X%XcXyX..Z ..@.Q.pXDXMXJXHXkX_ 5 O >X>XyX=.a x =X|.] 1X,X..c.OXj.n.oX .; 8.W.%XwX;X9.-./.bXZ.*.Z &X;XAXg U >XY.F._.eXV...dX1XY.;X;X+XOXW.Y.W./.^.a J 2.ZXZX|.B 2 6 R.G.b.K #.B.F.Y.&XC.9.@.b.=XiX>X+X+XU.qX+X;X .wX7XoXh.>.oX7X&.n.;Xk.j.c.y.c.Y.Q.C.G.|.b.} L C.8.-.c.c.$.r G.D...@.gXbXnX} 6 : ; @.M.b.C.#.c.b.>XU.b.@X|.b.5X&X&XM.&X4X/.>XU.M.R.R.=X|.i.,.Q.%X=XY.v.).Y.c.c.wX+X' C.L.).wX).-.,.B.B.F.fX.X>XF.k C.ZXMX).' > > n.;XY.C.F.V @.] 8./.x s R.|.&XM.R H %X;.y.R.C.Q.=Xy.b.' P @.R.|.:XjXwX..Z ..@.R.pXDXMXeXeX6X&XZ.x >X>XeX=.z x =X|.jXHXNX( f 6 ; j.oX&.% 8.Q.%X9X&X9.-.(.bXZ.*.Z =X;XFXj H >XY.F._.tXV...fXeXY.1XeXyX9XmXAX8XMX7XK.&.L.k...p @.OX$X$XyXP.7 =.rX,.( SXFX&XB 5 8 wX$XM.).W.wX%Xm.( E.yXyXzXoXK.oX&.I.7XoXj.] ..j.:.j.I.R Z =.] t ( _ Y.M.U.m.T.] b.&X@.R } Q.v.v.=...,.Z.F.b.x X.Q.HXMXgX].p 6 0 :.x.E.U.c.P ;.3X1X9XL.,.M.N k.mX$XmXOXM.&X1XF.Q.vX*X' C.L.+XwX).-.-.B.B.D.gX=X,XF.a Z.Y.U.F.=XM.c.c.;XU.C.F.V =.] vXBX} : 6 6 .Xb.R L ;X:.8.R.M.R.>Xy.M.",
"K H @.).Q.|.vX:X*.' R R ;XrXmXAXJXJXeX..0 # 5XQ.n.` b z c.;X] R.eXX.(.8XL.L.n.K . -.Q.%XQ.>XV.9.R.bX0XK v K eXNX7 ..fXY.|.Q.;Xl.#.wXR.).>XQ.U.W.Q.c.H.1XN.r H +.ZXDXQ.j > 1 G.Y.D.Y H C.R.b._.y.F...v.=X4XOXK.).W.wX:Xm.( Q.0X0X7XoXK.oX&.M.:XE.v...8.;.(.Q.C.c.Y./.E Y.H.|...:.C.B.M K 3.c.u.gXmXwXE 9 = > y.=.u.F.a.c.U.+XC.C.&X1X3.).b.1XY.N.|.).4X|.R.'.R.R.|.a.] M.|.[.F.b.Y.c.8.c.%X*X` =.M.;X9XU.8.r.7.G.F.wX(./.y.c a.ZXMX%XA > = m.0XC.C.9.Y c.3.B.Y.` t F.R.R.3Xe.` 8.] @.].].4XtXM.;.' H #.Q.(.%XvX:X*.' R R ;XuXxXAXeXfX1XtX<XP 1XQ.m.` x z c.;XgXCXZXP l 0 5 K.n.K . =.W.%XQ.>XV.9.R.bX0XK v P eXNX< ..tXW.%XQ.5XN...kX=X(.6X;X%X>XzXiX8XmX%XW.j.9Xc.Z N Y.-XoX$XyX>.g [ >Xn.Z SXSXwXA 6 f 3X%XE.+XOX*XE.m.K $X0X@XzXoX7XoX>.Q.yXOXK.' ..n.x.' M.=.[ >.3.t *.=.=.v.v.8.m.*.y.|.D...C.m.,.9.] U.U.v.Y.C.....].LXAXpX).l > f F.-.x.OX=.] M.>XH.+XE.,.M...k.zX:XcX$XU.W.H.-.).;X>X` =.M.;XwXU.r.r.7.Y.F.eXR.R.r.n b.F.Y.Y.).C.*.m.0XC.C.8.E c.3.nXBX8.= 2 6 R.qXw.` 8.] @.|.].rXtXb.i.",
"` Z Z R.b.U.iX-XU.y.R R _.9X9XmXHXJXvX[ 8 O bX;XW.;.r G ,X;X..B.4X5.>XwXW.h.n.C   A C.Q.K.W.3.C.1XxXuXk.r a 6XfX7 #.bX%XwX=X,X8...Q.C.%X|.=XC.Q.U.U.Q._.Y.b | J.ZXGX5Xc : > b.C.u.E H Y.R.F.Y.U.1Xy.D.tXwX%XW.%X).%XW.m.( $X7XoX7X7X+XOXh.Q.qXW.M.;...,.8.F.r.c.F.C.5.6XF.pX8.Y.c.V.Y G #.v.@.gXZX5XK 0 = > y.,.F.U.H.u.F.U.U.R./.Y.-.).Y.H.G.y.F.R.6X].R.>XR.F.|.b.r.e.R.%XR.F.F.c.c.v.>.).#.8.M.>X8XM.3.c.u.F.c.%X&X,X5.U b.MXBX&Xj ; = M.*X,.b.-...;X:.Y.&X} 7 b.F.%XiX;.] ..M ] &X].&XiXF.b...Z H /.c.Y.iX-XU.y.R _ |.9X9XmX6XeXdX4X,XK bX>XW.*.e H =X;XxXMXCX] v f 5 h.n.C . G M.+XK.).3.Z.1XxX0Xk.g r 1XfX7 #.MX%X5X;X1Xk.' 1XY.;X>X%XI.8XiX8X8XAXoX-Xm.%Xj.^.-.T.zXoXOX$Xh.g [ E.m.C MXZXwXA 6 8 pX9XOXW.Q.W.W.P.v yXzXoXoXzXoXoX>.E.zX7XI.;.[ m.,.[ M.y.` &.Z 7 j.;.,.I.=.] C.9.-.M.y.y.C.>XT.b.#.Y.OXU.M.b.x.-.%XGXbXwX|.h ; 8 M.-.c.9Xe.h.7X>XC.U.7XT.M.C.7.zXcXcX-XOXY.C.c.U.' ;X@.8.M.>X9Xb.-.c.x.Z.c.%X&X5X5.Z C.F.R.Y.3.-...M.;X:.c.-...&X:.ZXSX9.O > 2 %XiX=.] ] m ] &X].$XtXS.U.",
"@.J Z ,Xv.,.%X;XU.C.i.U.C.Z.&X1XSXJXeX..6 # gXrXwX,.t V wX7XC a.6XX.Y.+XM.,.h.c   V x.Z.8X*XX.Y.1X9XP.N V C.5X<Xr -.xXY.1X5XuXk.} &XQ.>X;XQ.T.M.C.Q.Q.C.N.b ! /.nXZX5XZ > 1 :.c.6.E Z A._.c.C.C.Y.8.y.].pXeX+XQ.Q.Q.W.P.C yXzXoX7X;XE.W.;.U.qXoXT.,.X.M.b.).y.b.u.F.%.H.R.wX-.b.@.-.] G 8.y.8.gXnXtXR 8 # - j.c.F.R.:.b.|.|.Y.b.b.8.(.H.b.u.B.y.r.|.tX].F.R.R.F.T.:.u.F.R.|.R.b.u.y.M.M.M.R.;.x.b.:X:Xb.8.-.=.9...).>X Xb.] y.nXnX).l = = R.%X,.=...Y y.` (.<XC : ;. XeXwXe.R :.k Q 3X>X>XkXS.v.:.Y F >Xv.8.&X:XU.F.i.R.V.C.;X1X_.6X,XeX@XG fXrXwX>.r N eX7XeXnXBXP h 8 > h.z.v   V x.Z.8X&XX.H.1X9XP.N G B.6X<Xq :.vXW.9X1XfXk.E >X%X1X;X>XQ.>X;X:X-XzXW.@Xj.-.H.+X} :.%X@X$X7Xj.7 _ S.C.C mXZX>XA 6 6 >X;X%X7XU.:X7Xl.v wXzXoXzXK.E.K.h.oXiX-XoX;.[ L.n...K.Y.P ;._ r n.8.x.>XI...,.] -.M.y.#.x.+XU.y.} ;.U.R.F.b.-.u.9XGXMXwXQ.m 1 6 x.,.-.*Xe.L.E.wXwX,.c.L.Q.-.8.MXyXeX%X%XC.M.U.U.x.T.:.x.x.*X:XM.8.=.#.y...(.=X_.B.] y.u.C.U.u.} -.R.%X5.-.@.J 8.' SXGX=.O = 6 iXyXe.L ,.k ] >X>X>XvXF.M.",
",.#.H wX&X,.R.c.x.T.|.b.@.] 8.c.NXJXwX@.6 O &XpXzX[ a R >XwX8.5./.3.|.*X;.-Xn.g   #.9.=.zXpX .Z.@X@XU._ _.6XeX@X; { xXY.1X6XuX3.m R.R.1XwX+XU.F.C.U.M.C.Z.b x J.MXnX&XN 2 > c.H.2.~ k b.tXL.F.b.H.c.v.|.>X>X%X7XT.-X9XK.v wXzX@X7XU.K.K.h.E.7X-XW.;.8.Z.Y.Y.(.R.r.u.#.6./.b.-.9.b.u.H 6.b.R.&XvXvXjX-.7 = ; c.Y.).|.b.c.tX=X*X:.c.8.c.6.3.8.Z.8.Z.}.5XR.S.F.R.'.M.@.b.N.u.C.F.c.M.c.8.c.%XR.8.F.F.%XeXC.#.9.@.U.M.Y.Y.N.u...8.nXbX1X_ > 1 (.&X1XM.8.K ;.,.C.1XL $ b.;X8XQ.I.;.;.U @.|.rXiXwXM.` 8.#.P 9X%Xy.).n.y.R.R.B.@.} 8.c.Y.fX&XeX(.V &XjXzX[ a R ;XwXvXvXvX{ c 8 ; ;Xn.t   #.8.=.zXgX .L.OX@XE.E  X6XpX@X, ` xX^.1X9XfX>.l &X>XwXwX).Q.$XI.-X:XuXj.n.( c ..Z.K -.E.&.;.$XP.7 o.U.U.C nXnX5XL 6 6 >X:X8XwXQ.-X@Xj.j K.zX@XoXk.E.oXK.oX7X-X+Xv.A n.c.=.E.Q.A ` @.h m.;.y.+XT.>.] R @.8.F.8.7.Q.M.c.X.8.W.M.F.).r.c.tXGXSXpXE.A 6 6 x...K C.c.Q.%X8X8X;.x.8.F.H *.>Xx.$X8X$XQ.Q.v.C.%XQ.y.U.F.%XiXC.X.8...Y.b.Q.Y.V.u...5.y.V.|.*Xb.H.Q.%X1XC.8.G ,.;.MXFX7.X > 8 8XQ.S.,.$.Z @.&XrXjXrXM.[ ",
"x.5.H 1X=X).F.y.B.D.b.;.#.8.Z.y.BXFX1X' 5 O C.pXzX,.b G @XW.-.5.C.{ =XuXM.OXh.g . Y.T.M.pX1XX.W.@Xm.9XwX6X<XeXV., ] ;X{ Y.;XyXK m |.Q.Q.T.C.F.5X=XY.8.c.^.b i 4XZXgX|.B 2 > #.F.8.#.c %.1Xm.y.C.).Z.w.&X8X>X8XwXQ.-X+Xj.g M.iXoXL.M.L.oXL.oX>XE.M.M.$.8.b.(.M.).c.<.c.c.5.-.} u.N.!.@.R r.c.v.pXjXrXo.h ; * ] c.M.C.R.c.>XQ.R.F.Y.5.#.=.V.y.N.9.y.(.=X|.S.b.F.).F.y.Y.y.:.Y.T.b.Y.M.y.C.*XU.y.Y.&X>X9Xb.c.b.[ Z.H. XV.c.6.` -.nXbXR.v 6 0 tXwXgX%X9.G v.' c.C.9.t ,.B.%X&XW._ ] O.-.].pXwXqX[ 8.v.5.H &X*X).U.y.M.b.v.-.=.8.H.u.Y.1X_.1XZ.z C.pXzX,.v C %XW.vXvXfXC B f > OXj.0 . Y.T.M.gX1X..Y.@Xm.9XwX6X0XeXV.% ! 1X' Y.=XuX( l .X>X-X;XQ.U.%XM.K.M.>Xk.oX( c { c.G v.yX>.[ n.E.7 ;.%XU.A lXnX5X` 6 6 iX>X+XW.).>XoX&.0 T.uXoXh.7XE.K.K.I.7XoXE.$XZ -.x.*.L.W.9.8.] q j.k.=.Y.I.M.-.E ] 8.U.:.-.+XF.:.@...c.v.B.M.c.y.1XFXMXwXv.C 6 ; x.y.} 8.y.c.m.W.,.M.v.8.Q.V L I.>.M.Q.uXvX>X9.U.9X|.M.Q.;X>XrXb.c.V.{ C.Y.|.B.N.6.` :.B.b.b.C.|.<XuXeXpX%X9.H v.' MXMXZ.= ; > $X%XQ._ ` O.%.).pXwXwX] y.",
"C.6.x >X>X>X3XrX1XR.b.-.,.U.C.R.BXJX@XP ; o Y.wXzXE.G C m.>.-.3._.{ >XxXOXj.k.g   c.9X;XuX@X .-X_.m.8X%XX.g l.Z.q N.c.j R Z.uX) _ R.|.c.x.R.R.>XyX_.c.V.H.G M kXFXMX&XB 0 > #.G.c.N.c O.eXC.;.c.U.Q.9.Q.pX7XQ.W.OX>XoX&.t T.zXoXm.>XL.K.K.m.-XP.m.U.;.C.V.=X&X%XY.u.u.Z./.V.X.#.V.^.] j Z.C.;.vXMXvX[ h ; = =.=.F.C.R.u.Y.c.Q.Y.c.5.+.| b.c.H.N.c.b./.Q.Y.Y.F.R.|.G.y.-.:.Y.B.F.Y.3.-.c.+XY.F.c.M.Q.U._.(.^.C y.b.b.H.!.^.#.#.BXvX).C 7 > fX>XtXU.y.` Q.>.=.x.V.k L ;.C.K.z.` @.O.#.M.6X>X&X..Y.L.5.n =X=X=X5XeX>XR.a.:.8.Y.F.R.F.eXW.&X9.z Y.3XmXL.C G m.>.xXvXvXH B f 5 h.k.g   v.0X;XuX;X .;X+XV.9X&X) g V.Z.< V.m.g P Z.uX( Z ].eXM.K.Q.U.cX7Xn.[ 1Xm.L.H 8...` ` C.8XK.z.oXOXg y.=XW.( tXMX1X[ 7 1 pXU.I.U.Q.iX-X>.5 E.yXm.oX-XK.h.E.E.-XE.>.E.] -.` -.L.x.k.vXi.4 *.1X8.L.n.,.8.y...8.M.i.-.Q.OX9.8.] 8.r.:.8.R.9.Q.ZXZXwX,.l 6 > U.,.8.b.c.M.&.T.Q.C.M.n.,.m ` E.x.U.Y.mXtXU.[ >.>XQ.|.Z.c.OXU._.(.Y.V u.b.b.G.^.^.#.=.H.5.F.Q.&XC.fX>XuXU.y.` Q.>.pXvX^.; # = K.K.z.' ..o.$.Z.wX>X>X[ R.",
"C.-.J (.1XwXiXuX).y.G.c.x.F.Q.eXJXHXwX/ ; O >XwXmXk.7 V OX_ u.V.^.G /.pXj.h.7.z   ] Y.;X;X=X..@Xm.m.vXW.K 7 }  Xw V.H.P b.Q.&XK m H.W.M.,.R.%X1XrX).Z.W.Y.{ n 1XHXFXR.l 2 1 c.Y.c.X.r r.iX).:.Q.Y.Q.9.F.iXW.K.U.oXzX-Xh.6 T.zXm.oX-XK.h.OXoXQ.I...c.y.M.u./.&XF.H.Y.^./.R.;.c.8.-.u.t.V #.(.W.pXMXMX=.p > : e.;.C.=X|.u.b.F.&XQ.'.a.E L Y.H.&XB.-.9.&X1XR.B.F.|.=X.Xi.:.y.R.U.C.C.8.5.7.F.R.U.C.Y.U.R.Q.R.H.N X.C.B.c./.Y.-.8.BXkX|.A 6 = j.C.Q.L.c.m C.h.( c.,.7 H x.:._ ;.7.r.O.5.F.>X*XM.w.c.C.@.Y ^.=X6XrXyX|.i.F.b.u.F.).rXeXtX;X+X8.x 1XwXmXx.9 V +X( bXNXfXb l f ; h.j.z   ] Q.>X;X;X..@Xl.m.mXQ.C 4 .._.< B.C.G b.R.1X( m T.wXc.,.W.:XpXAX;Xn.wXm.L.-.Z.` ` @.M.$XK.E.$X@Xg U.|.Q. .rXMX5X[ 2 > jXQ.U.W.OX7XoXh.5 e.7Xl.K.E.z.h.-Xn.oXE.*.n.-.;...X.+XE.8.JXeXx m.1XL.M.,.;.n.y.#.y.y.$.@.W.*XU.c.E y.-.3.F.y.@.b.MXBXwX,.h 6 6 ;.#...x.x.W.%X;X-XU.U.v.' Z L &XK.M.R.U.C.b...{ B.|.&XU.C.C.U.).(.F.x #.B.B.u./.H.-.6.B.:.T.).%X..8.L.Q.U.c.N L.j.tXvXM.$ O ; =.R =.8.,.~ r.F.8X>XF.=.Z.",
"].8.x V._.rXiX&X:.a.=.#._.c.Y.6XPXKXwX' 2 # wXwXzXQ.N [ wXK.V.V.s.J R.uXW.W.j.K X ..Q.C.%XeX{ &XL.-.&X;X` 0 3.9.r Q &XH.Y.Q.W.g R R.C.x.c.Y.U.).>X(.Y.(.(. .s 4XFXBXR.V 7 : c.=XN.N.b r.eXL.@.R.)./.#.y.rX;XU.OXoXzXoXh.5 h.@Xn.K.E.K.>.-Xn.E.oXj.x.8.,.-.c.F.F.u.Z.G.^.H.y.R.5...| E { 3.,XzXVXVXSXv.8 > > M.8.c.>X=XB.|.:.).F.R.b.#.` c.H.H.y.} 9.,X5X|.b.|.pX=X{.a...y.|.=Xv.C.y.8.Y.T.v.N.U.C.C.).+Xj.9.V ..u.a.c. Xu.b.C.NXnX>X_ 9 O 8.;X>XW.Z.n U.x.` 8.y.h =.T.C.=.y.L 9.C.y.M.I.L.R.F.7.).9.N b._.wXpX&Xy.u.-.#._.n.Y.6XpXfX1X1XP.H eXwXzX).N [ 8XK.MXnXeXb l f 5 E.h.L o o.W.M.%XeX{ &XL.-.-X<X` 3 8.3.q E ;XY.Y.Q.W.g Z T.-Xn.;.U.Q.8XzXQ.,.>XM.Z.9.M.=.y.:.;.OXK.-X-X7XB Q.Q.%X*.rXMX>X` > > pX;XL.E.oXzX-Xj.5 &.7Xj.K.-XK.h.7XK.E.E.k.>.;...:.` U.;XV.eXlX| @X@XU.M.y.,.U.y...y.8.} ..C.Y.y.9.G ~ b.V.,XR.:.|.HXZX>X8.l 2 6 F.-.-.Q.Z.W.mX9X8Xv.L.c.;.[ x >Xm.F.Q.=.C.y.5.C.Z.F.].).c.b.+X@X,.3.x ..c.b.b. Xy.V.C.B.F.|.>X%Xv 9.&X9XL.F.c Y.x.iXkXU.= = 6 F.=.y.Z 8.F.i.M.E.U.Q.M.x.",
"Q.[ b x.c.U.|.|.b.r.8.V ` 3._.pXSXHX>X( 6 O 6XvXyXOXP =.E.@X-.#.G.} ;XAX+Xn.>.C . [ W.m.+X&X| =X7.*.9X^.B p y.` x @.&Xk.R.Q.n.a :.;XM.x.@.8.c.R.).|. X).y.9.e XXSXnX5X` 6 > D.eX7.^.G ` |.W.=.F.Y.Y.#.v.rX>XU.Y.W.8X-Xj.5 =.7Xj.I.OXK.&.>XK.U.E.j.*...:.V.u.8.y.Y.,X.XG.6.} U.y.E y.#.} 3.&XAXLXHXSXy.0 > > b.y.8.3.R.N.4Xb.&XY.}.T.6.` -.u.B.8.J V.&X=XR.M./.tX>X.X=XV.C.C.tXN.b.8.Y.wX1XR.M.b.W.&X;X9XZ.H.G R H.B.1X&X9.9.Z.NXMX=X[ f * R.wXbXwXR.V L.,...9.&Xc ;.9.B.R.[ m -.U.C.Y.Q.U.|.M.y.U...P u.C.Y.%X|.b.w.:.J { 8.%XuX|.tX_.%XY.x eXbXyXW.R =.E.+XvXkXdXH B h 6 h.>.K . [ Q.V.+X&X{ <X7.X.9X(.c p c.K e ] &Xc.Y.).m.e @.*XW.,.' x.n.OXoXj.,.>Xn.W.C.+Xm.M.h.j.$Xz.-X%XP.&.W.+XQ.7.1XMX>XR 6 ; kX%Xn.).oXqXoX .* ,.8X&.oX8XE.&.OXK.-XI.-.=.x._ >...&.OXW.xXJX-. .L.W.n.U.>.C.C.=...c.-.:.M.;X8.y.G #.5.c.&XR.y.F.FXMX=XC.m 2 ; |.=.-.%Xb.k.gXwXK.*.U.M.x.] m %Xx.wXpXM.;XB.&XBXvX>X|.Y.U.1X<XwXZ.Z.n P Y.B.eX=X9.9.C.F.F.).1XiX .Y.wXmXrXY.B L.,.gXxX6X> = ; b.U._ k $.S.F.).%XQ.3Xv.y.",
":X' _ T.8.U.C.|.y.F.F.F z 8.%XuXFXFXtX' > o >XkXrXyXL ' Q.+X{ u.t.E &XxXL.h./ l X ,.+XW.).V.7.6X7.-.eX3.b x R.X.H H.+X..Z.Q.k.t i.=Xy.M.8.8.v.&X).F.H.V.V.B.e G.HXnX5XP > 1 Y.1XN.Y.P ` &XW.;./.)._.c.:.pX;Xc.Q.Q.qXoX .* ,.8X*.oXqXE.&.oXn.OXM...;.C.:.b.b.>Xb.b.=X{.R.H.a.5.u.w.-.6.J ` %XAXLXZXwX_ h 2 ; x.:.y.y.Y.N.uX].M.b.|.}.-.{ 9.u.G.:.#.d./.1XR.8.).wX>X{./.R./.-.=X(. XM.).eX>XF.8.C. XtX5XwXU.<.#.V Y.7.=X Xu.c.W.MXmX7X_ 8 * W.gXpXwX).E Y.U._ 3.)._ 8.c.n.M.i._ @.C.b.Y.+XF.F.v.:.Y...=.F.c.W.Y.|.u.b.b.H N 9.=XtX%X1XwX>XC.x 1XxXyXyX( ' E.).gXbX6XN m g 5 h.( c o ,.).Q.).C.8.tXj.>.6X>.c p =XP x F.)...Z.+Xk.< r.wXU.h.] ;.,.$X$Xx.U.%X8.L.j.L.7.C.K.OXoXh.E.$XK.&.OX+X+Xm.>XnX6X' 8 > 5X-Xc.).W.:Xh.h.5 o.oX=.OXyXOX' h.h.:XI.=.k.U.P >.v.OXyXoXj.-Xu.G n.U.j.T.;.@.5.,.3.8.F.b.3.B.u.F.#.b.y.u.6X5X$.#.SXMXgX%Xv 6 > |.u.c.:X).-.eX>Xn.[ ..-.=.@.j M.M.E.&XQ.|.Y.>XZXvXrXC.).1XvXzXpXY.#.} c Y.8.<X_.c.u.Y.B.9.%X>X0X@.W.gXuXeX).L T.U.uXgX>X8 ; : y.v.,._ [ K.b.Q.*XR.%XM.=.",
">X' C M.L.F.x.>X=XR.v.W n ` &X%XHXSXeXA > # 1X9XvXvX&._ :XoXl r.!.E /.;XK.M.n.e   ,.>Xc.j.L.(.MXc.b.C.*...k R.L | J.&X8.-.C.=.z ] 9XE.K.v.C.Y.>X).Y.8.Y.Z.6.a $.CXZXkX_ 1 0 (.>X^.V.` @.wXQ.] /.R.|.Z.,.*X7XU.+XW.:Xj.>.5 o.oX=.oXyXoX' ;.h.$XI.,.h.M.] 8.8.v.Y.F.v.i.B.6.y.6.b.$.@.3.G b.1XvXHXMX5XR 0 6 - c.c.U.&Xb.8.+XQ.c.Y.}.b.,.#.y.a.C.R.+.5.1X=XR.b.Y.MXrX5X/.#.5.#./.R.&XY.).iX=Xy.:.C.c.|.wX>X,.u.y.j Y.c.8.-.5.Y.C.MXgX>X' f = L.tX;XW.;XL F.T...8.c.] -.c.Y.].>Xo.' W.j.b.*Xc.v.C.y.U.=...c.F.C.b.>X=XB.#.W G X.,X&X1X,X1X).c.V 1XwXvXxX.._ 7XW.wXvXgXF l 0 > n.n.t   -.;XV.j.P.(.BXl.N.c.*.X.p >XS E J._.j...M.>.q O.iX;Xn...x.M.qXiXE.T.W.j.C.,.+Xv 8.L.E.h.( h.:Xm.&.OX@X>XL.>XvX=X] f > >X8XL.L.M.OXh.>.f k W.E.OX-X-X' &.z.oXoXn.E.).V c.Q.;XyX:XK.K.#.H U.x.;.v.,.;.} =.c.9.U.8...Y.U.Y.-.8.b.#.H.=XH.c.bXSXbXx.h 2 2 |.Q.c.pX%X-.vXmX..L =.c.x.;.c M.K.Q.OXT.C./.gXAXmX>XF.R.c.,XxXwX8.8.5.e ^.c.c.=.7.^.C.c.=.+XwXpX=.Z.uX>XW.=XH F.T.pXvXY.0 = > F.R.=X] ' W.,.b.:XS.S.M.v.",
"9X' B *.Q.Z.c.tXwXR.-.r.Y N F.&XJXSX&X_ = $ wX;XwXyX[ h.$XoXj P d.| 5.8.W.OXc.b . :.>Xm...L.W.bXc.7.C.Z.8.N r.c ..|.%XC.8...9.b ] eXT.8.y.b.M.=X>X_.8.G.N.^.r E uXCXBX@.8 9 ).(.c.B.` Z &XU.R :.F.|.(.9.>XwXU.U.L.$Xh.>.g l E.E.OX-XOX&.&.n.K.$XE.%XR.Q :.C.F.U.R.y.6.b.u.#.8.S.` 5.C.#. X XyXHXSXtX] 0 > - %XU.R.Q.M.@.c.U.Z.R.&XF.F.@.8.b.3.-.E y.6X{.|.Y.V.mXkX=X|.b.9.#.V.F.=XQ.;XeX1Xb.9.Q.B.C.1XU.x.H.5.u C. XM.6.{ C.^.bXkX+X_ 0 ; Z.eXW.W.tXE F.7X;.L L.=.8.V v.=XR.$.[ T.v.x.Y.b.y.F.F.H.#.@.>.R.B.C.eX6Xb.@.r.} E /.=XtX=XY.&XX.{ eX=X9XwX[ ,.$XOXqXpXdXP 7 ; 5 oXM.V + +.>Xm...E.^.BXN.k.L.Y.9.c U.g Y /.;XL.-.] c.e W nX9X,.[ v.I.qXzX+XU.E...7.,.V.g A U.n.( A =.K.h._ M.%X;XL.=XkX*X[ h 1 3XwXL.E.,.L.>.&.t A $XW.oXoXz.' I.I.K.oXE.+X].m Z.wX1X8XE.>.$Xy.( *XU.b.M.8.x.-.c.8.c.C.y.../.C.Y.9.y.5...6./.R.Z.SXHXCX&Xh 6 6 &XF.F.+Xc...wXvX;.` b.v.U.;.b >.Q.iXwX].R.&XMXZXpXQ.Q.6XB.C.tXT.8.C.O.2 Z.1XC.8.P C.Y.c.8.T.;XqXc.Z.uX).W.pXL C.9XkXwX+Xf = O y.|.U.] ' E.=.,.M.U.M.Q.Q.",
"W.;.V R Q.|.8.>XtXtXR.F.} @.1X1XHXSX|.[ ; # 1X%XW.M.[ E.$Xh.p | d.J -.j.Q.E.P.! ^ 5.uXP.c.W.L.fX7.-.>X@X` #.X.G G.=X+X9...-.k.F %.4XU.-.o.x.F.Q.;X|.u.V.G.Z.g | pXkX1X] 8 6 1XW.c._...x b.C.P $.R./.(.c.>XwXL.W.h.K.h. .t Z OXE.oXE.h.' oXK.n.K.W.W.U.Y 8.U.c.y.F.b.c.6XV.c.|.eX8.-.B.E ).C.wXHXMXeXR 0 : > %XY.-.,.].@...Y.c.F.|.&Xv.#.c.3.#.N.#.s.rXkX5X*XM.AX>XT.b.C.5.3.N.F.|.U.|.wXiXR.8.C.F.b.R.R.M.C.-.e 5.Z.W.C.3.<.(.NXvX%XA 6 > C.wXL.|.(.` M.Q._ ' U.:.-.m c.Y.8.=...c.C.c.b.c.#.V.s.V.#...=.C.C.c..X=X&Xb.u.@.b.1X5XwX;XR.6X-.J 9X;XY.n.[ Q.-Xh.1XkX6XN 0 > 6 U.U.{ <.1.0XE.c.W.L.xX7.-.=X;X_ :.c.z r.|.&Xc.' #.Z.z ] bX>X;.A e.M.:XcX7XQ.Y.` :.,.=.h o.n.U.&._ ' j.h./ z.).+Xc.>XiX=X[ h 8 >XwXn.C.M.L.h. .j A M.K.oXoXE.( OXz.K.>.K.oXT.B c.U.C.n.K.&.+X/.( W.n.Q.R.,.8.8.u.3.b.B.c.y.B.b.u.X.C.u...6.H.C.5.CXFXpXi.y 6 > R.F.8.n.u.9.0X|.F.x.W.M.;.R a C.U.iXpX>X=XwXjXpX5X>X&X.XB.a./.R.v.7.Y @ 3.Z.).R.5.X.).H.c.Q.).).v.L.uXL.+XY.P M.W.iXrX+Xf = o ,.F.;.` _ ,.,.x.M.U.v.rXW.",
"j.j.Z P M.R.u.>XiX5X%X|.b.r.>XwXGXFX6X_ > O Q.Q.%XY.z.$XOX>.6.D.!.E Y.,.L.-X_.d < c.9Xn.n.OXC.tX) ..).&X;.F.3.V H.=X&X#.X.y.| z } >XM...@.b.F.T.).|.H.c.Z.&Xx t.ZXlX4X[ 7 2 V.).c.W.5.L y.Q.E -.H.U.Y.U.>XwXK.C.M.K.h.&.l Z M.L.E.oXK./ OXn.L.*.n.m.8.L =.Y.:.y.b.Y.b./.H.Y.).#.Y.-.u.<.y.c.&XSXCXpXG.0 ; : =XR.b.M.|.] ;.8.c.F.F.F.9.%.N.R.^.H.B.<.6XtX].c.u.AX5X6XF.F.:.c.;X5XF.M.R.=X*XF...x.U.H.Y.(.c.c.3.j 3.C.c.3.#.3.Y.SXbX>XB 6 > U.yX8X%Xn.` c.%XE #.c.9.8.V F.F.x.;.-.F.F.y.F.b.#...} 9.5.5.8.U.b.#.R.&X*XR.D.F.F.>XuX1X1X=X;Xu.M Q.).Q.U.e.$X$X,.vXbXfXF h ; 5 W.(.b r u.;Xm.n.+Xm.fX( ..W.&X>.&XY.< 5.=X1X*.E #.X.q ] jX;X*.V i.T.OXqX8X$XW...U.n.j.c b.Y.1XM.( o.E.h.' v.).W.C.1XrXR._ 8 7 >XuXL.M.m.n.h._ c ] ,.z.h.K.oX&.E.-XoX>.n.K.x.b >.-Xh.;.h.j.L.C.C U.M.1X).;.:.c.b.#.b.B.C.%XR.y.u.8.^.H.2.H.=XH.7.MXZXwX@.p 8 6 /.Y.y.9.(.c.%Xb.U.>XQ.U.F.;.r ;X;X>XpXwX|.|.|.].>X&X1XiX(.B.c.Y.L.3.X., ..c.Z.3.X.X.Y.R.V.+XQ./.m.U.xXqX-Xc.H x.%XtXpXU.l = o w.,.;.' _ x.,.n.$X%X8.v.[ ",
"..H ` @.3X:X8.=X%XR.F.|.F.b.=X>XGXGXuX' > = |.v.>X*XM.-X-Xn.C { !.V.U.v.-XoXW.z + <.>XE.j.>X#.(.` c.).|.W.F.7.x G._.Y.9.u.y.P N ] Q.m...%.v.Y.Q.U.R.^.H.F. X7 +.ZXnXkXR 1 ; 3.{.F.Y.c.k =.C.` ;.C.Y.C.U.>XpXE.C.M.m.h.` c ] ,.x.h.K.U.&.T.7XQ.h.M.M.8.~ 3.Q.b.;.y.R.&X=.|.Y.Y.R V 8.} N ..@.C.CXBXgXG.t : > T.R.R.Q.T.@.8.y.c.).,.c.;.7.H.C._./.c.X.dX|.R.B.u.pXpX5X>XG.:.Y.eX=X|.Y.U.|.W.S.} n.).|.R.>X|.Y.Y.b V.9Xu.-.u.#.).SXvX>XC 9 ; v.>XOX:Xc.-.U.&X;.=.n.v.8.Z :.F.).r.] R.C.#.b.r.3.:.-...6.H.Y.).Y.9.Y.R.5.b.J.H.F.>XtX1XpX5X&XC...%Xv.&X).M.:X-Xm.iXpXdX%.f ; 6 L.W.b & <.>XE.x.>X..W.C F.Y.Q.&XL.^.# 5.>X&Xc.b.` H 4 H ;X+X[ I v.E.U.OX%XM.j.' %XE. .< v.&Xk.^.' @.k.*...M.&XU.C.wX6XC.A 8 8 >XeXL.c.Q.E.j.*.( [ M.x.x.K.E.=.E.oX+Xz.L.m.,.M 7.yX,.[ T.>.E.C.c +XW.1X=Xv.:.y.c...%.B.Y.1XR.C.-.} B.J.#.B.H.&XF.kXSXkX6.0 8 8 R./.-.-.R.y.W.=XrX$XL.W.E.$Xc Y.yXwXrX9X>XQ.|.yXS.Q.kX5XpXA.b.tXwX)._., 9.eXC.9.y.X. X&Xc.%XQ.>Xu.c.9X-X-Xx.X.C.>XzXpXM.v = O R y.v.o.B M.;.;.wX>X=.M.' ",
",.@.H ..=X;X` R.;Xb.S.J.R.c.%X>XHXHX9XL ; O >X%X9X&Xn.8XoX' 0 G !.r.R.%X-XL.>.g . 6.>XE.x.;X8.W.K -.>X_.F.(.-.Y .X,XH.x.F.Z.| E } R.C.] M.F.F.%X|.|.).G.B.C.4 s nXnX5XH 2 > u.u.*X1XV.b i.|.c...F.R.Z.b.%XrXP.c.+XW.n.*._ ] M.8.j.K.E.&.U.E.OXn.E.n.8.} c.P.y.A B.Q.R...).v.....` ] :.s #.#.N.PXSX1Xu.l ; : U.R.F.v.y.R ..M.c.Q.Y.9.-.X.Y./.8.C.9.E =X/.R.|.c.Y.bX4X,X}.8.C.5X|.%XF.&X|.uXv.L c.Q.Q.Y.).C.8.Y.` #.(.u.#.u.5.Y.BXbX;X_ 6 - y.Q.W.+X_.8.-.n.n...=.' #.E 8.|.&X8.]  X).5.D.r.H.|.R.P ^._.R.1XR.Z.Y.H.:.b.u.F.B.(.eX1XgXwX&X7.F =XR.;XQ.M.7XOX*.9XtXtX#.l 8 6 m.8.g @ 8.&XW.x.;X-.L.z ,.%X%X+XY.P.q a.1XY.c.&X9.X.b H Q.).[ @.M.W.I.I.%XM.j. .E.$XK.1 ,XW.8.Y.K _ >._ -.U.Q.Q.C.uX1XH.Z 8 8 *X7Xm.8.@X%Xj.-.,.;.U.n.j.E.E.=.$X-XE.h.x.h.;.N >.-XU./ j.,.U.y.K L.-.m.%Xb...u.B.......H.&Xb.8.@.Y | R.B.5.B.^.}.nXMXkXE 0 t 6 ).R.c.:.Y.c.;XwX>XU.y.x.OXiXZ 8.+X:X*XQ.>X>XY.tX4XY.,XtX=XF.Y.Y.C.-.Y.7 P eXb.u.8.-.(.Y.v.|.1X%X=.y.+X%X+X X' [ h.vXwX,.0 = o I F.].o.B S.b.;.:X>Xv.U.h.",
"r.5.x z Q.Q...F.5Xv.A.A.B.:.C.uXHXHX>XC ; # |.%XE.L.I.wXI./ t N 6.] C.wX@Xm.j.7 . y.yX%Xc._._.W.G ] %X&XC. X` R ,X6X&Xc.7.b.` N i.).b.#.U.Y.C.U.).=X/.u.u.!.r x BXbX4X@.6 1 B.2.8.6XW.G ,.R.8.:..X|.Q.M.+X8Xm.c.%X;Xx.>.j.=.U.n.j.U.E.&.OX-XL.>.>.,.[ #.-.m.*X@.8.C.Z.C.8.F.#.b.b.....M _.Y.u.GXSXgXV.h ; > &XM.A.S.S.R @.F.Q.R.Y.R.C.$.c.Z.3.r.u.5.y.J. X/.c.R.gX1X2X*Xc.Y.eX/.W.V.=X%X+X-.V v.Q.Q.T.Q.c.Y.|.y.*.(.F...X.X.%XHXMX&XA 6 - c.C.Q.W./.=.8.Q.W.@.;...:.-.F.Y.&Xc...Y.^.5.!.Z./.H.8.6.!.r.c.Q.;X6XM.J.5.t.%.B.t.F.eX;XlXeX(.#.G /.T.F.L.M.yX-X&.wXeX1XY p 0 6 l.k.e , r.1X>Xc.(.+X(.r ` W.;XZ.M..., ~ |.H.Z.%Xv.P < %.&XT.,.i.I.U.K.E.>X%X8.` v.yXzXq |.>XY.y.( @.,.G @.R.F.).C.pX=XR.I 0 8 ;X>XL.j./.%Xc.8.C.,.n.j.x.K.oXh.*X+Xm.h.;._ ` ` ( V.%Xz.A &.M.[ c L.m.x.v.8.8.Y.H.-.#.#.u.F.u.@.6.c.#.D.u.#.G.a.^.BXnX5XW t 0 0 =XR.B.8.c.3.9XeXiXQ.,.Q.7XwX` [ Q.qXrX:X$X5XU.SXpXY.,XbXyXv.C.R.B.y.F.x z ;XY.F.` { &X>XC.%X>XQ.3.v.T.%XU.(.Z ..E.MX>X,.p = O y.y.Q.,.C -.v.n.C.].M.I.;.",
"8.#.M M Y.C.E :.R.G.B.B.5.-.8.eXFXHX9XP = $ C.R.$X,.E.zXoX' L Y 2.Q U.0XoXl.( , . #.pX+X-.U.&XM.` @.).U.c.)...H  X|.&Xc.{ C.{ b b.|.U.-.|.U.c.F.R.,XH.u.Z.,XP #.BXkXtX;.8 6 u.<...Y.@X) :.M.8.} B.R.;XU.).9X).c.R.%Xc.8.M.,.x.k.n.I.OX>.%X+Xn.x.x.&.@.;.-.c.wXR.v.c.%XY.Y.H.} ).F.-.H i #.Y. XSXnXgXc.p 2 6 =XC.|.%XF.$.C.R.F.R.b.U.;X8...V.-.|.c.~ ..1.6X).N.c.uX1X/.R.Z.Y.>XY.Y.C.wX=XC.v.c U.Q.U.C.Y.Y.&X>XU.,.Q.Z.} c.-.Z.SXMX1XL 6 : 8.Q.).C._.8.8.>XK.8.y.8.:.8..X=X/.(.-.c.G.9. XB.y./.b.3._.b.B.+X_. X..H.D.5.#.B.B.V. X^.pXpX9X3.H U.Y.E.8.E.iX-Xh.tXdXdX{ h g 5 Z.>.r 2 :.wX%X-.U.%XC.h ` E.U.8.v.X.% H #.Q.eX:XL.K & e.|.T.y.F.L.K.z.E.7XQ.m.( =.7X@X; *.L.C.;.;.[ :.B 5.Y.C.U.b.pX1XJ.m g 0 *X0X_.c.).|.E.c.Z.x.L.M.z.E.OX&.OXOXm.h.&.A _ R ` m.W.h.&.,.E.v.l K.W.Z.M.v.8.Y.Y.y.6.u.-.8.H.r.V. Xa.%.#.5.B.D.B.NXMX1XY t 8 0 5X/.b.y.c...).>XMXOXn.$XOX*XR >.C.yXzXqX>X&X%XFX>Xb.,XbX>X8.9.;XY.r.H.H g zXOXc.u...Z.Y.).eX1XW.Y.7.;X0Xm.|.] [ wXcXwXx.m ; O v.y.F.M._ =.v.y.n.M.,.U.U.",
",.@.V ] ).C.E -.U.A.B.r.y.$.-.1XFXSX1XB - = G.).=XC.Q.wXI.C @.H <.1.R.%XW.=.L < @ y.;Xm.c.&XQ.W.L :.Y.Y.G.>X5.n F.b.G.Z...R.<.G F.&XY.-.R.v.c.F.|.|.C.H._.1XX.#.SXbX=X] 6 6 c.| 5.b.tX7.:.c.-.} u.r.&XY.R.1X+Xc.|.|.Y.c.U.x.L.K.j.E.oX&.W.OXn.&.@.R @.R X.V.;XQ.M.(.wX|.).D.Q ..-.$.E #.y.~ ^.SXMX>X).9 1 6 3X).R.pX=X8.M.wX|.M.Y.Y.R.F.3.Q.3.>X|.} { f.R.:.B./.5XrX X].u.Y.1X&X(.c.1X|.Q.Q.c M.].T.F.+Xb.C.).|.*.M.R.` k.G.Z.SXAX1X' 7 = ..).&X).Y.c.C.Q.C.;.y.8.b.u.b./.Y./.y.3.y.5./.t.s.!.Z.5.E N.G.1XY.H.u.B. XY.-.B.u.f.!.C.6XeX+XN.G Y.%X>XC.Q.qX-X,.pXpXdX#.k f 8 c.7.a 3 :.+XP.c.|.Q.(.x =.Q.+XU.Q.c., } @.b.=X8X).-.e i.=XE.:.v.,.M.x.&X>XU.n.` >.I.j.* ;.E.U.,...` ..k O.G.Z.Y.C.tX>XG.k p 8 *XwX&Xc.Y.=X+X9.v.M.U.W.j.n.oX' K.%XI.' _ _ _ Z _ =.n.j.K.S.U.;.x 7.n.c.y.:.8.|.F.5.B.u.8.y.u.B.^.Z.c.b.R.%.;.r.b.MXZX6XP k 8 t jX.Xc.y.Q.@.c.;XZXI.h.K.%XQ.L @.x.:XQ.>X3X&X&X>XF.M.tXvXR.y.u.=XF.3.@.E 0 9XQ.b.Y.C./.6XrXeXdX%X-...-XwX).C.;.;.OXmXpXn.B = = ;.-.v.b.,.@.M.M.K.M.y.].;.",
";.8.Z R F.b.| D..XR.R.c.y.u...U.HXFXW.k - ; /.N.).C.M.-XE./ 3.' 1.+.u.).;X8.G < O c.&Xj.j.).&XZ.} u.Q./.y.F.#.M R.5.a.N.8.|.-.} |..XY.-.R.M.c.b..X).H.B.Z.|.#.E BXbX}.L 6 > Z.^.5.} tXk.] c.u.] i.%.R.C.Q.wX1Xm.H.;X+Xj.v.b.U.Q.j.n.OX_ n.-XE.[ ' ;.@.=.-.L.).Q.8.Q.fX/.).>X;.V.c.} u.| 6.| B.CXZXeXC.h > > >XT.C.%XQ.y.c.pX*XF.).Y.M.F.;.H.r.Y.y.6.Y H.F.v.v.=X5X>X&XR.V.c.eX6XwXb.&X%X%X|.c ..M.Q.Y.=X/.y./.R.' U.D.V X.Y.&XSXMX).R 6 - =.V.C.Q.R.8.v.Q.M.8.(.R.u.c.H.,X&Xs.#.-.b.6.B.Y !.XX1.| { 6.B.Y._. X1X{.=X1X:.#.u.t.u.G.1X=XZ.5.} Y.Y.&XH.R.qX-Xm.gXtX6Xy.k h 8 m...x r 8.Y.L.9.R.;XW.x c.W.W.W.).c.r #.5.L.>XQ.U.,.x F.].F.:.e.[ K.U.qX:XM.x.=.v.%Xn.> S.Q.Y.n.,...@.c n }.(.H.B.pX&Xb.p 7 8 %XwX+XW.b.>XY.8.x.S.M.OXn.m.oX>.x.7XE.&.&.h._ / / [ h.h.I.Q.E.,.k >.n.C.S.V.c.Y.b.#.V.H.u.Y.5.y.C./.Y.H.b.#.y.:.6.nXZXkXu.m 2 8 pXiX/.b.;Xb.Y.>XmXE.,.%X3XI.] [ _ >X$X:X*XQ.%X5X|.8.1XdXF.V.5.1XR.c.y.Q 1 ;XB.7.u.N.|.pXeXeX&X;Xc.8.U.).W.v.H ] M.vXzX].C $ O o.y.v.i.v.I [ c.*XF.-.U.W.",
"8.r.V _ M.M.} 5.=XR.R.).Y.C.Y._.FXJX1Xv = -  XG.u.8.U.yXK.C U.(.f.6.u.U.c.x.` q @ $.$XW.7.T.%XZ.X.v.|.Y.c.t.B.O..X}.r.~ c.|.3.] /.>XC.@.R.;Xb.u.&XG.B.F.^./.6.{ BXbX}.R t 1 y.B.| E Y.3.@.R.9.` 6.%.H.N.R.>X%XW.M.5XW.8.i.L.M.OXj.K.E.h.x.>XE.;.x.z.;.=.x.9.M.b.8.Q.>X5.u.|.:.Y.).u.G.^ F Z.R.SXSXbXF.c 2 > Q.C.Y.W.v.3.9.uXU.Y.Y.y.:.8.8.c.#.F.` 5.n 3.Y.U.;.eX1X1X&X%XR.Y.Q.=X|.F.1X9XrXF.r R ..Q.>X).R.5.F.H...c.#.H G V.(.FXSXZ.v 8 - v.R.u.v.>Xc.5.Y.C.Y.(.Y.r.u..X.XR.D.E ] 8.5.c.u.6.!.G.c.3.3.|.c. XkX=X|..XpX5.E s._.,X(.,X1X|.5.] Y.c.Z.5.F.wX7Xc.vXgXeXs.p g 5 (.k.N e #.C._.-.Z.+XY.b u.W.Y.).).Y.x u.).).9X).L.9.b C.%XM.;.b.i.I.E.pXrXx...-.K r.H.8.F./.).C.:.8.} H y F.(.V.i.pX%Xr.k 2 2 &XwXY.).F.).C.=.c.T.U.OX>.v.$XI.n.:XoXh.z.z.;.' =.=.&.' n.K.h.=.a ..c.j.W.V.u.-.w.#.9.G.} ;.#.y.u.c.F.b.u.@.c.H.u.nXZXvXy.V 8 0 pXwX|.c.wXY.%X%XtXiXM.+X].U.o._ c K.9X%X*X+X|.wX|.#.C.6Xc.-.c.tX;Xr.b.5.< M.9.C.7.V./.wXuX=X^.&X-.Y.pX%Xm.Q.A N U.MXvXU._ = o 5.;.b.v.o.m A e.%XC.,.U.$X",
">.8.F ..].F.O.@.=X&XY./.Y.c.).Y.AXnXU.B : > F.).b.C.>XvXoX&.-.N.t.5.N.G.+X$X` 7 # 9.>XL.8.Q.).C.u.U._.(.V.#.r.%.5X6X{.y...v.<.b b.R.u.-.F.T.8.U.|.V.H.Y.B.B.6.9.vXgXH.Z 0 > 6.D.c.` ].7...Q.C.,.-.u.|.c.Y.wXQ._.F.R.M.-.v.T.U.+X,.x.OXE.n.+XW.h.M.E.z.&.c.*XQ.] ;.Z.W.3.C.c.#.&X|.u.3.(.! N.eXGXMXeXM.l > > Q.c.F.Q.M.-.8.vXU.c.b.B.F.V.-./.6.r.#.` 8.8.u.8.` W.J.2X6XpXY.b.8.B.).Y.wX>X*XM.9 @.=.v.wX8X>XV.c.m.U.8.X.{ C (.c.MXbX^.v 8 ; y.R.7.c.).b.V.&X;XY.(.Y.c.b.C.&XG.G.3.Z.B.! Y._.6.!.,X XN.<.^.a.H..XW.(.H.tX6...u.^.dX,X&X6XY.6...C.F.b.8.y.>X*X>.xXbXvX6.9 f g <X8.z 1 r.&XW...M.%XY...8.j.c.Q.U.b.N 5.U.Y.>X;Xn.U.z J.;Xy.-.v.x.z.oXpXyX..=.C.V %.{.u.%./.Y.v.5.8.8.| 2 R._.Z.u.kX1X%.k 7 7 Q.>X+X).c.c.Y.n.,.x.M.E.&.h.E.oXK.K.oXI.S.K.&./ ,.M.n._ h.m.n.F.j ( c.x.c.Y.F.H.-.r.-.F.-.-.%.B.u.2.u.c.Y.b.e.B.3.bXnXkXc.C 8 t |.=XY.c.}.F.U.7XgXwXOXE.M.L.M.8.j h.-X+XQ._.).wXi.V.c.>X(.-.H.5X1XF.3.y.' ..;.@XQ.bX5.%XpXtX=XW.' M.>X;XL.T.] Z &XmXvXR.l * X E v.&XQ.e.A [ _ v.] 8.T.M.",
"-.{ M -.|.F.#.] _.&XR..X/.Y.Y.c.bXbXb.h > 1 D.&X).F.Y.1XC.#...+.3.5...oX7X-X( 4 , v.;XL.*.c.R.c.y.M.).(.y.] O.u.,XgX6.u.:.y.} z y.c.8.r.F.U.c.U.&XR.R.).9.-.u.u.tXfXY.V 6 > Z.Y.).>.eXZ.] R.M.Z.u.t..XY.u.;X>X+XC.c.Y.M.;.x.M.E.&.,.I.E.K.n.oXE.M.z...' c.n.(.v.Z.&XlX).L.8.8.&X,Xa.O.! { Z.=XnXkXgXF.h > > &XC.C.rX*Xy.:.pX|.M.v.H.(.8...b.| ^./.] V.5.U.R.=.C.R.J.6XwXQ.j.c.P.H.U.L.C.+XQ.M :.M.v.9X1XwX|.:.|.).=X_.V.z 1XY.MXNXZ.B 0 : #.c.3.c.b.Z.N.eX>XZ.u.C.B.u.b.kXp.p.2.{.u.| 1XN.| Z. X^.6.<.!.B._.c.J.Y.R.&Xb.} V.C. X&X=X|.Y.H.-.c.F.Y.Z.5.>X1X^.vXkXbX6.7 h 0 1X>.s < b.&XZ...M.%Xc.E 3.c.c.C.c...R b./.R.T.pX).c.9 y.).@.u.c.M.;.E.yXyX8.y.W.L 5.H.#.%.F.|.F.b.c.#.K < .XY./.c.bXpX5.9 2 0 +X>X<X&XW.R.wX(.).T.C.U.h.>.K.oXn.n.oXOXz.h.&.B ( h.v.,.OXn.n.%Xc L y.Y.8.b.Y.C.O.V...3.E 3.r.Y.B.y.8.R.H.y.y.u.#.vXnXvX;.c 8 0 5XtXY.y.F.Z.C.8X9XqX$XU.,.x.x.8.t K.L.W.$XM.Y.&Xb.} c.%XQ.Y.Y.Q.wXF.:.-.e V.+XbXQ.V.-.,XeX9X=XU.R @.M._.Q.U.@...qXvXpXx.j $ . ,.I.wX8Xv.R _ A ;.] ;.I.,.",
"` M S #.R.F.8.#.5X&XC.Y.C.F.^.B.nXBXH.0 ; ; b.{.Y.C.C.%Xm.L B.H.6.8.M.P.yXk./ o 7 ..L.k.-.u.Z.c.-.c.C.F.b.E E Q 2XZXb.r.B.Z.] z c.9.:.#.T.M.U.x.=X4X X_.G.8.V.6.tXbX XZ > > G.|.>XU._.N.x C.c.F.V...B.).F.>X9X>XW.).0X(.|.Y.C.K.h.>.K.oXh.z.I.K.v.k.,.$.k.M.T.>X(.;XtXR.R.(.&XeX>XB.c.5.{ V.|.MXvXiXx.h 6 > |.U.|.wXqXF.=.wX>X|.C.H.U.c.P C.y.|.M.H 5.` C.R.W.H.{./.,XT.v.C.Y.&XY.%X+XC.*XrXV -.=XC.).1X5XU.V.R.x.c.Y.N.r (.^.MXnXL.B 8 > 8.,.8.3.H.C.).wX(.u.Z.| -./.XXp.p.p.t.{.!.(.1X^.| s.N.J.5.| G.B.y.G.c.G.>X6XG.| Z.&X.X X6X XH.G.#.8.R.Z.G.B.wXgX<XBXvXbXs.p p 0 eXk.z j 6.H.Z.u.C.(.7.E ..u.b.V.r.} M C.=Xy.;.&X].;.e i.Y.-.y.F.M.z.I.OXyXL.m.W.K | r.#.i.H.R.b.).Z.9.5.z /.Y.^.C.vXbXc.3 2 0 %XwX7X1X>X1X).-.F.Q.M.OXm.h.z.m.h.&.z.I.n.h.z._ &.n.n.h.L.x.h.9.N ..=.x.8.c.F.y...@.O.#.E ` #.5.a.-.#.y.u.5.2.#.O.bXBXnX@.l 7 8 5XdXwXv.U.M.8.0X>XE.Q.U.U.x.[ =.8 [ j.+XQ.U.M.).R.;.b.)._..XR.R.tXY.-.=.7 P.pX1X|.N.k.1XwX1XeX%X] x.,.n.,.U.5...8XMXvXC.l = . ].U.K.OXW.] _ ` ,.,.y.F.M.",
"-.b J 5.F.Y.b.#.wX&Xb.|././././.BXFXc.t > ; N.t.5.F.R.&Xc.' c.^.!.Z.j.K.7Xn.Z O r ..c...9.y.y.7.:.c.Z..X|.#.n W .XGX6XD.t.H.X.x y./.c.7.Q.R.T.c.Y.|.Y.B.&X9.V.X.eXbX&XC 1 6 B.H.%X*XY.c.H C.8.v.^.c.a.H.F.wX9X9X>X1XQ.-.F.Q.M.OXm.h.h.n.&.&.h.h.M.>.W.,.=.n.F.).C.R.|.C.=X(.H.R.b.r.c.G.E u./.HXMXpXy.t > 2 R.F.R.1XwXJ.c.1X*X|.F.b.X.` -.c.V.R./.b...X.9.F.&X|.V.&XQ.|.T.8.^.1X+XM.>XK.OXiXc k.%XM.|.wXkXQ.y.).c.c.c.F.2 V.Q.BXvX9.c 0 6 8.7.y.9.).c.(.W. Xu.Z.] #.^.}.p.q.D.8.u.<X<X9XZ.! f.H.Y.3.+.-.y.d.f._.B.|.,Xc.3.H.dX6X1X.X|.H.3.} u.Y.y.{.R.).9X^.NXxXnXc.6 0 0 kXY.z w 6.Y.9.C.B.M.y.} ! c.C.Y.r.` %.Y.1X..V ,.c.8.j i.U.-.y.T.z.z.I.M.;XV.8.&XG U H.C.6X|.U.B.|.W.V.H.K 5.&XH.Z.pXlXZ., = 9 *XyX-X:X9XwXQ.>.C.F.8.T.m.M.K.K.&./ h.h.I.' K.' ( h.I.n.;.>.,.M.m ' ' 8.x.F.C...5.Y Y 9...P #.u.u.V.Y ` u.y...#.~ bXnXkX5.p > 6 5XwX|.8.+XR.n.wXpX$X>XW.M.E.x.P l ,.v.>XQ.U.R.Y.F.5.u.H.Y..XF.H.5Xy...c.z v ^.&XH.H.9._.1X9X1X1X] =.b.;.U.|.:...8XSXvXM.h $ O >X$Xz.n.,.[ =.[ =.=.v.U.=.",
"[ N W b.c.C.H.3.gX.XH.H..XF.F.5.bXFX|.v ; - G.G.5.R.;X1Xj.H 9.N.Z.N.k.h.oXj.h.* t ..8.' -.b.u.8.} ..&X=XH...e %.{.ZX=X8.8./.` N i.&XC.x.U.Y.W.c.b.c.5.u./.C.Z.3.tXvX1XH : 2 #.W Q.W.>.C.E Y.M.H.Y.#.i.R.Y.8X:X>X9X5XOX8.F.F.8.T.m.K.m.K.h./ ;.h.n.' -XM.=.;.8.Q.V.V.,XH.F.8.u.F.] b.D.5.Y u.H.JXKXbXv.t 6 8 =X&X=X>XOX|.3.pX=Xv.C.y.c...#...#. X).c.G =.F.Q.R.a.).|.R.Q.Y.9.c.|.>XU.Q.R.U.yXN Z.rXU.R.eXiXU.-.Q.R.c.u.J.4 L.:XAXbXG.h 6 1 &XZ.u.7.N.W.<X_.u.c.Y.u.+.!.{.p.O.G.r.c.1X@X+XH.F H.eXy.` #.5.y. Xd.B.G.!.D.-.3.Z.eXtXlX|.R.H.c...r.B.5.R.R.|.(.C.bXbXSXC.t 0 8 Q.,XM , G.Y.c.b.Y.b.3.| Y B.H.Z.] ` F.Y.Y.` ` 8.;.;.m :.c.u.U.x.e.OXE.E.;XC.u.&XK W 5XC.V.b.c.R.&X_./.Y.9.#.1XY.Z.pXtXB.: ; 0 eXyXW.$XwX;X>XY.Q.Y.C.,.M.K.m.P.h.h.z.z.E.C K.[ l &.m.M.K.M.&.U.H ( ' -.,.8.x.9.C.E M F F u.9.b.r.B.u.r.Y.u.~ Q W kXbXtXF.p > 6 |.5X|.-.W.Q.W.>XpX8X8X|.L.@Xn.v.Z =.M.OX%XY.C.-.j.r.r.H.6.|.R.c.|.v.=X1Xb S -.^.V.9.{ ,XgXeX%X>Xy.v.>X].Q.F.` ` Q.MXMXU.0 $ X U.W.M.h./ / [ I l ` n.n.[ ",
"_ z F b.y.u.Y.B.tXR.H.H./.H.G.5.nXnXB.k - - f._..X X&X>X..c 8.3.d.N.c.>.m.l.j.* 0 ` ..` @.c.c...E #.H.J.{.9.m b.1X.Xb.-.} c...a y.=X).Z.U.R.M.:.r.C.C.H.C._.H.N.eXvXlXZ > 2 u.~ =X*XW.W.{ C.U.Y.b.} b.Y.=X8X+X@XwX;X1XW.).R.C.,.C.C.K.E.h.z.K.v.$X_ n.z.,.M.U.M.&XF.|.B.-.%.9.T.a. XY.B.Y D. XJXHXMXC.0 : 2 &X|.>X>XQ.].P &XiXY.y.c.c.E Y <.5.,X1XC.E u.H.=X>XB.|.5X1XY.C.(.8.U.=XL.Q.iXQ.8X#.7.;XM.|.fXwXb.y.R.).5.-.5.e m.>XMXMX_.B 8 t ).^.(.H.c.(.&XC.u.(.6XC.8.).,Xp.p.!.a.c.(.(.,X(.b  XZ.} J Y H.f. Xd.J.f.D.| y.X.Z.6X XeX).B.G.u.y.Y.H.B.r.r.|.>X6XxXSXBXc.g f 0 Q.,XJ , 6.Y.8.%.C.V.u.2.~ F.r.u.} ..Y.H.=.^.( Y.-.c.l F.R.u.R.x.;.OXK.E.Q.W.c.Y.( n |.B.u.B.F.R.C.H.U.B.C.| 1X_.V.fXtXu.$ - 9 pXzX-X&XpX>XwX;XY.Q.R.U.m.8.h.K.' z.-Xx.I.C h./ A &.h.M.W.x._ ;.G L X.8.C.-.-.X.&X} H s.<.B.y.y.u.u.5.-.c.} %.#.H pXbX6X#.k : 6 >XwX*X` j.C.C.U.=X9XL.Q.v.C.n.>XG x.OXE.L.W.c.:.-.#.5.5XU.F.).r.J.).|.>XG V 3.Y.&X,Xu. XfX%X%XwXM.Q.eXQ.R.U.c.X.|.mXMXQ.8 $ X y.T.Q.%Xe._ v.[ [ ' Q.$X=.",
"=.H ] u.b.c.Y.C.=XR.B.u.a.G.B.u.CXgX#.7 : ; _.,XeX1X XW.L x =.9.s.V.,.9.m.( *.* c *.-.;.8.F.9.} E r.B./. Xr.z D.B.G.5.` r.9.X.w y.|.Y.R.Y.T.L...B.=X^.(.&X&Xu.5.eXtX6XB 2 2 u.+.:.>XU.Z.` H.(.M.u.] B.H.).wX>X*XiX>X9X&XY.R.Y.T.n.,.,.m./ ,.>Xx.M.' >.,.c.n.C.F.Y.H.F.y./.r.Z.J.8.H.R.=X@.8.b.HXHXjX-.8 ; ; |.3XQ.|.&Xb.c U.pXY.:.C.H.c...(.i.c. XZ.! u.D.>X5Xy.G.6XeX1XQ.Y.a.F.|.Q.(.4X=XY.=XT.b.Z.=XtX=XC.u.G.&Xb.8.b.9 =.%XmXxXY.m p 0  X Xu.C.c.c.H.Y.V.N.,X&Xu.,XeX,XXX{.c.N._.(.,XB.S !.u.X.X.~ B.f._.^.Z.{.2.2.u.P Y.gX6X6XF.8.R.B.B.Z.C.B.f.6./.eXMXbXnXFXC.0 0 f |.1Xn & F.).9.y.b.c.u.3...B.F.H.7.` F.L.` Z.P |.@XV.m i.b.a.b.n.=.n.z.n.OXU.C.(.X.a F.G.{.R.R.|.R.M.F.Y.6.H .X@Xy.xXtXu.$ - 6 >XxX@X%XgX+X%X;XU.R.U.W.,.v.,.h./ ;.oXz.z./ &./ &.E.M.W.-X=._ ,.k ( ;.=.:.-.5.#.u.} n 4.+.` E } } $.#.] y.@.2.2.F tXvX4X#.l 1 2 6X5X3XO...c.C.E.P.wXU.+XQ.U.Q.iX..L.:XT.=.%X|.b.M.O.8.tX5Xv.y.y.R.F.c.M.H z Y._./.,X(.C.eX=XY.>Xc.C.>X=X|.R.=X` ).HXvXY.t $ o T.%XU.$Xv.' T.,.;.h.I.:Xn.",
"x.V Y y.F.u.F.Y.=X XH.u.D._.G.B.nXgXc.p - = }.,XfXfX;X|.c N 8.=.D.Z.y.m.L.*.*.< l } 8.y.3.Y.#.P H 2.V./. XY.G v.c.,X_.3.!./.7.x r.F.:.R.R.W.V.#.b.5X=XZ.Z.6.Z.u.tXeX>XZ > 6 Z.| :.eXF.,.-.R.W...3.} y.b.U.wX;X*XpX%X%X;XU.R.U.E.,.x.>.h./ ;.L.n.z.=.>.,.;.>.b.Q.c.F.U.b.b.G.^.nXF.B.{.5.! { /.SXnXtX..p 7 : R.|.F.|.*X.XE c.R.R.F.C. X|...^.u.y.C.5.~ N.R.%X].y.H.Y.u.>XR.5.a.B.|.&XR.=X=X|.eX&X|. XC.&X).9.8.|.gXG.r.B.j C C.bXmXC.V 0 t &XB.B.<.| { N.Y.G.s.6X,X2.^.dX,X X/.r.^.^.6.B.Z.F u.G.Z.X.6.u._. X8.u.G.r.u.D.| (.1XtX,X8.u.u.s.y.u.H.u.^..X&X5XbXvXkXPX(.g h 6 v.Y.b % .X,XY.:.U.F.B.Y E :.G./.6.` /._.F.c.Z &X3Xc.` ,.y.y.v.K.;.&.h.n.>Xn.9.C.X.t i.u.G.F.M.G.|.F.&X/.V.G D.&X6.vXeXa.$ $ > %XrX%XY.pX>XQ.Q.C.3X).T.x.,.>.h./ z.I.K.[.&.&.' ' E.:Xn.E.v.' ,.k C 8.c.y.F.r.#.-.9.F E Q l } | 5.b.r.H.H.N.N.u.~ fXbXrXG.h 1 2 >X5X=XF.Y.|.M.Q.b.%XQ.).Q.U.8XiX[ P.OXM.v.W.+XH.B...6.pX1X;.5.b.Y.H.V.F.#.r V.G.B.H.C.U.eX>XT.>Xu.9.Q.vXQ.F.T.P Y.HXmX_.j = O |.3XR.3X:X@.R.x.B &.$Xn.K.",
"=.c E u.M.-.Y.Y.,X|.8.u.d.{.t.t.nXgX9.p = = /.,X X1X&X&X{ b c.M.B.B.C.Q.oX&.( 4 k } -.9.5.u.X.E Y ~ u.&XY.Z.u J.,X=X/.^.!.H.Z.! 5.|.8.R.F.F.C.y.u.=X/.u.u.#._.6.pX4XR.R 6 6 Z.3.v.;X@.;.{ b.U.#.@.] :.u.Y.>X@XY.pX>XQ.+XC.>X).W.x.h.;.h._ ,.K.M.8XS.h.e.[ 8.Q.Y.c.F.U.C.u.B.<.nXpX|.H./...Y &XZXvXbXy.l 0 2 b.T.|.%X|.>X} u.F.v.Y.F.Y.|.P Y.#.X...<XN.^._.Y.Q.y.c.H.:._.>X8.5.u./.).B.R.1XgXtXgXeX.X).|.1Xu.c.).uX|.y.5.3.( -.MXAXfX( ; e dX,X!.X.b ! Z.^.u.u.,X Xt.!.BXdX)./.3.V._.6._.(.s u.H.b.3.| B.H.H.` r.Y.t.#.#.2.V.&XlX=XY.Z.u.#.<.N.c.G. XeXeX1X9XuXtXFX9X0 0 2 ].B.J 3 4X).Y.8.|.b.V.| m -.b.F.V.Q }.U.y.3.a &XpX;X` i.C.v.S.E.o.[ n.U.>XL.c.3.( a #.6.Z.^.H./.H.C./.b.,XX...XXZ.nXtXa.: = 2 &XwX;XU.>X;XC.Q.U.|.L.c.h.z.K.h.B ;.z.I.zXz.&.' C K.qXE.K.z.,.x.Y c >.C.F.b.-.-.V.a...} +.G #.G.6X/.8.b.B.1.B.H.H.lXnXeXC.p 1 > C.=X&XB.U.Q.F.<XY.%X>X>XE.n.-X$XA &.K.W.U.@XQ.b.C.8.8.1X.Xr.u.F..XF.).1X-.q c. X X^.^.F.eX>X&X&X,.E R.nX>XE.U.] Z.HXbXn.7 = o R.wX=XpXpX..,.v.,.( I.>.h.",
"=.B Y c.u.8.R./.fX/.9.y.N.G.H.f.FXlX9.t = = ^.=XV.>X=X^.B.Y 9.Z._.!.H.&X-X>.' 7 R 3.;.;.#.9.#.Y F 5.b.)./.^.4 i.kX Xa./.B. XH.X.-.5XV.F.R.'.H.c.).Y.C.V.u...V.D.fX1Xr.c 9 6 N. Xb.&X[ @.( u.9XY.u.-.r.F.H.].;XU.=X;XM.Q.Y.|.U.c.j.x.K.n.l &.z.E.iXz.[ [ ..n.(.>XQ.|.Q.R.u.%.B.=Xy.b.T.=XZ.*.6XGXvXbXY.c 8 1 Q.tXQ.Q.*X=X..Z.R.=.C.H.B.=X} B.;.} | &X9.Z.C.c.F.#...3.#.;XR.b.B.y./.R.:.8.eXpXpXiXY.y.F.&X;XY.^.F.>X=X;.y.N V +XHXJX(.g > 0 gXtXG.B.{ #.5.<.Y B.<XH.r.(.>X1X,X&X3.B.(.B.H.N.s 6.N.b.6.| H./.^.#.u.H.B.<.1.s.H._.kX6X!.H.!.} <.V.y.R.}.dXfX1X0X1XgXGXV.t t ; Y.&XS 3 2XF.>X8.&XC.#.{ m #.y.u.5.x 6X;XY.Y.N T.U.Z...Y.b.u.M.T.[ ,.x.E.%XL.C.-.X.a %.f./.C./._./.).Z.B.lXP.Z &X/.BXfXu.< O 6 =XwX1X;X>XQ.C.W.R.].R.M.n.C.E.m.v &.z.T.yXz._ C m n.7XOXn.h.x.Q.J l v.c.v.-.#.-.c.r.R } H.Y F.^.B.b.%.#.} +.} @.y.gXnXrXN.e - > c.R.|.y.c.Y.C.%X(.>X1XyX>XK.oX$X' &.OX%XOXW.U.U.8.H.C.1X|.y.B.u..XV..X|...4 C.=XF.G.^.B.=X;X%X|.8...Y.rXQ.&X|.%.:.GXmX-.t ; o y.*X&X:XrXy.c.x.[ B n.;.z.",
"=.V | u.8.C.(.C.tX6XB.D._.6.B.!.CXNX^.j # O a./.9..X1X&X5.V c.W.^. XU.(.%XE.j.e ` 9.3.} 5.V.s.E s G./.&X=XF.t 2.lXC.r.H.B.|./.#.#.R.5.F.|.|.=XC. XY.B./.6.Y B.^.gX,XB.l 6 6 u.C.U.5Xy.8.` r.>XY.V.9.Q i.F.&X5X>X>XQ.L.Y.R.].Y.n.M.M.oXn.v &.z.U.:XI.;.@.` [ n.%Xc.F.v.Y.B.B.H.R...u.F.H.V.} _.PXHXBXC.l 8 1 |.*Xv.Q.:X=X..C.|.v.c.{.B.A.Q F...} 3.Y.u.Z.3.u.-.} u.} C.1XC.C._.C.|.=Xb./.tX1XtX|.F.c.H.|. X|..XD.wXwXi.8.V z xXHXFX_.j 6 g ,XfXG.E Y E | P ~ Z.XX..H Z.vXNXkXB...B.B.^.^.u.s 6.Z.u.8.E Y.&X|.R u. X X!.<.s.H.eX4X6X X^.G.| -.u.b.}.,X&XeX=X1XgXgXDX@Xt 0 1  X&Xb 3 F.y.=X@.&XM...] Z r.u.a.6.F eXgX>X(.X.M.8.x.@.U.8.@.v.].,.U.z.OXU.L.L.7.{ r u.r.B.|.Y.F.&X&X/.H.bXP.V 5X XBXvXu.2 O > &XiXwX&XuXwXW.m.H.|.%XU.F.E.E.n.C _ v.E.-Xn.;._ l &.z.>.' ;.>.;X#.' L.8.8.u.r.C.8.#.u...C.P @Xb.u.u.@.@.-.r.:.E 5.gXBXrXG.B - 2 R.|.G.y.F.C.C.R.v.U.wXpX%Xn.z.Q.I >.OXU.OXx.M.(.M.:.-./.).b.&X8.G.Y.|.R.#.1 5.H.6.D./.-.%X=X9XyX|.y.>XzX8XrX>X;.Z AXbXQ.h - O ] >X=X%XM.:.dXn.j A T.E.n.",
"&.x ] u.B.Y.&X^.wXtX/._. XB.H.^.GXbXZ.j ; % f.H.B.H.9X,XK V c.).H.6XY.+X7X@X>.r 3.8.8.#.%.3.V.H M u..X|.).u.F 5.lXG...d.D.J.H.3.} {.#.C.).%X&XH.&XF.H.J.V.2.u.,XbX1X,XZ > > G./.].1XY.F.N u.wX).c.-.L %.H.;XwX;XeX9XW.V.R.|.*XU.C.Q.E.k.B _ v.T.OXn.>.o.] ,.n.Q.,.C.B.|.B.Z.F.H 5.Y.F.F.b.} _.GXbXMX%Xl 6 6 Q.U.:.|.rXQ.@.M.>X|.H.R.D.r.U U.#.#.Z.b.E 3.u.u.-.Y.F.b.=X,X|.b.B.C.Z.C.u.U.6X&X=XB.F.c.C.R.Y.Y.XXy.4X|...3.#.q k.FXMX&Xz 1 0 &XdX^.P J G.f.-...t.Z.O.J 3.dXbX,XR.O.2.H.B.,X/.S 2. Xc.R.` Y.fX|.k c.=X XH.<.t.G.dX6XeX|.^.C.3.3.:.:.^.=XZ.1XwX_.NXvXAX<Xl 0 7 (.N.x a R.8.c.` &Xb.#.] a r.V.u.+.E 1X=X).Y.#.H.%Xx.8.L.m.=.F.Q.,.T.x.+XM.M.V.u.X.b D.#.!.=X).F.R.Y.H.J.vXL.c R.|.SXbXy.8 X ; |.uXuX).wX1XE.W.b.Q.;XC.I.+XE.>.v A x.n.$Xn.;._ l &.,.x.h.=.>.wX3.' Y.v.-.-.8.c.y.Z.8.V.&XG Y.-.Z.8.;.u.3.u.-...} tXMXwXY.Z : 1 6X|.}.B.).F.H.Y.c.Q.wX1XU.x.M.E.Z *.8XQ.>XU.c.Y.R.:._ ^.1Xb.).b.c.H.;XF.6.4 X.C.7.u.^.8.9XpX=XwX=X3.;XiXoX;X&X=.=.AXtXC.l = O L >X1X>X=.Z &XL.l c C.M.L.",
":.N =.N.B.B./. X4XdX/./.(.,X XY.JXvXH.V # # H.D.G.(.6X(.H n u.H.Y.6X1XQ.+XL...4 H -.c.@.r.Y.H.N e O./.{.v.} w $.,XN.S Y 1.u.!.-.:.R...i.F.Q.T.Z.G.H.F.R.H./.D.|.xX&X}.G 2 ; u./.=X>XC.=XK @.5X&Xc.-.V | R.>XrX).9X9XE.E.b.|.>XC.U.$XU.>.v A x.j.E.x.=.=.o.,.C.Y.T.Q.V.R.| c.F.m 8.U.R.b./.E V.PXBXMXtXm 1 6 U.|.F.).;X%X..v.yXR.R.Y.B.a.W Z.-.3.Y.a...X.C.F.F.F./.).Y.=XQ.C.V.c.v.r.#.b.>X1X).#.y.b.r.F.b.b.1Xu.U./.U.gXc.r { MXMXY.e : h kXlXG.{ { !.!. X6.d./.c.f.<.,XkX5Xa.E } f.X./.G.u 6. X/. XB.&X6XR.k H.6XXX!.G.1.f..XNXkX/.R.R.Z.F.:.@.D.}.6.|.eX<XgXtXBX<Xg 7 1 c.7.b H ^.u.c...R.V.u.E e %.u.a.u.E }.wX&X).u.F.|.8.b.,.8.$.Q.I.[ F.K.$Xy.8.c.C.N.F #.r./.,X|.F./.C.F.J.R.X.E 5.^.FXSXv.0 X = |.wXwXW.;XwX;X).y.].+Xn.M.U.h.[ C &.,.,.I.K.;.;.C _ x.h.K.;.*.eXc.` E.F.b.5.:.;.8.(.c.x.|.N 7.5.3.#.] /.#.O.u.y.b.gXMXbX=Xh ; ; 1XY.&X/.F.Y.8.C.6.m.>XW.M.x.n.E.@.` :X:X8XOXv.R.B.5.;.H.&Xa./.:.6.R. XB.r.7 X.Z.u.^. Xc.1XwX).1XW...).+XU.T.*XR ..vXrX_.B = O B F.%Xv.;.K x.Q.C R F.n.C.",
"v._ 5.#.#.B.{. XlXdXF.Q.5X1X6X=XFXBXY.x - $ ).H.B.,X1X(.N G c.c.c./.=X@XQ.W.>.a } | 8.X.b.b.C.G 2 | u.H.B.5.P Z 4X.X+.+.2.G.H.{ u.u.` %.R./.Q.b.u.H.b.B./.H.f.V.gXQ.G.B : > y.5.|.rXv.5.P %.=X%XC.9.V ~ R.>XwX(.;XwX;X).8.Q.%Xj.M.I.,. .C -.,.=.K.M.x.T.=.,.M.M.%X).Q.eX6.-./.^...y.] @.dX] | HXFXgX[.Z 6 8 U.|.T.|.3X=XH Z.>Xv.F.C.U.b.E y.<.B.eXR.u.#.V.F.U.y.V.-.Y.).&XM.V.u.V.B.B.y.R.>XR.b.v.-.%./.=Xv.R.F.r.=X(.eXC.r X.vXSX6XG 1 p ,X6X,Xk.N.s.Z.&X!.6.6XH.#.2. XeX=X] #.#.G.^.1XH.a <.!.Y.u.B.6X1X6Xm b.H._.XXfXf.G.t.kXJX,X&XU.:.u.9.y.u.!.B.G.tXeXwXrXBX#Xl j ; 9.3.! F d.Y.1X` R. X3.L x 5.y...t.U .XtX;X6X..b.Y.5.B.E -.=.S.c._ S.R.+Xy.8.C.Y.Z.q J 2.J.=XH.G.!.(.R.F.B.L ~ B.R.FXSXc.c X = 3XiXwX;XuXeX7XU.B.|.Q.j.n.x.*.` C ;.=.&.n.K.K.F.I ;.n.&.oXn.&.+X#.C W.Q.y.:.:.M.9.:.c.c.#.u G.B.] ..] C.).5.} C.R.gXMXkXB.l > > =XY.R.R.M.F.=.Z.Z.c.%X|.+XM.U.zX#.,.8XK.>XE.M.).Y.y.:./.|.R.Y.u.y.Z.Q.v.b.4 -.&X^.3.Z.3.R.eX&XwX X8.L.%XQ.M.Q.@.c.vXpXZ.6 O # x b.|.v.)...;.n.m Z y.L =.",
"8.] #.B.!.H.,X^.fXNX|.1X).Y.&X|.GXZX&Xm $ # Y.,X_.6X6X,XJ F 7.c.Y.&X&X(.M.-Xj.z H G c.#.b.u.-.J : W a./.J.5.{ O.tX,X..Y t. X/.<.| C.E O.F.|.|.u.u.D.u.B. Xu.} G.vX|.R.P 1 2 6.B.pX;XM.#.r Q =X;XY.W.L W '.>XwX;XuXrX>XW.C.%XE.j.c.j.&. .A ;.=.[ h.x.n.x.$.n.M.v.R.T.y.b.%.:.F.=XO.Y ] ` (.R u.MXvX>X@.k 6 8 F.&XT.F.%X|.../.5Xb.U.&XC.b.Q } u.B.).U.-.| u.R. XS.u.$.8.Y.%Xv.|.R.c. XR.y.b.H.F.H.C.5.} &XrX).y.5.F.Y.F.x.c.3 3.CXSX=X..> 8 rX>X X(.9.^._.V.f.5.,X6Xf.+.V.|._.C...} u.Z.=Xc.s ^ N.v.r.H V.Y.tXp F./.!.6XNX!.!.XX,XSX<X(.Z.u.3.-.y.R.!.!.J.dX@X6X6XmXV.g h t N.X.X.S y.(.,X` 5.H.u.E 3 -.6.| 2.M a.F.1X6X3.v.F.-.u.L ;.e.U.,.=.T.I.Q.M.y.C.,XC.4 H +.J.=XM.5.u.C.G.F.F.P H B.).FXMXM.V O $ 2XiXuX;X4X;X%XU.Q.;X;XM.m.m.x.*.( ,.>.&.n.n.K.x./ z.K.>.I.I...n.{ v c.C.F.@.Y.C.R.#.8.b.V.H P 5.c.y.@.u.c.#.-.$.r.kXvX6X:.v 2 ; &X).Y.R.Y.Y.u.C.C.M.Q.wXQ.K.U.>XV j.cX:X;X*XQ.].).b.-.Y.tX=Xu.Y.c.C.Y.(.B.3 ] ,XY.u./.-.R.pXQ.1X&X| n.1XgX|.I.;.x.MXiXC.y $ - Z v.|.U.|.=.@.,.j m M.[ =.",
",.;.-.B.B.H..X,XeXNX<X&X|.|.Y.).HXBX^.V - ; &X&X(.XX1X Xz F 8.8.^.6XZ.n.Y.7X8.k H L c.` b.c.#.` 3 Y 5.&X/.,X-...5X/.6.Y t.J.H.3.} /.#.H R.&XQ.C.8.B.b.H. XZ.9.}.SX=X6XZ : 2 a.{.*XQ.b.9.P E >X*XY.Y.{ Z G.1X9X;X5X;X%XL.R.=X;XC.M.M.n.=._ j.h.&.I.x.n.n.;.x.:.y.Q.F.=.:.%.] b.|.:.] @.] 8...c.BXmXpXG.8 > 1 y.wX%XC.Z.v...W.>X>Xm.(.F.U.8.@.5.a.^.J.y.#.u._.>Xy.V.y.5.|.R.b.V.Y.G.|.C.i.B.R.u.H.B.%.#. XpXF.=.y.H.Y.H.M./.r { BXnX/.G : 9 gX|.G.u.X.Z.Y.9.Y r.=X6X/.B.R.=X&X;.6.} 7.u.Y.5.b J <.Y.5.M 4.(.@Xa U.5X5XNXtXH.G.6XdXlX,X).V.3.5.#.b.6X/.B.,X6X&X0XeXSXy.5 6 7 0XN.J ~ 5.Y.c.b -./.Z.| , | +.$.#.s :.Y.6X^.8.c.u.] #.[ ,.v.h.,.x.S.M.M.M.v.R.(.H.r ~ ^.J.5X.Xb.y.a.b.B.u.E H Z..XSXMXY.m O O *XpXiX&X>XwX7X_.V.U.Q.M.U.C.U.,.' x.=.=.I.h.n.n.' =.n.h.E.oX=.' $.l n.C.M.8._.b.5X8.Z.y.c.E G -.y.@...H.#.G %.@.R eXvXpX5.m 6 > |.R. XF.Z.R.-.Z.M.v.|.;X;XU.j.M.C j.mXOXzX:XC.|.&X|.V.c.>XrX9.,.8.Y.L.M.y.3 | C.V.6.H.3.B.6X1X:XR.` L.&XrX1XwXU.8.MX5Xv.h ; = a [ c.M.y.[ :.y.` ..U.v.,.",
"U.v.2.B.5.H.H.6XvXkX(.,X).Y.Z.Y.BXSX XB - % 1X,X(.,X1X(.z H y.C.V.|.n.x.Q.oXj.N E ] C.` c.r.3.P , Y G.|.=X/.6.#.Y.b.#.S D.!.G.u.| /.X.Z J.R.&XU.u.B.Y./.G./.G./.SX1XtXR 1 2 c.}.4X%X=XY.6.X.wX0XR.c.{ k S.pXpX&X>X9X7X).C.U.Q.M.T.L.U.:.[ h.=.;.U.h.>.x.,.=.b.c.Q.R.b.;.B.] @.F.a.-.C.5.#.3.,XFXvXvXR.m ; > b.=X>Xj.v.F.#.c.>XpXY.=XR.C.8.] u.r.D.C.8.8.Z.F.Y.y.$.-.B.B.Y.B.c.u.(.Y.U.y.R.|.B.c.y.b.3.^.5XG.5.f.R.{.H.6X=Xu K AXGX&XP > 0 1X,Xc.#.S X.(.B.<.G.fXG.t.B.,X1XU.8.-.{ Z.G.c.6.r ! ^.,Xu.H ^.<X^.x C.u.f.6XlXZ. XnXZXeX6X1XY.3.H.c.C.,XeX/.6XeX<X0XdXMXc.6 0 6 tXs.z s X.(.9.H c.=X9.{ t a.5.-...i b.rX4XH.2.y.#.Z 5.8.y.e.e.;.,.U.M.n.Z.M.C.c.N.z Y {.C.).|.^.G.F.3.c.6.~ m b.1XFXMXY.c = o *XvXuXY.*XuX8X1Xc.Y.W.M.n.U.U.C.( i.,.*.OXn.>.,.;.=.n.n.L.m.y.x.C.G C.v.C.8.C.H.=X:.M.#.2...P :.u.:...B.v.} b.;.#.pXvX5X#.l 8 : /.V. XF.;./.3.c.x.L.Q.U.+XT.j.v...j.cX:XiX:XU.&XR.Y.|.c.V.,X_.Y.8.Y.%X*.X.4 ( /.8.O.G.<.-.=XwX*XF.E M.Q.iXrXzXT.8.AXpXY.0 > = j _ v.C.v._ -.U.7.' c.8.v.",
"5X.XH.G.5.^..XfXBXeXXXeX,X_.&X_.bXvX^.a - = &X X!. XkX_.M X.R.6X3.&X/.` #.C.X.-.` b.H.#.u.u.C.} % M J.{.1X(.u.B.|.!.9.S .X6X XB...B.6.M .XH.G.G.G.)./.Z.u.V.u.B.BX&X6X..2 2 -.F.wX].).V.| 3.&X&XZ.C...c A.pXwXQ.;XiX8X>Xc.W.W.m.j.W.L.Y.R i.k.[ +XF.@.@.U.b.c.R.|.U.b.i.r.y.:...F.-.F.B.D.y.1XJXmXkXF.l 6 ; 6.b.y.:.u.c.y.Y.).=X|.H./.b.+.E V.-.|.C.8.u.6X/.|.'.:...H.H.C.V.Z.y.^.{.R.r.5.H.b.b.#.y.F.).>XF.u.y.R./.F.5XR.4 L FXSXG.Y > 1 1XC.C.#.| { 6.Z.u.H.gXF.H.C.Q..X_.(.:.X.9.Y.Q.#.3 | Z.5XH.J /.1Xc.F u./.G.C.eXY.R.lXGXbX1XgX,X5. Xc.H.&X,X^.,XdX&X1XrXbXV.6 p 5 n...! H Z.(.9.3./.vX7.J e 5./.-.<.H R.dX1X/.#.u.!.P 6.-.C.v.;.R.,.:.Y./.|.U.c.c.H.z s ^.H.B.R.F.G.C.9.G.5...a r.dXSXMXT.l = X F.vXzXU.%X>XyX>X>X>X&X).L.Q.j.Q.G i.8...%XY.w.] U.M.b._.C.8.C.1X5XB.R.b.F.y.c.H.y.-.u.u.u.W 8.c.Z.).@.8.H.y.8.v.u.kXMX6X5.l 6 : |.H.G.|.5.H./.|.&X|.|.U.Y.;XU.M.N.7.zXcXzX*X+X1X&XF.=.3.#. X/.1Xc.Y.(.` E w E /.}.t.f.G.-./.6X|.).c.y.y.c.6.).R.H.vXeX X[ > : b.1X6XD.N.H <.fX6X&XSXBXbX",
"tX=X XH.u.^.&XdXBXgX_.lXCX6X6X6XMXfX-.x > # ).).G.^.1X_.J ~ 5.B.../.=X .| H.` -.L 3.Y.@.u.G.u.X.% x b.b.,XXXY.B.{. XZ.B rXkX1X(.J ..6.b !.y.H.B.G..X|.C.8.H.c.b.FX&XrX>., 7 N.r.3X=XU.:.5.%.|.(.c.C...r r.iXuXW.&X>XrX;X=X1X&X).C.).j.Y.G r.j.@.W.Y.b.} H.y.-.C.R.T.b.H.5.-.y.R y.3.R./.V.y.8.SXZXgXu.k 2 > 5./.r.@.b.C.b.H./.R.}.R.|.B.] Q b...Y.C.=.:.=XR.=XA.c.] 8.8.9.x.C.F.D.J.B.;.y.F.H.F.c.y...b.|.U.H./.6.^.).|./.u a CXbXZ.Z ; 1 gX=X<XC.X.<.f.Z.5.d.gXV.#.#.U.F./.Y.y.E Y b.&Xs.w ! 6./.6.J s.(.3.J J.,X/.u.=X6.B.gXSXZX1XfX|.#.H.8.b.eXfX^.XX1X(.,XtXNX;X< 6 > =.6.P b.Z.N.5.Y.J.%X9.~ i 2.!.b.G.E a.5XF.u.3.6. X` c.-.H.c.} D.@.#.^.>XeX(.9.8.^.z i tXY.:.F.F.H.N.#.F.7.6.j o.tXSXbXW.l = O A.uXmXW.>XpX9X%X&X+X).Q.Q.8.c.Z.R r.,.-.+X|.b.} B.y.9.^.F.F.8.|.6X8.Y.b.6.c.b.5.-.X.u.y.G.-.R 8.c.c.@.-.S.8.b.b.] pXnX5X` k > 2 B.B.u.Z.9.u.|.=X.XQ.|.=Xx.M.Z.Q.-.9.mXwXwX*X>X&XR.F.9.6.! B.^.rXC.=XU.u.B.t L 5.B.@.{. XC.^.tX&X X/.&X).#.#..XR.,XvXtX=XA = : tXdX1X6.5.s.X.5XdXfXnXgXPX",
"tX).).c.V.G.Y.,XNXbX1XBXlX.X X.XZXBXV.k ; $ C. X6.C.&X(.b ~ #./.Z.Y.(.7... X3.-.R u./.} @.F.Z.X.% b f.u.{.|.R.u.B.).^.Z J.=X/.C.V | 9.b G.C./.H.Y.R.Y.C.Y.B.u.F.BXpXkX` ; 6 @X6.).b.C...#.5.=XQ.Y.M.X.z %.5XxX).>XpX9X%X:X%X|.Q.OX8.b.C.P w.:.,.).|.b.#.C.b.7.C.>XT.;.-...C.F.#.u.c.)..Xr.8.C.FXHXrXr.t > 1 b.|.H.#.u.F.G.b.H.b.u.).H.&XB.Y 9.} W.R.b.5.y.] a.q.@.y.6.c.9.F.H.C.H.B.R.3.9.C.Y.b.F.G.E -.,X Xc.).r.B.&X|.V.a e MXbXc.G ; > NXxX1XH.8.2.5.V.6.5. Xt.| ] U.c..XR.X.J Y V.Z.<.s | Z.y.} ..G.).V.~ B.6XXX,X^.G.{.lXGXvX6X,XY.5.N.5.3.6XdX!.XXNX_.1XfXBX1X6 t 1 <XY.n 5.9.Z.X.F.&XF.5.| b 5.B.s.{.` b.dX,XF.8.6._.P y.u.|.Y...b.y.6.G.=X5X).V.9.Y.G z kX&XR.R.G.6Xu.-.Y.c.Z.r o.kXFXnX%Xl = o e.=XxX+X+XgX>X+X%XQ.;X%XU.c.y.c.P :.b.,.C.R.M.#.8.y.V.@X5X=Xr.(.|.B./.F.r.c.V.F.c.6.3.V.^.y.Z c.C...u.F.&X:.b.F.:.gXvXwXE j > > #.-.5.^.s.u.R.R.].R.).].e.M.8.M.H -.8XM.%X3X;XQ.c.8.u.3.#.C.G.&Xv.1X|.|.r.3 } H.H.6.,X/.).,X1X<X=X|.5.C.Z.a./.u.H.gXpX/._ > 6 dX1XY.,X#.s.X.G.6XvXvXMXJX",
"dXu.F.3.-.a.^.6XBXpX1XdX5X/.6X,XBXnX,Xr # = Z./.!.Y.&XY.S #.y.fX(.c.Y.*.3.1X>.u.P 8.F.G } Z.G.} & n u.r.Y.D.F.C.H.G./.z r.F.r.^.#.N.Z.s G.|._.H.^..X/.Y.).F.N.u.NXpX=XL : 1 Z.u.&XU.R.-.....).W.R.C.3.r ] Q.pX+X%XzX>X+X@X).*X%XL.v.9.c.E $.F.:.-.c.b.-.c.=XF.C.&Xb.y.-.5.6X).c.c.5.C.c.8.:.D.ZXCX>X] p 1 1 F.|./.#.8./.R.b./.F.c.|.Z./.G.E Q.F.&X;X&Xb.y.%.a.O.-.V...b.C...3.H.R.H.R.R.F.C.Y.H.C.8.-.8.,XF.C.G.#.V.=XY.B.x r BXMXC.` ; > 1XeX X&X9.<.B.B.!.#.|.5.2.5.B.Y.eXR.8.F ^ /.u.| s ! <.|.>X` G.,X#.| B.5X XeX1X/.^.,XvXbXeX)./.5.c.|.c._.,XB.Y.eX#X1XtX>X] 2 9 ; &XY.b #.9.k.V b.F.C.Z.1.J 2.B.Z.,X] a.CXeX1X9.J B.{ #.c.Y./.E B.Y.9.u.=X>X|.(.Z.Y.{ z ,X6X,XB.c./.u.b.Y.9.3.q $.pXFXvX&XC ; o w.Q.pX;XU.iX7XU.R.U.>X|.R.U.,.L.` } i.e.y.9.M.-.9.&XY._.1XR.R.=X&XY.H.F.u.V.H.H.-.b.u.y.B.5.X.-.Y.F.-.F.|.8.u.^.F.pXkX5Xr.c > - <.N.9.Z.B.#.F.^.Y.U.C.y.M.M.c.Q.Z K I.,.T.Q.&X1XY.v.y.8.C.,X/.v.u.&XR.b.u., ` b.|.2.G.5.,XgXY.>Xb.u.} 6.1X{.H.b.R.nXdX X..2 > dXpXZ.H.s.| | V. X0X0XBXFX",
"dX=.C.2.r.V.J.|.xXgX&X6XtX,X6X6XSXbX!.e # ; ^./.H.^.6XB.E 6.Z.&X7.^._.8.#.H...#.{ u.V.E @.H.u.} < M +.B./.H.b. Xs.3.B.U J.J.r.+.} |./.G .XH.Z.^.!.{.6X1X/.B.Z.6.MXtXR...8 : 6.5.=XQ.Y.-.L #.R.U.C.F.9.r <.U.eX;XF.uX8XT.W.U.>X|.R.Y.,.P.` E y.y.b.#.C.-.U.=X8.5.Q.).|.F.B.XX,Xy.c.} B.B.).Y.V.FXPXVXb.0 : 1 c.C.B.r.9.|._.Y._.b.B.H.c.)./.N 9XC.).wX>X5.u.N.!.q.;.U.*.c._.:.8.C.u._.|.Y.y.Z.Y.F.{.B.#.u.>X'.R.G.3.C.Y.C.b.Z t CXHXC.c ; : 4XfXtX6X#.~ B.,XG.#.XX8.} | | /.dX=X9.Y 5. Xs.d.D <.6.=XlXO.F.Y.} ! #./.4XXXY.-.b.1XgXgX&X&XH.3.#.&XY.x.6Xt.B.&X(.1XeX4X7.j 9 1 C.{ b | c.k.L ,.9.b.F.6.~ E a.B. X..5.lX1X=X*.s B.X.X.B.|.<XX.,XP.3.B.=X,X1X&XR./.| a 4X&XJ.b.R.|.y.c.,Xk.V.b } 9XFXmX%XB 1 O O..XhX>XQ.>XW.M.Y./.|.F.x.c.M._.*.E ;.8.,.9.).-.Y.>Xx.C.>X>XY.F.&XR.F.F.B.B.F.G.b.b.b.8.r.` P 3.Y.Q.M.c.>XF.r.).|.nXpX6Xb.j : : { B.u.Y.V.r.5./.(.R.Y.Y.C.S.M.,.B ( E.v.).Q.5X6X|.Y.u.c.;X1XF.Y.c.C.b.Q./., :.C.R.#.B.} 6X<X/.gXY.#...Z.6XV.B. X XBXeX1XZ > > |.&Xi.5.O.1.B.^.rX,XmXCXJX",
"fXu./.%.W %.B.1XtXbX XeXdX,X{./.CXgX8.a $ <  X.X!.R.eXs.J u.G.,XB.=X&X^.3.c.{ #.#.c.Y.=.5.=X3.J u F B.J.G.|.R.|.H.#.a.%.H.6X X#.$.b.Z.x }._.V.G./.H.{.).u.c.Y.3.vXtXb.[ 6 > 3.6.&XL.Y.3.Z 3.C.Y.(.F.Y.S Q .XpX=XQ.=XW.K.Y.).|.F.9.c.b.&X-.E ;.8.;.Z.rXC.(.>Xc.r.%X%Xv.u.J.B.y.#.R.#.H.lXY.5.C.BXPXVXb.p > > c.Z./.u.c.H.%X/.1Xv.u.b.-.F.|.L G.e.G.eXyX5.G.G./.4XR.#.y.Y.).b.} Y.H.,X|.Y.c. X5X|.H.F.@.u.1XpXF.V.V.b.F.Y.|.M 7 CXFXH.v 1 % 4XkXgX5XE J y. XB.|  XG.| | ~ f. XdX#.#.-.G.B.9.r ! N.1XvX8.u.G.#.H 3.J.{.,Xu.} r.6XnXgX|.&X(.H.#.H.u.Y.,XXXH.&XH.1XgXgX1Xc ; # j.K x #.c.Z.( ..C.u.3.! Y Z 5.B..X5.Z ).G.H.b.G H.<.! R..X&X=.5X(.3.G.2X|.&X,X^.6.9.w .X|.H.,X=X(.N.G.eX7.^.S H &XSXMX>Xm 6 o Z '.mXrX>XiX%XW.U.R.|.Q.Z.C.R.).7.| :.v.;.Y.pXC.Y.1XC.b.6XC.#.Y.|.F.c.B.H.B.B.y.y.y.F.-.-.#.} @.F.Y.|.|.=XR.c.F.{.nXgXeX:.h 2 = H (.H. XH.5.7.Y.>X).Y.Q.M.R.F.' Z Y &XL.F.F.Y.H.R.|.u.7.).4XM.H.:./.&XF.r., G /.B.} #.} H. X1XeX=X(.8.Y.Y.F.u.H.).FXtX,XV : 1 c.u.8.} F ~ 5._.eXpXbXZXKX",
"1X^.|.#.| | H.1XbXbX.XgX.X!.H.!.BXnXG.t # ; G.&X/.XX6XN.x 8.N.^.R.H.Y.3.X.c.P 3.6.9.V.r.8.F.-.E u i t.a.G.(.|.;X(.#.~ %.G.pXXXB.y.@.u.x {.1XH.G.{././.V.^.^.H.-.uXeXV.] 8 1 u.r.Q.L.F.{ H b.B.y.&XF.u.v H F.vXiX>XeX%XY.F.R.|.).L.v.).Q.7. .5.c.5.W.gXY.M.wXC.Y.&X).H.u.u.r.b.u.&XS./.8.=XB.G.BXDXrXy.9 2 : F.R.R.B.8.u.F.C.>X).8.8.-.3.H.H C.Y.b.U.Q.B.F.). XrXF.-.c./. XC.#.H.tX@XF.u.b._.bX|./.5XC.V.c.nXC.9.-.F.Y.m.c.N w MXMXC.M > ; {.6XtX,X2.^ Z.u.Z.| B.t.! | 3./.tX=X#.#.} %.^.d.D J s.=XU.] -.5XdX^ _.XXf.^. X9.u.5XCXgX1X).V.y.d.!.V._.dX X/.eXc.1XbXZX,Xt 5 > V.3.` X.X.c.z } Z.8.8.#.! U a.<.B.#.W }.r.a.r.#.&X<.-.1X>X&X=.6X1Xk.c.5XY.B.B.Z.Z.N.3 D.4XV.}.&Xc.B.H.1XN.^.K U >XSXvX>Xm ; O Z {.mXzX%XpX0XW.L.H.*X9XW.v.&XwXm.#.:.y.#.@XxXU.C.6XC./.=Xu.u.(.).&Xu.F.|.b.F.b.y.y.u.c.#.u.-.[ c.U.1X).y.y.C.J.R.pXtXtX:.p > > E u.G.Y.C.X.u./.&X/.R.|.C.U.M.,.[ x ;XM.U.U.,.F.R.).b.N._.eXb.C.u.}.=XH.q.9 M C.F.} ^.t.!./.,XeX).Q.b.8.Y.B.).1X&XHXdX1XA ; > C.Y.N.E b -.E H.eXNXHXPXJX",
"XXH.B.b.3.#.b.dXlXgX6X1X_.!._.{.ZXBXY.a # ; Z.Y.H.4XXXY.z V. XZ.B. X1Xs.6.N.G #.7.u.H.8.B.r.3.E s d +.{.Y.T.U.U.Y.` Y :.a.ZX).} u.B.7.a V.rXY.Z..X)..Xc.(./.(.E fX1XG.] t 8 V.H.R.c.;.` Z :.b.-.y.U.u.S H }.vXiX%XiXuXW.L.F.*X>XY.M.&XiXm.3.:.y.@.&X0XZ.(.=XF.#. X&XR.r.+.f.:.5.=X|.V.-.H./.y.SXSXvXb.e 2 : C.R.F.B.u.y.u.F.R.b.O.u.B.C.F.N Y.L.M.>X$X).c.F.1XwXU.#.C.r.Z.H.#.C. X%XH.b.c.;XpX}.D./.^. X3.,X{.&Xu.b.+XZ.' M q MXMX8.x 2 % N.tXwX/.2.+. X^.s.<.6.~ J | s.,X4X{.+.N Y a.C.f.s ^ f.1XS.#.2.|.u.Y f.G.{.,X@X6.G.kXBXbX6XXXH.s.y. X!._.dXXX{.gX6.<XMXBXeXC h 7 _.5.#.#.` Z.j c V.Y.-.<.} E B.y.2.B.%.,X|.5.G y.&X<....X6XW...=XvXV.r.4X(.G.#.^.Z.6.t +.|./.6X,XG.5X/.1XY.F.E Z =XSXkXU.V ; O H ).zXgXQ.>X1XOX+Xv.%X*X8.v.R.;Xk.#.8.c...;XtXY.).&XY.7.).c.).H.F.G.B.|.R.u.B.u.V.u.F.c.} H.r.8.5.8.U.F.F.i.y.R.B.lXpXkXa.p 2 > ` #.V.G.y.E N.(.).|.R.F.,.W.F.c.[ V %Xx.wX5X,.F.F.|.F.Y.Y.=XH.H.c./.Y.Y.D., z V.H.5. Xa. X X1XtX0X1Xc.-.1XY..XeX/.NXBX6Xm 1 - Y.^.^.P X.9.Y !.gXbXHXGXJX",
"1X6.c.(.V.<./.dXdXnXtX6X_.XX_./.ZXSX).j # , C.H.H.^.<X_.b u.H.(.^._.fXW.Z.9.M y.-.c.V.#.y.B.B.^ F i $.G.u.).b.F.|.i.E Z O.VXtXG.t.F.V.a $./.c.B.H./..XB.Y._.(.P gXeXi.V 8 7 V.).Q.L.Z.{ m } b.:.3.H.3.z H R.yXpX).>X1XOX+Xb.%X:Xj.c.T.>X9.#.r.M.[ &XpXJ.&XR.Z.6.eXgXv.r.2.$.b.%.Y.U.$.#.Z.y.P nXFXkX#.k 2 ; i.T.8.-.F.F.u.M.Y.b.#.8.Y.F./.N P.).c.>X>XeX_.u.Q.E.C.#.C.3.9.).#.u.Y.Y.).Y./.+XBXeX/.R.-.9.| ^.!.,XY.M.=Xj.Y b e bXFX/.s 2 : u.2X<X!.| 2./.(.7.2.!.t.^ 2.r.}.dXa.1.+.R a./.u.3 M u.=X%.~ t.5.M s <.f..XwXH.-.b.nXnXnX1X|.H.N.| u.V.^.gXXXXX6XN.1XbXbX&XB g 8 H.X.3.E -.,Xz L c.H.Z.3.3.} H.u.+.t.%.6X6XXX3.E b.| N c.U.D.@.A.=X8.r.;X&X).<.Z.Z.!.r E G {.lXkX=X&X X^.c.H.P k F.BXvXM.V ; O W ].vXuX+X5XpXwXW.8.*XOX>.8.,.Z.-.E :.M.-.;XgX/._.|.Y.s.uXgX/.F.Y.b.u.H.F.b.b.C.R.C.Y.r...-.-.u.5.B.Y.r.G.b.v.a.F.nXvX6X:.p 6 > } 9.B.R.6.%.6.C.R.(.Q.M.-.;.8.=.X.l M.n.Q.&XF.Y.R.|.b.C.^.,X_.u.#.^.U.).-., j <.t.6.&XH.b. X&X1XpX|.5.9.&X&X}.R.R.nXbXeXV : 1 ).Z.Z.3.E W 6.5XeXBXBXPXHX",
".XB.B.:.C.6.G.6XpXNXeXdX(._.,X.XBXZX/., = 2 B._.J._.XXZ.S #.Z.,X X_.xX(.(.Y.E 5.9.b.y...6.#.B.} F , +.B.c.Y.c.6X XD.z n i.kXBXD.-.D.V.r :.B.F.F.H.H.|.R.H.(.,XG lXvXy.Z 0 7 b.G.%XL.C.#.H ..R.-.c.Y.-.J W ).pXuX+X9XuXyXW.:.;XQ.>.8.;.C.*.Y 3.M.r.,XpX{.Y._./.&XxXMXb.N.5.} H.E ..y.=.] (.u.{ BXHXpXu.c 7 = 3.b.$.#.8.7.Z.Y.Y.Y.c.c.).C.C.H W.%Xn.|.;X0Xc.-.R.Q.Y.#.-.#.u.C.#.y.M.Y.|./.%X(.mXtXR.|.C.u.X.8.F.6X|.Y.=Xc.C.| 4 bXkXG.p e > Y. XdX XB.~ _.^.u.<.Z.t.F +.#.XX&XD.Q Q 6.} 8.6.w J H.tX}.} s...H Y | 2.,XdX,Xb.J.CXnXpX,X1XZ.u.8.Z.Y._.1X!.6X,XN.&XBXJX(.f 8 6 ).N.K P 5.V.r U ..c.H.<.X.@.V.5.} #.r.,XkXy.u.$.y.` z 8.y.y.=.y.u.9.r./.|.|.8.u.Y.Z.r } E t.}.6X=X X1XW.c.&XX.j r.AXkXF.C : # F {.iXeX>XuX8X@XY.Y.;X+X7.-.M.F.7.M y.C.u.>XrXR.F. X/.<XbXBXF.G.Y.b.u.u.G.6.u.V.).R.).R.:.V.r.-.u.u.F.5.V.c.C.y.J.SXgX1Xa.k > > 5.8.u.H.R.#.8./.F.&XwX:.=.-.M.n.;.b M.I.Q.|.U.F.&X|.F.V.J.rX=XR.| /.|.=XO.& b 9.d.<.!.G.u. X1X1X<XV.3.u.(. XF.|.H.FXgX&XL 1 : ^._.).5.] x } ).%XeX1XNXvX",
"=XZ.G.r.C.5.B.,X4XgX1XbX<XXX,X,XZXMXC.7 = : Y. X(./.,XY.J y.H.,X X=XNX(.Y.^.P K X.H.c...u.5.8.! F , W 5.7.8.8.<X{.f.H M J.4X,X7.%.r.c.r r.G.Y.F.=XG././.R.|._.g kXkXH.] 8 1 5.5.|.Y.Z.c.z R c.-.U.(.c.{ M R.yXeX;XpX>X%XY.R.;X+X8.>.C.F.-.b r.F.c.&X1XB.r.|.Y. XkXbXR.=Xr.6.y.8.b.#...N.R.8.N.GXHXjXy.a 7 2 c.U.U.N.#.:.C.Y.F.C.u.Y.|.).Q...W.1X|.&XU.9Xr.c.Y.Q.U.X.Z.R Z.^.#.%.c.,X.XB.&X%XMX=Xy.b.Z.#.-.u.B.|.F.Y.1X=XF.Y < ZXnX/.c p > ,X.X,X5X^.#.c.B.N.! s.t.t.2.] J./. X} 5.u.{ 6.t.r T G.6X=X6.6.| <.J T 2.<X6X<XY.6.bXbXeX0XeX9.s.u.Z.Y.!.<X!.XX6XG.=XbXCX(.B h r &X^.#.#.c.Z.r H c.C.c.} } Q -.r.E O.O.=XVXb.r.u.Z.` x b.-.5.( x.,.C.u.=X).).H.c.Y.<Xr t.{.t..X5X).Y.V.|.M.^.3.j %.AXgXQ.( 1 # a F.zXpX@X>X>X:XU.R.).%XL.n.M.(.9.J a.C.C.)..XB.B.|.C._.fXmX/.,X/.b.Z.V.F.y.3.F.(.r.c./.:.C.Y.c.Z.<.| Z.J.&XF.F.F.GXlX6XM.h ; > ..-.b.r.y...B.).C.|.5Xv.-.H.M.T.-.b >.W.rX>XR.U.&X XF.).C.=X/.5.Y H././.r., z ^.B.<.!._.H.1X1X;X+XV.9.5.(./.V.J. XBXpX^.m # -  XH./.-.} G #. X/.&XgXtXgX",
".XX.d.t.B.#.f. XeX,X,XBX_.(.6XeXFXSXH.1 # 1 _._./.B.6XH.N u.N.H.<X&XvXW.Z.9.| ] -.u.m.| u.6.8.! H % } #.-.Y.i.R.,XJ.G } ).{.c...@.-.u.a Q >XY.B.>X.X{././.H.Z.r 6XgXJ.U 6 1 y.f.B.=X>Xc.b @.).Y.M.>XW.| w A.gXuX@X=X;X;XY.R.+X%XL.x.n.(.9.! v.F.Z.W.R.V./.).u.8.&XrXy.F. XF.8.,.E N.Y.C.b.#.3.MXGXvX@.p 6 9 9.m.(.c.8.:.v.F.C.8.c.Y.W._.1X$.c.(.Y.F.R.W.C.H.R.5X*X8.7.8.c.C.%.#.&X1XR.-.U.).mX=XR.D.F.5.u. X>Xb.x.C.=Xb.F.Z , nXBXR.k > : nX XZ.6XN.! N.G.N.{ N.J.%.E 6.B.|.C.} B.5.G !.<X& d f./.Y.#.c.N.s.F Y #.XXbXdXY.5.6XlXgXpXtXZ.u.-./.C.G.6X!.6X X9.1XlXNX|.B j j ,X@XH.c.V.P.N M u.c.c.E | %.G.J.#.G Q .XGX6XG.6.Y.X.x c.(.Z.*.x.|.U.b.tX X).{.^.^._.< ^ J.G.rX&XC.8.5./.W.).c.r @.SXbX_.` 5 : a ).pXwX_.>XuX8X1X9.m.W.n.F.U.Y.k.! D.v.u.Z.H.B.|./.u.V.1XpXG.Y.&XF.B.H.B.V.y.C.F.5.M.c.-.).R.y.2.!.<.B.,X=XV.5.F.MXvXeXb.k 6 2 #.r.y.3.B.%.B._.|.1X|.U.C.W.S.,.R a C.U.wXeX;X)..X=XR.Y.:.8.C.#.W R.|.Y.b.3 M &XG.2.f.Z.Y.=X/.;X&X(.Y.7.Z.5XV.u.H.vXtX(.B - 1 R.D.^.y.G E <.B.H.,XfXCXMX",
"C.|.!.!.B.2.N.5XdXXX0XNX,X/.6X&XFXBX(.4 # 1 (.).!._.6X/.P 5.c.Y.1X(.lXY.(.V.| H X.u.c.E #.b.-.! S $ r.B.u.F.B./..X_.} Y F.B.H.X.5./.V.s E ,XR.D./.).,X/.s.B./.b wXbXF.H 0 2 C.B.u.b.>XZ.v 3.).M.|.5X+XV.c }.iXwX).>XpX9X<X8.m.W.c.C.W.Y.c.! D.e.3.V.Y././.F./.Z.=XtXB.H.&XH.u.3.#.Y.C.F.G.Z.#.NXFXwX` 0 6 6 [ Y.M.9.8.b.M.c.C.).H.U.Q.Y._...8.M.y.a.F.=X-.C.C.|.-.] ,.b.Y.1Xx.c.%XY.B...Y.%XiX5XR.{.F.;./.tX'.F.F.u.C.b.4XU 9 BXnX^.a - % lX^.G.,Xt.| G.D.+.b 6.t...! c..Xb.-.c.J.#.E  XdX< ^ D.&X6X,XY.V./.#.J E ^.F..X8.#./.6XvXeX&X_.V.8.H.N.V. X(.<X<XZ.1XBXCX|.C h g ,.Y. Xk.V.B.z S (.B.5.H b u.G.f.O.a r.{.ZX=X5.5.).E F b.4XQ.>.c.>XY.B.4X,X=X/.G.G.N.& s i.J..X&XF.u.s.u.}.wXP.z ;.SXMX%XR 6 > z b.wXwXU.&X8X9X;X_.;X%XW.M.>XL.Y.Q i.b.V.u./.R.H.H.Y.H. X>XB.B.B.b.u.B.R.Y.H._.1XH.F.6.3.).&Xu.#.} 5.Z.R.F.b.#.y.vXgX5Xr.p : : %.u./.(.Y.B.3./.|.&Xb.F.>XW.U.S.;.e ;X%X&XrX1XQ.B.*XR.C.=.N.B.u.Y H.&XG.a.p 0 }. Xt.Z.^.H.H./..XkXFX&Xu.u.eXY.Y.F.vXvX,XV : > ).B.G.X.{ | +.2.5.6XdXnXhX",
"H.!.B. X).-.u.!.XX,X,XfX6X,XlX).bXbXV.2 1 9 &X(.XXXX1X!.H H.(.1X&XZ.gX1X&Xk.G r 6.(.8.H @.V.V.! b & r.1.6.H.#.).@XY.3.Z }.^.6Xs.c.{.(.H W =X).V.|.H.XXG.B./.6XP gXnXc.W p 8 /.N.5.#.U.Q. .#.C.c.M.Z.C.C.x y.>XrXU.%X>X9X=X@X;X%XE.M.1XL.Y.} r.D.H.9.=XR.b.F.C.5.V.wXR.u.=XF.8.y.#.R.n. Xc.u.P kXmX%XL 0 6 : ] ).Q...X.8.F.y.F.F.b.R.|./.y.N 8.&X@.Q U.>XN #.c.b.6.#. ...Z.|.:.H.).W.8.5.%XY.R.6XR.).}.3.V.tX).Z.u.B.|.|.c.M % nXBXb.p = % Z./.H.J.t.5.<.1.<.u <.D.M ! N.|./.G.b.+.| y.a.f.3 G.,X5X/.V.7.H.,X<.! E _.R.).u.+.G..X&XtX=XC.c.#.u.!.!._./.!.,XB.=XNXbXc.B 8 5 [ X.C.(.s.G.z b !.N.#.H H +.f.J.6.Z b.,X.Xc.-.] u...r r.pXeXc.v.5XY.u.|.|.,X!.t.B.(.r i H.f..XiXR.B.B.%.y.1XW.v ;.MXvXR.C 1 > j :.wXpXL.>X>XzX-X=X1X;XW.m.Y.V.H.} r.G./.^.&XF.y.R.F.r.V.=XF.u.Y.b.#.B.Y.|.=X(.1XY.R.). X6X=XF.b.5.<.V.|.G.y.-.u.MXkX1Xb.0 ; ; u.V.C._.|.B.3. XG.|.|.=X|.U.Q.:X].j (.yX>XrX;XF.a./.b.F.u.Z./.b.-.B. X/.f.i 4 ^. XG.lXXXF.F.|.6XnXbXW.^.+.dXc..X XbXgXfXV # - ,X_.u.B.| H ^ r.2.{.fXbX|.",
"d./.H.&X1X5.+.f._.G.&XtXXX&X6X/.BXkXu.p 6 9 =X<X X&X1XC.E C.(.1X XB.gX6X<X7.M e u./.5.` 5.C.N.P s 3 Y 2.d.N.7.Y.%X/.! i 4X,Xc.y.G.^. XN.%.|._.u.G./..XC.^.&X6XX.kXVXY.R 8 6 /.V.X.9.F.6X*.=.c.c.y.Z.C.y.a %.wXuXC.>X7XpX%X=X>X>XW.M.Y.C.Y.~ r.F._.<X&XB.8..XG.#.-.wX=XB.=Xu.u.y.-.C.u.b.#.H.;.xXMX6X$.0 > : ` Z.>X#.5.} :.5.u.c./.C.R.b.c.G -.<XU.b.Q.].` <.V.c.} ` 7.3.8.:.;.u.%XM.B.5.Y.Y.T.1XJ. X|.b.^.tX_.u.c.F..X&Xb.M , bXMXb.k 1 - u.G./.B.%.<.| <.6.a | f.~ ~ Z. XXX).2.S V.5.Z.1.w !.&X.X|.u.3.(.V.u.| ! _.G.Z. Xr.G.1X|._.6XG.6.@.b.(.<X/.!.6XdXV.1XbXNXY.L 8 6 -...9.6XV.u.N H G.c.#.E | | B.{.6.c b.B.F.3.} 3.5.| 4 -.5X>X_.b.=XW.8.!./.=XZ.u./.6XK +.Y.2.1XbX>X(.u.#.#.Y.;X .-.MXvXU.v > ; a $.3XxXW.>XpX8X%X;X>X%XW.c.9.Z.C.! #.a.Z.(.|.Y.u./.Z.3.u.>X XC.).R.F.b.Y./.^.Y.=XF.&X/.B.R.b.r.b.F.| u.R.,XC.y.R.nXgX1XC.h ; ; -.C./.u.Y.b.-.^.V.&X>X=XC.x.M.%XcXc k.%X:X>X|.Q.C.b.|.V.V./. X-.} J./.4XJ.k 3 u./.{.NX,XY._./.&XpXtXR.R.] _.C.lX XnXtX1XL = : dX_.B./.Z.M T f.O.t. XeX/.",
"R.{.Y.|.eXu.~ B.<X,X^.&XB.H.XXZ.BXBXC.c 9 1  X X X).(.N.#.B.^.,XY.C.gX&XeXV.G b d.^.8.6.C.(.9.F s u M O.%.!.=X(.=X}.3.t rX,XN.t.u.B.H.9.#.&X+X3.u.!.^.Y.Z.^.&X#.gXnXH.V 7 6 c.Z.(.5...tX7.E y.C.U.C.@.-.z ;.*XvXW.;XzX9X%X;X1XQ.Q.j.8.C.B.E #.u.m.^./.|.C.V.H.u.G.;XY./.b.r.F.C...C.V.u.#.2.Y vXBXpX[ l > = L L.iX9.F.` 5.@.5.Y.v.:.F.:.y.] { +XC.b.Q.b.E 9.y.F.-.` X.9.c.F.%.:.T.y.t.#.C.H.b.=XG.F.R.R.(.=X&XC.C.G.R.Y./.Y % gXVXV.H 1 1 Z. XZ.G.3.X.#.u.u.F X.(.#.F y.H.H.6XH.!  X! d.Z.w f.H.!..Xc.5._.(.Z.2.F !.,X/.H.y.Y.fX(.Y.Y.y.F.3./. X,X/.XXdXeXZ.5XGXSX&X_ 0 1 7.-.=._.9.c.3.b &XV.{ S ! } a./.Y.L u.b.=X_.5././.7.s :.).b.|.C.>XW.X.a././.B.Z. X6X{ %._.b.{.1X(./.u.X.6.b.fX7.} MXbXR.B = > b ;.}.pX%XQ.pX8XW.Q.|.;X*XU.T.>.8.H #.$.c.Z.U._.C.u.b.c.V.;XY.H.H.C.F.u.C.H.B.F.,XR.Y.8.u.F.] b.B.6.Q b.V.eX_.C.G.MXvX6Xa.k 6 2 8.c.C.9.B.F.b.u.b.1X1X=XQ.,.$XwXiXc *.%X*XrXQ.M.F.U.F.C.-.R.&XF.../.J..XJ.s 1 V._.,XJXbX)._.=XQ.iX5X1XB.|  X,XdX_.SXtXY.' : % /.G.#.}.!.{ Y 2.u.Z.(.0XdX",
"5X/.H.Y.6Xu...B.6XeX6X,X&X!.Z.f.nXKX=Xl 9 1 R.).G./.,X5...H.).=X(.H.;X&XkX/.G r t./.8.u.Z.F.6.S i F Y f.t.4XdX4X3X|.3.x 4X=X3.5.a./.G.k.#.R.5X9.#.!.a.J.R./. X6.pXbXR.N 9 0 F.t.D...} F.X.[ Q.C.C.F.@.F.v 5.|.iX@X|.pX8XOXQ.|.=X;XF.Y.,.7.G #.O.x.Z.C.R.c.3.b.;.5.&XV.B.u.u.Q @.} =.V.-.9.#.N gXMXvX-.l 6 # P C.|.:.8.N ..5.V.5X|.v.5X|.v.@.H 9X X&X*XQ.E 5.F.F.c.8.-.V.F.).F.b.M.M.B.O.C.=X|.=XR.R.Q.u.).,X,XY.#.B.F.).F.M % gXlXC.H 7 ; D.2XG.C.X.! 6.G.y.Z -.b.-.Y XXZ.F.,X1X! /.u.!.d.& d.H.!.&X6.<.fXZ.N.6.F V./.H. XB.=XdXQ.G.H.3.-.3.|.B.,X<X,X,X>Xk.1XSXFX&XA 7 9 L.R.L.V.{ V.3.z 9.9.<.b Y E C.G.Z.i G.=X=X^.^.H.H.B.! 2.&Xc.Y.B.=X>XX.2./.B.G.G.H.&XX.W Y.u.H.}.Q.c.H.^.3.} 6X7.` MXbX).B - 1 G $.=XzX>XW.>X%XK.U.).*XU.m.C.c.V.{ E } C.c.Y.H.c.-.r.#.5._.C.C.b.B.F.u.R.C._.).=XD.8.5.y.R.b. XF.B.~ D.).4X;XF.b.MXvX6Xr.0 > 6 v.=.V.6.).C.6.5.:.&X>XtXE.K.:XwXiXl ,.qXtXjX%XM.Y.W.c.Y.u.a. X^.%.5X6X>X.Xk a ,XZ.>XSXnX).Y.Y._.>XpX=X..+./.{.=XG.BXlX,Xz - ; C.r.5.,X%.| F 6.:.G./.1X6X",
"=XC.H.J.|.G.| ^.,XdX=X,X(.5.D.H.CXKX/.t 6 1 u.).G./._.9.J N.+X<X/.Y.=X).|.=XJ w !.).u.8./.V.#.S < F ~ 2.t.R..XlX&XG.` E {.,X5.| 2.{.B.5.5.6X1XF.!.H.2./.(.B.C.6.bXgXc.c 2 0 B.6.C.M.../.=.` |.R.).C.y._.( O.>XkX>XR.>X+XL.U.Q.=XY.b.M.c.C.{ Q } F.9.Q.C.u.9.6.@.Z.eXF.).Z.u.#.} 5.8.y.u.c./.-.kXnXtX[ 6 > ; ..8.|.@.-.G #.5.G.1X|.b./.R.x.#.` 1X_.+XY.$.u.y.Y.H.C.] X.B.).#.T.b.M.Q.a.#.C.=XwX>Xb./.R.C.G.dX1X X#.s./.,XC.m % kXgXG.c 1 $ a.,XH./.! | 6.!.9.s 2.B.5.F H.XX/.|.9.! /.B.{.f.w d.G.b.&Xr.5.<X^./.s.! {.Y.H./.s.C.6X&XF./.5.} #.B.b.|. X,X X(.X.rXbXSX_.j 5 7 j.=X(.N.E F.u.a 8.C.2.s | } C.(.R.e y.dX XB.).B.{.^.| -.tXR.Y.Q.rXeXV.t./.5.H.Y.Y.).6.E H.B.H..X5XG.y.B.#.Q R.*.] FXMX&XC ; 6 ` Z 3XjX1X>X1XE.W.U./.|.T.V.c.H.L...] $.Y.-.(.C.C.u.3.#.N..Xb.^.C.6.a.u./.Y./. XY.b.}.u.V.H.5.H.Y.=X#.u.V.1X=Xu.5.bXgX6X8.k > 2 C.#.R.u. XR.-.#.y.R.&XvXI.x.oXcXcXh =.3XyX>X*X).).,XY.b.y.+.u.B.a.1X6X.X4Xm k ).^.,XgX|.b.B.).|.|.fX.X-.#.G.H.5X|.MXbX^.k = = c.c.u. Xf.<.t.2.u.H.=XgX1X",
"R.5.c.|.,XY.X.H.eXkX1X6XH.u.G.Z.nXFXV.e 1 1 B./.XXG./.<.W u.6X<XY.Z.pX*XR.,XJ w t./.3.O.F.F.B.J w T 1.t.r.D.E /.{.5.{ n G..Xu.| ..B.u.y.u.=X;XY.^. XD.J.&X7.5.u.bX6Xy.m 2 6 b.B.R.).8.eXZ.R _.C.U._.Y.@X' m 3XpX9X>X>XE.W.F.).|.T.V.c.F.L.| ] %.H.#.@XU./.C.y.2.#.wXR./.G.9.y.V.y.c.r.5.G.).-.gXkX1X..0 ; 8 9...F...V.3.c.8.Y.pX6Xy.8.F.b.-.` >XU.C.&Xb.a.:.Y.R.-...3.B.H./.R.o.x.x.y.i.(.1XvX].D.R.&X).&X_.2XF.~ 5.Y.).G.U X bXNXG.b 7 : C.5X|._...Y Z.&XN.F Y -.E n 5. X_.B.X.` c.u././.i /./.V.|.s.5._.!.XXu.E 6XXX^. X!./.6XwX).&X6.-.5.B.C.B.G./.{.eX` wXCXHX).v l > 9.0XY.V.J 5.c.b B.Z.E s 5.5.H.).F.u %.lXC.y.H.B. X/.#.@..XB.H.|.5X9XY.!.}.6.Y.(.u.B.6.y.:.#.f.R.5XB.6.C.C....X8.L FXMX%XA 2 6 { N |.VXpX;XpX8X+XL.R.*X>XY.v.).;X( H @.C.c.^.Y./.V.8.5.-.|.F./.|.c.8.6.u._.H.{.R.G.B.H.H.kXF.f.|.8.#.| ^.|.b.r.5.nXmX1Xc.k > > R.-.F.u.H.c.B.@.B.Q.=XwXT.,.yXSXqXZ [ $X;XQ.T. XQ.).&Xy.2.%.#.N.Y.(.wXF.|.n k R.D.Y.6XY.C./.&X).).dX>XD.%.G.G.bX,XHXBXB.M - ; 6.6.5.H.J.{ 6.D.a. X}.6X>X",
"Y.-.a./.,XC.3.Y.lXbXbXeX,X!.t.G.BXbXc.a > 1 c.C./.G.,X6.<.^.=X;X/.C.wXwX=X5XN < C.|.:.-.B.b.B.F s T t.f.F.u.E r..XB.7.Y J.1XH.<.^ D.t.2.b.wX%X_.5.6XeX5X XC.u.V.bX6X/.G 2 > C.F.R.>XW.%Xc.r F.M.C.&XC.c.| M |.SXpX>XpX9XOXU.Y.*X;XY.v.).>XL Z @.C.C.Y._.&XB.V...@.F.8.u.G.^.Y.|.N.c.c.8.u.b.u.pXvX1X` j ; 6 8.} T.C. X8.8.:.8..X=XY.9.c.Y.F.} &Xb.M.&X/.8.@.R..XR.C.| 6.b.wX3X@.c.M.5.#.M.Y.rXF.B.R.6XQ.U.8.V.F.H y.)./.R.Q @ BXBXH.x 1 ; N.tX/.M...<.!./.(.F F #.J F #.Z._.6X X-.c.H.=X!.r !.,XR.B.5.X.t.^.<XB.J 4X XG.^.{. X>Xb.F.,XJ.C.-.B.D.u.F.(..X&XX.6XMXSX).l f ; #.eXc.9.P #.V.N u.C.| M 1.a.H.).c.J 5.kXG.| d.D.!.^.3.] |.r.B.|.1X;X).B.1XR./.&X3.5.u.u.G #.s.H.R.b.C.R.+Xj.1XZ.N AXbXQ.P 6 1 ` H *XvXxXQ.wX1XW.Q.F.|.;XC.M.].pX` M $.Y.8.C.).G.u.c.#.5.b.u.B.B.Y.c.9.9.|.Y.^.R.C.a.G.<.bXrX|.H./.X.P |.R.:.V.i.ZXMX1Xb.h : - u.5.c.3.F.%.b.3.c.(.>X5XzXT.yXcXyXL [ R.Q.).U.%XC.Y.&XV.#.| #.Z.c./.%X1X/.M Z F.F.^._.H._.&X_.&X=Xy.&XB.V.(.u.5XeXGXgXB.C 1 : Z.1.^ y.^.E 1.{.V.(.R.,X>X",
"=X2.6.G.C.u.5./.dXnXnX1X{.|.!.N.nXnX3.p 1 1 c.H.!.H. X<.B./.C.gX&XY.xX*XU.Y.F , }.=XY.#.Q.Q.H.x 4 n 2.G.B.#.z 5.}.H.7.S D./.H.| ~ B.5.O.r.kXQ.(.5.G.R.!.C.&Xu.Z.gXwXY.A 6 1 Y.B.H.&X*XY.9.n C.M.Y.&X1XY.P Y *XcXxX).wX>XW.Q.S.|.>XM.M.|.pX{ N @.(.:.b.).7.5.U.| c.v.| ] u.R.H.6Xb.c.u.y.).:.u.dXvX9X8.8 > 1 8.{ =XG./.,.y.} ..r.).V.V. X>XQ.` Y.F.8.u.y.-.#.R.Q.).u.X.c.s.H.rXv.n.;XB.5.M.|.5XG.$.R.=XR.c.u.Y.H.#.%. X/.D.O.O lXFX.Xx 7 > H.4XR./.H x _./.H.Y S G.u.H 5.&X|.6X,X8.j.b.Y.).u 5.R.^.B.+.Q s./.,X/.t.,Xu.G.J.f.J.|.a.B.H.1.3.-.N.a.^. X5X{. X! 1XBXHXY.j 8 g v.W.H.H.! H.N.N 8./.P a | 5.F.a...t $.,XN.F T %.t.^.#.-.{.#.%.R.gX+X(.#.=X6X=X XG.u.V.5.S B./.H.b.B.H./.3XW.+Xc.s MXMX%X_ 6 6 } E ].cXuXW.;XwX>X+Xy.%X%X>.:.e.eX>.W M.>Xc.9.Y.V.5.C.5.C.H.3.8.V..XY.B.^.=XJ.).R.R.C.y.s..X8.b.U.=XD.-.,X&Xb.H.Z.ZXMX6Xu.l : > C.3.|.r.u.u.8.c.C.c.Q.&XqXOX8XpX:XC [ T.v.F.R.Y.5.Y.&Xc.u.@.' 9.@.c.;X=X^...Z b.y.G.B.B.Z.=X;XY. XF.V.u.s.6Xu.1XbXHXgXC.G , 1 _.| <.C.B.^ d.H.8.H.r.R.6X",
",X-.t.t.%.N.3.Y.eX5XdX(.u./.!.^.NXbX8.e 1 : V. X Xt.d.! #.G.R.=X=XU.eXR..XF.E e 4X|.Y.3.&XZ.^.b , s ~ D.F.8.E O.{.,X^.J r.^.H.} 5.5.#.} C.lX=XU.#.1.%...t./.Y.Y.gX6XF.R 6 : F.#.W '.Q.>.c.H Y.Y.1X&X=XY...} R.vXpXW.;X0X7X+Xy.&X@X,.:.,.uX*.E F.9Xc.9.R.^.c.Z.c.C.Y.c.B.r.R.R.^.u.,XR.u.R.C.u.eXvX>X#.8 ; > =.3.Y.:.U.-.Y.E ~ 8.F.3.b.H.).F.m u.).u.c.,.{ 5./.V.u.} ] Y.C.Z.=Xb.Q.|.b.r.Y.pXwXF.5.D.b.b.Y.C. XF.r.-.^.{.H.$.$ kXSX,XE h 1 b.XXG.).{ S XX XD.S Y ^.H.| c.dX|./.5X8...1X(.^.^ G./.G.r.<.+.B.|. X!.1.XX5.f.B.5.a.G.d.{.+.b G u.y.J.).&X,X X6XJ 6XFXFXk.c 6 0 W.1XF.N.X.X.c.] 3.).` 9 ~ } a.B.5.E F 4X,XX.+.1.D.^.! s.b.} ~ /.nX+XY.#.d.B.G.f. Xc.Z.X.G B.Y.^.C.J.B.J.|.%XU.c.V MXMX1X( 6 6 | +.D.vXuX=XiXuX;XW.M.*XQ.>.8.=.).k.~ b.wXC.Y.C.N.s.Z.c.U._.c.u.Y.|.R.u.^.=XF.R.Y.H.G.G.H.Y.@.c.F.F.V.X./.pX|.Y.Z.ZXNXeXb.k : 2 b.-.B.#.R.H.-.G.u.M.Q.Q.*XM.>X8XVXo.` ].M.c.|.|.C.Q.>XM.5.3.[ 9.Y.F.).F.B.#.Y b.Z.R.!.a.B.&X1X_.N./.).c.y.kXV. XbXHXbXc.A 8 1  X1.#.s.B.<.2.G.k.Y.B.J.tX",
"H.b.G.%.r.Z.X.Y.lXpXdXH.6.Y./.!.BXbXc.p 1 - c.&X X!.H.| 5.t.R.;XC.Y.tX3.|.<XJ e .XF.1X;.=XT.6.c % s O.^.H.u.| 5.4X4Xu.S f./.B.} ~ B.} H Z.kX1X8.| <.f.B./.Z. X(.bX6XG.@.6 > Y.u.~ =X;XQ.W.K S.+X1X).W.).#.#.v.vXuX>XpXyX>XW.b.;XW.,.8.=.).k.} b.yXC. XC.7./.).F.H.H.#.b.u.Y.8.c.c.R.1XB.H.R.%.eXgX1X9.t - 1 V.b.).-.F...y.5.{ V.,XY.8.b.c.5.Z C.c.H.c.v.' } 5.b.u.2.r.R.C.Y.fXF.Y.E.b.~ C.tXtXb.y.c.T.U.B.|.6XC.] y.G.,X.Xr.% pXnX,X} h 2 y.=XB.c.3.9.Z.B.D.H E ,X<X-.V.&XY.J.).C.H eX6XH.F 5.H.u.6.5...u.dX&XH.t.).F./.B.f.{._.G.t.| ~ X.c.c.^.|.1X6X_.&XD fXJXMXR.c 8 t >XbXC.^.8.3.b.;.-.c.Y 3 ~ -.F.J.8.X.O.tX,X| U t.}./.#.+.H.E F {.NX=Xc.} 2.3.#.f.^.Y.Y.<.G t..X_.r.F.-.W '.Q.8.V.G BXAXeXA 6 6 | U y.pXuX&X>X;X%XU.(.;X;Xm...m.Y.7.} b.wX8.c.8.7.^.).c.Y./.9.c.C./.C.u.b.R.b.V.C.R.Y.H.B.R 8.F.U.H.B.#./.|.u.^.&XZXnXkXH.p > > B...b.u.|.H.:.F.b.c.>XwX+Xv.OXwXAXM._ Q.Y.v.(.R.R.=XwXZ.9.c.} =.^./.).9.B.E ` c.G.G.<.3.b.6X,Xc.Y.=X/.Y.3.eX&X6X>XZXMXC.V 8 , y.2.~ { 5.6.+.c.9.c.3.H.,X",
"F./.F.6.f.H.5.(.eXkXeXV.Z.H.!. XSXBXc.c 2 ; u.c./.,X^.<.6.B.C._.^.C.1X/.=X,XN w F.y.;X..>XC...G % n | !.R.&X3.O.,X5XH.F f.{.^.#.~  X6.F /.dX=XY.J G.&X/._.XX1XV.vXwXy.R 1 2 G.u.#.-.>XW.C.K R.>X(.W.(. X} n i.iXuX&X>X;X%XF./.;X;Xm...M.Y.7.} b.wX-.5.-.<.^.6XV.F.M.-./.u.F.u.(.&X|.G.b.U.V.t.vXpX1X{ 8 - : ,XG.C.-.r.G ] u.#.(. X(.3.#.C.u.R b.b.8.x.B.] E G.R.5.5.c.F.c.^.nXH.Y.Y.b.-.C.Q.>XY.:.y.(.R.B.F.,X|.5.u.R.!.}.%.% pXZX>X-.c 7 B./.} E 3.C.9.B.f.M E &X6XC.u.)..X X XY.W ,X6XY.b <.B.2.G.s.<.F.,XY./.u./.Z.G.t.f.XX6.5.1.| K ` 5.u.}.XX,X,XB.Z.S tXJXJX7.h 8 0 =X1XF.<X8.C.b.k...3.` 3 Y ..R.|.,X3.O.1X/.6.Y t.H.^.2.}  XX.n .XlX=Xc.E t.G.B.^.Z. X^.k.b u.dX^.b.Y.u.} |.;XQ.L.P BXSX;XC 6 7 ..Z c.xXgX(.>XwX7X).M.Z.W.L.F.8.7.X.} 8.W.y.Q ` 5.V./.y.C.F.b.F.u.|.Y.H.B./.R./.F./.5.N.F.V 9.F.R.b.{...C.lXC.R.>XSXnXpXc.l 1 # #.5.b.u.)..XC.F.8.9.wXgX%XM.*XwXiX9.l ;.U.Y.%X%X;.Y.U.Z. X_.] Y B.B.c./.!.B.E u.B.5.E C.(.|. X^.6X6XB.C.E Y.&XNXpXCXbX/.E 8 : r.%...P | 5.%.D.Z.Y.8...B.",
"H.#.Y.r.5.9.t.H.6XMX4X(.H.^.B./.SXlXc.V 1 > P.8. X!.u.u.+.^.Y.Z._.R.tX_./.Z.G z G.9.c.` >XV.#.S @ s r.{.}.^.5.+.R.H.Z.F D.!.G.8.| .X3.s {.4X5X!.| B.6X6XG.H.y.Z.MXeX-.Z 6 1 Y.Z.| :.wXT.8. .|.).=.u.Y.(...F b.vXpX).=XwX7X@XV.C.oXC.L.>.6.X.O.6.P.c.H Y 6.3.u.5.u.y.E y.G. X!.6XrXR.R.C.C.} B.nXwXpX] % = ; 0X}.6.r.r.E @.R.O.G.F./.(.B.H.D.n N.c.8.m.[ R @.|.{.F.u.r.5.8.,X=XS./.T.R.:.b.&XR.F.r.b.Y.C.1Xc.|..Xa.B.4X=X.Xi., nXSX.X;.l 0 /.u.-.X.3.u.D.C.u.b Y V.G.| #.&X_._.Z.XXt.H.dX(.F s.G.9.E V.u.t.H.Y. XZ.fXV.3.d.6.=XG.f.!.t.b E ..#.!..X^.=X XG.| dXSXHXy.r 8 0 H.>X(.>X8.8.r.Z...#.J , W r.F.=X).y.<.^.B.X.M D.^.H.u.|  X4.s XXdX,XY.! D.,X{. XXX,XV.9.N Q .XH.H.G.u.#.-.>XT.b.( SXSXY.c 1 1 | ..u.>X5XQ.*XpX9X9Xc.W.OXm.Q.;XZ.3.] } k.5.U } 6.9.9.t.C.Z.b.G.-.Y.=XB.y.u.B.|. X1X5.6.H.R...r.E -.tX#.#.|.R.r.C.SXZXtX%.k > : #.3.| #.,X XZ.y.u.b.1XpXyXQ.%X>X:X;.j 8.U.>X*X%XV.Z.M.Z.R._.@.b N.B.u.H.R.c...f.2.+.@.B.eX_.).pX(.).G.<X| u./.,X6XJXBXV.E 6 = #.O.5.#.5.| Z.XX X^.V.k.H.",
"H.r.H.N.6.s.N.H..XnXdX!./.XX<.s.BXnXG.b 1 6 H.-./.u.N.s.#.G.B.H.<XP._.V.C.9.V J H.c.c.{ /.C.c.G X n u.R.1X/.y.B./. XY.L /.4X XV.} D.N.s .X/.5XB.6.t. X Xs.u.<.XXbXeX@.m 9 1 ).Z.2.c.&X@.:.( v.R.8.*.c.C.#.t.u.*X1XQ.;XpX8X1Xc.T.).n.Q.>XZ.-.` ] j.-.Z #.3.9.c.u.{.&X3.r.N.V.).1X,X).R.u.H.@.] kXeXbX#.2 # ; ).^.=.:.y.E 3.i.#.8.C.Y.C.B.F.i.M N.5.9.c.=Xb.8.{.'.=Xb.r.#.B.3XhXF.:.U.}.F.F.U.F.b.i.B.).Y.(.8.u.B.V.F.eX&X=XG.2 vXMX1X=.h ; F.^.u.6.t.P B.F.F.s F B.5.M E B.Y.F.&X,Xt./.tX&XE Z.Y.5.#.B.5.6.Z.G.^.N.eX6Xu.d.u.&X X X!.6.<.y.} ] B.{.y. XeX_.} tXHXSX..t 2 8 Y.Y.Y.&X-.3.c.9.-.N.H @ U a.G.1X/.u.B._.G.9.H .X6X.XC.| B.9.i XX.X5XG.#.d.,X6XZ.Z.u.G.N.K U {.R.F.Y.Z.| ,.wXC.8.' MXAXZ.h 1 5 #.@.O.=XwXC.=X;XyX&X1X1X;XE.c.1X;X7.` ..7.7.] } u.l.c.N.).|.H.F.#.3.,XF.5.3.b.V.F.F.i.8.F.&X@.Y ] ] /.{ u.C.8.9.5.nXZXeX5.0 > > O.E #.y.1XeX|.B.u.V.R.1XgX%XzXW.vXc.c n.Y.+XQ.*XC.c.Z.%XZ.3.#.r H.5.B.Y.Y.u.B.s.6.B.b.#./.Y.gX1X/.6XgX1XP F.).1X6XGXbXb.` 0 - f.+.!.&X Xv _.6X;X1XY. X_.",
"G.u./.Y.!.6.D.H.eXtX6X5X,X,XB.H.BXbXV.m 6 1 Y.#./.B.B.u.t.u.s.Y.=X(.gXC.N.9.E S b.Y.1X{ ^.&X5.G . i 5.u..X.XY.D./. XY.G 5XkX4XY.D ^ 9.r /.d.=Xu.s.XXY.B.s.N.} H.NXfX} 9 > 9 _.N..Xb.|.] -.C ,.tX&XC.U.Y.#.Q R *X9XM.=X%XuX%X1XwX;XE.v.1X<X7.` ..7.y.@...k.6.b.%.B.V.y.-.2...).}. XG.c.#.R.r.E eXtXkX@.7 # = |.B.V.9.] c X.r.6.y.b. X8.u.Y.u.x C.C.u.y..XB.#.A.F.R.r.%.t.u.H.v.e.c.Y.'.J.F.M.M.R.%.] &XY.y.a.t.c.H.F.1X/.R.a.4 gXnX(...j ; Z.Z.(.B.2.J u.Y.B.F <.<X^.M F C.6X/.H._.6.5.V.Y.6.,XC.u.2.r.} s.B.!.B.d.lXfXB.f.B. X5X^.B.6.G X.3.6.c.!.f.^.5X(.J 6XGXSXX.l : 6 N.V.b.|.7.B.3.C.B.5.J @ n u.:.=X.X^.B.|. XZ.V tXbX6X).G ~ 6.r }.H.,Xc.6.Z..X/.u.s.#._.u.P F B.&XR.(.Z.5.y.&X@.-.( bXFX&Xl 6 1 +.Y ] *XwXC.>XwXzXOX&XwX>XL._ Z.k.( r.[ 7.r.#.X.V.Z.F.b.|.Y.F.c.#.#.>X}.%.8.R.b.c.F.r.$.b.|.:.Q ....8.} B.Y.u.Q.G.kXkX6X@.t > 2 b.| u.u.R.6X,XF.u.b.(.U.uXn.vXE.E.' j M.Q.Q.Q.(.n.).>XpX;XC.u.< F.c. XtXC.y.8.V.<.B.6.| G.(.BX<X&XvXbXZ...B.).&X6XJXbXV.` 6 : !.B.(.Y.r.6./.a.Z.Q.,XkXY.",
"J.!.|.^.!.t.t.G.kXdXfX=X X). X(.CXnXB.B 1 1 9.c.{./._.| 5.f.5.u.L.Z.vX9XZ.3.X.S u.(.<XE y.(.9.J . s %.u./.|.^.B.G.(.H.H G. X/.V.x <.V.r G.G.lX6XG.XXP.B.).6.J ^.CXuX' j > 2 Q.u.b.U.1X8.y.G %.wX@X+X<XH.} M } .XuXZ.>XyXzX+X&XeX;XL.( U.j.K y...7.9.#.<.^._./.V.B.u.1Xc.u././.V.C.H.R.Y.=XC.5.6XeXkX@.1 = = H.R.r.F.y.E #.c.N.c.R.R.C.u.Y.u.N ^././._.).b.] c.r.F.H.B.~ | 5X|.b.y.U.:.b.C.B.y.F.i.M /.>XB.t.5.V.C.C.+X=X X5.p kXMX(.' t 2 (.5X^./.f...B. XG.| <.^.<X<.} ). X^.G.C.B.<.H.R.u. Xu.D.f.9.| B.XX!.#.| 6XlX_.!.!.6X1XY.(.3.P } E :./.!.D./.,X^.G 6XGXvX .C 9 1 9.u.5.Z.u.Z.5.8.c.7.P . x t.5./._.J.b.B.).R.F J..X|.Z.b ! l.r J.G.dX/.N.XXY.B.B.s.~ ^.Z.| x ~ c.=X|.N. XM.%X@.-.G vXHX9XA 6 5 Q U O.|.uXW.9XyX8X%X&X1XOXW.` ).Z.P 3.=.( c.G { Y.^..XV./.R.).y.6.y.H.|.B.5.U.F.b.y.B.] O.F.a.-.b.y.-.8.=X X9.Y.R.VXnX>X] p > 2 /.#.u.C.R.=X1XY.c.:.|.8.).C.MX>Xm.v.t +X$XT.M.U.Y.fXgXcXeX#.6.e c.c.G.6XV.c.c./.E y.a.<.^._.eX@X/.gXbX,X} 5.=XgXlXDXFXC.b 1 : XXd.u./.B.5. XB.F.%X X1X,.",
"G.}.6X/.G.G.t.G.XXNXlX_.=X1X). XZXbX/.` 6 2 H.^./.XX6X3.6.u.3.C.Y.8.U. X1XV.Y ~ 3.^.V.x #.).H.J . i #.5.R.G.F.B.H.H./.z r.b.i./.| u.^.r d.}.NXfX!.lXG././.B.+.B.GXxX} H 6 > B.H./.Q.5XR.Y.c r.pX;XW.L.V.H W @.|.pXW.>XyX8X+X%X1X+XW.` _.L.Y 3...K u.N ' N.^.eX5.3.<X>XY.6.|.{.H.V.|.F.).&XC.B.kXeXeX5.2 = - C.b.-.b.u.2.#.y.c.8.b.;.5.C.F.H.! Y.H.F.b.|.D.2.c.B.B.H.5.@.r.B..XJ.r.R.e.b.5.8.y.a.#.m (.%X/.F.8.r.8...+X1X|.y.n pXnX X` 2 : G.,X&X,XV.#.9.^.D.F ~ 6.^.s.u.Z.Z.G.^.N.<.X.G.,Xc.Y.Z.V.{.).#.c.B.~.1.Y .X6X X,XZ.5X6X).F.#.F | E c.eX{.u.,X1X_.x eXJXvXH j 8 8 ^.u.Z.9.u.N.E 5.C.b.! X x 6.#.H.F.F.B.H.H.).s r.F.t._.} u.Z.r D.{.lXdX!.,XG.B._.u.Y J.!.X.r 5.u.R./.u.B.F.1Xy.c.V kXHX9XA 5 > L #.:.|.pX;XwX9X-XE.U.>X%X;X-.C.C.X.y.3.) B.L L 3.^.=X8.u.,XR.M.r.C. XF.D.8.F.C.F.r.-.y.-.] F.-.b.D.G.c.6X=Xb.Q.R.ZXMX=X} t : > /.5.H.H.b.&XpXtX|.-.&X(.%XY.bX>XW.Q.k U.*XQ.U.|.c.H.6XvXW.@.J.e X.Y.c.y.#.V.Y.C.Y ] J.B.,X&X=X6XR./.7.Y.#.).R.Y.<XCXSXZ.j - - _.d.t./.G.3.! B.Z.6XY.^.H.",
" X,X/.^._.dXd.D.r.fXJXeXeX+XH.Y.NXZX&X-.9 2 b. X,X_.@X<.u.5.#.G.^.y.5X_.eXN.b a X.^.u.H b.,X9.J X i Y B./.H.b.).N.5.f.U J.J.6.+.E }.!.b  XD. X Xd.G.}.!./.R.{./.FXgXZ Z 6 , y.y./.=X>XU.<XG W 2X%XQ.c.c.H a.r.%XxX>XwXwX-XE.U.>X%X-X>.C.Z.X.u.-.K Z.E H ) ^.;Xy.X. X1XV.:.u.F.G.:.B.F.&XR.r./.kXpX1XY 7 > > b.u.r.w.u.H E r.#.B.C.B.Y.C.R.H.~ C.H.H.b.F.| y.B.R./.V.] @.B.a.=XD.} F.,.$.8.3.b.R.a.] Q.C.)./.c.M.).b.%X_.H.u.n kXCX1XL 6 2 ^.H.<X XG.#.9.^.{.E E <.(.f.Z.X.!./.f.N.<.| V./.G.,X1X/. X1X-.} t.G.T ^ XX X/.!.u.fXdX/. Xs.n N.-.B.wX6X!.6XeX<Xb eXJXlXG c 8 0 F.X.{ -.B.V.{ V._.5.J + s ~ b./.G.b.|.u.<.B.U {.J.r.#.E /.^.s /.!.6X6XG.XX!.^./.B.<.B.,X7.s _.^.b.b.G./.].1XR.(.b kXHX9XC > > G 5.b.>XuX>XwX>XK.OXm.&X>XQ.V.W.Y.3.#.=.K  Xu...P Y._.c.7.).(.C.B.Z.1X/.$.8.R.b.b.b.-.:.y.L 8.:.R./.B.x.c..XR.G.H.ZXnX>X] k > : }.b.F.).Y.>XgX1X)...>X9XpXQ.wX@X%X*Xc >.M.W.R.&X).y.=X5Xx.b.D.3 K &X&Xy...|  XZ.} } b.5.^.6X=X6X6X(.u.,XY./. X&XgXJXbXc.j 1 - c.J !.XX4.{ { 6.C.Y._.=XgX",
"&X.X&XH. XNX!.!.XX5XGXdX+X/./.Y.BXZXeXG 9 9 u.Y.d.XX@X| s.} | Y.).8.6X).c.X.! H C.(.9.7._.MX..b & d u.G.D./.R. XH.<.a.%.G.5X.X%.] v.V.q !.{.^.Y.~ ^ }.H.Z.J.J.H.BXtXz x 2 : V.r.5.|.rXM.y.G ] >X;X>Xj.c.N +.V.>XwX9X5X;XK.OXM.&X>XQ.V.T.U.3.#.=.K <XZ.-.G V._.C.3.u.>XY.B.8.Y.Y.C.Z.6X|.a.#.^.ZXeXwXs 2 - 1 =Xb.y.Y.u.-.E v.5.u.H.=X8.y.R.R...).F.Y.Y.8.x | /.F.F.H.@.y.F.Y.GXSXc.F.U.b.5.r.Y.}.G.%.C.*XF.F.n.U.b.H.6X).u.t.k gXMX6XH 2 1 V._.1XH.H.:.5.^.G.| H s.H.6.u.6.B./.G.H.u.X./.B./.tX1X_.|.tX3.J u.XX/.5./.1XfX_.6.CXlXF.eX9.a (.@./.eX6X(.,XtX<Xr dXFXvXG Z 6 : 6.3.} N.N.8.5./.vX{ b & s f.D.F.).). XH.#.f.%.J.5X.X%.} b.Z.w {.!._./.2.p..X!.!.H.{./.,X-.4 !.^.D.y.u.R.*XwXF.&XV pXGX9X_ > > N Q c.=X%X>X9XwXE.zXW.).|.%XV.C.c.3.#.X.b _.c.#...P.(.H.V.y.Q.R.C.C.1X=X3.#.R.C.#.#.} !.B...y.c.|.&Xu.y.F.,X=Xb.H.nXnX6X-.h , - D.C.Y..X).1XQ.%XY...Y.R.iXwXAXuXpXI.9 ` o.OXwXQ.U.6.H.(.M.c.| q e C.(.Y.V.` N.&X{ 8.y.! u.eX=X_.R.P.XX6XV.B.=X6X6XZXbX5.0 : ; c.u.1.!.G.N.3.3.|.s..XkXtX",
").H.eX.XdX6X!.Z.tXdXnX<X X/.Y. XSXMXeXC 7 6 8.G.G.,X6X<.u.X.<.R.eXX./.c.3.y.Y c.G.V.5./.Y.&XX.S & w %.u.H.).|.&X(.#.+.#.H.tX,XB.3.R 5.w G. X{.,X6.1.J.6.u..Xt.#.ZXgXx m 8 > Y.9.B.jX>XS.-.< M >X>X1XZ.c.v J i.=XQ.;XwXyXW.pXW.).%X+XV.C.V.3.#.*.g &XN.#.#.(.(.<XY...Y.dXr.#...#.^.&XZ.@.5.@.u.nXeX>Xk > = - G.8.Y.y.:.b.#.} 5.9.C.R.;.u.b.R.]  X&XQ. X.X+.#.t.J.=.} %.v.y.i.kXKXF.*Xb.F.i.8.b.F.F.W F.=XR.F.9.M.:.] Y. XB.H.V pXNXwXR 7 2  X_.&XG.V.8.6.H.i.W ~ ^.C.u.N.Z.G./.,X XZ.#.H.b.H.|.).|.F.pX6.E 6. XdX,X_.dX=X!.5.CXgX7._.8.r 5.] F.vXfX_.XX,X(.r dXFXMXC c > - a.X.f.Z.7.5./.Y.(.{ S & i %.t.F.(.).=X(.#.~ $.F.dX,XB.:.R 6.w J. X/._.<.+.{.F.B.R.H.H.G.{ + a.F.f.V.y.5.%XrXM.6.x pXSXtX` > > b M a._.%X;X*XeXW.pXvX&XwX7X*.,.Z.3.u.y.r 0XY.X.N.^. X&X).#.B.|.r.N.|.D.5.5.F.v.r.#.#.<XR.t.c.6.B.u.y.6.Z.R.}.y.C.MXBXtXr.l 1 - i.b.C.|.1X1X1X6XH.@.c.B.1XvXMX9X>Xv.4 -.[ M.yX>X>Xb.V.M._.k...b < N.V.c.#.| 9._.u.y.c.E u.&X).,X&XgX(.&X^.H.,X/.1XNXnXV.C 1 @ ^. X6.!.,X Xs.<./.a.H.&X&X",
"/.J.F.B.5XkXC. XCXBXtXdX<X_. X1XSXbX&XV 1 6 u.(.H.dX_.N.B.| 5.'.eX5.1X^.1X^.N -.9.Z.X.Y.=XC.} S w i ^ _.!.R.U.Y.Y.E L w.a.ZX).| t.y.#.< %.=X_.5XF.f.D.a.H.,XG.V.JXBXP E 6 ; /.c.{.&X%XS.c.D n rXpX&XY.c.b i b.R.|.>X:XwXW.pXvX;XwX7X=.8.C.-.u.y.r uX{.#.Y.F.;X5X1X` X.<XB.} E ..5.&X,XR.5.9.:.BXeX;XN 2 - = #.y.&XY.R #.O...#.5.F.F.;./.|.|.R  X|.%X6XpXD.! B.D.u.#.%./.b.b.T.i.y.rXF.A.b.:.y.F.@.R F.5XQ.G.8.M.B.u.U.|.R.b.n gXBX=X` 1 4 ,X&X^.u.F.y.5.XXf.T } ,XY.H.&XV.6.!. X|.c.| G.u./.c._./.T.=XB.! N.H.,X,X,X}.)..Xf.6X,X9.,X9.N ` P 3.vXfX!._.NX_.w gXGXSXE C 5 7 (.P 5.9.9.<.Y.=XV.! F w i ^ {.Y.R.U.U.Y.E H 5.p.VX|...y.6.-.< t.=X|.1Xu.6.H.t.u.&Xu.<.!.3.@ B. XN.Y.6.D.hX:XS.:.e eXGXxX_ 2 ; b i R..X>X$X].>Xm.rXDXeXtX7X>.r.|.W...@.g eXH.-.(.&X&X=X.X@.3.|.B.5.B.r.3.u.).b.].b.y. X=X5.c.} B.N.|.Y.x.).rX*X/.MXnXwX#.j > > R.J.i.).=XwX5XgXwX:.V.Y.U.yXOXn.-X[.c c.M.v.wX1XeX|.:.=XpX6X).#., fX+X8.V.} V.1XC.-.y.| 7.c.(.H.tXfX(.B.H.R./.B.dXlXlXD.K > * 1XV.^ G. XR.6.1.!.B. Xc. X",
"H.=X.XG.B.6X^./.bXJXbX6XlXNX,X6XFXvXZ.z 1 6 B.C.G.,XZ.9.^.! O.#.6.X.,Xm.@XH.c #.9.k.V M.Z.C.Z.! i & T d.9. Xb.C.|.u.Y Z O.VXgX!.y.G.N., W /.|..XG.t.t.R. X^._. XFXSXP ] 9 1 G.c.}.5X:X>X_.6.b rXxX=XC.7.G u .X,XwXoXQ.1Xc.eXDXrXuX8X-.9._.W.} @.r uXF.7.&X6X>X5X.X..<.lX,X..#.H.c./.eX^.O.Z...vXwX=XE h - $ ` R.H.-.O.E H 3.y.Y.C.:.../.|.,X@.V.Q.F.=XiXy.} y.i.|.b.r..XR.r.F.o.w.|.R.A.D.b.b.B.} U b.>XR.>XR.M./.C.|.Q.y.V.~ eXbXeXR 9 6 H.Z.H.{ #.H.D.`.p.r.Y _.&X_.&X!.4.!.B.R.c.<.B.u.t.G.H.^.=X4XH.| Y.6X&X X6X.X^./.^ 5.6X1XV.9.x { C.m.>X,XD.^.tX<Xa tXbX1XL C > 6 ^.Z -.9.7.G m.F.V.B.J i & +.d.9.|.M.C.&Xi.Y Z O.CXkXH.u.D.N.< ~ {.|.,XG.d.f.B.!.&XG.B.,X(.e XX/.u.R.c.{.=X).U.C.P eXHXbX_ 1 ; N u !.=XiX;X>X7X8.OXpXwXwX-X7.b.&X@X#.@.r 9XU.C.tXBX1X].F.-.5.|.G.@.3.).y.6.&X|.D.5.B.B.r.#.Y.@.Z.lXJ.3.B.Y.4XQ.C.nXZXeX-.t : 2 R./.G.V.R.=X5XwXQ.-.%X1X+XiXwXn.;XpXN 8.3XM.Q.1X>XR.C.).U.u.N.6.@ @X|.r.u.#.b.&XC.3.8.3.3.Y.H.6XtX&Xs.Z.Q 5.4XXX!.lXlXD.L 6 5 1X^.| N.N.Y.6.| B.b.t.H.Y.",
"Z._.6X^.9. Xr.C.lXDXSXfXbXgXXX_.BXbX(.V : > 6.r.!. XY.c.C.F E 1.M.C.&XZ.C...M | c.9.L y.u.V.B.F i X T B.c.R.c.6X.XB.x n i.kXSXY.2.^.Z.@ +.{.>X6Xy.<.f.J./.c.c.Y.ZXMXZ ] t 1 J.-.F.rX|.&X(.X.H 2XxX@XC...b 3 G.=XiX7XwX7X8.Q.pXwXwX@X,.b.;X%X-.@.r 0XY.Y.MXIXtXb.] 5.} y.5XV.} b.c.V.|.v...| O.gXtX|.E 8 : $ E -.3.#.| H s } t.G.b.y.O.3.F.|.8.C.R.U.&X%Xv.@.F.D.H.v.a.>X|.b.R.S.v.A.R.b.{.c.y.e.] V F.Q.F.R.R.R.R.u.H.&X_.8.E tXbXdXC 6 > Y.u.C.~ ..B.f.p.t.a.} 9.&X<X=XZ.| B.H.Y.9.#.-.u.d.s.1XH./.,XN.<.P.lXdX6X,X5X}.<.~ G.B.Y._.E z x /.).M.dX1.N.=X_.r tXbXpX6.c > 1 #.F ..c.8.L 9.u.c.C.J i X T f.b.R.c.6X.Xp.c n a.kXCXY.5.H.Z.@ O.{..X>Xf.6.u.J..XY.). X,X@Xr 5X&XC.F.b.{.wX&X3X_.4.eXGXMXK 1 ; z u G.f.gX0X8XuXj.n.E.*XyX9X8.H.gX+XX.W q fX].F.(.BX5Xb.5.5.-.V.H.#.r./.b.G..X>XF.%.2.-.b.r.&XA./.8.=Xc.H./..Xv.b.vXCXtX` 0 : : D.B.}.c.H.|.=XwX|...W.;XwX:XzXK.E.pXj P.=XM.|.eXpXQ.x._.b.C.c.D.@ V.%XY.3.L u.eX).u.6.u.3.(.V.&XZ.&Xu.^.E #. XXXp.kXnXD.j 0 t 1XZ.! s.Z.U.5.+.-.y.d.f.6X",
"H.!.1X(. XY.H.}.lXJXbXlX6X,X/.&XNXvXH.H : , 5.V.XXXX/.u.B.P 5.!.tX/.9.*.9.J b #.l.C.L #.C.9.-.F i . Z #.7.8.8.6X{.f.U M R.4X6Xc.#.5.B., %.XX/.=X9.<.!. XJ.;.H./.SXNXN _ h 1 .XC.5.3X1XW.N.9.n }.uXV.Y.3.r i p.%.kXwX1XyXj.n.U.*XwX9X8.F.pX_.X.W q fX).Y.P.fXrXv.8.5.8./.R.G.=.3.8.(./...3.U F nXpX).Y 9 > 2 Z H #.u.Z E H ] <.u.5.b.} c./.F.#.R.R..X&XwXG.} H.G.|.|.H.|.>X%XQ.i.R.F.J.a..Xy.-.:.o.] 8.T.V.C.y.{.u.%.-.gX,XC.Y tXbX&XP 0 1 6.u.Z.V.| G.G.p.q.f.#.c.,X@XW.G.! ^.6Xr.} #.5.y.XXf.H./.J.C.-.3.Y.gXdXlX).|.{.^.s.u.H.,.u.^.d.r N.c.W.,XXXH.&X^.w kXBXSXC.t * ; P M #.c.M.P =.C.9.#.F i . U 1.7.5.5.6X{.f.H m R.6XrXc.#.r.V.& $..X}.1Xu.#.G./.R.c.N.Y./.^.< ,XdXG.G.5.F.rX%X|.W.<.eXSXxXC 2 = a , p.a.tX1X>XkXm.,.%X%X8XuXj.|.nXuX-.Q , fX5XC.u.;X5Xv.c.u.r.Y.F.5.C.>XR.B.).*Xv.%.+.u.#.-.|.&XB.-.Y.R.c.).).R.C.vXnX6X@.p : : R.b.B.H.B.=XwXeX|.R 8.L.wX-X>XI.K.zXv ^.iXF.Q.eXiXU.-.Q.|.C.u.H.; L.7XU.c.9.-./.Y.&XC.9.5.c._.0X&X9.s.(.b.X. X{.p.hXnXT.c 0 7 @X^.S G.dX8.` <.5.y. Xd./.",
"G.p.{./.&X,X|./.6XMXvXeX,X6X XXXZXbXY.z ; > H.^. X(.^.H.u.J N.&X6XV.Y.N.C.7.{ | X.c.j } Y.9.8.H s . U O.#.^.b.R.,XH.G ] |.|.B.#.E } 5.@ i XXD.b.5.6.+.B.v.R.b.F.GXNX3.@.0 - _.XX5.].b.U.c.#.x .X9XV.Z.-.c X p.b.eX1X>XvXn.h.%X%X8XpXj.|.MXuX;.W , 0XeXU.9.R.tXF.u.H.(.fX=X..-.G...8.c.u.F.Y x eXeX6X{ t - 1 u.5.H.8.Q Y M E #.t.a.F.O.B.b.u.@.^.).|.=X1X.X~ 5.r.F.b.R.R.=X*XT.v.G.:.S.2X.X:.y.U.w.] c.Y.j.R.D.H.u.D.u.W.H.V.@.pXMX(.L 8 > 9.^.6XF.u././.f.f.D.%.u.^._. X!.G  XH.X.J ! G.f. Xs._.!.f.O.y.X.H.eX XtXY.:.G.H. XH./.Y.c.u.E Y N.Z.<XdX{.}.tXB.s bXHXBX=.j 1 1 7.{ #.X.c.z | Y.9.8.G s . U @.#.R.b.R.,XH.V ] |.|.B.#.] } 6.@ F XXJ.R.6.2.B./.J.:.H./.^.^., 3XbXN. XV.6.>X=XT.c.9.wXZXzXv 5 = x + r.a. XQ.5XbX@XM.Q.Q.;X%X .|.wXY.5.A.< P.>XF.7.).*XB.C.C.G.,XR.5.^.gXR./.}.R.$.@.+.+.F.@.Y.U...#.H.u.E C.|.R.a.nXBX6X] h : > F.C.b.Y.R.).6X6X5XE ] x.:XW.@XpXU.8X&.N.=XM.&XgXwXi.y./. Xr.=.5.5 k.>XL.Z.Z.F.=XdX(.Y.(.G.u._.1XV.u._.6XZ.9. X4Xp.lXCXJ.c 6 6 ;X(.b  XH.} J E G.d. Xs. X",
"XX2.H. XG.H.b.G.eXpXfX&X1X6X X^.MXbXG.a - ,  X XXXXX/./.6.x B.,XdX,XbX;X(.3.X.#.( P.r j Z.^...J b   $.f.r.H.G.R..X).} Y G.b.^.<.#.J.8.& s ,X}.H.B.2.a.V.c.&Xu.R.FXgX8.A 7 ; Z.Z.u.=XU.|.V.` < }.9XW.u.#.V X ^ p./.H.5XnX@XV.Q.Q.>X%X) &XeXY.r.D.< P.=XY.9.|.R.F.Y././.eX4X#.X.Y./.#.#.{ 6X~ N bXgXpX..9 > : 8.#.b.E %.O.M S ^ <.6.Y.%.u.Y.H.B.B.=XR.R.,XF.5.G.A.*Xy.B.wXQ.5X5Xv..Xb.G.].3Xv.G..X,.R :.b.y.H.R.B.u.u.=.(.).|.#.tXNX^.x 1 > c.N.6X&Xu.,X,X X}.G.6.Z.(._.,XN.J ^.B.3.X.~ B.D. X^./.XXr.1.u.P H.bXeXeXZ.O.Z.H.s.B./.Z./.8.n b &X%X&XdX~.{.fX6.e NXJXJX/._ 8 6 7.#.#.( Z.g j C.^...D b   +.f.y.G.G./.&X|.{ Y G.B.^.3.#.F.6.@ i XX/.B.u.5.%.C.b.Q.b.H.,XZ.E rX<XX. X X5.|.M.T.c.| 4XZX0XC > ; V @ F G..XF.=XbXW.8.Q.(.rXQ. .n.C.} %.J.q l.|.Y.9.,XF.F.H.B.Y.6X}.8.J.eXF.H.=XR.$.5.O.E |._ ..y.#.` (.c.| G.1XS.G.BXBX4XE a > > R.H. Xy.C.|.=X6X>Xb.F.=XwX>X|.3X=XY.,X).M.C.=XtX=XF.y.F.=XC.8.c.4 &.%Xy.5.N.V.dX6X_. Xu.V.N.u.Y.H.N.N.,X&XN.6X6X2XGXCXJ.c 6 4 &XV.F H.c.X.X.~ B.D._.^._.",
"!.y.G.!.G.V.8.F.eXkXdX,X6X,X X!.NXbXY.j $ - (.R.,X XXXH.s.M u.^.6X,XfX;XZ.X.#.E -.,Xj Z c.(.).P n . %.<.-.^.-.).&XY.-.Z .X/.dX^.B.!.B.q u !. X,X,Xd./.dX>X/.Y.|.FXxX} l t 1 6.9.#.%X&XR.C.K e v.Y.b.C.#.Y < b {..XH.*XvXW.8.Q.Q.yXQ. .b.C.{ #.J.e 9.Q./.N.eXc.F.M.#.(.tXb.| #.b.c.y.u.} c.P x fXkX|.N 1 $ = ..] y.} 2.O.s c <.t.y./.i.y.).U.8.Y.F.b.B.&X=Xi.r.J.1X}.u.pXR.tX5XF.|.G.|.[.rXi..X>XS.U ,.F.C.F.R.D.1.H.:.;X X(.#.pXxXC.a 1 6 Z.u.eX,X5.!.eXXX_.!.5.Z.G.t.Z.Z.F B.G.G.X.6.6.(. Xr.G.).t.u.D.} (.1XkX,X*.5.5.Z.d.G.6XH.^.Z.G i X.c.Z.kX~..X6XN.q NXSXBX(.A 0 1 X.3.! -.&Xa Z c.(.^.! b . 1.+.<.^.#.).&XY.3.Z .X/.tXH.B.H.B.q r XX X)./.6.f.H.c. Xc.R. X3.! _.,X7.G.Z.u.&XT.Q.V.( >XMX>Xv 1 = } x F d.5X/.M.>X+X-.uXQ.@X+Xk.C B.` 2.@.< 7.*XR.5.&Xu.B.b.%.Z.,XH.y.H.|.F.C.|.F.-.,.5.5.y.8.b.@.X.B./.8.c.,X>XG.V.BXCXdX] j 2 > ).C.H.H.N.c.V.=X Xr.b. XkX4X/.%X=X).pX6X&X_.B.&X).u.8. XkXY.8.B.a C Z.c.V.>.H.rXeX,XN.B.#.| { V.Y.Z.s.eX,X5./.gX1XFXCXD.V 6 : B.Z.S d.G.Z.X.6.u./. X6.J.",
" Xt.G.r.B.^.Z./.6XbX6X6X X!._._.BXnXY.z - 1 (.^. X!.XXH.Z.r Y.lX&Xb.|.&X_.N.K E 3.V.r V ..V.).D d . d ^ u.f.u.(. X(.{ i tX1XN.^.!.Z.!.^ F !.6X/. XB.XXbXeX3.5.|.HXpXL p g 5 s.| #.].Q.T.Z.F s ;.U.V.^.3.6.u.F 1.6X|.y.;XOX-.uX(.%X+Xj.V V.! <.@., 7.>X/.5.|.y.B.J.u.d.R...<.C.1Xi.R.5.! X.9.M tXpXU.G 2 ; > r.H.R.N.Z.6.E F 2.1.R.&XF.y.;XY.C.u.b.Y.F.].F.} /..X2X.XD.3X2XjXrXe.B.F./..XtXF.3X.XF.R ;.Y.@.5.H..Xa.!.Y.&X_.,Xb.pXfXc.j 1 1 c.f.&X Xu.H.bXtXY.R.-.N._.y._./.x f.H.V.8.X.N.G.!.E B.&Xy.#.#.2.V.1XnX,XY.6.Z.s.!.G. X^.^.u.P H 3.9.C.4X!.4XXXN.& SXPXbX#.c 8 6 V.K Y 3.V.t Z #.m.(.J d X s +.u.s.u.(. X(.{ i pX1XB.^.H.G.!.J d `.,X X,Xd.{.dX1XY.F.|.&X5.x c.eXZ.6.9.#.%X%XQ.Z.G 1XvX).c 6 - #.u.J Y .X1XM.E.Q.C.>X_.uXL...Z F.R.<.#.a V. XH.B.R.b.c.C.r.y.D.y.#.H.&XF.u.B.F.R y./.H.,.:.E c.R.Z.C.#.9.C.=XU.u.nXZXtX..j 6 > =X/./.b.8.R.u.R.|...-.H.5X>Xb.Y.6XgXkXMXtX=X).%X<Xu.u.).tX&Xy.:.:.P ;.c.+X6X.X8.6XeX,X!.| b ! V.!.u.u.,X Xt.!.BXgXSXZXB.c 7 , _.).s t.H.c.5.| B.Y.H.E F.",
"/.C.d.B.!.(.C.&XlXkXdXdX^.Z.XX XBXBXH.x ; - (.C.,X!.!._.!.s y.6X>X,XBXgX&X(.3.X.k.Z.q m C.c.V.D i + i M T f.kX{.>X%X#.3 tX6XB.J.B.u.XXG s f.=X.X}.B.lXnXrX/.Y.1XGXwXG e 9 6 Z.| } F.m.L.%.n z W -.D. X6.R !.! s XX6XC.T.Q.U.;X|.uXC...C F.Q.3.@.i l.XXH.(./.b.y.D.%.O.#./.s.u.lXY.u.#.#.F.B...dXgX).E j 8 8 ,.B.s.5.Z.D./.| 2.6.^.u.H.b.R.).R..Xc.).R.R.|.5.A.B.4X[.G.3X>X.XrXe.b.D.=XrX5XT.5XR.S.` ,.).y.i.Y.U.|.C.9.V.P.=Xc.tXBXF.j : - ! Z.6XJ.y.(.1X<X&X).:.B._.s.!.V.s t.N.b.y.| H.(.Y.#.C.|.V.%.2.d.H.|.nXfX!.H.,X^ t.G.XX^. X..X.K X.N.9.,X!.!.6X^.3 bXJXMX(.' g 8 R.-.X.k.Z.q N F.M.N.D i + i M ^ !.5X/.1X|.#.3 dX1XB.J.B.c.XXJ s G.,X|..Xd.4XnXeX8.8.|.wX .w #.tX).u.| #._.Q.U.c.M 1XpXY.m 6 - J b.5.F !.2Xy.&X9XU.Q.c.Q.n. .A i.S.C.#.u 7.,XV.H.F.y.y.B.i.#.8.D.6.u.|.C.B.F.|.3.R.=X^.y.:.3.R.Z.H.Y.Z.5.H.&Xv.:.bXBXtX} p 6 > |.|.,X1X#.Y./.{.C.:.B.F.rX.Xa.#.tXpXkXmXR.r.H.&X&XW./.F.5X>X;.y.b B +X9XeXL.-.C.eXdXdXZ.C.{ | 6.#.J Z.6XH.r._.,X1XJXSXC.m 6 1 H.N.u t.N.N.6.| H.(.Y.#.Y.",
",X X!.f./.G.^.|.bXlXfX4X/.G. X,XSXNXY.b # 1 Y.c.XX!._.G.s.a t. X1X1XMXBX,X@XH.N.V.F.b x c.C.H.b w i d 1.r.4XGXdX3X).3.w 6X6X#.B.D.H.(.| s a.R.R.F.t.XXVXiXtXkX1XBXeXE 8 6 0  X<.i.R.v.C ] E 3 H #.F.B.5.x $.Z.T p.5Xj.*X1XW.).c.).n. .K i.M.V.#.r 7.<XN./.F.,.:.C.v.J 5.C.y./.eX|.r.#.3.c.u.H pXAX).7.k 2 > $.%.Q | ] E 2...5.5.B.t.:.,.y.V.B.3Xc.H.5X>X3X#.@.F.4X.XR.jX=XF.jX*X|.|.4X2XrXb.4X].@.$.c.=XF.-.&X_.=XC.V.Y.,X/.V.tXpXb.e ; # | G.XX| Y V.gXbXgXB.} B.d.^./.b.s 6.Z.y.9.` H. X XY Z.4X X!.<.t.!.eXeXkX6X,X.X9.V.^.6XV.,X9.<.M V.c.6.,X!.XX Xu.4 lXFXBX)._ h 8 &XH.V.N.Z.b x c.C.H.n w i d w.r.4XJXdX1X).3.e 4X6X#.B.Z.G./.E s a.).|.R.p.kXnXeX(./.,X<XV < } ,X_.Z.| O.F.M.n.@.Z 1XeXb.m 2 ; M Q a.s t.4Xv.=XwXC.U.8.Y.m.*.- $.].W.C.r (  XR.B.R.y.#.b.b.#.9.H.c.H.,XF.r.u.).b.F.=XB.c...-.,XM.=Xy.N.X.5.y.@.;.bXSXtX` p > : C.Y.|.rX3.N.6XR.}.u._.).tX1Xb.J.gX9XkX=XT.c.F.%X.X). XB.wXrXi.8.Z z xX1X1XH.5.(.dX,XfXG.E Y ! | P ~ Z. X..Y Z.kXNXKXnXy.c 1 2 ^.b.s 6.G.u.8.! G.&X|.L !.",
"6XXXD.f.J./.XX,XNXgXeX>X6X_./.6XSXMX,Xk = 1 u.Z.(.!.XX(.Z.u !.5X,X6XfXuX3.^.&Xc.C.Z.z b ,X^.8.F + w d F +.`.lXGX).F.P M XX5X} ~ 1.t.%.S 3 /.H.5.B.+.`.lXMXMXkX=XSXeX..7 ; 6 /.X.D.].%X[ ` 6., @.#.H./.9.M n 5.w q.4Xx.=XwXL.L.8.U.n.>.# :.).Y.F.e G |.).B..XC.@.u.u.Y Z.6X XXX{.u.f.r./.8...i.gXMX).Z.h ; ; @.O.#.r.#.L #.G b.:.B.R.b.J.C.1X,X8.;.C.,XQ.&Xb.F.|.R.i.v.>XR.R.rX*Xy.}.lX}.5Xy.R.Q.,.] 8.6XY.r.&XMX).6.| Y.eX6XF.fXpXu.N 2 - | t.Z.#.Y <.tXbX=XR.} :.G.N.,X/.F 1.&Xc.R.` ^.gX|.j F.eXXX!.1.1.G.lX6XkX=X/.Q.1X XR.eXY./.6X#.x B.#.N. X!.<X<XZ.q BXJXBX.XL g ; ^.&Xc.C.Z.g b &X/.8.S + w d U +.J.nXFX/.F.L M XX5X} | 6.t.5.H w J.Y.b.D.1.}.nXuXpXkX1X^.P a Q R.5X_.#.u.R.M.A ] } ;XrXc.N 6 : M Z #.w a.pXY.).vXL.j.c.C.E.k.- M tX;X9.3 g ^.H.5.&Xu.:.f.a.X.C.,XY.Y.,X).a.6.F.9.v./.;.c.] } F.F.Z.#.XXV.r.R.i.C.nXnXrX] j 1 > C.1XeXu.#.N.,XB.5X/.C.|.H.H.#.c.fX>X5XR.T.c.B.R.Y.R.=Xr.4X)...3.X.7 k.,X^.^.s.V.dX&XdX^.L Y G.B.<.| t.B...H <.gXbXGXBXc.h 1 1 ,X(.S 2. Xc.R.{ R.gX}.k Y.",
"kX XB.(.D.^.{.4XbXeX1XeXeX,X,X1XSXBX(.k O ; Z.(. X(.Z.,XN.3 Z. XR.1X;XW.} =.Z.^.u.Z.r s ).C.8.! w w F T Q p.r.XXp.@.P 3 J..X#.! ^ +.1.J w =XY.b.V.| p.4XwXkXbX5XnXdX@., 1 0 &X#.R.=XW.j.@...6 O.] /..Xc.Z U | 3 G.gX(.Q.vXK.8.u.C.E.j.- m pX;X9.3 g Y.C.5.,X:.u.Y.C.6.1XKX5X4X,Xa.r.5.c.9.F.-.MXFX).c.6 2 ; -.u.3.u.#...} H B.5..X,XD./.=XgX|.B.y.C.&XZ.].y.R.5XJ.r.A.|.T.F.4XR.;.|.3X2X>Xi.R.:Xb.@...|.|.5.Y.1X&X3.#.^.vXtXR.pXdXb.G 2 9 r.f._.c.B.5.=XkX,Xu.E } b.X.).H.e 6. XR..XB. X6X/.l /.lX X!.D.t.G.XXCXlXR.(.rX5XeX,X5X=X|.H.5.r #.V.^.<X!.!.6XV., NXFXgX|.v 1 $ #.C.(.6.^.r s _.B.8.! i & F J W a.5.,Xa.@.P 3 J.XX#.! +.+.1.J w .XH.u.C.+.J.kXMXMXkX=X(.E n Y b.(.(.#.D.|.+X[ ] 5.=XgXu.Z 7 > H H ~ , p.pX+XW.gX@Xm.Y.Z.K.7.1 p wX9Xk.w b @XF.c.=Xu.C.R.b.5.Y.tXH.H.1XF.y.V.u.r.Y.u.@.|.b.H 8.Z.9.#.6.3.c.{.|.5.MXnX=X` m 6 6 &XeX.XG.;.b.=XP.|.Y.C.(.y.b.6.u.5X5XQ.:.y.y.y.H.b.c.1Xu.Y./.U.gXc.r { N.Z.N.! u.xXlXlXZ.{ { ^.G. X6.f.(.c.f.<.,XkXGXbX:.0 , = /.!.e 6._.R.|.B.&X6X^.l |.",
"/./.(.dX!./.f.XXJXfXfXwX&X X).1XSXFX/.e O = C.<XXX!.,XeXN.a u.=X&XgX1X^.-.#.9.eXN.u.b S Z.C.6.<.J @ i 1.d.u...t.!.y.c.z `.kX^.| ^ 1.d.b i lXG.y.>XZ.D..XB.=XdX).nXtXX.9 2 7 G.| y.).+X8.u.V.e R r.).Y.8.{ U H , D.tX+XQ.xX@XC.W.Z.K.>.4 u hX3Xx.w b &XY.H.=XV.).,XJ.u.eXFXY.=XtXH.r.=.#.-._.b.bXFXR.{ 8 ; = ] /.-.O.r.8.b.G Y.R.5X&XD.y.>XrXr.V.F.c.rX*XQ.C.wXrX=X=Xb.>X*XJ.4XT.:.b.Q.wX5Xv.I.].y.8...B.|.5.V.|.S.H.H.=XgXtX/.kXxX(.B 1 7 J.u.6XH.<.5. X6X=X} #.#.Z.^.<XJ.u <.H.H.a.c.5X6X6Xm U._./.XXfXd.G.r.kXPXtX0X%XF.=X|.1X XdXB.H s { N.1X,X!.,XfXV.r bXGXbX9Xv 6 = #.c.6XN.c.b S H.V.7.<.F + d r.d.u...y.J.i.c.z {.kXG.+.^ 1.t.d i kXD.b.Y.3.D.4X3XtXbX5XN.X.S n B.5X&X#.R.*XW.j.#.-.1XtXb.G 6 : { H Q , a.>X).*XwXk.>.1XC.h.{ 7 , 5XAX(.w b (.R.b.Y.8.H..XF.b./.6X/.).6X=XF.^.F.8.H.F.8.;.} ` #.R...c.5.} c.&XdXR.BXZX1X#.l > ; =XrXB.B.B.y.>X|.F.R.Y.|.H.B.B.3.R.5XY.U.b.$.#.R.=Xb.R.F.r.=X/.eXV.r X.6.&X,X^.N.fX,X6X=X9.N.s.Z.&X^.t.6XH.#.2. XeXFXtXb.p 1 1 1XY.s <.!.H.c.V.1X6X6Xc R.",
".X!. XlX!.!.{.|.CXgX1X>X=X/..X6XBXBX).j $ 1 /. X^.XX,X1XZ.s &XeX0XvX1XH.,.3.*. X9.u.X.r &X^.<.K d + i 2.Z.5.G u.!./._.z }.rXG.Y b ^ !.J 3 ,X&XY.,X_.f.{.}.kX&X XCX9XX.e : 2 r.#.b.%X&XV.W u.G -.5.C.;XB.X.b O., i.).W.:XwXk.-.9XC.h. .7 1 2XAX(.w z W./.b.u.} b.5X|.F.>X>XC./.,XB.} P C.,.=.y.MXvXZ.u.p # = } C. X-.] b.R.Y b.r.B.,XR.-.&XJ.8._.|.c.5X&X=Xb.&X4XR.5XU.M.U.'.=X.Xi.:.T.=X|.D.i.].8.@.R u.G.#.b.F.C.R.^.=XwXtX/.lXbX^.G 0 1 f.6.,X6Xa.+.V.|.|.C...} u.H.=XB.s ^ N.b.5.H V.W.eXp R.,X^.6XNX!.!.,X5XJXpX_.|.|.Y.|.4X/..XJ.6.H G.^.&X^.XX6X9XF.u FXJXSXuXC 5 ; >.X.@X6.9.X.e  X/.3.P d % 3 t.Z.5.F u.!./._.z }.rXG.Y M ^ G.J w 4X/.B.,XH.D..XF.=XpX{.c.! b Y ^..XF.+.y.(.+X8.r.c.1XpXC.V 8 1 -.n ^ < i.].9X:XyXP...P.j.k. .l n }.CX^.n t c.B.-.r.#.c.{./.B./.|.).G. X|.u.B. XG.C.F.5.y...#.8.H.#.Z.lXB.N.G.F.b.MXSXvX3.l > : ).].V.&X|.c.,XY.|.B.C.|.B. X/.#.c./.B./.J.3.} &XrXR.i.:.F.Y.Z.v.b.4 3./. X/.6XN.=XrX,X X(.9.^._.B.f.1.,X6Xa.<.B.|.FXbXx.t > 1 ,Xc.s | N.x.6.H N.Y.eXp |.",
"dX6XdX6XH.G.5X,XfX6X<X&X(.H./.Y.FXSX_.z # 6 9.(.<X,X&X;X9.a (.gXeXuX&X&XP.).P.N.) V...& 3.V.Y.P F . w d.D.u.~ B.B.5XNXa f.=XV.} F T _.X.u D.kX1X=XV.p.4X1XkX1X&XBXeXX.4 ; - B._.Y.wX).y.N G.9.C.9.R.=X,XV.b ! 4 i.T.iX*XyXL...P.j.j.[ z n |.CX^.M e k.b.$.8.#.-.A.a.} 1XrXD.b./..XE ^.Y.|...3.MXbX/.n 7 ; ; #.r.u.| #.] r.Q ~ ~ C.tX|.b.b.v.c.@X6X-.R.C.1XY.c.&X|.5X|.R.'.R.R.|.i.] b.|.R.b.r.F.:.c.L Y.|.@.-.C.(.H.:.W.pXtXR.gXvXV.b 5 ; E 8.=X4X/.B.R.=X.X-.8.} 3.s.Y.6.s J <.^.5.N 4.^. Xp ).kX1XbXeXJ.Z.dXfXNX<X_.(.Y.Z./.F.,X<X/.u.S ^.6.Q.,X<XXX1Xy.a CXPXBX<Xv 7 > (.Y.c.) B. .& 3.c.Y.P d . w d.D.s.! B.B.1XbXs b.=XV.| F T {.| w !.eX X,X/.a.}..XgX&X_.R.G S ! f.G.6.#.b.;X:Xc.R N.pXvXC.B 9 6 V.G } e i.4XpXQ.zXoX] >Xc.m... .h S.5XC.F < =.V.#.c.-.8.B.f.#.R./.F.8.C.T.r.c.)./.G.-.H.y.-.N.b.Z.3.^.SXH.H.C.y.F.MXFXBX#.j 2 ; b.Y.C. X1X-.^.b. XF.-.(.D.&XF.i.u.H.u.|.U.#.}  XgXH.#.u.F.Y.H.M.).r { Z.B.Z./.9.>XgX|.G.k.X.Z.Y.6.Y u.=X6X/.B.R.,XFXpXC.9 : : Y.5.z J <.Y.5.N 6.).|.j |.",
"D.N.1XfXN. XNXlX6XdXeX X&X(. Xu.NXNXH.l $ > 9.R.(.<X@X)...x 8.eX<XW.^.&Xj.=X&XN.J F.6.@ 3.&X_.G S   w d.G.B.| D./.fX&Xs G.G.{ G F ~ d.6.a t.NX,X.Xt.J.1X>XvXmX+XBXgXX.7 1 : G.H.R.Y.C.u.Z y.k.Z.:.Y.(._._.P <.a i.kXgXQ.pX+X' <Xc.m.....l F.>XZ.F < ..b.8.C.-.r.r.#.| 9..X3.V.H.F.3.dXG.pX,.H.MXMX&Xx 6 1 - ..H.} N .._ B n #.B.B.>X}.F.b.R./.U.(.3./.Y.F.H.y.F.R.5X].R.=XR.F./.v.y.;.H.'.R.b.G.c.-.@.Y.U.#.#.>X&XF.3.P.gX1X{.gXpX8.r 6 1 2.G.fXH.t.D.=X>XY.8.;.} Z.Z.c.9.r ! ^.,Xu.H (.<XY.x Y.J.B.dXlXB.XXCXBXdXfXeX_.XX@X=X9.N.^.6.N.E s.6.Y.^.<X_.)...z bXJXBXk.l 7 ; <X&Xc.J Y.9.@ 3.,X_.G F . w d.G.B...G.{.fX&Xa H.H.{ S F ~ B.6.a a.nX,X=Xd.f.4X5XgX9X&XY.E D F #.#.V.{.G.6X(.y.M B.bXmXC.C 7 6 Y.P X.a Q hXpXT.yX%Xj.).-.8.L.X.1 J.>XF.} < 8.u.-.r.8.c.y.y.-.u.C.b.G.C.R.5.F.=XF.u.V.u.a.#.*.c.:.9.<XfX|.5.C.;X1XBXSXgX#.j 2 ; c./.|.Y.^.#.).H.H. X#.D.^.=X>Xi.D.R.C.Z.b.a.3.Y.5XF.5.a./.|.H.6X=Xr L Y.,X/._.u.1X1X,XB.#.S #.^.N.2.G.gXF.t.B.=X5XMXxXc.t 1 1 c.9.e ^ Z.,Xu.H (.<XH.c _.",
".XG.u.6XH.^.lXZXbXdXnXCXdXXX,XV.gXtX/.c # 1 B.F./.!.!.rX{ x /.lX1X=XSXc.u.eXW.C.x 5.Z.q u.R.-.K S   w J t.!.1.2..XCXMXb /.4X^.{ O..X5Xf.s Z.dXtX X} G.rX5XvXFX7XnXdX} z t 0 =X X=XC.Y.(.N V u.).8.F.F.b.u...` e n hXyXU.wX%Xj.Q.3.j.L.X., F.>XZ.O.< 8.i.-.5.y.Y.6.<.u.B.rXr.u.B.H.;./.^.eX-.b.kXkX&Xx 9 ; ; @.b.y.E v.$.] M ..%.6./.&XY.&X|.b.8.;.(.H.M.u.B.y.y.{.rX|.F./.R.F.T.w.y.b.R./.R.6.5.-.r.8.|.>X$.8.>XU.r.#.Y.<X1XC.kXtXc.t : 1 u.G.fXH.H.C.Q..X)./.3...9.Y./.<.& <.Z.6XH.H /.9Xc.F B.,XG.C.eXY.!.nXJXnXdXBXJXdX4X6Xc.| P D.B.b D.B.U./.G.!.6X{ s FXKXBXR.' > ; tX(.C.x -.Z.< b.Y.#.P b . w Y t.!.%.2.XXZXnXb R.6X^.) +.{.&Xs.s f.lX6X X3.G.1X2XmXmX@XH.X.D J N.N.H.G.R.W.C.c.Z %.bXNXM.B 2 2 Z.-.{ r i rXpXC.8X>XP.C.c.W.V.{ 4 '.<XY.%.: =.5.#.8.b.B.6.a.u.u.|.b.b.c.|.:.b.|.G.B.F.} $.] x.-.y.5. X|.R.<.C.gXtXMXMXtX@.0 6 > Y.|.C.c.=.(.B.B.6.Z.8.r.=XeX|.5.#.R.b.F.5.r.F./.>XF.c.r.J.|.G.5XR.e H  X&Xu.{.a.^.9XC.B.-.| { 5.C.s.H.gXH.G.B.(. XSXZXC.t > 2 R.<.& | Z.6XG.H /.0Xc.S D.",
"dX_.9. Xr.B.kXnXFXlXFXnX,X X XW.CXlX}.e o 2 b.8./.J.!.^.} u B.eX<XQ.xX7...gXZ.9.b #.Z.< 6.C.Y.3.D . w 6.D.f...O.J.rXHXH a./.N.X.Q 6X X#.S J D.=X/.3.R.ZXvXvXmXeXbXtXZ m 0 0 Y.V._.Y.F.Y...M J.V.X.u.C.F. XZ.P z 9 5XgXF.>X7XW.C.c.Y.V.{ 2 '.=XY.%.% ..#.-.b.B.y.#.,XG._.,X^.R.u.b.#.r./.b.#.y.nXnXQ...h 1 0 } -.F.8.,.y.r.} ^.#.-.>X'.|.=X1X@.3.X.c.5.8.8.Z.9.Z.|.5XR.b.F.R.R.C.@.b.M.y.b.b.:.y.-.-.#.R.|.E 3.%XC.%.t.C.W.6X/.BXgXV.j 1 1 5.u.fXB.#.#.U.F./.Y.u.E P b.&Xt.w J d./.5.Y s.^.-.J /.fX(.u.=X5.B.lXSXFXgXCXBX,X X&X^.(.6.!.~ s Z.c.,./.J.{./.{ u NXKXBXV./ ; = gXC.k.N X.^.4 5.Z.Y.3.J   w 6.D.f.O.O.J.rXGXJ u.(.N.{ ! 4X&X3.b X.{.6X X#.G.jXwXvXSX1Xc.#.s t.6XwX,X).=XM.Y.Y.N Z NXBXV.c 2 > ).Y.` b 6 }.>XU.>XyXL.v.M.K. .>.k *X5X=X+.% N.c.3.y.u.;.5._.C.H.^.F.r.#.r.y.y.y.r.F.-.5.y.[ -.8.B.-.R.&XB.X.u.pXtXMXSXkX..p 2 2 R.,Xy.r.X.u.3.#.#.^.V.u. X1XR.i.2.D.F.R.C.y.} V.|.U.H./.5.^.).%X!.t a R.B.6.^.8.c.fX=X1XV.X.#.B.Z.6.u.fXV.#.-.U.U.CXBXF.9 # > &Xu.w ! s./.3.Y d./.3.J |.",
"gX,X&XR.F.|.bXFXvXnXgX6X X4X=XR.MXFXZ.2 # > y.M.Y.5XG.J.J r B.lX&XZ.(.dXC.)._.Z.b !.Z.# R /.Z.8.| . & t.G.G...f.G.CXPX7.2. XN.| F  X^.7.P x 5X=X}.Z.G.pXZXVXeXeXkXtXH m 6 1 ..3.b.>XF.R.K p B.:.3.R.&XD.tX1X} P 3 `.|.Y.5X9XL.x.C.Z.' >.l 2X4X,X@.% W.C.8.u.@.L $.Y.9.V.1Xb.).b.#.N.B.3.-.| k.nXSX=Xv 8 ; > ` @.b.@.b.y.L m 5.] ] 5XrXB.y.R.C.G.#.| <.V.u.B.9.u.).=X|.F.S.F.).F.8.R.u.5.Y.H.:.8.-.8.u.F.u.E ` ).C.5.6.c.Z.pXwXBXnXF.j - < y.6.&Xi.} ` Y.c.=X^.@.J Y V.C.4.s | N.u.} ..G./.V.} G.lX,X,XR.F.{.bXJXMXbXfX1X/.dX1X/.N.XX6.S D N.y.b.Y.5XJ.^.D w NXKXMXu.l g ; ). XZ.b Z.Z.@ P R.F.3.<.. & t.G.G...B.D.ZXPX5.2..XB.| F .X^.5.J M }.=X|.8.R.nXlXvXvXtXN.| 3 B.6X1X^.V.).R.H.Q.{ n BXvXb.B 6 > 6X&X' ..2 p.;XR.%XiXk.` F.Y.8.7.4 Z }.1X%.2  XG.8.c.-.] #.R.C.Z. XB.5.u.8.y.F.5.9.Y.B.c.b.:.y...R.V./.&Xy.c.9.Y.T.MXSXkX#.p 6 > y.R.H.H.#.| #.9.5.N.c.#.R.|.R.r...b.Y.F.R.F.R -.,X_.c.).r.B. X|.B.s r C.C.| H.y.c.NXgX1XH.y.<.6.V.6.5. Xt.} ] U.c.FXBXc.4 # 1 Z.<.s | B.y.O.} G./.V.} ^.",
"fX X6X1X/.^.5XBXMXfX1XtX6X6X6X}.NXNXu.4 - > :.c.B. X!.,X^ s  XvXY.).@XeXW.pX&X7.J D V., P =XY.8.6.@ % d.t.!.C.}.{.}.gX| f. XG.#.~ ,XZ.<.3.e }.wX{.B.B.{.vXtX;XY.gXgXH c 6 2 c.N.5.'.5X;X( 4 c.C.c.R.=XU.;X(.` c.3 r.>XW.Q.pXj.` F.W.j.7., Z '.5X-.w &XG.u.b.v.%.@.Y.,X,XvX1X=X/.8.u.G.(.V.X.#.MXCX=X9 j 1 ; 3.F.]...b.C.#.N E ] -.,XrXA.@.F./.y.+...| c.c.H.u.c.b./.Q.F.R.F.R.|.F.y.-.-.R.c.r.u.#.8.V.B.F.W L Y.V.y.N.y.F.=X=XBXBXZ.p 1 > H.<._.5.1.6.B.Y.eX^.5.F ^ /.c.<.r ! <.|.=X! G.,X3.| G.lX X6X5X/./.5XSXBXpX1XpX6X6X6X XN.G.^ F 1.s.3.c.B.{.!.<X^ s FXKXgXC.l 0 8 fX&X7.J J N.< L =XY.8.1.+ % 9.t.!.B. XXX XgX..a.}.G.<.! >XG.<.<.r =X1X XB.G.4XZXMXwX9XX.! 3 D.H.W...5.V.=XF.).K a nXvXZ.Z 8 6 1X).| C.3 p.4X>X1XiXj.=.y.M.c.c.e 9 2XeX:., (.Y.b.r.C.i.:.H.=X/.&XR.b.J.c.:.H.F.c.|.R.y.S.v.,.C.tXy.u.=X8.-. XC.C.HXMX6X5.p 2 > #.B./.b.#.#.} s.9.H.N.9.y.(.|.|.u.b.Y.R.R.8.#.3.1XF.C.G.#.V.=XY.b.x r Z.Z.9.,Xc.C.1XeX}.&Xy.#.d.B.!.<.{.5.2.5.C.J.JXBXC.4 $ 2 N.X.s ! -.|.>XE H.,X-.+.!.",
"5X4X.XH.:.B.6XbXBX1X6XlX6X_.{.!.gXfXG.< - 7 c.N.G.!.G./.D ^ 4X=X1X|.1XgX>XJX=XZ.3.H C.w G  XC.Y.!.e X a.t..X,X}.,X/.+.} Y a.G.^ Y .X/...f.< .X4X6X,X..D.>X4XgXZ.bXbXG e t 6 R.s.1.$.&X1X .< y.c.F./.=X&XpXW.:.&X9 r.hX3XwXuXj.-.y.c.m.N.r 3 2XpX:., W./.C.3.R.F.b.G.&XH.,X|.J.J.C.!./.R.$.c.8.gXbX6Xj 6 6 6 @.Y.&X=.u.R.b.Z +.$.H.5X5XG.s.^.F.H.b.Y H ^.H.&XV.<.6. X>XR.B.H.|..X.Xr.:.r.Q.F.b.C.-.y.c.Z.F.@.L R.&X9.-.B.B.6XrXGXFXC.e 1 8 G.#.,Xy.| | ..!.kX Xy.E <.XXu.s.b <.4.=XkX@.D.Y.} E 5.5X4XXXH.:.V.6XnXBX1X6XlX<X{./.!.3...s.b 6. Xu.V.H.^.G./.D ^ FXFXMXZ.C 0 9 LX;XZ.3.G Z.e G _.C.R.R.0 X f.t.XXXXXXXX{.O.| W a.G.~ W .X/.X.9.4 &X6X&X^.u.{.kXrX>XY.| <.w B.^.R.c.N.5.R.4X;X( 4 nXMXR.Z 8 6 wXU.:./.p w.wXtXxXpXm.5..XY...c.D $ .X|.@.% 7.Y.H.u.|.B.u.F.|.C.R.Y.r.B.B.u.B.R.b.).Y.C.U.R.F.U.F.u.c.6.y.-.tXlX.XFXBXpXu.h 6 2 8.H.F.H.a.E H Y.Z.,XZ.-.9. XtX|.r.F.Y.R.5Xa.@.u.5X'.R.F.-.B.Y.C.b.N r |.<X9.N.8.y.6XfXtXeX<.~ B.,XG.#.=Xr.| | ../.KXFXC.7 - 7 u.9.S <.9.=XkX..C.Y.} E u.",
"}.{.,Xu.} 8.6XCXMXeXgX6X/.Z./.G.NXbXV.< ; 6 c.Y.1X X<.5.s d 6XCXF.b.5XwX;XSXeXfX7.#._.x t Z.C.C.#.- . a.G.}.G.t.}.XXB.J Y O.(.1.O.D.6X2.| % }.5X<X).-.B.=X.XY.] bXBXG 1 p 8 1XV.+.#.y.&XN.z a.,.F.F.Y.pX+Xj.8.Y.z $.rXhXAXuXm.8.=XQ.' c.P $ }.Y.O.%  .C.|.R.=Xi.y.C.C.#.R.F.b.y.B.B.^.Y.y./.8.gXgX&XK 8 0 h Y.T.rXF.5.).|.r.G #./.=X4XJ.E /.b.a.i.#.P c.H.H.9.| 9.,X6X|.b.|.pX>X/.b...u._.=Xv.B.u.8.V.Y.F.O.m Y.1Xu.c.c.B.dXtXGXFXr.9 : 9 B.+. XG.{ | ~ a.=XfX#.X.2.D.C.d.s ! s.5XvX3.b.H.-.H 6..X{.,Xu.{ 8.rXFXMXeXfX6X XD./.G.H.f.<.S <.H.b.W.1X X<.5.s F GXIXpX=.B 0 8 ZXrXfX7.#./.b r Z.B.C.#.= . f.G.{.D.t.XX}.D.F W O.!.1.~ G.1X#.<.% .X1X1X X#.B.>X5XfXC.y.u.< ~ 6X).Y.s.2.$.&X1X .4 nXxX).C 6 t 1Xm.y.C.x ] 3XjXmX9Xk.C.).&XU.Z.| $ `.3X@.% ) C.B.b.R.y.y.c.F.y.V.H.u.c.F.c.u.F.R.c.|.B.y.C.y.F.e.c.3.+.B...b.=XH.BXvXpX#.h 7 2 X./.C.b.i.3.P u.C.H.c.| 9.<XeX|.5. XpX=X.XG...9.>XpXF.V.V.b.H.W.|.M 7 ^.6X9.Z.u.2.dXdXkX5XE J 6. XC.|  XG.{ | ^ a.FXKXc.t ; 1 Z.d.s D 0.1XnX5.u.F.3.J u.",
"dXd.!. X9.u.4XGXbXvXeXXX!._.{.!.BXMXZ.4 % > 8.Y.1X^.!.d.d J {.nXV.#..XkXY.GXBXuX7.#._.L e u.V.Y.N.&   O.f.!.f.t.{.{.f.W $.%.+.Y T G.J.! Y s 1X,X9.Y.r.%.i.r.u.Y.CXnXP 4 7 > /.V.{ #.N.=X0Xr r.[ :.B.M.MXuXW.r.6.N Z .XjXvX8Xj.F.).&X).Y.X.# T.rX$.: ` C.%.r.H.:.5.E C.R.H.u.5.H.,X{.G.5.} F.y.pXbX=XK 8 8 l jXtXtXb.r.Y.R.r.} 5.a.B.|.=X@.rX^.D.b.5.` #.b.B.8.H V.,X>XR.D.Q.pX2X.X=XM.V.c.dXb.8.-.b.C.M.B.] j V.F.8.B.d.f.}.6XGXSXV.e 2 ; Z.#.B.t.! X.6./.tX,X#.#.] %.Y.N.S J s.=XJ.] -.5XdX! _.dXf./._.9.u.6XGXnXlX6X_.!._.}./.R.B.6.J | D.y.U.1X{.G.d.b J CXPXeXE B h 2 GXVXuX5.#.).P e u.V.Y.f.%   ~ p.!.f.t.{./.B.! %.%.2.Y Y G.^.~ Q u =X>X/.).5.a.}.}.Y.} u.!.q M kX.X6Xs.+.@.8.&XV.z nXgXT.m > h 9XL.y.u.G M .XVXzX-X>.F.Y.L.C.8.3.o w.lXi., ( Z.#.-.B.w.#.X.F.R.u.F.c.c.F.-.F.Y.F.v.Y.b.:.;...=.F.8.B.y.B.8.F.U.C.nXkXtX] 9 > 2 #.|./.D.A.9.{ X.c.C.6.H N.,X6XR.u.Y.bX5X4XrXC.C.c.NXB.9.-.Y.U.m.M.N w N.C.6.F.s.<.{.tXrX,X2.~ Z.u.Z.| B.t.! X.3./.JXFXc.p $ $ R.B.S J u.=XF.] 5.,XtX! &X",
"!.{.XX&X8.Z.lXJXCXNXfX XXXXX_.H.GXBXZ.7 > 6 ,.V.y./.,XG.J J .XeX5.| |.rX=XbXmXwX} { 1Xz r b.9..X(.r   F t.G.u.r.J.6XB.J ~ t.d.F T f.!.<.#.3 '.tX8./.&X+.+.#.Y./.vXkXP 7 0 1 H.9._.Z.{ B.xX< -...c.).c.pX<XC.8.C.P n '.HXzX+X>.F.Y.c.m.3.<.+ O.lXA., P Y.} } V.;.Y y.F.R.F.5X5.b.,X{./.R.a.y.y.vXvX1Xc 2 8 h pX%Xy.o.b.U.F.U H V.b.c.|.6X-.c.D.H.R.#.E 6.u.H.-.#.u./.,XR.8.W.wX>X/./.R./.#.=X!. Xc.c.Y.C.:.E u V.H.| u.D.#.R.6XGXBXB.p 7 < s.<.6.^ J | 9.XX4X{.+.G Y a.C.B.s ^ d.5XM.@.2.|.y.Y Z.{.}.,X X6.G.lXJXSXNXdXXXXXXX{.J.,XY.u.P d.^.3.C.u.!.,XZ.J Y FXJX1XY l t 8 bXMXwX{ { 1Xx r V.8.&X(.s   U u.G.u.6.J.6XB.J T t.d.F ~ p.!.#.+.w }.wX8.Y.B.<.y.r.c.Y.!.Z.r F |.Z.).Z.{ #.u.;X<Xr vXpXM.C > g 0XB.8.B.K n |.KXDX7Xk.Z.R.C.M.L.c.% i kXv.3 v /.%.#.b.:.] r.H.H.u.R.r.u.].y.b.H.b.F.y.b.F.b.y.[ y.} F./.F.#.Z.|.C.MXvXkX@.7 2 6 :.y.C.J.R.#.{ y.u.H.:.| u./.5XR.;.(.gX1X{././._.3.,X{.&Xu.b._.M.] M 7 N.Y.{ t.D.! B.tX6X^.2.+. X!.s.<.6.~ Y | s.XXHXCXu.2 $ : C.B.s ^ f.5XS.#.2.|.u.Y ^.",
"!..XrXH.%.V.CXCXGXkXdX X<X,X&XH.FXnX#.2 6 1 Z.(.;. X!.<.| S }.eX} #.b.fXY.>XxXxXG n &XY 3 #.5.Y.c.J . Z f.J.G.V.F.{._.E E | (.Y T i.t...%.+ i.4X|.y.F.} ~ O.=XwXvXCX{ : 8 6 &Xu.B.i.P @.H.< -.c.r.F.}.gX9Xm.,.b.G s %XPXPX0Xk.Z.R.F.m.F.u.$ i hXM., z ).i.y.C.#.] } r.:.@.;.B.B.v.r.D.6.t.8.v.kXgX1Xx t 0 h yXF.a.o.5.R.r.] P r.G.J.&X1Xo...|.}.b.-.#.y.u.C.H.+.5.6X=XR.b.U.MXeX5X|.#.-.| /.H.,XU.c._.9.} J z c.,XD.1.R.8.b.,XFXNXu.j 6 1 9.6.!.t.^ <.t. X6Xf.%.+.U i.(.d.3 S u.=X%.~ 6.-.N u 6.{..X6XH.%.b.CXCXHXkXpX X<X,X XG.,XG.M F /.H.C.(.=. X!.X.+.M FXHX;XW 0 g 5 >XxXxXH b &XP 3 #.:.U.u.K   F f.!.G.B.G.}.|.` E #./.Y T f.a...#.@ A.tXG.G.'.| +.#.H.Y.8.6.r T 6XZ.Z.8._.Z.} a.fX< kXgXH.C 8 h 9Xm.v.c.P s /.ZXPXyXj.#.F.C.W.Q.&Xq u tXi.3 z Y.b.y.C.u.-.%.b.r.-.5.c.y.R.J.b.c.R.H.F.R.y.|.Q.y.%.G u./.5.8.y.R.).nXvXvX$.9 2 2 #.-.{.}.b.5.#.c.u.C.R.| 5.6X=X(.b.Y.AXkX6X|.-.3.{ ^.^.1XY.c.&Xy.Y b e c.,XD.6.!.3.u.1X,XH.+.2.(.(.7.<./.t.~ 2.r. XJXbXb.p $ : ^.d.3 S u..X%.~ 6.-.M s u.",
"f.,XpX,Xb.R.JXGXBXgXnX,X,X6X1XY.BXxX5.e 1 7 &X)...(.y.6.} b ,X1X#.!.|.B.C.|.wX@XV N 6X9.e K 3.;.7.b   T C.D.H.b.G.F./.X.5.1.{.J M u.H.5.#.% i.4X1XD.r.V B.@.).gXBXNX{ : 9 9 |.6.r.|.` i.^.7 #.Y./.B.tXMXpXY.Q.M...s J.kXLXzXj. .C.C.+XQ.,Xp i hXy.4 z U.b.c.F.(.|.y.u.] -.i.b.{.u.:.b.u.-.:.F.pXvXtXE c 7 0 rX).S.@.u.D.r.D.#.<.y.S.'.=X%.6.&X.Xb.b.O.8.a.3.2.E r.wX|.|.Y.C.vXvX*X}.b.9.X.u.B.>XR.F.&Xb.G.#.t r.y.a.2.5XG./..XJXCX^.e 6 6 9.#.Z.t.F +.+. X=XG.} Q i.} 7.6.3 F G.tX}.! s.} J J | f.4XdX5Xc.R.KXHXBXpXMX<XXX6X<XY.F.3.E | B. X,X(...).u.6.| M GXJX=Xb.k > 1 ).yX@XN M 6X9.e H 8.=.8.S   W f.D.H.V.F.F./.X.5.+._.T n a.G.5.<.% i.6X=Xb.b.` ..+..XeX5.XXr n |.Y.=Xu.B.c.J #.P.< vXbXY.N 0 h yXC.Y.L.X.u B.>XbX7Xk.} ^.Q.%X%XeXg 0 kXG.u w Z.B.y.C.).R.y.r.@.5.:.u.Y.R.Y.C.Y.Q./.R.F.@.8.b.c.r.9.G.u.u.:.u.b.R.gXvXkXr.0 2 7 5.8.|.=Xb.b...,.u.3.%.W y.6X|.|.U.M.MXvX>X.XB.y.| 8.D.6X|.W.=Xc.D.| 4 8.5.a.1.6XB.Y..XdX XB.! (.^.9.<.Z.t.F +.#..XGXnX8.9 : = 6.6.w F Z.dX}.~ u.} H J 2.",
"6.6X1X6XH.y.CXGXkXxXCX^.(.dXpX;XGXvX#.4 1 7 ^. X} /.B.C.^ T XXeX@.D.|.Y.1XvXFXk.G u.1X^.r a ).Y.i.J . x +.J.F.6.@.R.c.u.6.i.{.~ T (.D.Y.s.% S.}.=Xi.u.X.5.5.=X>XnXnX| : h 6 b.b.H.>Xc.C.kXz #.N.H.H.rXvX7Xm.(.W.X.w w.Q.pX@Xm.} R.|.+X&XdXe 0 jXR.i < Z.F.u.F.|.b.r.#.@.F.u.r.U.B.u.6XC.c.|.eXbXvXeXV l 1 0 tXC.C.@.r.i.D.{.#.r.F.b.S.|.F.@.|.'.|.c...y.:.-.N.#.N.eXtX4X&XC.AX5XU.b.C.3.-.y.b.|.F.U.=X&XC.} 7 R.B.D.s.tXB.,X.XFXGX&Xp > 1 c.` u.6.t.2.] J.{. X} -.u.{ 9.t.w ! !.5X,X9.5.} %.F ^ s.6X,X6XH.y.BXFXlXvXFX^._.tXfX;X=XN.N J Z.&X^._.} /.B.B.~ Y GXJX=Xr.c 6 0 mXFXk.G u.<X^.r a _.Y.s.J . x #.G.F.8.O.J.b.9.6.u./.^ ~ J.F.H.u.% D..X=XA.r.H B.@.|.pXB.!.z s .X;X|.6.r.%X .i.(.e xXMX Xn p h 0XC.Q.T.-.q :.F.wX;XP.X.J.}.).=X;Xb 3 hXD.n < V.b.8.b.).u.y.%.%.C.y.u.).|.R.b./.1XY.Y.,Xy.u.C.Y.F.X.c.9.B.y.C.H.Y.nXvX6Xr.9 > 2 i...R.{.|.b.#.8.5.#.C.+.s.eXhXrX&XC.SXwXR.b.C.5.-.u.B.|.F.U.5X=XB.Y 2 R.B.D.f.tXc.,XXX,X6X^.<.c.B.N.{ s.t.t.2.} H.CXSX9.j > $ 7.s.w Y G.6X=X9.6.~ #.F | ",
"4.XXnXpX(.3.fXGXCXHXFX X/.<X&X(.BXZX3.e 1 1 C.Z.u.}.{._.x Y dX XF 5.;X X6XgXxXZ.b (.(.V.V V G./.5.Y X u 2.H.u.r.D.2X^.5.N.f.,X| F J.u.^.G.7 ] }.tXH.u.5.5.B.5X*XnXBXX.< t 9 ;.|.H.wX;XM.6X< b 8.8.5.R.rXwXY.M.R.9.w %.v.;X;X^.X.G.|.+X&X#Xv 3 hXD.M 3 B.u.-.c.Y.8.;...} H.;.y.F./.b./.H.Y./.-.BXvX6X` t > 8 ).R.Y.&Xr.:.b.=Xt.B.R.i.y.U.#.3.R.D.b.-.+.u.R./.H.B.<.6XtX'.v.x.ZX9X4XF.F.-.9._.=Xb.c.C.=Xb.F.Y 4 u./.B.t.B.5.NX_.NXFXY.e 1 < B.! N.J.%.` r.B./.F.} C.6.V Y.sX& s t./.R.#.c.s.u.F Y s.XXbXdX/.5.fXGXBXHXSX_./.5X;X(.!./.P ^ H.N.C.Z.u.}._._.b Y JXFX).} c 8 0 gXxXZ.b /._.N.G V F./.5.E X u %.J.y.6.A.2X^.5.B.t.,X| F J.u./.Z.< $.}.4XB.u.3.5.8.=X>Xa.D.z s lXQ.b.c.F.>Xc.C.fXz gXvX/.c 7 h 8XU.U.Y.s.r O.F.1X1X<X7.H.1X*XC.tX=., [.D.O.< 6.:.#.b.F.y.:.-.#.F.5.c.C./.H.c.).=Xy.c.R.-.C.F.Y.=X#.! Z.B.C.).|.).CXvX4X-.6 : > -.#.Y.F.y.:.#.u.R.^.F.N.<.6XtX/.c.y.SXwXrXF.F.-.9.&X2Xb.x.C.,Xb.F.H , u.R.B.t.B.2.NX_.Z.6Xu.~ N.G.B.~ s.G.%.E r.B.FXMXr.m : O !.<X& n d./.R.#.u.s.s.F | ",
"| !.H.&Xy.%.,XlXHXFXAXeX,XNX).r.MXgX#.a t 7  X X{./.,XeXS Y dX/.H {.tX8.,XwX).3.3 1.5.<.{ z } -.~ J + t t.{.b.i.G.J.N.} 5.J.tXX.M J.p.D.t.: U i.J.b.3...%.XX1X5XnXlX3.# t 6 B.H.D..X>XY.|.q z #.c.Y.).>X:X(.=XC./.e T R.5X5X<X7.G.5X&XV.uX4.- [.F.$.& %.#.@.y.c.y.u.u.<.b.F.:.r.|.=X@.&XY.R.R eXvX=Xz 2 = > ).G.^..Xu.O.b.a.5.!.R.U.F.,Xr.u.1Xu.c.| -.C.B. X^.N.X.dX|.R.v.u.pXpX4X,XF.-.Y.eXR.F.F.c.C.b.4XW t H.F.B.<.5.#.lXZ.BXGXG.t 2 , | b t.p.| E u. XB.-.c.J.#.E }.fX3 ^ D. XeX,XH.N.!.| J #.^.H.&Xr.#.,XbXHXFXAX6X4XNX_.t.c.<.J 5.tX,X@XXX/.{.,XeXS Y KXCX).D.A ; 9 9X).3.< t.<.3.{ x } #.~ J X a t./.b.a.H.J.N.} 3.J.dX+.M G.f.p.u., R A..XF.r.3.5.C.3X=Xu.!.S M tX=X-.|.G.wX;XM.1X4 wXgXU.l 6 0 >XW.%XC.V.s Y F.uXeX0X*.6.4X(.:.=Xl.O T.b.U % { :.#.M.Z.n.u.b.6.u.b.y.H..Xu.3.Y.Y.y.F.8...R. XF.r.Y.{ N.|.F.b.Y.|.MXvXtXa.2 > 7 y.8.=XC.c.X.5.C.V. X/.c.X.dX.XQ.M.y.gXgX4X5XF.-.Q.tXR.F.H.c.C.b.4XH 9 F.D.B.5.5.#.lXG.G.,Xu.| G.G.+.b t.p.| W c.&XMXgXY.V = $  XdX< ^ G.,XeX&XY.N.H.| ~ ",
"W _.R.R.t.%.!.6XfXBXgX,X XlX_.f.gXtXV.C l t =XR.6X6X_._.b E |.H.` |.pXu.,X1Xm.3.& t.Z.#.a ; Q u.J | + a d.!.b.:.}.G.%. X^.J.lX~ F !.u.$.1.< r.J.|..X).| T }.{.5XnXkX3.1 h 1 c.V.W r.wX>.C.z i R.Q.1X=XiX*Xx.5Xc.6.z U b.pXrX0XX.5.6X).;.,Xl.O S.u.M @ ` 8.y.R.&XC.:.Y.B.5.-.A F.).Q.[ |.c.....gXpX5Xu 7 ; > bXR.2.R.R.F #.] ~ r.b.C.$.F.B.-.5X=X>...| P.).8.B.8.E =X/.R.|.c.Y.vX4X,X}.:.C.tX).F.u.b.|._.u.Z : c.Y.-.#.} | G./.BXNXF.a - - 1.a <.B.M E V..X/.G.c.+.} u.a.d.< f.4X4X(.C.3.Z.,X{ ^ | (.R./.u.%.^.4XgXBXgX,X XfX/.b.#.! 3.^.nXeX=XJ.6X4X_._.b E SXBX&XF.A ; 9 9XV.-.& d.B.#.a % ` b.J | + a f.J.b.5.XXD.5. X^.J.lX} F {.a.%.r.< $.D./.Y.c.| +..X>X5XB.t.D w 6X|.C.H.D..X>XY._.q 6XkXQ.R 9 0 -Xc.|.C.9.z F G.tXwX(.V.` >XY.).R.V.# `.r.W % <.b.8.F._.F.-.H.Z.5.b.y.F.|.L.c.&XpXR.U.8.-.).=Xc.#.| | 9.).:.-.Y.|.nXvXtXr.7 ; 2 b.6.=X&X8...X.Z.R.r.V.9.P =XR.R.).c.Y.vX4X6X}.3.V.tX|.Z.y.C.|.|.b.M % V.R.#.O.} | Z.(.!.!.r.2.2.<.2.r 1.f.F ! V.|.CXnXY.p = : u.f.& N.,X5X/.V.3.Z.,X} | ",
"} !.Z.C.=X%.H.fX6X6X<X8.d..XG.B.SXfX,X=.6 0 6Xc.!.6.XX_.r ~ J.b.3.|.,Xy.1XeX9.7.& p.XXZ.P $ b.B.| +.% s %.G.u.-.4X!.2.,XkX.X^.6.a d.B.5.s.< W .XZXgX1X%.r.}.F.|.bXbX5., h > v.H.] B.wX+X+X .w wX9XZ.v.U.C.-.,.Y.N.b b J.eX9XY.L.W ,XY././.m.; `.r.Q % 6.F.y.u._.).=.B.Z.u.%X] c.H.F.C.u.C.#.c.nXpX>Xz c 5 ; 1X X^./.B.P 6.r.H #.b.a.:.c.J.b.F.=X;Xb...9.C.5.r.c.7.u.J..X(.u.Q.fX>X5X=Xc.Y.tX Xu.c.F.&X.Xi.M , 8.R.3.y.G.<.s.G.CXbXc.t % - 5.a } a.~ ~ Z.&X=X{.<.F B.3.G.1.w Z.=X=X Xc.3.(.9.<.! #.!.C.D..X2.J.fX6X6X,Xr.d.XXG.V./.8./.fX).6X5Xb.!.r.,X_.r ~ CXnX5XF.B : 7 eX9.5.& d.,XG.P $ c.V.| <.@ z 2.J.y.-.2X!.2.=XfX.X/.6.s f.B.5.t.< O.|.pX4X.X} O.}.{.4XB.5.E b kXC.c.b.Y w.wX,.C.b 5XBX1XL 6 6 T.:.u.F.5.z n R.yX9XL.(.#.F.Z.u.#.;X< v.|.t.% X.Y.u.c.&X).-.B.N.a./.y.C./.,XR.|.6X).|.Q.).>X&XB.y.#.E 8.Y.c.8.F.F.nXbXeX%.7 : 1 T.b.F.&X&XM.#.c.Z.3.r.c.8.r.!. X).u.Q.gX,X5X=Xc.Y.fX_.u.c.F.,X Xa.M , 8.R.-.y.Z.<.s.G.Y.B.#.<.| <.6.u | u.! ~ Z.&XFXZXV., 1 = G.6.w G.,XXX.Xc.3.(.u.<.| ",
"F Z./.Y.D.#.{.SXeX1X5X^.!.B.H.^.PXSX1X..> 8 5XB.u.f.<XdXb ~ 5X X;.4X&Xy.<XpXm.| w <.Z.G.{ . ] X.X.J , z t.B.b.r.D.G.%.y.:.H./.D.Y 4XG./.s.r $.Y.,XMX6XE 2.R.|.M.nXgX5.% 6 > R.y.y.~ Q.>XU.K p tX9Xc.U.c.9.-.%.C. .r d }.yX9XC._.#.F.Z.c...<X1 i.&Xf.& { (.c.b.eX1XC.C.N.c.kX.XC.V.&XR.R.R.` |.VXkX|.r 9 6 6 .Xb.Y.&Xb.3..Xb.R 3.b.b.b.=XR.3.|.C.Y.>X:.] V.3.|.c.] } 1.6X).N.c.tX5X/.'.P.^.<X XC.N.G.R.H.(.Y % #./.5.^.G.B.Z. XNXNXC.t - : a.F #./.<.S 6.F.H.6X!.! _.! V.B.w d.H.J..XV.<.@X^.6.^ J Z._.H.F.#.{.CXeX<X4X^.H.B.G.R.MX&X_.eXC..X6XV.u.d.6X<XS ^ HXSX>X*Xl : 0 gXm.} < 1.Z.G.{ . ] =.X.J , s r.f.N.r.G.G.%.i.:.H.(.G.Y XXZ.^.s.w O.R.tXbX1X#.2.}.F.|.u.u.! b kXC.b.H.} b.5X%XOX) >XHXzXc 1 ; c.-.%.Y.X.s F =XwX>X%X&XX.G.u...#.tXK W /.a.< { |.b.r.=X).N.b.V.H.rXQ.B.C. XH./.|.C.1X_.Z.R.c.i.b.Z.E 6.H.).U.B.Y.nXgXeXu.9 : 7 R.5..XH.Y.;X:...b.#.).u.] O.1.6X_.N.y.tX5X^.'.H.(.=X%XC.V.H.R.Y./.J # X./.5.!.G.D.Z. XG.H.3.X.X.u.u.G #./.#.F 6.G.BXGX Xe 7 $ V.f.w d.!.J. XC.<.&XY.9.<.",
"J 5.Z.G.!.X.,XFXMX=X6XY.~ d.R.H.PXAX^.` 1 1 ,XZ.!.B.NX_.S | 5X X| &X|.F.tXgXC.#.s ~ d.B.E . E -.9.! % 3 .Xr.b.y.b.5.U R c.@.r.1.Y G.p..XY.< r.1XN.nXtX6.| u.R.b.bXkXk.X 2 6 V.B.t.W |.5XS.C J 3X(.c.u.y.Y.3.y.Y.{ S U 4X7X>X&X;XX.H.c.@.O.tX( Y R.a.w ! =Xb.-.J.u.u.#.9.&XtX=Xb.(.wX_.|.D.] ..kXjX%X! t $ 2  XH.#.eX#.7./.J.} #.H.b.b.).>XH.U.=X/.Q.b.-.Y.6.>X|.~ E B.Y.,.F./.5XtX&X|.5.(.6X,XY.+.B.Y./.F.M % { t.5.(.|.#.D.,XZXnXc.7 , 1 9.F -.c.5.Y XXZ.G.,X1X! /.u.^.t.& 1.!.H.=Xu.} dXN.<.<.^ 5.G.H.H.X.,XSXAX;X6XZ.~ f.R.H.SX|.C.<XZ.^.XXG.!.f.NX_.S | JXSX=XY.l 6 p gXZ.#.s ^ d.B.{ . T 3.5.^ % 3  Xy.c.,.A.5.H R v.@.r.2.W J.f.|.H.q r..X^.nXeX| %.H.|.v.B.-.E e }.v.R.y.y.} ).>XL.( 1XHX0Xc ; ; C.:.x.Y.#.G S rX0XyX9XwXm.Y.(.y.6.=XL.c R.{.s | &Xb.5.B.y.c.7.N.&XpX=Xc.V. XH.H.>XD.H.u.s.F.O.c.B.-.Q f.G.&X1XR.F.bXbXgXN.t 1 8 R.F.F.,X).R.b.-.R.7.1X}.} E f.Y.,.F.R.5XtX.X).8./.6X,XY.+.B.H.).F.M + } 6.2./..X#.D.,XG.B.X.P 6.Z.u.F -.b.-.Y XXG.BXGXtXw 4 > !.6.& 6.G.H.=Xy.| dXN.<.4.",
"F !./.,X!.<.N.vXPXgX6XN.#.d.H.6.KXbXC.N 9 3 ,X/.s.a.dXN.S u.Y.s.~ Y.y..XgXU.7.6.b 5.u.9...O E 6.9.Y & $ J.5.c.T.tXx.-.$.|.r.5.} i t.u.R.Z.< -./.w.kXG.^.2.2.b.T.vXvX9.@ 9 2 c.C.Z...&XU.'  .3 R.#XY.....c.-.U._.9.} s jXyXuXwXuXV.Y._.c.r.&X(.z R.XXs #.&Xc.B.-.-.R.).^.1X4X=X:.(.vX). X>X8.V.bXpX6XE 9 ; 1 ).R.c.|.b.-.%.R.} u.5.%.=.b.,Xb.R.=XC.c.D...F.6.F.u.6.Y G.F.c.c.=X>X=X&XY.b.C.gX6X&X+.b.|.1XC.n + 3.1.5.d./.#.u.,XZXZX7.t ; 2 6.z 2.B.5.M G.&X/. X9.T (.c. XD.w d.D.u.=Xy.<.dX^.6.4.J !.(.&X^.<.N.lXPXfX6XN.<.d.J.5.tXc.3.Z. XH.<X(.a.f.dXN.S s.BXnX&Xc.8 7 p U.8.8.b 3.u.9.| O R 5.u.Y & $ J.7.c.R.tXr.-.@.|.r.5.} i t.y.^.H.< :.|.u.lX&Xc.+.t.U.B.u.2.| & D./.V.B.t.! %X5XM.C eXFX;Xv ; ; F.3.C.+Xc.{ e 5XpXuXyXpX9X&X=Xc.F.4XxXH y.{.s { R.5.b.5.5.G.R.^.=XeX>Xb.|.|._.Y.1XC.r.y.c.R.b.|.F.B.~ F.).=X>X|.R.bXlXpXu.7 - > &XF.C.&XV.c.C.@.G.5.F.y.9.Y G.Z.b.u.=X>X=X&XY.b.C.fX6X=X#.f.|.,XC.x @ 3.6.6.s./.#.u.,XR./.{ | 6./.6.s 5.V.5.M G.&XSXCXZ.7 6 > |.f.w d.G.u.,Xy.#.dXZ.s.6.",
"S <X6X,X XX.B.lXKXJXbXXXZ.t. X!.SXvX7.c t 1 !.6.5.D.lX/.J 5.H.5.2.C.r..X5X(.k.Z.| ! V.5.#.# H c.u.E u % 8.Z.c.1X8X*XnX$XR.b.H.X.n J..XJ.Q.w ] D.i..X}...t.1.$..XnXbXN.X 6 2 _...!.J.Y.U.L  .+ R.pXL.l.*X>X&XS.8X(..., |.pXzXiXxXyX1X&Xc.Y.wXMXK -.{.s ) F.@.b.r.y.Z.x.^.G././.5._.wX8.c.%X:.Z.CXbXtXJ 1 1 2 =X=X.X=X/.8.5.r.E 5.u.:.-.C.R.E &X|.-...;.#.y.#.C.` 5.c 3.Y.F.;.wX5X5X=X*X/.|.|.>XF.E 5./.).F.H X y.H.t.B.XX8.B.5XCXSXy.9 1 9 N.S Y -.E b 5. X XN.X.E c.y.).!.w !.!.c.6XG.5.<XZ.!.<.Y <X4XXX XX.B.lXKXKXbXXXD.t. X/.^.u.{ s.6XD.!.6.5.D.lX(.P 5.NXvX1Xr.0 9 0 @X8.V.X.E B.7.X.# U b.9.E a : 6.Z.c.1X>X&XnX+XR.u.J.X.n J.}.R./.w O.F.r.4X/.u.1.1.b.R.7.2.| < =XR.c.B.B.@.|.Y.]  .=XZXuXC : > Q.U.T.>X/.3.3 1XzXzX>XiXyXxXwXV.Q.=XMX*.#.G.s K F.#.y.b.v.Z.b.^.H..X/.%.R.|.c.H.R.u. Xa.H.R.y.Y.Y. X#.u.B..X=XV.u.vXpX,Xp.p % > R.#.R./.5.@.;.X.u.#.Z.` -.n 3.F.F.;.eX5X5X=X=XR.).|.5XB.E 5.^.|.F.F X 8.G.6.Z.XX3.b.5X).|.} E G.,Xd.N J -.E n 6._.SXbX9.9 > :  X{.w /.^.c.6XF.5.XX!.^.1.",
"S G.XX!./.X./.gXHXFXfX(./.!.G.^.BXtX5.j 6 1 !.u.N. XsX).G #.6XH.J.R.-.u.R.1XP.<.{ s G.( 7., ] C.8.V.s @ b.k.c.@XcXcXDXDXv.F. XZ.u G.rXf.B.a W B.r.D.B.| 2.%.r.F.gXlXV.% 7 ; .X-.V.b.=X_.=.3.3 }.uX&Xk.%X3XM.&XrX&XZ.e tXxXxX@XwXyXxXeXm.Q.&XMX7.@.D.i b C.-.-.R.R.Q.Z.C.kX1X@.-.Z.R.5.H.M.-.).SXvX=Xd.2 1 0 >XR.C.|.R.-.u.V.E u.R.v.u./.eX8.C./.y.c.u...R.3.5.#.` 3.u.y.y.` Q.Y.,X4XtX).F.8.b.B.H y.}./.R.W X Y./.d.d.B.:.C.tXCXbXk.t 4 6 /.F F #.J J #.G._.6X_.3.c.U.=X/.w !.,XH.^.u.{ <.^.XX<.J !.XX/._.| /.kXGXSXfX_._.!.Z.!.Z.{ E 3._.G.!.6.s.XX6X_.G #.JXBXfXa.7 : 1 <XY.<.{ z G.E 7., ] C.r.B.i O b.c.c.%XbXcXFXSXb.F. XZ.u G.6XB.B.r R C.r.J.R.O.r.5.%.|.B.s.<.& |.Z.).X.!.Y.R.U.R  .|.ZXvXC > 8 >XU.Q.1X_.C.9 .XmXzXW.7XuXpXwXW.(.U.;X8.%.6.i D u.-.5.Y.Y.F.Y.Y.6X5X%...u._.r.Y.H.b.D././.tXF.C.R.8.X.#./.F.y.b.:.bXnX1Xu.e ; 6 |.b.B.Y.r.c.u...Y.5.5.#.` 8.u.u.y.' W.Y.,X5XpXR.U.8.B.B.H y. XR./.W X Y.^.d.d.d.5.F.tX/.M.#.X.!././.J F #.H H #.^.CXJX<Xh > 2 XX!.w G.,XH.^.u.{ 4.(.<X<.",
"J 6.d. X!.W f.pXZXMX1Xs.,X!.!.N.NXtX7.N : : G.XX!.!._.!.H 6.^.B.t./.D.,XB._.C.3.X.N ).P 3.< B 8.=X Xp X '.lX}.eXVXAXIXAX9X X X^., D.b.}.G.x H B.#.D.b.Z.r.p.1X).vXbX!.q 0 > y.@.,XF.3X>XR.7.4 5X&X@X+Xv.B.C.b.C.L.U.9 F.zXvXE.-XzXpX0XW.(.M.T.8.-.$.i N #.#.u.|.F.` &XdXV.=XH.C.1XnX/.Y.8.8.).GXbX;XH 2 1 7 b.y.Y.%XC.@.y.H...9.Y.F.F.F.=XH.b.F.f.Y.3.{ u.] R./.} B.-.U.R.;.C.Y.J.4XwXW.9.x.H.C.} #..X).D.O.. :.,X!.6._.u.R.4XZXMX=.< 6 7 Z.Y F Z.u.H 8.&X X6X,X9.j.V.R. Xw <.H.G./.d.P 6.^.(.+.~ 6.d._./.Y a.jXAXNX<Xs.XX!.!.N.Z.E { Z.N.6.G.XXZ.^. X^.G y.CXMX5XB.j 7 >  XZ.3.| N  XP 3.1 M 5.=X Xr X '.lX|.yXAXAXIXAX9X%X&X^., D.B.|.G.x U B.w.A.b.6.r.2.a.J.X.d.6.r  XZ.%X3.B.b.;X).;.3.>XSXfX( 5 5 E.S.C.Y.F.C.e S.zXmXOX;XmXxX;XQ.OXF.+XX.,.%.i S $.#.3.R.B...|.rXB.,XF.9.(.1XC.H.Y.b.V.F.5.dX4XR.C./.3.| /.Y.@.Y.F.BXFX6X@.8 > 2 /.H.b.F.u.H.5. .u.} R.R.] C.-.U.Q.;.C.R.J.6X5XR.9.x.H.C...#. X XD.o.. 5.,X^.s._.u.J.4X^.^.G s _.).G.J F Z.9.H 8.&XSXGXeXj ; > W._.w 1.H.G./.d.P s.!.!.1.",
"D d.1.!.Z.F i.lXSXGX_.N.(.<X_./.BXxX3.V 1 > s.1X(./.<X!.F B.y.a.r.G.^. Xt.u.| P ! F /.(.3.5 w x.5XB.H . b.VXpXpX8XjXAXcXLXwX).N.p G.5X6XC.z w -.R.|.rX(.p.D.lX=XnXnXu., 0 ; ..} N.&X3X=X).^., G.W.Q.:XY.C.V.8.C.C.c.e e.xXmX-X:XmXmX-XT.+XU.;X` :.u.i F 5.#.' 8.6.Z.C./.R./.fX).,XgX).).Q._.>XSXbX5X} 1 : 2 v.c.C.F.F.c.B.H.5.u.U.&XB.V.>X|.5XF.B.V.y.C B.y.}.M.L 5.` C.R.W.H.{.{.>XS.y.Y.V._.F.6.-. X{.J.O.X O._.(.XXNXB.B..XBXSX9.1 9 7 G.M L H.H.} c.dX}.{.6X8...,X{./.F B.H.t.p.f.=.6.!.d.Y Y d.6.!.B.F u.kXSXFX&XN.(.<X_.(.Z.9.E H.N.s.s.6X(.(.,XG.F B.bXnX5Xr.k 7 ; u.| J E S _.^.-.4 9 y.1XB.H X A.CXpXjXqXcXcXcXHXwX/.s.u J.2X4XV.s t 8.D.R..XY.t.p.rX}.3.B.9.Y ,XN.5.#.,XH.>X1X/.7.=XFX9XA 8 5 C.C.y.C.M.c.r w.yXmX@X*XAXwX;XR.%XM.1XP :.D.s S 5...] r.u.H.C.).Y.).eXF.).wX|.&X|./.G.u.Z.&Xv.b.F.|.Y.-.|./.8.G.(.CXnXeXi.l - ; J.R..XF.B.b.y.G b.u.|.B.H 6.{ C.R.R.Z.{.{.,XF.y.Y.V._.F.r.<. X{.J.O.X .. X{.XXlXB.b.XXG.).| S  X.XZ.M J H.Y.| c.dXFXCXgXj = 0  X(.J B.G.d.f.B.-.6.Z.N.| ",
"S ~._.s.2.U #.lXSXKX<X<X6XXX<X6XMXgXc.j 1 , (.kX_. X_.XXs a.,Xu.+./.H.V.6.P ! N P Y ,X XW.w r c..Xr.3.. O.rXtXpX%X5XAXLXAXAXkX Xn D.|.R./.6.M B.|.|.lX_.d.i.4X5XbXpXC.t g # 2.5.2.F.wX:Xe.X.r J.%XW.OXT.i.Y.U.C.@.-.e ;.wXmX+X+XDX;X@XQ.*Xj.<XP -.}.J s r.H ..5.^.eX1XF.F.F.&XH. X&XC.=X_.Z.F.bXvX1Xy.2 : 2 Y.Q.M.F.b.u.V.H.6.a.R.|.6.&X4X|.>XR.u.R H { b.a./.(.c...#.9.F.=X).B. XR.).U.c./.6XB.E u.!.,XXXr.X P Z.}.6XNX/.r.=XnXbXV.x 2 : D.Y Y ,X,X-.V.=XR.^.|.F.Z fXkX(.s #.G.1.1.d.#.9.,X!.J J (.~.f.1.U %.vXFXJX1X&X<XXX<X6XL.8.#.3.V.f.(.gX X{.{.sXs f.GXbX,Xa.h 1 ; P ` V P E ,X).W.w r b.*Xy.-.. O.4XyXzX:XqXSXLXDXBXgX Xn A.|.H./.3.n a.).|.gX(.d.B.kX>Xc.B.| b 6X9...} B..X>X*X/.^.&XnX@XA 6 5 c.H.C.C.=.8.j -.>XvX%XW.AX>XW.E.+Xn.(.` @.H.J s t.H @.5.^.dX=XY.G.F.|.B.!.6XF.|.U.Y.F.C.^./.5.C.H./.F.-.Y.,X/.).Y.MXZXrXv.a $ 2 /.R.).R.B.E L | c.u.R.).c.....9.C.=X).B.&XR.Q.T.b.R.6XC.E y.!.,X2Xr.O Y Z.{.6XNX/.y.=Xb.N.5.u.Z.B.B.H E ,X=X-.C.=XCXZX,XB O t kX^.s #.G.1.+.N.#.6.<X!.{ ",
"F N.9.}.1.^ i.vXAXZXsXfX_.V.!.NXAXbXy.k 7 7 6XBX1XB._.!.n F.,Xu.D. X4X^.N.6.#.X.#.5.eXy.).K % :.T.C.G.  $.|.=XOXb.v.iXDXAXAXCX,Xx J.5Xb.V.X.b .X&X'.kXH.#.5.R.tXMXeX9.6 l > 9.#.r.,XiXW.y.b + A.wXeX8XwX>XL.C.Z.@.Y.b 5.Q.zX;XM.mX9XL.U.W.m.Z...` d.T b u.E #.3.C.lXMXwXu.-..XB.B.6XH.Y.8.u.F.jXnX5XX.7 > > R.|.M.C.F.M.G.R.B.^.R.y.y.y.5X X5.H.5.y.H { { | &X).c.N #.H.Q.R.b.).)./.T.Y.b.B.5X|.:.u.{./..X%.O P /.}.bXPX,Xu./.gXtXb.c : > f.N E ;X6XD.u.|.,X>X=X/.L 1XgX!.r 6.d.! N.C.8.%._.s.D J N.9. X5.~ u.vXSXCXsXfXXXZ.!.lXY.c.} 9. XXX6XBX1XZ./.G.x G.GXbXdXG.V 6 < 6.X...#.6.6Xc._.K % :.U.C.H.  $.{.=X[.M.v.yXHXAXAXBX,Xx R.6XB.B.<.b )..X].kX/.5.u..X4Xc.@.<...uXX.:.5.1.F.wX:Xe...,XnXwX_ 8 8 Q.U.C.L.#.Y.c #.*XzX;Xc.pXwXL.L.U.j.Z...' Z.Y S u.} #.5.C.fXbX1Xu.:._.B.C.5Xc.Y.B.R.G.H.G...C.Q.F.H.b.-.Y.).:.R.|.SXZXdXv.0 = > =XY.8.R.y.u.E } } #. X).c.G -.F.Q.R.b._.).W.T.U.b.B.4X|.-.u.{./.}.%.X R ^. XlXPX,Xc./.} E -.V.i.D.B.N E ,X6XB.c.+XGXFXeXZ # 8 gX!.e 5.f.! f.B.r.#. Xs.Y ",
"M !._._.t.J ! /.ZXlX^.XXZ.4.t.gXFXNXZ.k 9 8 5XNX X1X Xs.s XX,Xc.^.4XtX=X XZ.)...H | ,XeXZ.L @ j.-.kX@X. Q `.lX5X.X=X1X|.wXeX).=X9 }.vXy.9.F u {.B.F.rX8.Y u.R.>XMXtXc.j l : 7.#.D.>X|.Q.v.7.& u.bX9X&X9X+XQ.+XC.8.&XH @.3XvX>X,.>XuXU.M.L.-.Y.3.( ^.$.n N.-.5.C./.=XvXrX=X.XV.&XH.=XC.5.#.c.T.bXMX>X5.7 2 2 R.>XU.R.A.b.D.G.u.y.u.|.}.@.R.^.-.y.c.N.G M X.5.,X1XV.E u.H.=X>XB.|.5X1XZ.c.<Xc.|..Xu.B.dX>X1Xa.O N./.H.VXHX1X^.r.vXfXC.k 1 1 y.n Y B.H.| $.,X&X=XH.6X2.!.lX^.w f.!.E { Z.N.~ r.<.n Y !._. X6.J ! ).ZXlX^.XXZ.4.t.gX XY.5.t.,X X5XNX X1X Xs.s XXGXbXlX}.Z 8 8 C.)...H | <X0XG.K @ k.-.kX@X. Q !.lX4X|.=X>X|.rXeX).=X9 .XlXk.t.J u }.G.U.tXb.} 5.J.rXC.R | E SXc.9.<.r.>XrXQ.y.G ).nXzX&.0 0 %XR.Q.C.u.@XA Q >XvX9Xm.1X;XL.n.V.-._.7...!.2.x u.-.5.Z./.&XkX5X}. XF.|./.,XR.R.B.G.5.B.R.] c.C.Z.b.a.#.V.}.6./.1XSXMXgX8.p 1 > R.G.r.u.C.B.H F +.5.=X1XC.E 6.H.=X,Xb.|.1X1XZ.c.<Xc.|..Xu.b.dX5X,Xa.@ N./.H.BXHX1XR.u.#.X.5.9.B.C.i.n Y B.G.| #.,XGXFX_...; < lX/.w D.!.E } Z.N.~ 6.<.F ",
"! (.dXXX6X{ { lXgXkX/.&X(.t.2. XSXHXj.a t 9 1X6X X&X(.6.r !..X).).5X6X1X&XZ.&XE S | 6XJXW.7., c.E ).(.  U D.,X/..X|.tXY.b.b./.gX3 }.kX/.#.#.x H.B.R.4Xb.r.a.u.C.BXkXu.7 t > b.-.D.4X=X>X=X_.s r.MXxXU.Q.*XT.U.@XY.,X{ k =XvXrX&X1XL.c.j.j.-.eXk.h.(.t.w X.=.u.,X XY.lX4X#.B.B.C./.R.u.{.5.c.b.vXMX=X5.9 > 2 |.wXF.H.U.B.5.^.R.3.y.R.R.} D.J.r.#.u.^.u.P ^.r.c.|.G.! s.B.5X5Xr.F.6XeX1XR.^.5.u.B.B.F.kX=X6XJ.$ r.H. XpXbXr.B.H.bXlXB.6 1 , Z.s F B.4.b U F.H.C.&XlX#.G.lX Xw 2.Z.b 3. XZ.+.).Z.s +./.fXXX6X{ { lXdXkX/.&X(.t.2. X|.6X..<.6X,X1XtX_.&X_.6.r !.GXSXvX|.Z 0 9 C.&XE F X.6XJX(.7.; N.E |.(.  U G.2X'.|..XpXH.b.b./.fX3 }.hXQ.#.| z J.V.J.5Xb.#.a.D.|.F.} X.5.BXm.8.#.D.2X%XQ.M.u.&XvXAX&.6 8 *XU.W._.Y.&X` n =XmXuX&XwXW.M.v.k...pXl.,.!.r.w #.#.u.&X XF.gX2X..B.F.C.R.|./.|.).5XB.u.|.H.-.8.#.b.).b.u./.y.F..XGXFXvXb.h > : H.D.r.5.C.Y.u.` ^.u.a.&XC.! u.Z.5X5Xu.G.eXtX1XR.^.5.u.B.B.F.gX=XrXJ.O i.H. XdXbX5.V.H.8.6.6.J B.F.B.s F B.3.n Y F.BXnX1X-.- 2 lX Xw %.G.b <. XZ...|.Z.M ",
"+.&X_.6X X{ P  X6X5X6XBX,Xs.<.XXSXbX8.e 6 0 ,XdX1X9.!.1.S t.B.Y.B.>X=X,XG.X.C.5.N.N.0XAX#XN., <.z <.C.. U f.!.r.] y.>XH.B.y.H.tX3 J.gX^.V.X.< G.U.=XBX1XH.}.8.b.FXkXD.3 l 6 !.-.r.=X>X=XR.Z.z B.xX0Xc.8.R.Y.C.=XZ.c...N %XDXvX;XpX9XU.L.j.` pX_.3.a.+.w X.r.C._.&X/.,XA.H =.&X5.H.R.V.i.B.N.>XnXkX=XE 6 2 6 b.F.b.C.).&Xr.u.F.u.B.u./.u.y.| i.B.3. X).E ^.a.r.V.3.{ N.R.|.Q.x.U.Y.u.1XY.8.u.5.9.Y.H.4X(.}.i.O #.F.N.6XZX#.c.N.CXNXf.2 ; 2 f.F #.,X^.s x V.fX|.).dX| | B.!.s D.B.E 6.u.3...|./.s 1.XX_.<X.X` P  X6X5X6XBX<Xs.<. X XV.` ! /.6X=XdX1Xu.!.1.S t.MXBXtX).B 7 1 ..Z.8.N.N.1XAX@Xl., #.z <.C.. U f.`.5.} y.=XG.B.y.J.tXw G.gX^.V.X.< Y.J.|.bX|.F.H.r.C.Q.5.<.E tXZ.c.-.B.4X>X:X&X(.1XbXMX*.> > Q.Y.C.;XU.V.} N |.DXmX&XgX1XU.U.n.' tX^.-.c.+.< X.r.B.R.&X/..Xb.R 5..Xy.F.R.Y.F.D.F.b.b.H.R.B.$.r.v.B.r.F.|.-.5.y.ZXSXfXy.0 : : B.r.u.B.B.).).{ Y.u.r.b.3.~ N.R.|.).y.U.^.u.>XY.8.t.r.6.Y.F.wX/.|.u.O #.F.B.6XBX<.N.N./.G.<.F r.H.f.F <.,X^.x z V.JXSX,X..$ ; N.H.s G.C.E 6.c.-...|.R.S ",
"Y sX).,X|.V.H 6./.rXCXJXG.Z.Z.<XCXgXk.9 4 8 _.&X1X!.XX1.F +. XG.6.vX&X:.^.c.).^.dXdXdX_.l.N.< S J T u.. U XX2XB.$.H.=XG.B.B.B.(.s D./.H.fXX., B.'.tXSX|.d.y.| (.bXmX_.t C e G.R.-.F.iX].M.C.P ~ bX+XU.eX%XU.U.;X9X^.P J *XmXxX).mXwXC.%XW.9.=X7.-.:.T & =.=.9.r.tXY./.N.#.u.F.c.V.R.b.u.y.#.,XZXbX>X] 6 ; > x.).&X%X|.pXH.@.5.u.u.B.G.u.r.Y t.H.5.V.|.Z R.#...} 1XV.^. XU.Q.9.c.H.;.|.>Xa.2.#.C.C.b.%X>XtXq.% @.C.B.<XfXV.Z.<XBXFX/.9 ; 6 B.! ^ ^.6X2.H &X,XG.^.^.<.! H.B.F B. X} 5..X8...lXgX1.^ 6X(.4X|.V.G 6./.rXCXJXG.Z.!.,X/.7.X.! ^.,X_. X6X!.XX1.F #.FXNX1XtXc - 1 c.(.^.fXdXdX_.N.V.< F J T u.. U XX,XB.@.J.,XF.B.B.V./.a D.{.H.6X#., C.R.rXSX&Xd.D.-.L.Y.8.s.Y KX_.!.6.5..X>X&XY.Z.eXkXMX( 1 9 %XU.U.;X1XH.` W |.mXxX).xX0XU._.W.c.;X7.-.8.T , -.-.8.8.tXH./.B.X.c.H.b.b.H.F.b.r.b.y.u.F.Y.c.i.V.=Xb.u.Y.u...3./.MXvX5X] k > ; f.#.t.R.u.B.{.K Y.#...| 1XV.^. XU.Q.y.c.H.-.%X>Xu.5.-.V.Z.b.&X=XtXq.% @.C.N.,XgXN.Z.,XH. XZ.E k._.Z.Y ^ ^.6X<.H &XHXbX&XV ; @ H.B.S d. X} 6. X8...lXdX6.",
"1.XX_.B..X XP 5.1.4XbXgX^. XXX^.SXNXN.c : 7 !.XX^.&XXXd.~ 1.R.Z.<.vXH.8.^._.Z.P ! f.u.Z.#.9.3 F | n ~ . U }.!.a.f.!.{.u.f.u.5.B.r J.1X).^.<.& r.rXnXrX^.<.E 8.Y.vXbX^.c B 7 9.fXu.c.|.v.R.3.G W xXm.].rX1XY.5X&X;XY.#.} R.vXvXU.;X@X;X+Xc.Y.1X) 3.).1.& <.B.b.8.rXH.&X|.-.B.1X|. XR.H.B.#.%.F.gXvX|.P 8 ; = b.C.y.(.U.;Xc.c./.b.] 5.F.B.B.5.Q D.:.2.XXW B.%.} }  X6.Z.Z.c.F.#.} 3.@.=X).V.B.:.8.8.' +X6X5XB.: Z 8.B.XXB.6.Z.fXFXJX!.t ; 1 f.s E 9._.Z.<.G.H.f.^./.s.x G.^.~ Z._.E u.6X3.F XXdX1.1.XX|.B..X&XY 6.1.4XbXkX^._.XX^._.Z.3.N.c. X!.XXH._.XXd.^ <.BXNX1X0Xj ; 5 @XZ.P ! N.u.Z.<.6.3 U | n ~ . W }.!.f.t.!.{.u.f.u.5.B.r H.,X|.^.#.& t.4XmXpX/.2.+.3./.8.y.Z.2.IX&XZ._.3.F.5XT.F.c.tXtXMXC 5 0 8XU.1X&X;XY.X.} T.vXzXW.;X@X=X$Xm.Y.=X .7.+X2.3 X.C.c.y.4XF..X|.#.V.1XR.R.R./.F.V.B.F.8.u.B.b.B.5.eX>XR.R./.X.#..XZXkXeX#.k 6 : r.6.5.G.a.a.=XE B.-.} { &X9.H.C.u.F.-.} 5.@.=X).B.B.:.8.8.` +X6X6XB.: Z r.N.,Xd.9.Z.dX&XdXd...8.Z.f.s J 9._.G.<.Z.BXNX XG : O G./.^ B. XE 6.6X3.Z XXdXd.",
"d.G.,XG.5X,X~ 1.f.tXrX=XZ.!.Z.G.MXvX7.z : 7 (.{.Y././.B.+.^.1X9.X.>Xj.V.9.^.9.J S H M F F ^ F J ! F ^ . $.D..Xf.2.}.5.6.B.5.y._.z u.kX6XB.t.& +.tXkXgXc.5.E c.y.vXmXc.m B 6 9._.6.Y.&XU.Q.9.q W 5XW.S.wX;XU.wX_.Y./.#.#.b.cXxX7XeXQ.>X*Xm.W.;X) V.eX}.i | #.b.Y.|.G.F.F.5.B.dXF.R.b.b.B.u.V.V.kXgXQ.V 8 ; $ u.R.8.-.C.C.u.Q.R.5.%.:.F.u.a.b.8.B.D.%.r.Y C...{ 3.R.u.Z.8.y.#.} u.' V.9Xc.H._.c.M.|.V.%X X/.G.2 ` .X(.!.D.6.^.(.JXFX^.4 = 1 ^.M Y 4.XX^.G.9.H.!._.6XV.S c.XX#. X/.M #.^.u.x p.XXY f.!.XXG.6X,X| <.f.tXrX&XZ.!.Z.Z.s.l.! 7.6. X(./.W.(./.d.+./.JXbX=X).0 1 , (.8.J M Y M F S ^ F U ! F ^ . $.f..Xf.r.}.r.6.B.5.y._.x c.vX6XB.6.< +.rXkXpXb.<.E y.M.3.V.9.a.IX@X6.0Xu.B.|.M.R.7.<XiXxXv 5 f ;XU.4X|.Y.).#.+.b.vXgX>X0XQ.>X-Xn.U.&X .N.eX}.r  .#.b.H.|.C.F.b.;.V.4XF.F.D.&XY.F.F.F.F.F.B.G.r.B. Xy.b.R.=XV.5.1XGXNXtX5.a : : B.G.y.B.G.t.u.W F.@.{ 3.Y.9.Z.6.9.=.{ u.' B.1Xc.H._.c.n.%XM.|.&X/.D.2 ` &X(.!.D.6.^._.1X&Xs.H X.V.!.Z J 4.XXH.G.9.BXNX,X] 1 O V.,X#. X(.M #./.c.x p.XX+.",
"^ XX6XC.6./.B.Z.,XlXBXlXXXt.~.6.bXeX8.t $ 1 ^./.&X1XfXd.J B.&X3.H C...^.dXZ.^.<.a $ . w ^ Y w d Y #.1.X %.d.J.D.~ +.G. X&X9.f.,X< u.6X6XB.6.w <.J.).5Xb.H.r.c.n.gXgXV.t l t 3.7.<.c.>XQ.Y.7.r U M.*.u.pX>X).Q.W./.&X} n y.pXgX>X;X%XwX:XL.b.L.*.k.9X.Xw { U.y.Y.y.#.r.R.F.b.|.,.Y.H.G.r.c.c.E vXvX).L 9 6 = -.F.C.B.;XT.Q.b.y.@.:.F.u.V.a.F.B.J.J.2.#.M Y...X.Z.b.Y 5.c.y.-.F.H.V.=X1X).x.c.8.C.c.R.pX).N.t., ' Y.).!.B.u.N.^.GXZX X2 @ > D.F H Z._.6.u.3. X.X!. X!.K V./.6.B.^.J ..C.Y.n #.dXd.1.XXdXZ.6./.B.G.,XlXBXlXXXt.~.6.9.P ! X.} c.^.^.%X1XfXf.J B.FXvX(.8.6 6 t Y.^.<.s =   r ^ Y w d Y +.<.X %.t.!.G.^ +.G. X&X9.f.,X< r.1X6XZ.6.w | {.|.4XV.Z.-.c.v.=.8.3.8.KX<X9.Z.3.F.>XT.W.8.>XwX=Xh ; f >X).Q.^.(.&X} M u.pXxX;X;X:X5X:XL.M.P.4.s.,XXXi { Y.y.F.i.#.r.R.F.c.&Xy.b.C.|.U.F./.y.C.M.u.C.b.H.^.@.b.F.F.B...).PXHXbX-.k 1 : F.G.u.Y.{.a.2.H H.#...C.V.W 5.c.y.-.F.Y.b.&X1XQ.c.c.j.M.c.Y.gX).B.d.: ` Y.).H.D.s.N.(.,XR./.G H B.D.F H Z._.6.u.3.FXZX XR 6 O c./.6.B.R.G #.C.Y.n +.dXd.",
"b G.dXZ.#.b.9.!.4X3XnXfX<Xd.Z.3.FXgX9.e # 1  X/.&X;XlXXX6.<X_.7.{ (.` ^.Y...G b O     s T D + D ^ ~ x . 2.!.t.G.t.~ XX1XR.#.<.B.q #.&X^.9.! q 1.J.A.H.} #.3.-.8.pXgXc.l h j Z.<.^ b.>XM.)...a M b...%.vXrXT...9.Y.).X.F u.vXxX9X%XvXwXW.+XQ.#Xj.7.<XrXs ! Y.y.;.O.u.b.|.R./.&XH.|.C.b...u.y.E kXkX).L 7 6 ; -.b.b.c.Y.Q.R.c.#.] 5.B.5.b.3.H.6.Y.a.%.5.Z C.#.3.Y.c...| Z.F.F.U././.Y.=XQ.C.b.:.n.-.] R.).Z.!.w ` &X,XXXf.B.u.|.FXnXC.4 $ : r.i F _.V._.5.X.,X X/.}.,X..9.a.f.u.H.{ #.,XC.b +.dXZ.F Z.eXZ.#.c.9.H.4X3XnXfX<Xd.Z.5._.7.| ! E G.XX/.&X;XlXXX6.,XFXvX%XZ.1 5 1 ..S b o     i T D + d ~ ~ b . r.!.t.G.t.~ XX1XR.#.<.B.q #.&X^.s.! w 1.J.b.R...%.8.3.y.E -.-.:.SXfXs.<.| b.>XU.(.#.1XwXQ.p ; f wXY.=.y.Y.).X.M u.vXmX<X%XxXwXW.+XQ.@Xj.3.<XdXi ` R.y.=.O.u.b.R.J.Y.5X|.B.y.{.y.v.G.-.G.C.B.B.F.C.] 6.Y.U.J.V...(.FXbXvXF.k 1 > F.F.u.H.H.u.r.Y F.#.3.H.c...| C.F.U.F./.(.R.=X).C.b.-.c.-.] R.).B.!.e ` &X,XXXf.B.y. X=XD.6.J W t.r.i J _.Z._.3.#.GXFXXXR 0 = 9.N.s.u.H.{ X.,XZ.x #.dX!.",
"r ^. X5.N.,XZ.u.eXtXkXmX,X/.t.G.FXNXZ.q $ 1 1X5.{.4XkXd.6.NXNXZ.P R.-.3.#.3.S e     $ #.<.<.+ 1.<X_.Y X $.XXJ.F.p.O.f.}.!.5.R 6.3 Z ,X5.D._.q +.:.:.C.3.U | ..8.vXxX@.k B 0 ^.3.Y 5.T.v.F.Z a x E E i.rXpXM.-...c.C.#.r.c.*XuX1XQ.>X*XK.U.*XpXP.u.1XlXF { R.$.y.$.] C.'.A.b.|..X}.R.=Xu.:.C.F.kXkXY.j 7 1 6 ,.F.R.c.H.&Xy.:.8.5.u.b.a.%.G.D.Q y.$.5.y.Z 5.#.B.6XR.y.#.V.F.H.x.B.%.H.).=XM.y.-.x.B.c.Y.Q./.G.3 } 6XdXdXG.^ s.fXCXpXH.0 $ : G.e E dX,XNXH.f.XX,X!.6X;X` ..! ~ u. XJ #.tXR.H 2.bXG.x G. X5.N.=XB.s.6XiXkXmX,X/.t.G.XXZ.5.J T Z.1X5.|.4XkXd.t.NXPXNX%Xm.7 ; ; <.S r     $ #.<.<.+ 1.XX_.F + @.2XJ.F.i.O.f. X!.5.Y 6.3 Z ,X6.D.(.q %.r.:.C.3.Y O...8.3.-.H y.KXfXY.3.Y r.|.n.R.R 1X5Xy.8 : y iXK.-.@.c.C.#.6.y.*XuX1XY.>X*XK.U.*XpXE.c.1XlXF ~ R.$.r.@.~ b.T.D.b.=X5XR.F.|.N.b.C.B. XF.C.5.B.F.C 5.U.R.a.R.` N.PXBXbX=Xl ; : F.R.5.y.u.a.u.H t.<.B.1XU.u.#.B.F.Y.y.B.#.H.).>XM.y.-.n.B.c.T.Q./.G.3 ] 6XdXdXG.^ s.fX/.@.u.E ..f.D.e Y tX,XNXJ.f.FXGX X} 7 * ..! ~ u.&XJ #.tXR.H 2.bX!.",
"i {.dX9.F.1XH.2.1XSXVX|.Y.^.s.D.vXSXY.7 O ; ,XN. XlXlXF W NXbXN.P } -.-.d.{ S ,     e H.V.{ + T lXG.i . O.J.>X{.F.r.r.!.(./.6.a.w Z |.#.d.u., r.Q :._.7.H ..B.-.pXvXc.l c 6 @X9.5.B.Q._ _ +.u e E | a.2XrXzX_.C.C.^.#.E Z =XeXU.j.U.;XT.Q.*XgXoXu./.4XF ! R.@.u.r.Q S.R.A.b.F./.F.y.:.#.3.F.Y.zXpX).k 1 > 5 -.F.rXY.N.F.G.#.b.$.:.u.R.G.B.{.@.V.R.6.u.H Q u.B.|.U.:.| u.Y.&XM.u.@.3.Y.%Xv.&XH.c.|.F.&XR.8.G.U p _.fXlXG.1.5.1XBXpX8.9 # 2 R.F e _.kXtX!.d.4X6X!.&XeXc.2.4.N.3.=X..<.lX1XE Y dX| x  XdX6.G.1X/.<.1XSXMX*XY.^.s.D.9. XV.P b <.,Xc. XlXlXF W NXPXMX_.H 8 = : { b <     e H.N.{ + ^ lX!.r . O.H.2X{.G.r.r.!.(./.8.a.w Z |.@.B.s.& r.Q -.|.7.L #.u.-.} j.] v.KX&X X4.#.v.Q.[ @.Q 1X=X8.e 1 8 rXpX).C.C.Y.#.~ Z =XiXL.j.U.>XY.Q.&XpXoXu.R.5XF ! R.$.y.r.] F.R.A.B.F.).b.5.b.b.R.G.G..X)..Xu.5.^.Y.#.r.E -.dXO...GXSXdXF.m 2 > J..Xu.B.).u.t.W } y.B.).F.:.| u.Y.&XC.c.@.3.Y.|.c. XH.c. XF.&XY.8.G.U a |.fXlXG.1.5.1XF.@.] Q H B.R.F e _.lXeX!.f.GXJX X` 0 > -.6.N.3.&X..1.lX1XE Y dX#.",
"u D.=Xf.6X6XB.| ,XGXVX5XV.Z.t.s.bXNXc.e $ - X.#.,X1XdXs M ).6XX.E s.b.B.V.8.s q     L H.6.3.& ^ XX1.b + #.J.tX4X2XF.+.{.R.b.-..Xb V /.J.).^.< ~ -.a.). .} #.c.5.tXpXy.C h 6 &X9.#.T.>Xn.R 8.x 9 2.2.$.|.E.yXQ.>X1XZ.O.M Q .XxXC.L.U.9X).OXC.Q.P...).dXF G =Xb.b.F.} F.F.F.} u.Q.v.:.-.@.:.c.H.kXvX%Xl 6 6 5 ;.R.U.c.:.U.].] b.=.-.u.F.B.G.J.R.u.F.u.F.%.] :.u.!.Y.i.#.c.|.,X8.b.y.5.&XT.M.Y.C.H./.c.G._.(.5.M 9  XfX,XB.5.-.u.bXpX,.6 O : |.#.a 3.).Y.Z.s.XX4X/.P.&Xy.#.5.Y.c.eXt.u.lXdXu.Z wX| s G.>Xf.1X6XB.+.,XGXZX5XB.Z.t.s.u.H.X.{ | 5.#.#.,X,XdXs M ).JXfX X<.t 1 1 9.x <     R G.6.3.& ^ XXt.S X +.J.tX4X>XF.O.}.R.B.-..Xb V /.J./.^.< ~ :.u.(. .{ #.c.5.H -...F.bX).&X9.2.J.:Xj._ 5.6X=Xb.p - 9 Q.uXQ.=X&XY...M Q .XcXC.L.U.9XQ.OXC.W.P.} |.kXM D &Xc.V.G...U.U.R.%.B.].:.:.C.F.F.C.H.F.b.u.b.r.H.,X@.Y ] ` ).] c.ZXbX>XO.g 2 2 T.R./.B.Y.B.F.-.] :.s.J.Y.y.#.u.|.=X8.c.u.-..XU.M.Y.F.H.R.c.H._.(.3.n e  XfX,XB.<.-.u.6.#.P V F c.|.#.a 5._.Y.Z.s.JXGX,XB 8 : #.6.Z.c.dXt.t.lXpXu.H 6X<.",
"i f.,Xt.1X,X#.^ ,XSXSXnXD.<.t.t.MXMX&Xc 1 - } u.1X,X<XF J Y.c.S ~ 5.#./.J G.b w X , u.B.s.d.& 1.^ 1.^ % f.J.5XtXR.b.t.`.D..XD.}.s n }.,X,Xu.< E ^.C.c.N.Z.#.B.V.eXiXy.C 9 6 bXZ.2.&X-XV.-.#.t s ] Y O.v.T.pX>XL.L.V.E Y Q F.eX-XP.L.*XQ.M.n.M.j.@.C.lX} D (.v.F.H.R M.R.y.i.b.|.R.b.#.c.;.:.C.bXbX|.j 6 6 1 b.>XF.5.c.).]...b.b...-.b.D.V.b.1XH./.B.V.-.R u.5.G.C.5.8.Z.Z.Y.y.@.-.c.C.Y.V.Z.5.R.u.@.-.vX1Xy.a e _.dX5XB.Y } 3.gXnX8.1 O = &X#.z s.G./.9.<._.,XG.H.Y.#.F 6._.b.tXu.+.lXbX&XM &Xd.d N.,X6.,X6X#.~ 5XZXCXbXZ.<.t.t.B.Y.(.N.N.<.~ N.1X,X<XF J Y.NX0X&XE 7 6 # G.s w X & u.V.N.s.& ^ ^ 1.^ % p./.4XrXJ.b.t.`.D.}.D. Xs n }.,X,X9.< E R.C.V.c.V.#.V.c.B ....U.1X_.gXV.-.|.+XM.@.-.>X>Xy.7 = : T.zX>XU.Z.C.Q J Q F.wX;XL.L.;XQ.M.k.M.k.+.D.lX~ D @Xc.M.J.R b.R.b.b.F.&XF.a.B.|.b.i.B.b.r.y.b.5.B.|.w.] @.} 8.] u.BXbXtXi.7 = : B.R.{.J.^.b.b.3.` y.r.B.F.8.9.Z.F.Y.x.$.;.b.C.Y.V.F.5.R.u.@.=.vX6Xu.a p _.dX6XB.W | -.=.F.` n G -.&X#.x t.Z.(.6.<.CXFX XB 6 = F 9.).c.eXy.#.lXlX&XM  XG.",
"d a. Xt.=XB.B.+.}.ZXVXpXH.G.s.D.BXCXeXV : # t.lXJX/. XD z 6.9.Z.| P K R.#.V.s.s % i b t._.6.r 1.d ^ ^ @ +.B.@.R.w.R.t.a.J.J.F.s.w n O.D.^.^.Y U u.U.Y.C.Y.3.1Xu.eXgXY.L 6 1 ).#.M D.:XC.8.Y.G , E H #.i.U.mXiXW.8.Y.#.G.@.M.wX9X@XK.W.L.OXQ.*X@X-.3.4XO.D <X} Y #.} F.M.v.r.u.>XQ.v.$.r.c.-.#.BXnX&Xk t ; 5 T.Q.U.b.|.|.>XF.b.F.r.b.b.u.B.F.R.R.B.J.b...Y b.#.&XC.5.c.6XQ.{.'.:.] H.Y.C.c.R.a.B.t.b.5.U.c.y.M 4 ^./.!.Z.6.#.y.JXSXY.t O 1 /.H r t.f.4Xu.Y |.nX5X6XM.-.x  XbX_.6X5.+.tXkX4X] |.{.M p..Xr.=XB.B.+.{.ZXMXpXF.G.s.D.G._.,XY.9.J 6.lXJX(. XF x 6.bXMX=Xb - 6 = V.t.d % i d u./.9.d 1.d ^ ^ @ <.B.} R.w.R.t.a.J.J.C.u.w n O.D./.^.E F u.F.Y.Z.Z.3.,Xu.G %.c._.(.Z.%X3.H F.*XC.r.H.wX&Xr.6 - ; T.mXyXT.j.Y.#.G.@.M.wX9X@Xm.W.K.OXE.*X-X-.8.5XO.S 6XO.H #.} H.b.b.i.F.;XS.5.R.|.b.b.b.F.u.:.J.@.@.F.b.:.b.8.#.8.1XSXkXfXG.l : : b.G.H.B.B.J.y.#.Y b.5./.M.5.c.1X)./.R.:.} H.Y.Z.c.W.u.D.t.b.5.U.c.y.M 4 !./.^.G.6.#.8.uX_.B.} N B./.H e u.d.4Xu.E FXPXtX..> ; b  XbX).6X5.+.dXkX4X} {. X",
"i !.|.%.J.#.2.~ .XCXnXrX1X X2.s.NXCX&Xt $ - u.u.lX/.XX! ^ s.N._.X.G X.( n <./.Y + u s s <.! d Z.f.6.1.X ~ ^.#.a.A.!.r.b.F.=XZ.#.3 , ~ B.,X6X~ H 5.R.W.N.c./.,XZ.pXnXQ.j ; O B.<.H F.wXOX-.v.( x y.#.:.R.v.qXwXwX .G.-.t.-.%XpX;XE.L.+Xn.n.M.I.;X#.V.,X$.w ).u.Q a.i.} U.b.} y.}.R.b.v.#.@.v...vXpX&Xv t > 6 ,.OXwXU.Q.F.G.B.H.U.,.v.F.H.u.|.R.(._.|.B.~ W b.{ Y.M.;.-.=X/.=XA.c.{ 8.u.9.8.H.J.u.r.6.' Y.^.).M 7 H.J.B.Y.:.} Z.PXFXF.a $ : Z.n n G.H.eX.X#.1XlX5X.X&Xu.! H.lXZ.NXr.t..X1XH.-.B.!.d `.|.:.H.#.2.~ XXZXMXeX1X X6.t.G./.^...X.3.u.u.lX/.XX^ ^ s.NXFX>Xb 6 = O #.(.J + u s b #.! S d.f.6.1.X Q !.#.b.D.J.r.b.J.=XG.#.3 , ~ B.,X6X~ H 5.R.Y.V.c./.1XZ.E B.C.9.9.P C.#.H F.9X).,.u.uX1XF.y - 6 n.wXeX1XX.C.-.6.3.+XpX;XE.U.%Xm.m.S.F.-XX.C.,X+.q ).u.Q a.a...Y.b.$.B.R.M.c.).T.y.r.B.b.b.5.y.y.:...F.-.C.b.C.r.1XJXnXvXB.l 6 = b.H.F.C./.{.a.+.~ b.] Z.C.;.:.=X/.,XA.a.' 8.u.y.8.H.H.a.r.6.' Y.Y._.m 9 H.H.B.H.5.} C.bX;Xr.5.E t.Z.n n H.G.rX.X#.GXKXtXR 8 ; ! H.lXZ.NXr.t. X2XF.-.B./.",
"i a.6XR.-.N Y ! f.6XtXvX<X/.Z.| BXBX1XK 1 : #.G O.f.XXY f.!.^.eX3.G { x N | | ^ & < s S <.b r (.eX#.! & T B.@.a.J.{.#.=XF.<XG.H.s 3 B./.6X6XS { H.=X(.C.r./.(.XXtXBX9Xg ; O c.D.5.}.>XR.] a.3... X6.5.>X*X*X1X). .c...| 8.wXpXP.k.T.wXW.n.@._.P.B.).J.%.q 8.-.| | u.-.tX|.@.@.|.b.e.#.~ y.b.r.xXvX>Xc 8 6 6 S.%X>XT.M.v.F.B.y.R.8.r.R.R.b.R.R.B.).F.=XG.H -.] Y.Q.b.5.y.] a.:.@.y.8.c.y.P.Y.^.F.2.H.X.&X^.W.E t Y./. X_.!.B.C.GXGXY.t # % X.Y s s.u.F.c.8.|.kXdX6XF.Y.X.s.eX#.4XG.d.!.kXB.` ..H.x f.4XR.;.F J ! f.rXrXlX1XR.Z.| H.^. X^.N.9.#.G O.B.XXJ t.!.CXJX1Xz 6 O O | | | & < s D <.b s _.eX#.! & E V.$.a.J.|.#.=XH.=XG.G.z 3 B.{.rX<XS } Y.=X).C.t./.)._.J {.@X7.X.S b.B.%.|.>XQ.} i.xXtX>Xj ; 8 ].&X>X+X' c...X.8.wXpXP.j.Y.wXW.j.=.Q.W.N._.R.%.q 6.-.O.| a.-.6X|.#.5.'.b.i.F.b.5.b.b.b.F.i...-.y.R i.3././.B.u.y.CXSXpXb.k 2 : u.R.B.u.(.H.).G.! -.' Y.Q.b.3.i.] a.%.@.u.8.u.y.Z.Y.Y.G.5.H.X.&X(.Y.R t Y.(. X_.!.V.C.1X6Xb.~ E | | J s s.u.H.c.r.FXKXlX} 6 6 ..u.6X<.5XG.f.!.kXC.( X./.",
"S f.1X3XF.J } Y O.,X5X6X@X6XtXs.bXBX&Xx 9 5 c H #.a.sX^ ^ 5.B.-.3.{ N x J Z.X.4.r w 1.^ { a ^ fX;Xu.D + E y.B..XF.F.3.=XF.r.r.!.b b y.b.|.<XG ] y.nXeX/.B..X&XZ.wXSXfXK ; o 6.5.5.{.T.Q.u.R.D N Y.y.r.J.=X6X&X;X' V.` ! t.&XyX&.=.F.uX-XOXx.%Xl.! F.>XT w 5.@.#.P a...6X3X5...F.v.8.-.#. XY.c.kXnX>Xl t 6 6 F.R.T.R.b.C.U.F.b.H.-.8.R.G.N.R.H.F._.c.(.B.H Y.C.&X=X&Xb.u.%.a.O.;.C...c.Z.` #./..XB.H.Z.9X^.,X=.1 Z.(. X^.!.N.Y.mXGX<Xp O = N F s 9.u.V.L.F.}.pX5XeX|.Q.` 9.eX3. XJ.G.4XkX=X .c f.Y N.2X4XJ.G ~ Y +.,X4X6X@X6XdXs.d./.Y.N. X(.c G $.a.sX^ ^ 5.MXkX1XV ; o # V.<.<.r w 1.T | r ! 0X;Xu.D + E r.B..XD.F.3.=XF.5.6./.b n 6.B.|.<XG ` y.nXeX^.B..X,XZ.N |.7X^.7.s 5.6.5.|.Y.R.i.R.eX6X Xl : 6 =XwX=X&X{ F.E ! r.=X0X&.*.U.uX-X+Xx.%Xl.{ C.2XT w 7.@.X.P a.=.=X=Xr.#.R.F.u.F.F.B.b.B.5.8.5.] C.C.#.y.b.|.&X8.8.F.FXHXtXu.p 1 1 V.D.F.u./.Y.Y.G.E Y.C.|.*X%Xb.y.%.a.@.:.V...c.Z.' -.(.}.f.H.Z.9X^.=X#.1 Z._. X^.!.N.Y.b.1X_.#.L | N J s 9.u.b.L.F.SXKXpX..6 6 E u.eX3. X!.G.4XkX,X' c G.",
"J u.B.rXF.5.E Y | &XpX=XH.6XD.#.nXFX=Xj > > } P R 5.lXJ.^ 1.B.G.{ M P } P <.<.<.w r X.| { s u.=XV.a.6., N b.H.F.R.r.#.H.-.-.W D.s e *.u.(.(.<.5.R.Q.1XC..X&X&XN.uXFX1Xc ; O {.d.t.Q.U.R.eXV.b F .X9.a.R.%XvXQ.(.` |.5.F y._.pX+X7.9.;XL.m.E.].l.3.c.pX$.<  XD. X-.B.D.C.|.-.] b.C.|.F.y. X=X6.vXMXrXN v 8 6 ,.).Q.S.|.v.S.b.;.2.V.b.&XF.V./.U.).}.-._.^.x wXM.).wX>X5.u.a.!.q.%.Y.@.c.%X@.-.Y.c.).V.k.V.V.).P ; 1X.XH./.{.d._.HXCX>Xl % ; ! n i u.5.F.,XR.Y.MXpX5XR.R.E s.6X%./.G.G.nXdX,X#.n 5.! u.D.4XF.:.E Y | &XjX=XY.6XZ.#.s.,X/.5.C.Z.{ P R r.lX!.^ +.BXBX&Xa 1 # # <.| <.w r <.~ { s u.,XV.a.4., N b.F.G.J.r.#.Y.-.-.Y D.z w -.u./.(.#.6.Y./.1XB. X X&XB.P =X&XV.*.b /.d.y.).U.R.wXC.eX5X5Xk 1 6 %XvXR.^.' |.7.F r._.pX+X7.y.>XL.m.T.].l.,.c.hX$.< @XD./.-.B.C.B.Q.5.#.B.F.b.b.F.y.b.|.a.,.#.2.,X/.u.c.8.B.c.y.5.B.ZXCX3X$.h 2 1 R./.B.y.).B.H.J.N 1Xb./.5X>X5.y.a.J.q.$.Y.#.c. X@.#.^.c.).N.k.N.m.(.E , <X&XH./. Xu._.6X).|.y.#.2.E s i s.7.F.,XR.ZXPXvX] 2 6 E s.6X2./.G.G.lXgX<XX.n u.",
"J (....X>XF.+.F #.>XvX>X&X=XV.2.BXnXR.p ; = N #.} :.4X{.+.H.&X&X#.#.3.3.) z x D a q D 6.9.< 6./.^.b.<.< O.6.B.H.R.F.X.,Xr.b.#.| x F _.Z.).,X<.t.,XC._.f.6X|./.B.fXMXL._ 6 o /.t./.%X].%XNX XK n ,X).&XzXQ.iXC.V.-./.Y.} y.c.;X9XV.=.oXP.m.Q.E.l.M.c.=XO.< (.b.B.(. X/.Y.|.-.+.b.>XU.:.f.V.b.5.nXvXpXG t 5 8 :.R.Q.R.U.8.R.b.-.b.b.6.C.H.Y.%XF.F.u.` N..XN Z.5.C.rXyX5.D.G.{.rXR.@.c.^.).b.E &XR.=XG.N./.&XZ.) % V.&X).^.f.D.^.FXMX&Xj : = s.<.s } 5.>X=X=XH.iXU.%XrX=XY <. X~ 6. X(.}.=X1XH.n i.E _.} &X>XH.#.F #.1XvX>X%X=XB.2.G.G.b.#.-.] F #.} ;.4X{.+.J.FXFX=XP 9 ; # x b D r q G 6.9., 6./.^.b.<.4 O.6.V.H./.F.X.,Xr.b.#.+.z F  XC._.=X#.u.,XG._.B.6X X/.N.` F.9.@X^.a /.t./.|.].&XnX XtX1XrXL 7 t W.iXC.V.3./.H.} c.k.;X7Xm.-.Q.P.m.W.U.l.M.V.}.$.< ^.b.B./. XR.R.|.y.8.c.=XF.B..Xc.r.Y.B.H.b.B. X=X6.c...B.N._.R.b.SXPXMXv.t ; 1 Y.Y.B.B.G.u.V./.P Z.8.C.wX5X5.F.G.{.4XR.@.c.Y. Xb.` &XY.=XH.V.(.&XZ.E - N.&X).R.d.G.^.,XF.R.6.B.+.N.<.s ^ 5.1X=X|.ZXLX%X_ f 8 J <. X~ 8.XX/..X&X1XG.n D.",
"2.y.! }.tXZ.#.Y M /.iX>X&X).#.} NXCX;Xt = # H 5.W R !.!.1.a.B.^.#.B.6.u.#.P M 6.S b Y 6.#.< ^.H.G.^.~ a  XB.^.(.F.V.H ^.B.^.B.2.e t.<.B.6XG.W t._. X,XH.=X5X(.s.iXSX|.` ; o {.G.G.*XR.=XpXgX4.n 1X>XnXbXzX8X-.] R i.s.f.).).&X<X7.>.k.l. .C &.k.U.V.2Xp.w W.#.5.J.4XR.U.tXv.u.U.4XU.%.5.3.v.6.MXMX4Xj g 5 5 @.F.vXjXb.v.5XR.v.F.c.C.V.B.Z.|.F.y.#.' X.J.N m.R.v.U.E.C.F.{. XeXS.-.N.|. XC.#.&XBX|.3.` Y.<XpX| , 5.b.Z.|.B.u.B.HXBXeXB 1 - s.1.S 6.u.C. XR.y.R.9.c.=X=XF | XXE <.!._.f.H.SX<XR !.y.t.] |.tXC.+.Y S /.tX>X&X{.#.} s._.).O.] ] V 9.Y Y !.!.#.B.MXCX1X5.9 > - P M 6.D b Y 6.*.< ^.F.G.^.~ u _.G.R./.F.B.G /.a./.B.<.r 6.#.B.6XG.E t./. X<XH.=X5X/.u.P &XU.1X6.7 {.D.D.%XR.*XpXgXxX6XrX` h h zX8X,.] R p.B.u.).Q.;X<X7.>.m.m. .Z *.k.U.V.>Xp.w W.%.5.R.5XR.Y.rXb.B.Y.*Xu.u.).b.y.U.F.M.8.B.b.i.#.H.#.H.lXY.:.V.AXPXMXc.h 1 > G.R.D.a.b.u.u.H.E C.U.v.U.E.C.F.{. XrXF.-.c._.&XC.@.&XBX|.5.E Y.1XpXO., 3.V.Z./.f.u.c.1X/.,XH.B.#.u.t.S 6.u.N.|.R.nXZXC.c 8 8 F | XXE <.!.(.B.H.FX1XY {.",
"G.B.#.tX X#.5.1.F B.=X_._..X).F.NXCX}.c = O N <.Z Z G.Z.1./.b.G.| 5.t.^.-.| G J ! & s 9.b r ,XtX=XY.P i s.G.,Xf.r./.5.! u.G.D._.< ^ 2.}.6XV.E 5./. XH.H.eX1XF.N.gXNX%X_ > X R.5.:.U.Y.>XwXAXV.! lX).1XuXzX9X>.#.k W d.B.;XW.;XW.j.).@X>.( >.*.( v.$.5XG.< Z.8.#.5.V.V.).|.c.Y .XtXv.$.Q u.8.y.MXZXtXc j 6 > ] u.pXtXU.kXvXQ.Z.Y.,.r.y.y.F.Y.R.b.b.6.c.F.x (.C.M.>X%X_.c.F.1XwXU.#.V.y.H.H...Y.1X=X3.-.).bX6X..3 V.Y.Z. XJ.B./.PXZXeXL 1 # +.d.D /.F.@.).G.O.|.M.B.1X=XE F <Xs.u.G.!.<.).BXuX5.f.!.B.%.tX.X#.5.2.F u.=X_.|.&X/.H.B. XH.d.O.G N #.Z Z D.!.<.(.MXMX&X} e 1 - ..G J ! & s s.b r ,XdX=XY.P s s.H.=Xs.5./.5.~ u.G.C. Xq ^ 1.{.6XB.E 5./. XJ.H.tX>XG.V.{ Y.Y.=XZ.e R.5.5.J.T.=XyXBXMXeXMXA f f zX9X>.#.a R d.B.;X).;XP.7.@X+X>.( >.*.` c.@.1XF.< V.y.#.-.B.V. X|.b.#.,X5Xr.-.U.A.u.F.R.F.$.5.5.b.u.|.F.).6.&Xb.H.CXGXrXr.0 7 : c.C.H.u.G.V.Y.Y.G W.C.c.;X]._.v.Z.1XyXU.#.C.y.H.H...Y.1X;X3.#._.nXwX} 3 C.^.C.&XJ.C./.bXR.,X XB.} | d.F /.H.$.|.H.pXSXR.m 8 9 Y J ,Xu.u.G.!.#.(.BXtX5.D.",
".XB.2.,XF.} O.2.M #.=X X).{..XdXCXnXG.R 0 # x E G Z i.| d.^.b.J.@.L 2.Y.:.V.8.X.4.+ F XXD s ^.bX(.V.S s G .XrXy./. XF H y.b.#.d.& r ^ <X,X5.#.J.lX6XY.{.KXCXG.!.uXBX=X' 6 o '.c.U S.R.wXvXGXV.! lX@X%X@X%X9Xm.9.B F f.u.nX+X#XW.oX@XP.&.*.&.) ..D.] 6XF.& k.C.9.5.G.V./.b.y.5./.3X@.@.%.@.y...nXMXiXx t > = R 3.|.|.v.)..XC...n.y.F.C.M.V.Y.Y.B.V.Z.Z..Xb V.+Xj.>X>XuX|.u.W.T.S.#.V.3.y. X| c.|.C.F.H.eXkXvXu., =.(.6X,XJ.H.5XKXMXtXZ = $ ..6.F V.B.B.F.B.#.Q.#.r.lX1XW F D.<.u./.H.O.J.tXwX:.5.,XB.%.5XF.} ~ 2.F +.&X&X).{.=XtX!.G.u. X6XJ x ! Z Z t.+.d.H.nXBX1Xc 7 2 - b.9.X.1.+ F  XD s ^.bX).V.M s H =XeXu.!.XXF H y.b.#.s.@ i +.,X=X5.+.J.lXeXY.|.KXCXZ.^.K /.(.1X^.r '.u.U M.R.wXbXFXMXtXMXP 6 6 -X9Xl.8.B U d.u.nX%X;X).W.@XoX .*.*.' ..S.] 5XJ.& 9.C.7.6.F.N.^.b.y.u./..X] u.F.u.b.b.F.F.:.E u.-.;.|..XV.-.Y.(.u.SXZXkXc.p 2 : C.U.H.6.G.Y.Y.|.L L.Q.j.=X>XeX+Xu.Y.W.F.#.C.3.9.{.#.c.%XM.G.H.tXkXbXa., #.).6X1XG.J.1XpXT.3XR.%.} | 6.J V.B.F.F.B.kXBXb.k h 9 W F D.<.d._.G.O.H.iXwX3.y.",
"5XG.@. XF.6XJ.F M E =X|./.B.|.dXGXBXF.H j # z #.] ] u.+.G.u.M.&Xc.Y. X&XY.R.G.X.n & ~ N.r S _.,X).c.n a H {.|.5.{.!.s ~ 6.b.5.3.s u !.6X_.+.H >XlXSXeXH.=X/.f.4.1XBX1Xj # O A.G.@.|.|.3XtXpX4.X.lXc.T.T.iX9X*.W.x.G.^.5.lXuXxXuX@XP.oX) A C ( ' R...F.M.% *.Y.C.i.H.(.D.G.b.u.R.*X] i.:.O.F...vXvX=Xa 0 : : @.#.8.).Y.v.b.v.=.C.Z.v.,.c.V.|.|.u.R.R.c.F.V ).%Xc.%X*X9Xc.3.Q.W.R.#.5.@.u.Z.#.b.C.c.|.Z.eXiXgXa., @.&X<X(.B.B.|.HXKX=X0 $ # 5.s.F N.N.G./.D.%.R.r.a.>X4XU M B.6.D./.G.H |.pX>X8.#.rXF.#. XH.4X!.U M E ,X|.R.F./.dX,XJ.t.{.lXP x +.` ..u.| !.u.MXFXeXc.c 9 2 Q.Z.X.x < T Z.r S _.,X).c.b a F }.{.5./.!.s ~ 6.c.5.2.b i H.5X_.<.U >XkXCXeXG.=X/.d.4.r Y.&X3.! x D.G.$.].%X1XpXpXxXfXNXl 6 5 yX9X*.W.y.J.^.6.lXeXxX0X@XV.oX) / B ( ' R...F.b.% 3.R.B.a.G./.B.H.F.u.R.%X$.F.Y.y.G.F.C.@.O.} O.F.@.H.U.@...F.u.P MXFXkX#.a 7 > y.Y.F.3.H.=XC.H.{ (.).v.Q.*X9Xc.-.Q.Q.U.#.3...u.Z.#.a.C.c.|.C.eXtXpXi.3 X._.<X).B.B.|.4XkXQ.] ] E 3.u.S u.B.V.R.G.kXZXC.c 9 0 W M B.6.B.^.G.U |.pX>Xy.5.",
"=X5.r.6X6X,X.XG.] F /.4XrX5XR.,XCXMXc.e 9 = F n H H 5.d.d.6.-.Y.).1X,X1Xk.Z.Y.<.w < <.7.s Y ,X|.H.#.Z s s 1.F.^. X!.F E 3.b.V.6.D i J. XG.G.E .XkXlXN.2.$.+.r.Z.eXMX&Xt # # b.^.G.rXwX3X=XxX#X<.eX9.;XQ.LXmXV.9XC.Y.N.6.4XpXFX@XW.>.oX*.( [ ` V R.c.V.}.% K >XY.C.u.B.2./.=X5./.R.e.u.#.#.:.y.bXpX&Xu 8 > ; ] -.:.[ F.v.y.8.;.Y.Y.u.;.c.B.|.*Xb.}.Y.Y.)...W.9X|.&XR.9Xr.u.Y.Q.U.X.C.W H.).} ;.V.&XH.` %XmXhXp., 6.H.} Y.J.D.#.SXVXQ.l = $ y.<.E -.s.2.|.B.V.-.-.XX6X>X+.H 5.D.D.u.G.F G.Q.v.)...,X8.5.6X6X,X.XG.] Z {.6X6X5XR.,X{.F.#.! sX..Z n Z R r.d.d.6.kXBXvX).m 0 > Z.^.<.w < <.7.s Y ,X|.F.#.F s s 5.C.R. X^.F ~ -.b.V.6.D i R._.H.H.! }.kXlXc.2.$.+.6.G.K Z.^.X.! Y b.^.F.eXeX>X&XxXFXfXgXj 9 6 PXmXV.9Xc.R.N.9.5XjXSX;XW.>.+X*./  .( C R.b.V.|.& K >XY.B.N.V.r./.1Xa.).%X$.c.}.b.y.b.b.;.5.O.} ).` ..v.#.` (.u.` BXHXjXa.k 2 : r.F.R.u./.R.W.(.-.Y.1X).|.U.1X8.c.H.|.F...C.E H.)...-.c.&XH.` +XbXiXa., 8.H.| H.G.F.#.|.R.G.y.+.Q r.%.! -.N.<.|.V.nXgXb.W f 8 O.U 5.D.B.c.F.Z G./.v.|.-.",
"#.@.!. X,X|.J..Xu.Y {.kXkX|.{./.nXgX}.c - = H s Z @.XXD.1.F k Z.eX,X.X&X9.j.9.^ s e E ! s <._.|.vX/.m b M t.H.6XZ._.J F.,XG.u.Y D | eXc.F.H.Q y..X6XX.E O.t.1.!.gXbXgXP > X G. X=X&XtXpX0XBX(.J ,X XDXDXLXuXX.@XP.c.6.y.tXkXeXP.9Xk.m.m.&.8.L r v.F.F.r.+ 4.%X3.3.V.F.u.F.).} ;.v.R 5.F.3. .8.vXvX5Xj 8 > ; =.-.F.e.M.y.b.F.H.W.F.c.8.y.3.).R.H.Y.c.Z.1X-.c.Y.Y.U.Y.W.B.Y.Y.5X;X8.7.7.V.C.#...6X&Xc.H +XZX4XG.: @.N.6.G.a.H.} ZXDXtXL $ % a.V.3.L.8.Y r.H.H.u.H.6XdX4XO.Z 5.t.O.8.R.Z y.eX>Xy.} 5.#.J. X,X/.J..Xu.H {.kXlX|.{.).y.-.J.V.=...H s N @.,Xf.2.S eXMXCX).c 8 ; j.9.^ a r Y ! s <._.).vX).b n M t.H.6XC._.H F.,XG.s.! D ! tXc.F.G.E u.,X6XX.E ~ p.1.^.{ N.eX&XN.4 G. X.X;XtXpXwXAXSXeXeX( l l LXuXX. XL.c.6.6.tXkXwXP.<Xl.m.m. .h.( t x.F.G.y.+ X.%X3.3.C.G.u.F./.3.8.R.%.8.&XR.c.-.G.b.b.2.8.y.8.c.@.#.V./.5.B.GXHXpXr.k 8 6 u.Y./.B.H.C.Z.=Xr.V.R.F.F.Y.W.C.Y.Y.5X;X7.8.8.V.C.#...6X&XV.A @XSX6XG.% @.N.6.G.a.J...R.=X>X|.~ #.c.B.3.P.5.W 6.G.BXvX|.} p 0 +.Z 5.r.+.r.R.G r.eX>Xe.-.",
"|.b.B./.}.Z.8.F.:.Q =XkXwXB.tX4XvXnX1XV = O u x m W !.Z.! H M #.(.>X&X=X9.C.-.G r w ~ 3.z S | D.6XB.D D n D.1X6Xt./.G y.1X X1X6.& +.`.b.:.G.6.u.Q.=X9.J +.!.Z.9.gXBXbX` - O J.H.F.%XwX1X1XmXk.S <.dXSXSXAXuXK 9.7.^.d.u.4XeXQ.8.<XQ.mXoX .&.-.N 8.x.&X-.% G c.9.eXtX X/.:.).u.Z.>Xy.b.&Xu.:.-.bXmX5Xk 0 ; > ,.:.Q.Y.F.F.F.u.x.8.8.u.v.8.3.|.1X|.Y.B.C./.` 3.M.:.v.F.>X-.B.F.|.:.] -.c.H.6X8.b.1XM.5.z +XMX5XF., p a.t.,XJ.2.t.KXGX3Xl - ; D.A.V.y.G F R.3XJ.B.Y.kXnXhX~ a }.#.b.R.].W a.nXwXT.$.=Xb.B./. XC.5.F.:.Q =XkX6XB.tX4X8.b.=XF.#.A u x n W !.Z.! F wXvXvX/.m 8 : V.-.G r w ! 3.z S | D.6XV.F F d D.2X4Xt./.G y.1X&X1X<.& ^ {.B.:.H.7.a.R.,Xu.J O.J.Z.6.{ ^.fX<X4.M J.G.F.%XwX1X9XmXbX6Xb...l l DXyXP 9.6.Y.d.u.6X0X).j.1XW.xXW. .[ -.M y.x.&X5.& G c.9.6XeX X^.:.).s.c.1X8.u.|.V.y.c.i.;.r.F.Z.3.8.` c./.C.F.X.5.MXGXvX..h 7 6 6.F.,XH.H.R.C.(.-.8.C.5.y.U.;X-.B.B.|.:.] -.c.Y.wX8.b.wXM.3.x +XMX3XG., p a.t.1XJ.%.r.tX5X|.y.%.y.D.F.b.y.H Z R.5XZXbX X$.h p Q i ).#.a.R.Q.E a.nXrXF.w.",
"5X5XG.B..XY.#.C.|.Q u.hXeXi.4XkXnXnX1XZ 0 2 ] W P W ^.!.^ #.E V V..X/.1XC.;XC.X.q w <.{ r J 6.t.H.B.J b s +.J.,Xd./. ..X5XH._.6.< U N./.b.(.<./.,X,XX.X.B.Z.<.N.vXJXSX .1 O G.G.b.R.(.eX>XpX;X3.6.b.zXmXuXzX! #.u.-.5.O.vXkXxX1X<XOXxXK.P.U.L...M.U.Y.5Xu { #X^.NXtX|.Z.Y.B.#.c.5XF.u.|.5.y.-.vXFXwXm t > ; M.Z.|.*XS.F.F.;...b.-.7.Y.).u.Y.=XU.&XR.J.5.a 8.;X@.E U.1Xc #.N.v.3.-. ...Z.&X;.Y.wXL.#.E &XwXR.r.3 r J.{.4XG.r.t.PXSX=XB - $ R.:.u.u.a.Z |.6XR.-.G.CXlXR.Q Y 8.5.r.=X=X! a.lXlX3XG.6X,XG.B. XY.5.C.'.O.a.pX4Xy.4XkXb.D.|./.5XF.] ! P W R.^.! <.pXeXrX/.l 9 1 ;XZ.X.q q 3.} r J 6.t.H.C.J b s +.J.5Xf.(.|  X6XF. X6.q F a.R.c./.#./.=X=XX.+.B.F.3.B.9.eXBX6XZ.M G.F.B.Y.Q.eX1XiXHXgXG.c h 0 uXzXP #.u.<.5.+.lXgXxX1X<X+XxXK.P.W.L.{ M.U.Y.5Xu E @X^.nX6X/.C.Y.H.5.9./.r.b.R.F.b.V.b.5.5.).D.y.;.6.R.Z.Y.Y.B.3.BXFXtX` 0 6 6 -.F.).B.).|.H.u.N 7.&X@.E U.1Xn 3.B.v.3.#. ...Z.&X-.Y.3XC.#.E &XwXT.r.3 r !.{.4XJ.2.t.NX=X].R.$.} ^.:.u.u.i.M |.4XVXgX(.y.h 2 ! Y 8.5.r.=X.X! a.lXlX4XJ.",
"Q.pX{.}..XF.u.a.a.U ] F..XT.=XrXMXvX>XZ 1 > fXG.-.V.6X6Xt.d.J u.|.,X.X(.u.9X,X4.< w 3.3.G | t.<.N.V.J i w ^ H.).C.5.| F.pX&X/.6.& s a.^.)./.<.u.|.,XZ.G.b.H.| 9.BXKXCX..2 = G.{.kX(.R.Y.H.5X;XZ.9.H.mXzX@XP.G E V.#.2.F |.5X@XwXfXeXyXk.L.E.C.X.Y.;XY.}.s b P. X,XC.|./.dXR.~ #.|.c.y.F.] y.:.vXBXtXV 1 ; 2 F.C.b.W.Q.v.v.;.:.F.%...c.(.B.|.).U.F.F.b.V.c -.5XF.b.R.Q.{ <.N.b.| { 7.5.5.;.;.r.1XM.u.P H.=XS.D.n ] 8.|.rX!.J.!.KXZX}.Z - $ -.@.-.r.c.n J.=X] i.G.R.=XR.1.@.Z E G.R.B.+.t.ZX5XhX.X|.pX{..X.XF.y.a.i.W Q S..XR.=XrXF.y.|.!.D.C.dXC.3.b.6XsXp.u.tXbXbX Xm 6 : 9X&X7.< w 3.3.F } s.<.N.B.J u w ~ G./.D.3...H.tX&X).6.< s d.Y._./.2.t.|.,XZ.H.M.Z.| 9.H.lXbXeXZ.{ J.{.kX(.Q.Y.H.1XFXmXM.V l f @XP.G ` C.@.#.H ].1X-XeXfXyXyXn.L.E.M.X.Y.;XY.{.s b P. X XF.).^.6X/.| #.F.:.:.c.b.C.-.F.b.i./.u.c.@.#.1XV.,Xy.B.| vXnX*X] 0 7 2 :.Y..XF.F.).F.V.Z -.;XF.b.R.Q.] #.V.b.} { 7.5.5.;.;.r.>XM.c.Y F.>XD.D.s ] 8.{.rX!.G.!.kX|.H.!.+.R #.@.-.y.C.n U.*XjXbX XA 8 6 2.O.H E H.R.F.+.r.VX5XhX>X",
"v.4XH.R.|.H.r.J.}.r.Q b.'.5XZX=XZXkX&Xn - # tXb.} c.,XXX6.t.! dX5X XH.y...).,X9.& w 3.N.! J 4.B./.#.Y i < O.a.Y.=X5XX.} |./.).H.& b !.B.Y.,X^.F.|.Y.|.tX&XZ.{ y.BXPXbXX.7 O B.).nXU.W.L.B.%X(.@Xu.Y.pXmX<XP.b 8.6XC.W W F.;XQ.rX0Xm.;X).W.;X).6.Z.c.Y.}.s  .c.u.N.N.V.C. X|.E P.Y.y.F.i...R.c.kXbXkX..> : > ,.y.F.Q.F.u.@.y.F.S.r.5.v.C.3.u.|.Y.c./.] v.E P &Xb.b.Q.b.` 9.y.F.-.{ X.9.b.F.@.;.$XM.i.z y.|.A.r.w H y..XdXf.4XJ.GXZXhXR $ $ 3.v.V.y.b.M 3X.Xb.y.f.^.R.{.1.5.G | s.B.%.Y B.ZXvX=XU.D.wXY.T.|.T.r.J.{.t.Y F.'.5XZX=XH.r.Y.B.2.W tXb.{ v.,XXXt.t.fXJXBXH.p > = _.,X9.& w 3.s.! J <.B.(.#.^ r < } a.Y.=X1XX....X/./.G.& n !.B.Y.,X^.Z.).Y.).dX&XZ.{ u.!.nXfXdX_.H B.{.nXF.Y.Y.B.@XAXFXU.Z f h ;XP.b 9.eXC.W W F.>XQ.eX0XM.>XQ.W.>X(.9.C.m.Y.|.s  .c.u.V.V.B.Z./.R.} b.u.:.u.y.F.F.y.B.b.y.H.;.F.....U.F.C.X.XXN.vXSX5Xy.p > ; #.Z.&XF.b./.y.y.} { &XB.y.Q.M.E 6.u.U.-.` X.9.b.H.@.:.%Xn.u.x y.|.A.r.9 L u.&XtXp.4XJ.,X|.6X}.Q } 5.c.b.r.u.M 1X*XnXkX^.Z 5 6 5.5.H ..s.B.%.Y B.ZXvX=XQ.",
"6.kXT.,.*XR.%.f.{.B.W /.F.jXVX3XGXnX/.x : = -.p } #.#.!.t.2.t.dXY.).C.c.A ] =X7.& w H.6.F J P 3.H.#.J s 3 1.R.H.5XkXV.u.{.G.u. Xw s !.Z.| H.(._..Xu.6XnXR.c.N  XSXKXgX..t # c.{.NXL.&X<XC.1XW.Y.C.Y.>XMX;X@X` #.kX(.#.r.R.=X=XvX9X;X>XT...*X9X3.c.F.B..Xb ^.Y.b.9.,X&Xc.Y.=Xu._.=X8.F.F.8.;.} gXvXtXZ 1 ; ; w.b.Y.S.#.:.,.Q.U.F.H.y.C.Y.....).Q.C.tXM.c.#.C eX X&X*XQ.E r.F.F.c.3.3.V.F.).F.b.I.U.v.M ).kX3X].y @.Y.6XrX2.{.%.HXSXwX_ - : XXF.y.M.Y.R 4XJ.T.u.u.y.}.J.O.H Y ~ 7.R.R s r.MXcXv.R a.kXR.:.*XR.$.p.{.b.E /.F.hXVX5X2XB.B.N.5.#.-.p } #.#.J.t.6.lXJXgXC.h > O [ &X6.< w G.9.N J J 5.H.#.J s w 5.^.Y.5XkXZ.r.|.D.u._.w n G.B.| H.(. X XB.6XnXR.c.N }..XdXtXeXsXK c./.MXP.&X1XC.1XSXNX(.V 0 h #X+X` #.gXQ.%.5.R.>X*XgX9X>X>XW...*XwX3.c.F.C.}.b ^.^.c.6.,X&Xc.Z.&XN.H.A.@.H.R.F.v.C.y.5.F.y.;.=Xb.H 8.F.u.<.5.5.bXSXvX] h ; # } ^.eXY.G.&XF.c.-.E 9X|.).*XR.E 5.F.F.v.3.-.V.F.|.S.b.L.U.b.M {.kX5X|.u @.^.6XwXr.!.r.5X|.>X=X%.u..XF.i.M.U.R 6XT.VXvXG.l 9 2 | H U ~ 6.R.R s r.MXvXv.] ",
"%.4XG.C.5X>X$.t..XG.} t.F.3XkX4XFXnX|.m 2 t B.c n @.Z t.t.6.<.1XC.W.F.#.` #.&X5.< J s.N.<.~ } 3.9.#.~ ! S }.1XY.bXbX6.XX5XD.D._.q s !.G.{ G.!.C.V.u.kXpXV.C.| .XMXBXtX..7 # E =XSXE.L.MXZ.eX<X(.Y.r.Q.pXuXN.` 3.Q.Z.5.W Y.*X%XwX@XyXwXW.C.T.&XP 7.Y.C..XJ Z.|.|.Z.<XfX_.H.1X#.V.gXF.u.b.,.;.` vXnXeXR 1 9 2 i.F.b.R.y.v.U.R.M.U.9.3.F.R.=.9.B.R.^.>Xc.v.-.V eX_.%XR.$.u.r.F.U.C.} ..B.|.$.R.b.M.>Xi.E H.ZXvX}.u #.&X1X4Xu.5.B.JXDXtX' 2 : D.i.=.b.).] =X|.F.8.c.R.R.}.t.O.u.#.N.J.;.M t.5X|.Q U 5.rXF.M.5X2X%.t..XF.O.r.S.3XjX4X=XB.G.G.D.tXB.c n @.M t.t.6.lXJXeXn.j = = #.;X3., J d.N.<.} | 7.9.#.~ Y F |.,XY.lXbX9.XX,XG.G._.< s _.G.{ G.H.V.V.u.hXjXC.Z.{ .XV.R.,XeX_.| E =XSXW.C.bXZ.eXJXBX Xk 6 g eXN.` r.(.Z.5.Q R.*X%XwX@XuXwXY.F.T.%X( 9.Y.C.XXY Z. X/.V.<XfX).C.,X-.u.&Xu.c.H.F.F.H.C.y.R.M.y.y.} E #.^.X.c.7.| bXGXGXF.l 6 = 7.&XR.C.Z.=XY.y.:.` 1X_.).R.;.u.r.Y.U.M.} X.B.}.#.R.b.M.>Xe.E H.BXvX%X9 @. X5X6Xt.r.f.wX>X5X5XG.p.B.r.;.V.|.] .X}.VXkXY.Z 2 6 i...u.#.N.J.:.M t.5X].] Q ",
"F.G.r.b.5X3Xr.G.1X;.O.u.F.R.jX*XZXkXF.G 2 B eX` Z r.r.!.1.J ! ,XC.c.(.m. .y.<XV.w ~ Z.Y.6.N.! s.u.X.<.J Z tXdX9.6X,X~ (.dXG.d.!.& s ,X^._.5X XY.D.r.kXrXR._.{ tXGXNX6X` t 1 W =X6X(.F.lX7.9X<X^.|.&X|.Q.9X<.G -.&Xc.6.@.=X;XT.+X=XvXmX+X).M.8XK C.C.F.,XF 4.^.H.y.5._.1X-.6XH.Z.5X&XF...F.:.#.nXMXwXW 2 8 8 F.b.y.&XU.M.>X&XM.T.:.5./.8.9.Z.8.(.&X/.C.b.] x >XW.C.&Xc.b.,.Y.R.=...3.B.Y.(.Q.] c.M.y.y.|.PXBXv.3 H _.,XrX{.}.XXHXGXtX[ > $ r.a...F.|.M F.5X|.%.F.|.a.rXJ.2.8.2.} 8.R.| Q b.a.q.r.J.G.y.B.4X5X1.H.5X%.O.u.F.R.jX.X/.5.u.^./.IXeXE Z r.u.H.<.J gXFXuX-.l > * y.1XV.w ~ Z.P.6.s.E s.u.X.2.J Z dXtX9.6X1X~ /.tXG.s.!.@ d 4X!. X5X{.^.G.5.lXtXY._.{ eX1XG.,X,X0X^.R =X9X(.H.vX3.0XFXAX<XR 6 6 0X>.G -.&Xc.6.@.=X;XT.).=XmXmX+X|.M.9XK V.b.F.,XF 5.Y.F.y.5.(.,X5.&XG.u.R.F.u.b.F.B.F.Y.u.C.M.y.e.#.#.8.H.X.Z.lXV.bXBXtX-.h 8 9 F./.c.c.Z.@XR.b.#.H >XY.C.%Xb.c.5.Y.R.-...3.C.H.Q.R.} v.F.y.r.|.KXZXi.3 L _.,XtX{.{.=XwX>X2X1Xc.+.2.p...F.}.M J.5XDXpX|.Z > p J.1.8.3.} 5.R...Q b.i.w.i.",
"a.Y.R.5.'.J.O.D.|.-.W t.:.b.lXlXMXkX(.k : p gXH ] R.G.f.| E <.|.j.m.c.U. ...m.7.a 5._.V.3.| ! #.5.5.X.F Z ,XvX(. X,XY ,XdX_.fX_.@ F .X,XpX4XXX1X Xt.4XVX1Xc.) =XMXfX5X` t 7 -.5XpX(.J.pX7.C.7.Z._.wX6X_.&Xl.G X.8.A c.%.>X>X1XuX1XrXyXm.OX+X;X>.).y.y.Z.w | R.5.3.7.H.H.~ >X8.u.*Xr.9.C.b.r.X.vXMX1X} 6 8 6 V.v.Q.eX&XQ.:X|.M.C.C.#.V.C.8.9.|./.W.c.Y.Y.y.C &Xc.B.&X/.8.../. X/.B.} 6.B.wX5X@.M.M.:.} U.bXGXb.9 N Z.G.&X/.4X.XFXSX|.Z : : 2.D.:.|.=XM }.VX3X8.b.D.a.5XD.f.G.Z.5.A.R.} } D.jX1X>XD.R.J.5.'.R.O.B.).-.W u.:.b.lXvXG.%.D.r.t.fXgXH ] /.H.d.| ! kXSX9X>.0 5 * ..c.7.a 6. XV.3.| ! <.5.3.X.F Z 2XlX^.=XXX! <XfX_.dX_.@ D XX,XtXeX,X,X Xt.4XVX5Xc.) .XY.X. X1X6X_.%.wXfX^.J.pX9.Z.xXmX;X..t 6  Xl.v #.9.Z u.%.;X>X9XpX>XyXyXk.OX+X@X-._.y.9.Z.w X.R.3.#.7.G.G... Xu.N.|.B.V.B.B.V.b.R.Y.y.} F.y.-.c.b.F.5.^.FXH.BXMX8X8.h 0 h u.N.H.y.c.H.Y.G.v.P &Xm.c.&X/.8.../. XR.C.| 6.b.eXwX[ M.M.:...U.bXHXb.u n Z.G..X/.5X.X=X=XR./.6.p.<.F.,.R.=XM |.MXGXkXT.n 2 9 D.B.G.Z.5.B.R.O.~ F.jX1X5X",
"$.5X.Xp.'.F.r.J.A.u.} u.J.wX3XlXZXkXJ.k - 2 JXu.c O.6.6.G...H.<X8.C.j.-.V N.P.V.s <.(.@X9.{ { 5...@./.J M [.vX_.|.u.Y !.4XXXdXXXq Y 6XlXlX4XlXdXd.t.4XCXAXl.r r.DXvX1X=.h 0 &X=XZX(.5.VX).&XL.C.|.pXiXeX<XV.G 3.c.L 5.$.@XP.xX<XF.*XzX%XuXpX(.X.R.,.P Y.a P F.} #.c. XH.Y -.Q b.F.M.r.C.] @.] mXvXeX-.9 6 6 b.C.=X;XY.eXU.T.M.M.e...G.R.8.3.R.|.B.y.&X_.b.a ).b.:.u.y.#.#.R.(.|.u.@.u.u.H.wXb.M.>XG.@.9.jXVXp.3 n f.}.5XN.rXvXFXnXR._ 2 2 %.v.A.'.T.Z 2XnX|.$.b.b.e.|.A.J.B.J.v.J.R.2.+.Q 4X.X2Xr.,X.XD.J.J.q.J.A.u.} u.J.4X>XvXR.r.a.u.;.Y.KXt.x O.8.t.G...MXGX6X8.0 = O m.L.Z.s <.).@X9.{ { 5.} O.(.G M {.vX).|.u.Y !.5X,XdXXXw T 6XlXnX6XlXeXf.t.4XZXBXc.a w.&X9. XfXbX;X&X=XBX(.-.ZX/.&XBXbX<X=.g 0 <XP.V 5.c.P 6.#.&XC.xX9XF.*XpX%XuXgXW.*.Y.:.K Y.s ! C.O...b..XZ.} -.O.b.M.F.b.H.F.c.y.R.F.u.b.y.c.X.-.M.3.u.,XpX XvXMXbX>Xl 8 6 y.y.F.c.u.F.&X).v.N /.B.3.c.y.#.-.R.).|.u.X.c.u.H.wXb.M.>XG.$.k.vXVXv.3 M u.}.5XB.4XlX.XM.A.|.F.J.%.b.v.{.R.I 2XlXGXhXT.n ; 8 A.G.f.R.a.T.'.r.+.~ 4X=X2X",
"5.J.i.r.`.%.T i.5Xb.] :.B.tXb.=XMXkXu.k : ; !.,XZ b. XB.!.2.3.Y.` y.8.H c c.oXc.s 6.1X^.| N.#.} } 5.(.a W =XBXc.c.5.b f.rX/.,XZ.i +.lXlXCXdX_.<X6.f.4XGXJX(.q a.KXZXeX] t 0 >XtXbXc.N tX|.MX0X(.1XpXtX.X_.>.#.Z.9Xy.t.B.zX<XxXW.b.=XuX:XuXxXW.b b.i.! C.M P F.8.u.H.J.-...| W ] ..u.C.-.w.y.@.vXMXpX@.e 6 5 c.C.&X|.C.kX%XF.Q.Q.,.6. X&X8.-.B.=X8.).U.|.Y.9 x.).y.c.8.} :./.C.y.| ` Y.Z.C.>Xv.%X:XB.5.U.SXSXi.9 p +.{.J./.rXjXCXmX`._ : 2 5.R.F.{.6XU r.VXhXD.i.A.$.2XR.{.a.J.D.T..X$.~ T 4X1X=Xi.J.a.q.R.@.W i.3XM.] 5.b.tXb.>XB.2.| r.r.5./.,XH b. XB.~.<.bXBX*X..0 O O m.W.c.s 6.1X^.| N.#.} } y.(.z R >XBXc.c.6.b f.6X/.,XZ.u ^ lXlXCXdX_.6X5.f.4XDXJX(.q i.gX(.,XeXfX1X2XtXMXc.G rX|.MXLXAXeX=.h 6 _.>.X.Z.0X8.r.B.kX9XfXW.b.=XiX>XuXxX(.N V.u.` D.b J F.8.8.H.J.9.#.#.O.#.@.u.u.u.D.c.b.R.C.C.C.@.%.` c.3.8.3._.&X/.xXNXHXeXh 6 > c.9.Y.B.3.)./.Y.Y.c b.Q.3.c.8.} -./.C.r.| ' Y.Z.Z.>Xv.%X:XF.5.U.SXSXi.9 p +.}.J./.rXjXR.F.S.=Xi.'.2.Q.S.{.5XZ r.VXKXVXA.m = 8 [.|.i.J.D.J.}.+.T W 2X2X4X",
"b.J.$.} {.] U {.kXF.] E ;.R.|.R.BXlXG.z > 1 M.;.Z b.,X6.6.! H G.3.8.5.G G 8.7.( n #.c.7.J u.! H @.y.,Xb f.nXlX8.V.5.G }.G.B./.s.< Y 6XrXCXCX,X_.y.a.=XjXSX<Xz A.KXHX6X[ p 7 R.rXAXk.Y =XC.HXMX1X6XtXpX1X;XV.! Z.+XC.-.a.kX9XzX+XC.>XyXpXHXxX9X) v.:.@.:.| J Y.Q.C.#.8.V.Q Y } #...c.R.b.F.M.;.MXvXgX@.t 6 > C.C.U.Q.Q.>X|.Y.v.Y.C.r.;XQ.M.#.C.>X-.F.c.8.8.p F.8.H.c.x.` } :.c.u.-.i.R.C.!.kXF.Y.Q.B.Y C.vXVXa.y N u.{.,XrX,XR.VXVXhXR > > %.J.F.v.tXM w.VXlX2XD.a.$.=X3XA.J.F.a.R.2Xi.1.n i.;.=XF.J.O.~ {.o.W {.lXF.] E :.R.}.R.H.f.t.t.u.C.b.;.Z b.,X6.6.! tXBX;X..9 # O k.7.( b #.c.7.J u.! H @.y.=Xb p.nXlX8.V.5.G }.J.D.^.s.< Y dX6XCXNX,X Xr.a.=XjXSX<Xz b.tXtX&X1XfX&X).5XBXk.Y =XZ.HXPXGXpX[ 0 8 =XV.E G.+XC.-.i.gX9XzX+XC.>XrXpXDXmX7X` b.,.#.-.| K Y.R.V.#.r.C...} -.5.r.V.b.u.,.i.i.c.8.C.8.y.v.[ 3.y.M.-./.=XB.kXbXJXeXl 8 6 b.y.Y.C.5.R.H.c.y.c F.8.C.v.v.{ ] -.c.u.%.r.R.Z.H.lXF.Y.Q.b.H C.vXMXv.y B u.{.,XrX>XR.J.].4X.XA.S.$.Y.F.A.rXM q.CXPXGX|.n % 9 3XD.J.F.i.R.1Xi.2.M i.;.,X",
"i.a.p.#.F.Z q.'.5XT.} R G.G.'.|.vXNXXXR 2 8 5X8.Z @. XN.d.J #.r.{ ..` ..V 7.Z.z R 3.Z.3.` 5.F E b.&X(.J ,XrXeX9.u.Y.b /.u.F. X!.4 +.XXsXlXlXdXdXb.2XrXmXKXdXr b.GXZXgX` > 1 F.5XkXk.V U.y.PXmX+X>XtXgXwXfXW.M C.8.>.:.y.%X>XAX;Xc.G.wXzXSX#XP.K b.b.3.:.Y G W.U.F.3.C.Y.W H H R.R.C.R.|.y.x.i.vXMXnX..7 1 > c.%XR.R.6XY.M.).M.8.:.| C.(.8.] 3.F.c.-.E 8.;.a C.y.-.j.b.` ` G.R.5.6.u.H.u./.nXY.R.].F.@.C.$XMXA.i m ,XrX{..X}.5XGXZXiXI > 2 i.a.T.J.4XM i.4X2XR.T.{.t.p.jX=XF.i.w.=X6XJ.^ a b.b.rXv.p.D.#.G.Z q.'.4XT.] W G.F.R.}.5.H.!..XY.=X6X8.M @. XN.t.J kXbX=XK 1 $ # 7.V.x H 5.Z.-.` 5.F Y b.&X_.Y XXrXeX6.u.Y.b /.r.D.&X!.q +.XX4XNXlX6XfXB.1XwXmXJXfXa D.&X|.6X<XN.G.F.3XkXk.C F.y.LXPXFXwX=.h 0 gXP.S V.,.>.-.y.|.9XAX@Xu.U.wXiXSX;XP.K b.b.:.5.E G W.U.C.3.C.Y.~ ~ ] H.R.u.u.Y.y.8.y.F.u.F.C.T.F.$.v.../.B./.&X8.bXvXgXZ.l 9 6 C.9.c.b.5.u.8.v.:.V b.u.-.8.M.` ` H./.5.r.u.H.c.(.nXJ.R.|.F.O.C.].VXD.i m ,XrX{. X|.2X2X'.3X{.A.F.i.u.J.J.4XM a.3XGXVX*XA = 2 hX=XF.i.q.=X6XJ.^ a b.b.jX",
"D.$.O.$.G.:.%.T..Xb.R M O.R.hX3XkXpX/.R 9 8 *XN x Q c.#.f.^ G.V.X.-.8.-.G 7.gXP N 9.-.*.V 5.E | 1XiXY.M y.=XdX-.r.CX+.u.{.{.{.^.r ^ !.dXGXlX=XlXpX1XcXDXHX;Xa @.FXFX;XH ; : ).R.xXV.r dX XSXfX,X=X4XeXwXMX(.X./.L.)._.%XU.Q.SX;X-.R.>XU.+XV.V.b R.6Xb.F.Y S b.M.F.5.Z.b.#.%.#.V.H.H.).R.b.C.Q.MXZXpX} 8 : : c.tXgX).1X/.;XR.Y.v.u.} C..X9.E c.C.V.V.#.Y.i.p c.#.-.c.] L @.}.'.F.u.y.5.6.5X=XS.).Q.{.$.y.).;Xy.y a =X.X.X`.G._.CXHXnX$.2 0 :.r.W b.G.Z J.}.3X*XF.}.i.p.VXrXe.w.D.rX5X|.r.u rXnXjXT.q.+.#.F.$.%.T..Xi.W M O.'.hXwX@.$.D.}.=X|.&XN n ~ c.#.d.! BXMX;X` 0 - O 8.gX! N 9.=.3.V 3.! } 5XtXR.M i.=XtX3.r.CX+.a.{.{.{.!.r T !.dXJXdX XlXpX4XkXDXGX&Xr @.&X;X^._.9.6./.).xXV.r dX&XSXPXFXeX[ f 0 MX_.| (.L.).|.&XU.Q.FX7X-.R.;XT.+Xm.l.S T.6Xc.F.W N M.M.F.3.Z.b.$.t.5.C.H.B.C.|.T.c.b.M.y.F.F.M.S.y.,.F.wXu.y.=X8.vXSXpXv.A 6 ; B.-.5.b.5.5.c.Y.c.Z c.-.-.x.] L $.}.'.D.u.y.5.8.5X=XS.).Q.|.$.r.).>Xe.3 a =X*X.X{.G. XR.rXhXhX`.5X%.i.Q b.G.U G.[.HXSX[.U : 1 CXrXe.w.G.4XrX.X6.u rXvXvX",
"J.o.+.a.'.F.%.i.rXw.Z Y i.S.wXQ.kXkXJ.Z 8 9 v.n i W X.^ d.f.=Xu.{ 7.c.G G 8._.9._.Y.8...H 9.H S |.gX XQ E  X1Xu.`.NXt.+.{.R.5X XS ^ G.<XFXfX|.HXlXVXPXPXtX8.r ] HXFX|._ 6 < {.b.eXV.r tXeXdXW.s.J..X5X4XvXP.s _.1XgXY.Y.W.C.cX0X|.>X*XT. XC.^.G 8.1XY. X1.z u.b.Y.5.u.^.@.E ..3.F.u.Q.R.C.r.Q.MXZXwX5.6 ; > -.F.&Xv.F.y.|.A.U.>XF.! V.&X#.#.Z.c.5.B.u.Z.5.s N.| -.u.*Xb.,.{.'.=XN.r.#.B.1XkXS.:.E.=XD.c.n.R.y.p p 3.F.=XD.G.!.MXSXjX$.y p q.r.r.W r.n G.=X*X|.S.2XG.{.GXjXA.i.{.2X5XD.u.x |.[.wX'.~ O.a.R.F.$.i.4Xr.Z U y.A.qXQ.$.i.a.{.2X2Xv.m k U +.^ d.B.FXbX&X..t O O 7._.7. XY.7...H 9.J S |.iX XE ] .X5Xu.{.nXt.O.{.J.4X_.D ^ !.4XGXgX XGXnXnXPXPXuX3.g ~ 6X1XZ.&X_.Z./.v.eXV.a rXeXgXBXfX.XR 9 y vXL.a  X1XgXY.Y.W.M.cX9X|.5X*XY._.Z.(.D 8.1XY..X<.s y.M.H.5.u.Y.%.#.#.9.F.u.r.Y.R.F.b.:.:.F.Y.C.C.|.b.R.Y.r.c.8.r.kXJXJXY.Z 6 6 b.c.b.b...N.N.H.u.H c.+.-.x.=Xb.8.|.'.=Xb.r.#.d.,XkXS.:.R.*XF.u.v.E.v.i u 8.F..Xf.G.^.b.*X4XkX4XkX:.r.q.] :.d G.2XGXSXT.o.2 6 GXjXA.i.'.2X3XC.y.z &X[.rX",
"i.U f.D.b.a.o.J.CXi.n U $.R.J.b.lXjX4XZ 8 2 :.s e u F | 6.f.J.6.3.#.r.[ L #.V.X.8.C.8.{ ..H.! F 4X6X(.| B.|.4X}.{.6X| E ,XdX4X!.D T XXfXlX6X,XCX|.ZXGXDXpXN.q Z SXnX X..t 1 ).;.Q.9.H rXgXgX@XV.5.r.R.R.pXV.w J.1X1XY.c.n.&.%X:X>XiX8X%X&XR.Z.G 3.Y.;.C.G.z c.y.#.H.5.N.D.R.H.^.F.c.R.A.b.b.,.vXvXkX-.0 > > :.C.R.F.c.9.>XA.b.=XR.E 3.c.{ | Y.B.6.7.#.V.5.e Y.y.-.3..XC.#.D.A.R.i.%.6.y.J.v.r.y.Q.}.F.M.x.F.`.n 3 Z.R.b.R.b.{.VXGXnXo.8 8 r.p.a.$.r.M %.{.J.J.*XnX2XT.6XVX=Xi.{..X'.T.2.x F.T.qXv.U b.D.b.v.O.J.GXr.m Z #.J.T.v.$.r..XR.'.].-.s u u M +.1.G.CXvX1XR 9 = # =.V.X.8.C.8.{ ..H.T S 6XwX(.+.b.|.5X X/.6X| T ,XpXdX!.D T XXdXlX6X5XZX|.ZXLXDXfXc.4 Z |.C.G.dXdXH./.:.Q.9.H 4XgXfXSXNXB.k 2 6 iXV.w G.1X1XY.c.n.&.%X;X>XiX8X|.&XY.Z.G 5.Y.:.C.G.z N.y...H.9.B.D.).H./.R.c.b.F.|.|.b.y.8.F.R.b.:.R.b.F.y.V.5.#.b.pXnXnX;.k : 6 -.u./.y.3.c.7.B.u.b Y.u.#.3.=XB.#.b.A.R.u.%.6.u.R.v.e.y.Q.[.F.C.c.I.R.n 3 H.R.v.R.b.{.J.4XhXkX}.2Xw.p.p.$.r.M %.'.CXVX4X;.8 2 4XVX=Xi.{..XR.R.%.n F.T.iX",
",.m F.J.q.J.W A.4XF.o.m G.'.] A.nXlXhXI 8 8 :.m 3 3 ~ D.d.^ +.Z.:.V E ....` V.{ b X.y.X.#.B.F F R.C.F.} D.R.3X}.{.u.F D.lXlXlX!.d 1.6XNX!.D.6XfX/.6X=X>XeXY.a Y JXbXc.` 0 6 H.y.eX{ 4 jXMXgX&X9.+.a.F.R.1X_.z D.|.+XZ.8.M.;.T.>X=XFXuXU.|.=X9X*.F.R.v.E 5.z V._.V./...#.b.y./.B./.F.Y.b.b.>XS.vXjXtXE h 6 2 ..b.|.b.R.H.=XF.Y.>Xr.} P r.#.| 6.y.9.c.` 3.6.t W.Z.^./.Q.c.] c.r.D.H.a.| | 5X.Xv.:.U.$.v.b.v.e.'.O., H.6XrX'.R.v.bXHXnXw.y 1 i.t.'.'.%.u $.{.}.}.r.2X.Xu.Y.2X5Xi./.|.T.=X-.2 $.3XhXv.M F.H.r.F.~ A.rXJ.] m G.{.o.b.b.i.2X}..X{.:.m 3 6 Q G.d.^ lXNX1Xk > = * ` V.{ b ..8.#.#.B.J F R.F.Z.~ D.R.,X}.{.9.F G.lXfXlX!.d 1.,XNX!.Z.6XdX^.4X:X:XeX(.a W dXN.#.&X6X(.F.x.6X .4 jXMXxXFXbXu.c 2 2 5X_.x G._.+XH.7.M.;.T.>X=XSXpXE.|.=X9XX.C.R.v.E 5.s N._.b./.#.-.c.r./.c.R.F.c.B.T.&XR.R.c.F.C.b.y.-.[ ;.R.b.V.t.B.kXMXvX3.p ; 6 y.6.C.u.X.9.8.u.u.z Y.H.H.Y./.b.] c.r.F.G.B.~ } 5X.Xb.5.U.@.b.b.u.y.R.O.: H.6XrXR.R.a.i.hXlXlX2XD.i.p.`.'.,.9 $.{.CXZXF.Q 8 ; J.>X5Xi./.[.R.=X-.1 $.3XjX",
",.n J.XXi.}.o.a.J.i.o.Z '.A.T.rXHXVX4XZ 6 2 S.5.9 w W %.{.^ ~ B.B.#.#.:.8.` ' H t *.N.E ` u.n s 5.&X1X} :.|.gX{.<X X5.J.,X>XkX1.D 1.}.dX6XsX<XZ.4X4X3XR. X^.e U PXBXN.j t 6 /.y.R.9., |.pXgXY.Y.^.G.d.4X=X+XJ /.).M.y.b.Q.;.,.;X|.>XOX>X>X>X9X' S.T.b.R ~ z 7.,X6X/.{.{.y.#.u.6.F.M.C.B.R.J.&XSXmXwXV t 6 = $.y.'.R.v.,.).H.H.*XF.#.} ;.#.5.!.-.` 8.@...u.r N.C.c.5.|.B.2.u.B.C.Y.5.@.r.D..XJ.r.R.e.b.:.-.b.J.O.% i.1XZX2XS.v.pXDXSXw.f 8 w.i.J.2Xr.u W kXhX.X:..X4Xp..XrX4X:.b.].C.Q.Q % e.3X[.i.M !.=Xr.}.O.i.F.r.@.U `.A.J.4X1XJ..X[.R.F.F.3.9 e Q %.{.T gXnXrXE 6 - ; ` } H e *.N.P ` u.n s 5.&X1X..:.|.kX/.4X{.6.!.&X1XfXt.D 1.XXdX6X6X<XZ.<X6X5X/.=XH.e G gX(.-.:.eX^.(.i.R.7., |.pXpXBXMX=Xm 1 0 ;X+XJ /.|.M.r.b.Q.;.8.:X|.>XQ.=X>X1X0X` S.R.b.R ~ z 7.<X5X/.{.{.u.;.b.6.B.c.:.C.U.(.|.U.a.F.:.M.&Xb.:.o.b.@.B. XY.pXnXvX-.k > 8 i.r.(.v.} -.8.8.u.c V.G.N.6.|.D.<.u.B.F.H.5.@.r.D..XJ.r.R.y.b.5.#.i.J.O.% a.5XVX2XF.v.] =XVXVXkX2Xr.i.G.2Xr.u W hXKXSXA.I y : *XrX3X;.A.R.S.).Q % i.2X*X",
"Q R a.J.Q 5XF.Q.b.O.F.%.$.b.J.'.ZXkX'.] 8 6 |.#.Z p n $.{.1.~ %.R.=XC./.C.#.3.a e y.Z.c.| Z.4.s D.1X1X-.T.R.=X!.a.sXB.u.dXpX,X1.S ^ XX,XeXfX!.V.!.-.|.rX,XZ.g #.KXSX&XB t 1 3.y.4XY.< =XMX+X8.6.R.=X{.rX>X>XP |.T.,.b.R.yXC.>.&Xb.R.R.=X_.M._.P &XI.@.@.y.s k.C. XD.=X.Xr.F.b.r.u.] B.b.F.5.b.VXMXkX3.c 6 ; ` 3.J.i.i.3.1X/.Y.|.R...8.R.y.] u.-.5.r.y.@.+.u X.u.y.5.b.Q u.B.R./.B.E #.B.b.=XD.} F.;.@.:.6.H.2X{.u w.=XkXA.i.*XnXGXjX,.h y p.q.J.[.}.k O.rX4X4X%.R.2XG.[.*X*X;.A.F.b.:.o.i [.3XS.@.W i.J._ 5XF.Q.A.O.F.%.$.A.J.}.Q.i.D.=X}.].}.=.F p s $.{.2.dXlXlX^.h 6 1 =.3.a 9 c.Z.c.| Z.4.s B.>X1X:.T.R.>X!.B.6XN.t.kXpX1X2.d ^ .X6XdXfX^.s.G.5.|.4X,XZ.z @.dX_.^.G.dXN.3.r.4X^.< 2XMX+XbXvX.XR 7 0 ,X1XP ).T.8.b.).wXM.>.&XM.R.E.;X%Xb.%XK %XF.@.@.u.s k.C._.B.,X.Xr.J.C.y.r...u.F.U.C.U./.b.C.b.F.F.].Q.M.c.P u./.} gXbXkXv.p ; 6 r.u.R.N.#.%.c.5.#.M #.B.y.#.M.~ u.B.R./.V.E @.B.a.>XA.} F.;.@.-.r.J.2X{.u 5..XkXA.i.*Xb.2XrXlXkX2Xp.r.J.[.*Xs O.hXLXGXB.I y 2 '.*X.X;.F.F.b.:.[ i [.3XS.",
"q.U r.f.-.Q..Xv.F.i.|.A.r..XD.a.VXSXrX;.f 6 ].@.:.3 u Q XXt.+.O.R.Y.&X/.M.Y.y.a p U.W.C.M.#.G x R.;X+Xc.y.F.8.5.$.4Xd.1.XXfX,X6.D +.1X,Xi.rXfX!.6.).hXkXdXZ.q H PXSX,Xb 8 2 } [ tX<X, 3XMXM.u.s.-.>X/.>XeXMX! c.&XR..X>XvXP.*.C.c.V.|.C.u.v.Z.Z 5XM.] :.!.r 8.C.V.Z. XG.B.J.@.5.Y.i.y.r.,Xb.:.AXPXvXR h > > } u.R.F.y.;.1X(.^.=X).u.8.Y.;.E y.3.] 5.H.B.r.u N.r.N.Y.5.i } (.C.F.Y.@.y.b.Y.GXFXr.U.T.b.5.y.R.=X{.u Z 4XjXrX}.5XVXHX2X$.p 9 }.r.'.[.hXU U '.3X'.O.F..Xw.A.I.A.o.v.F.U.M.b.s p.tX'.i.U t.p.%.]..Xv.F.i.|.b.w..XS.v.T..X2XmXrX].]...:.3 u T XXd.lXpXxXc.m 6 > Y.u.r p U.W.M.b.#.F c R.;X).x.y.F.r.2.+.4Xf.1.XXkX.X4.F ^ ,X,Xu.6XfX^.y.|.jXjXdXZ.e G bX X(.H.=X^.] o.tX1X, 5XMXC.bXbXb.` 6 8 rXMXP N.%XR.|.>XxXL.*.C.c.B.&XC.u.v.Z.Z wXM.] :.J.r 7.Z.N.Z..XZ.B.H.#.5.F.y.:.y.|.F.Y.|.C.U.v.B.y.M.R.T.H.c./.Y.:.tXvXkXo.8 ; 8 B.u.R.C.#.-.F.F.%.n u.y.c.G.:.s } (.F.F.Y.@.i.B.H.GXFXy.F.T.b.5.u.Y.=X{.u U 4XkXrX{.3XF.rX{.kXlX2X{.r.'.}.hXU U `.HXVXy.Z 8 = S.T.A.$.i.T.F.M.b.s p.hX{.",
"R.Z +.%.n %.a.i.R.A.i.] a.}.R.'.GXSXhX@.0 > S.M.G.p k r.d.d.}.!.M.Z..X&XC.-.} z u j.,.C.L.9.J F ,X%XU.C.;.R.:.#.2.{.^.5.4XlX&X9.! X.4XgXeXdXfX<XH.dXGXSXnXV.t V JXFX&Xj : > ` ' tXV.@ }.vX(.6.t.D.U.' -.L.9X<.u.=XY.|.W.c.@XV.8.y.u.b.R.C.|.(.c $XQ.i.5.r.w 9.u.s.9.,X/.(.R.:.-.&XQ.F.;.y.#.c.bXGXGX..8 < : ..F.R.T.Q.u.U.,XY..X..=.} x.5.G 5.c.E u.D.b.G.e H.C.F./.|.+.#.r.J.#.` %.v.b.y.kXPXS.=XS.F.r.-.i.A.t.3 o.jXhX2X2X3XMXVX'.o.f 9 R.i.{.2XhXW Z r.2X'.w.b.|.O.'.J.i.o.q.*XA.}.A.u r.i.%.{.M $.-.n %.b.r.`.S.i.o.p.}.R.R..X2X2XhX2XS.S.b.J.p s t.d.d.FXZXtXy.c 6 5 :.} s u x.,.C.L.k.H M 1X|.U.C.;.R.-.#.2.{.^.t.XXlX.Xs.^ <.6XfXtXfXdX<XG.hXGXSXnXV.r V tX&XY.9.r.F.` ' wXV.@ }.vX/.bXlXR.C = ; F.0X<.y.&XR..XW.c.@XC.9.y.u.b.Y.C._.Q.c OX[.y.5.r.w 8.u.s.y.,X/.).Y.y.8.R.F.y.c.Y.b.F.Y.M.F.a..XV.y.Y.tX|.@.Z.Y.C.pXbXkXy.0 - 6 b.7.G.U.@.5.c.V.G.x C.B.F.H.|.O.#.r.J.#.` %.b.v.i.kXPXM.=XS.F.r.:.c.b.i., o.jXrX5X2X3XS.{.A.4XhX2XJ.p.'.2XrXQ M r.SXVXA.n 8 $ '.F.v.o.;.|.A.}.A.u w.i.w.",
"o.n c O.u O.a.r.].].v.%.O.y.*XhXKXSXjX;.8 6 [.S.b.n n A.d.2.5.H.8.-.:.;.@.[ #.x u @.=.Y.L.W.*.a =.Q.1XM.L C.U.#.| G.6.5.lXCX,X| b 1.lXdXgXlX XY./.5XnXjXpXdXr c SXFXeXk # 9 c.` >X7.< D.4XC.#.2.|.9X*.Y.C./.| V ].R..XC.Z.Z.U.c.c.H.8. XW._.>XG *XM.v.M.r.e V.Y.6.!.,Xf.G.C.$.` U.R.|.b.A R u.FXGXiX,.6 1 ; ` #.=X5XR.5.&X%Xu.|.u.#.<.9.F.H #.8.@.c.H.c.R.a W.R.Y.1XtXb.E b.D.u.#.%.'.b.b.R.i.i.tXF.A.a.#.y.H.@.3 v.hXjXhX*X2XjXnX2Xw.6 8 q.D.}.[.'.U s J.[.*X$.T S.O.t.i.i.W w.|.F.'.%.% f.[.A.;.n k ..u Q p.i.}.[.b.%.O.u.=XpXhX*XhXkX.X].].S.b.n n A.d.1.lXCX1X` 7 ; = [ =.x u ..=.W.L.P.*.s $.Q.>XM.R C.F.#.| H.7.5.fXFX_.<.n #.lXgXdXlX X^./.5XnXjXpXfXr m Q.,X,X7.} .Xc.` ,X9.< D.5XM.kXgX3X' - 6 B./.{ H ].Y. XM.Z.L.U.N.c.F.8.&XY._.<XG *XM.y.M.i.w V.U.5.!.,Xa.Y.Y.:.#.F.R.R.C.y.8.R.Q.Q.R.M.v.e.u.x.1XkXy.=.Z.8.gXBXkXv.k > > H.5.B.c.#.#.C.C.H.c U.Y.Y.=XtXb.W N.F.u.#.%.'.b.b.R.i.i.rXF.b.b.$.y.Y.@.3 v.jXkXhX.X2X$.J.'.lX'.}.r.D.[.[.R.U i `.SXDXi.8 2 $ p.i.i.Q q.|.T.'.$.% A.[.T.",
"$.n Z O.9 U O.r.2XR.a.i.W e.|.VXPXGX2X;.0 8 hXT.:.p p i.XXXXCX=XM.Z.C.b.Q.8.u.a 3 ] F.M.k.L.-.V =XjXzX_.9.c.#.} G C.c.J ^.lX^.S e +.|.dXnX6X X_.5XpXvXkXkX6Xr a mXFXfXg > , Y...F.9.< a.Q.c.| 6.,XgXV.c.c.V.K b wXY.C.(.Y.W.,.c.9.y.y.R.Z.L.7XP Q.U.8.=.%., V.1X'.{.{.y.(.,X8.{ U.rXrXR.i.] c.FXMX>X} 6 # ; L #..X4Xb.V.tXi.8.F.B.E 2.r.|.H 5.)...@.8.F.|.r 9.).c.|.pX:.} t.i.{.b.r.=XF.r.F.@.w.|.].A.D.i.c.A.] p ,.rXnXkX4XrXVXVX3Xe.6 8 i.i.F.[.i.O.n J.`.3Xi.$.'.q.$.w.@.M $.T.J.T.w.3 A.T.i.w.n H O.u U O.w.=XR.i.r.W r.*XmXnX:X[.jX3X=XjXU.;.p u i.XXXXPXGXtXy.h > 6 8.x.i 3 o.U.M.m.L.3.V =XkXxX_.9.b.=.| H C.N.H /.fX^.S r | }.fXNX5X X X5XiXvXkXlXeXr u y.1XfXX.2.D.Y.[ F.7.< a.).c.gXkXrX*.> > c.C.( b wXY.C.(.Y.E.,.u.9.u.r.Y.L.L.9XP OXF.y.;.$.3 V.1XR.!.{.r.).,Xc.:.Y.*X|.Y.F.,.B.|.M.Y.F.o...u.(.&XM.M.X.N.c.pXkXnXR.j : 8 R.#.C.).#.#.9.C.Y.x k.R.v.(.pX;.~ y.r.{.b.r..XU.r.T.@.w.|.[.D.D.y.c.F.W p w.hXlXkX4XrXv.`.}.VX[.*Xy.a.F.[.b.o.M `.CXGXT.y 2 $ q.w.o.M %.T.F.J.q.3 D.R.v.",
"%.O.U %.s Z R i.4X*Xw.u.O.@.T.jXPXHXrXo.6 6 3Xi.,.n 3 G. XXXtXC.8.Y.;XwXFX@X@.3 u @.F.n.K.L.j._ U.xXwXwXb.).-.r.5.R.6.~ {.fXZ.s s 6.,XuXkXeX6X1X5XMXVXjXNX<Xr n GXGXNXz $ $ .XY./.9.< a.>XZ.3.u.U.|.9.V.u.|.k.Y R.C.Y.>X%XL.M.c.8.x.=.C.,XF.+XP %X>Xv.@.:., k.1X{.t.i.B.9.&XA.#.Y.E.tX>X%Xb.c.MXMX;XV : # = ` Y.R.&XF.r./.B.5.B.B.! u.5.8.H #.V.( R V.W.>X7 F.R.b.%XOXy.O.F.D.F.D.a.=X).b.'.S.b.A.R.b.{.i.u.w.B 9 w.*X2X|.2XjXVXVX4Xe.h 0 [.W [.}.e.o.U }.p..Xo._ *XO.q.2XA.U #.'.G.i.o.3 q.A.$.r.O.U %.x Z R i.4X*Xq.i.} %.U.jXVX2X2X4X'.{.>Xi.w.m 7 F.}.XXLXnX1Xx.x 0 l %X*.4 u ..F.m.L.L.k._ E.zX9XeXC.(.-.9.5.J.9.T  XfXZ.s s t.1XuXgXdX6X1X1XMXMXgXnX,Xr m ,X6XlX9.! W .XY./.7.< a.>XC.fXbX|.L ; 1 x._.9.U R.C.Y.1X&XL.n.V.8.x.=.C.=XL.@XP %X3Xi.=.:., k.1X'.t.f.C.u.=XF.r.F.T.>X=X*XC.c.Y.).R.M.c.@.y. Xn.,.8.X.H 8.eXgXbX|.p > 9 b.} t.c.R ` Z.Y.|.j C.R.b./.+Xi.#.F.D.G.b.a.=X|.b.R.b.A.S.R.v.{.y.i.;.B 9 w.=X>X|.2XjXT.`.}.nXVX3X].W [.|.i.O.Z .XlXSXi.8 8 $ q.:XA.W @.'.J.i.o.3 q.D.w.",
"w.o.~ G.u O.;.G.5XT.w.i.:.$.$XhXKXHXhXR 8 0 }._ ] b.p (.dXlXG.b.,.R.].C.:XM.=.e Z :.%X>XW.OXl  .,.T.9XeX8._.W.Y.5.R.5.5.fX<X<X<.b H.fXxXeXlXgX4XpXMXSXMXlX<Xr P JXMXgXl $ = H.Q.R.7.u B.%XZ.5.5.Y.|.3.V.U.1XW...y.R.).(.L.+X;Xk.=.8.8.F.@X^.@X| L.R.v.S.F.p Z.>XwX.X|.Y.8.Y.,.} R.Y.>XpXT.C.|.lXSXgX{ 1 # ; #.(.,XtX,XB.@.#.B.F././.r.y.b.| H.R.,.C.P.&X|.m >X5X.X_.eXT.#.{.J.&X|.R.=XeX=X*Xv.Q.].'.A.,Xy.;.v.$.B @.R.R.v.*XjXZXGX4X;.p 9 =Xw..X*XG.r.W [.G..Xp.v.kX%.:.rX*XO.O.D.'.S.O.u p.a.'.A.@.$.!.x $.,.R.rX|.i.A.y.:.:XjXnXjXkX4X3XlX*X] $.F.k ].dXCXnXvX>Xn.l ; 6 L.,.a W y.*X8XOX%Xv *.x.Q.wXuXu.&XQ.).u./.u.t.lX6XeX9.F !.gXxXfXbXgXeXgXZXDXBXlX6Xz ] dX|.xXZ.2.t./._.|.c.b G.=XW.vXgXQ.C - ; W.eX).;.b.).&X_.W.-X0Xc.,.c.c.Y.,X).,X*.W.Q.M.T.U.x (.1XpX.X.X(.c.Q.b.5._.Q.&X5X|.F.F.F.R.>X|.Q.c.x.Z.b...P G P -.pXBXkXR.h : 8 b.#.6.B.5.8.Z.W.Q.E &X5X&X).tXR.5.|./.>X=X|.,XtX>X3XS.|.}.}.F.4XD.y.S.w.I ;.[.|.S.2XjX*XhXhXnXnX5X2Xi.2X3XT.p.O.}.nXVXA.k f $ i.hX2X$.%.J.{.T.%.i G.A.2X",
"jXw.:.{.n t.R.=XrXT.i.}.v.y.rX3XSXVXhXI 8 8 R.;.;.*Xm $.p.lXrXR.3X|.R.;Xx.` -.m m %.;X0X>.8.j M.v.I.&X_.{ F.R./.<.&X/.D.kX X).6.!  X<X6XbXwX1X}.kXSXVXnXkX&XM N FXSXrXt # $ y.c.Z.<.Z '.%XY.3.N.5.Q.8.y.F.>XV.` z.>X_.vX%Xm.Q.R.Q.+XY.+XU.W.@XX.(.W.R.wX|.x C.>XwX X&X4X/.u.b.M.1XpX8XrXkXC.Q.MXvXwXm 7 > 1 #.#.Y..XR.R.a.=XG.F.=Xa.f.R.Q.a.H.:.u.M.1XR.v.M &XwX1X=XwX=Xr.D.G.R.J.|.&XrX3X*XF./.b.].4X3X,.a.>XT.Z v.qXi.'.jXVXVXHXVXW 2 8 3Xe.4XhXT.'.,.`..XhXG.M.pXJ.e.rXrX'.D.|.'.b..XZ '.4XVXjXw.:.`.M r.R.=XtXT.i.}.v.i.wX3X>X*XbX*X4XhXR.;.:..XB $.t.lXGXVXmXy.h 5 ; _ ;.m M ;.;X0X>.8.t M.v.F.%X|.` F.R.^.#..X/.D.kX_. X6.! XX<X6XvXwX1X}.bXSXVXnXgX XF b 6X9XuX9.+.2.u.u.G.3.M '.%XZ.fXgXx.B = = U.>Xm.] y.>X_.vX;Xm.Q.R.Q.+XY.%XU.W.@XX._.W.Q.wX}.z M.>X6X X.X5X/.a.M.Z.=X>X%X=X5XF.F.R.F.Q.=XY.B.Y.#.R.Q.-.J X.7.lXMXlX|.l > > i.5.8.8.r.u.|.C.y.G |.>X>X|.4X*Xr.D.G.R.J.|.&XiX3X*XF.R.b.].4X3Xe.i.>XT.Z n.3Xi.[.kXVX[.hXDXhX*X2X3Xi.2XhX'.'.,.`.VXGXJ.h 0 > w.4X4X'.A.|.'.b.=XZ '.rXVX",
"rXS.U O.i %.F.F.=X}.[.J.;.R 5X3XSXSXmXC 2 h }.M A.2XB k T kXXXu.e.F.=.L.8.A E 1 u R R.L.W.k.# ' ..,.].9.` ).C.7.F rX6XB.eX^.s.! S !.(./.nXF.{.5XbXVXrXrXfX_.@ n HXHXeXt $ # Q ] C.N 3 '.b.7.! #.R H.C.F.].>.*.N $.F.Y.>Xm.L c.c.).).C.T.&Xu.*.` Y.;XY.U.J.u ( R.).Y.F.c.i.b.F.#.c.:XQ.5XkX=X/.MXvXpXN.p 6 > } 5.D.|.a.%.R. XH.8.F.%.+.r./.-.G.;...9.Y.Z.F.p &XmXR.b.=XS.2.G.a..Xe.B.wXR.rXrXv..Xa.F.{.5Xi.G.5Xv.p [ R.v.'.'..XVXHXcXI y 2 *X$.2XrX`.*Xw.hX`.hXrXe.=Xw.w.=XhX2XO..Xe.;.b.i `.4XjXrXF.R +.i %.S.F.=X[.'.J.;.I 3XqX).{.kXT.`.kX}.M A.=Xm k T kXGXlXqXe.6 5 ; K ` , u R R.L.W.k.# ` ..,.|.9.{ ).C.9.H eX5XV.rX!.N.! b !.(./.nXF.{.1XlXVX4XrXgX_.% b 1X<X<X<.! E W ] C.G 2 '.M.8.gXgX-.V 1 > Q.>.*.N =.C.Y.=Xm.A c.c.).+XC.T.&Xu.*.E Y.*XY.L.J.u ` Y.Q.Y.F.b.u.b.F.:.c.:XY.&X>XY.Q.F.U.F.|.>XC.F.b.8.c.L #.N.J.gXpXwXH.p 2 : R.-.u.B.-.#.Z.b.b.c ).jXJ.b.&XF.1.G.a..Xe.B.wXR.rX5Xv..Xi.H.[.5Xe.G.4Xv.p o.T.A.R.{.*XG.jXhX`.3XD.*XO.4XrXT.*Xw.hXVXKXhXl 8 : w.=XkX2XO..Xe.;.b.i J.4XhX",
"2X;.Z $.n T _ e.R.2X|.A.;.Z F.x.vXGXhXI 8 y S.o.I k p ] +.+.2.@.A =.c.W.=.*.:.4 m E n.W.;XW.o v.9.c.&XC.E (.c.3.Y 4X.Xu.gXfX(.D w G.u.B.BX%X,X5XrXpXtX1X_.tXe } JXmX(.e , # } w.(.{ + F.c.3.! <.3.b.C.c.W.E.H m x.;X|.C.M.L ,.Y.C.n.-.,.c.}  .N b.;Xx.` D.e P @X1XeX].S.b.#.G...Z.9X;X|.Q.T.|.MXDXvXN.p 6 2 L c.y.{.:.3.&XY.G.8.R.y.#.y.6.} X.3.c.c.U.;.;Xa W.%XA.D.|.=Xr.r.G.2X].y.jXR.rX4XF.[.F.|.}.hXi.5XnXT.i w.*Xv.G.p.A.VXDX4Xo.y ; *Xq.`.jXb.T.w.3X2X2XS.;.rXW %.R.hXlXT.5Xo.I ] W b.*XrX2X;.Z $.s W I e.R.5X.XA.;.Z F.v.v.>XrX'.*X6XF.] I l y o.+.+.kXlXQ._ 0 6 = *.;.4 c E m.E.;XW.o n.9.c.&XC.E /.c.5.Y 4X.Xu.gXgX(.D w G.u.B.BX%X,X5XtXtXtX3X|.eXe } pXC.Z.! d.J Q y.(.{ @ F.c.3.pXgXb.c 1 ; W.E.K c i.;X|.S.M.A ,.Y.C.c.-.,.c.|  .V b.;Xx.` D.e ) +X1XwX].F.b.%.F.#.Z.>XQ.Q.Q.R.Y.b.=XU.R.6X=XQ.c.v.F.Y.B.H.V.gXkXeXH.p : 6 {.y.3.M.8.-.M.:.Y.n Y.|.b.A.].=Xr.r.J.2X].y.jXR.hX5XS.|.F.}.}.jXi.5XnXT.k =.*Xi.F.p.A.D.}.2XrX4XD.=XO.'.hXA.T.,.2XHXGXT.p f # ;.R.hXlXJ.5Xo.I ] U A.*XhX",
"rX$.u U n B o.w.i.T.S.A.U.o.].U.AXSX3XZ 0 9 S.w.e.I h Q ^ r.O.Y.e.R.Q.-.-._ ,.N a 8.>.-X@Xj.o &.:.|.T.F.$.=XY.X.M .X6X#. X1X<X! u J./.R.ZX1XF.).5X4XtX=XL._.< h HXMX1Xt : % %.=.(.c.w ;.c.u.~ } -.%.u.8.n.+X*.G U.R.G./.+XL -.y.u.j.` >.3.9.V.L |.c...L u.4 b (.).9XVX5XlXJ.R.B.(.*XU.eXS.Q.wXDXSXMX] e 6 1 } y.B./.b.b.%X%XG.8.|.c.8.r.B.O.5...Z.C.(.[ F.r c.|.F.R.|.a.} }.XX4X=XF.5X=XkXrXe.D.D.|.*XjXT.lX4XS.m _ T.A.i.i.5XkXVX*XI 2 : hX$.A.3X;.T.v.3X}.[.e.Z }.O.%.i.}.4Xi.4Xw.' W u q.J.:XrX$.u U n A o.e.i.F.S.S.F.[ Q.T.T.*X|.J.3X[.T.r.e.I p ] O.2.kXZXqXM.l = = ` ,.N k 8.>.-X+Xj.O o.:.|.T.F.#.>XF.X.n XX6X<._.<X,X! u J.).R.ZX1XF.|.1XrXtX>XP._.< p 1XU.&X| 1.1.%.;.(.c.3 #.b.u.fXdXC.h > ; M.+X..Z U.R.G.(.+XP -.y.u.j.( ,.-.9.V.K |.c...L a.3 z (.).1XMX3XlXR.R.B.).+XF.=XY.].%XY.Q.U.C.U.Q.&XM.).|.Y.N.).H.pXMX6Xb.p > 9 y.5.#.y.c.-.Z.=.c.c c.Q.F.T.|.b.} }.XXXX=XF.5X=XhXrXi.S.F.)..XjXJ.lXrXS.m ] T.A.p.i.4X$.'.'.}.D.a.hX$.A.3X;.T.i.4XDXVXF.6 8 $ %.i.*XrXi.rXw._ W u q.S.2X",
"vXw.i I i o.e.I w.].*XS.S.@.rXS.SXSX}.I 2 8 i.#.*Xe.u R i.J.i.wX>X,.A A y.%Xn.C z -.>XW.*.m.o ,.[ ' ,.E...wXU.#.Q ,X_.u.C./.^.J s XX|.lXvX_..X|.{.1XpXMXeX/.% B HXxX1Xr = = y.y.Q.C.r @.8.9.X.u.#...8.c.Q.OX` c :.F.C.U.m.7.c.M.R.W. .C.u.)._.-.>XR.V.-.:.u z &XR.=XvXrXkX}.S.B.>X>XR.|.%Xx.Y.HXDXZXV.7 2 = 9.x.;.F.J._.S.;X=X{.kXc.V.6.F.#.B.&XV.8.M.v.c.7 j.>X*XF.U.rX8.b.D.,X[.D.5X2X|.rX,.b.D.,XhXrXJ.kX=XA.Z o.T.}.2X'.GXVXSX2XZ 2 : rXS.`.2XZ H.o.`.A.*XS.o..Xw.i.'.T.=X%.rXT.e.$.3 o.p.3XvXw.k I i W e.I w.[.*XA.F.o.iXS.*X=XT.'.'.*Xy.%.*Xw.k R r.J.nXHXmX' > O ; :Xx.V s -.1XW.>.k.o h.[ ' ,.T...wXU.#.Q ,X(.c.C.R.^.J s XX|.lXvX%X=X|.|.,XpXMXeX(.% B 5Xy.&X<.<.+.t.8.R.Z.r @.7.y.kXvXc.t ; > oXOX' N ,.b.V.U.m.8.c.M./.W. .M.u.)._.3.3XY.C.3.-.u z &XR.>XvXrXjX}.F.D.,X>XU.R.&XS.Q.|.S.M./.F.|.%X|.T.%X6.u.R.F.vXnXeXS.h > 6 G.5.8.H.C...y.c.8.k k.>X*Xb.U.5Xy.b.B.4X'.D.5X=X&XrX,.v.B.,XhXrXT.kX=XA.B @.T.}.2X'.GX`.}.*X`.`.i.rXS.`.2XZ S.O.`.VXDX[.8 8 : p.'.T.*X%.4XF.e.$.3 Q i.3X",
"*XI y U M $.`.$.$.v.R.v.@.;.T.E.VXDX3XB 8 8 y.|.].S.I o.v.XXJ.R.T.' ] C e.8X;XK z R.+XE.h.*.. E.[ _ x.*Xx.vX(.8.%./.V.c.#.b.&X{ & }.).gXpXwXdX6X6X.XiXGXNX@X@ m KXJXpXx % ; !.X.8.#.t u.' 3.5.s.8.:.:.] *XOX..x F.|.;X8Xn.h.9.c.H.E.*.@.N.#.V.V.&X|.Y.c.A.i G %XF.).MXFXbXF.F.R.1XwX|.c._.|._.ZXLXVX` > : 7 -.M.Y.&Xv.-.c.U.R.u.R.v.} ..'.3.u. XZ.C.).x.-.2 8.Q.=X*XiXrX] H b.rX=XR.vX=XR.kX*X|.|.rX5XhXy.rX$Xo.I ] wX2XhX:XVXVXVX2XM y = *X'.`.}.k :.Z $.`.3XA.o.T.U ~ F.'.}.w..XS.S.i.3 ~ w.}.*XI i M M q.`.o.$.x.'.v.$.=.T.T.b.*X|.T.|.5Xr.|.].S.I o.b..XZXZXjXZ 6 O ; 8X>XG j Y.+XE.h.*.. E.&._ j.:Xx.vX(.8.+. XN.c.-.b.&X{ & }.).gXiX6XdX6X6X.XiXGXMX@X# m kX5X0X9.+.<.!.#.8.=.e u.' 3.lXbXC.h ; # *XOX{ x F.&X=X8Xn.>.j.c.H.E.*...N.#.B.b.*X|.H.c.b.i K %XC.).MXSXbXF.F.R.1XrXR.c.).=X&XR.].C.B.Y.v.F.Q.Y.Q.H...B.u.MXvX1XF.p > > H.5.u.H.Y.5.F.M.@.t >.Q.=X].pX4X} Z v.rX2XR.bX*XJ.kX|..X|.rX3XhXy.rX$Xo.U ] rX3XhX:XVXS.F.}.G.2X%.*X'.`.}.k w.Z O.VXHX'.y 6 O Q F.'..Xw.|.T.A.i.3 O.i.}.",
"T.;.Z Z U T w._ e.[ v.S.v.o.*X2XVXHX|.B 8 8 $.u.=X=Xl k 5.!.f.@.@.1X' b.R.K.zX{ 7 ' L.M.+X(   S.K.+XK.oXM.mX7X:.+.}.Z.u.} 8.eX3.& XXgX*X=XrXvXeXfXY.pXSXMXV.@ R PXHXgXg = : 5.8...} s !.u.9.6.E u.c.*.c.n.T.*.z y.=XeX8X7X>./ =.c.V.[ ..-.E | #.>XY.u.3.R.W r Q.R.H.dXGXnX|.R.-.|.rXy.c.>X|.F.SXPXpXm 1 - 9 Z.&XH.2Xi...c.6XJ.:.R..XK 3.6Xu.E b.-.8.|.Q.R.N ..Y./.3X3X].;.T..X'.w.b.3XR.R.rX*Xi..XnX}.rXw.M.3Xe.k l VX3X3X}.4XmXhX3Xo.9 > hX[.q.A.B o.%.F.p.3XS.$.G.W Q '.'.rXi.rX}.i.D.i i.R.$XT.;.Z Z U U w._ e.[ v.F.v.] *X3XT.jXU.U.[.[.#.i.=X=Xl k :.!.nXjX>X_.6 ; 5 K.zX| 4 ] L.m.+X(   S.M.OXL.oXK.mX9X:.#.}.H.u.} 6.dX3.& XXgX=X=XeXvX6XfXY.pXZXMXV.@ E MXdXeX4.+.t.5.8...} s ^.u.9.bXeXG.l ; > m.T.=.z i.*XrX8X7X*.( -.c.C...] -.E #.#.>XY.c.5.].W e Q.Y.H.dXGXMX'.R.:.).4Xu.c.|.|.|.&X3XF.8.C.L.Z.c.W.R.-.P V.).bXMXpXF.p - > H.-.5.y.3...B.Y.M.H =.Y.Q.&X3XQ.;.T..X'.r.b.3XR.R.rX%Xy..XnX}.rXw.b.3Xe.k m VX3X3X}.rXe.%.}.2X{.i.kX[.q.A.B o.%.G.nXGX[.y 2 $ o.'.].5Xi.rX}.i.G.i i.R.OX",
"[.F.] M q.p.S.q.T.;.F.v.[.;.z.3XGXSX[.k > 8 $.Q S.R.k 2 %.u.%.} C.N.V H R.oX9X8., ' n.L.OXC . vXyX9X@Xj.n.zXM.8.c.6X&XH.E G.dX| w .X1X&XW.).=XY.V.-.rXvXzXk., | IXHXfXb % $ r.&Xx.E x %.} s.6.! #.8.*. ...x.8.P ;.R.Q.yX;Xl.C E ,.W.( =.i.5.#.H M.y.:.=.|.t.a W.b.X./.>X].b.F.u..X=X|._.=Xb.R.KXPXMXL e 1 t ..m.b./.{.] C.|.T.i..Xb.E b.|.E P Z.P 3.W.L.=XR >.%XR.R.S.Q.$.|.rX[.r.D.*XU.A.rX'.@.|.4X3XrX$.b.8XT.k m jXhXhX2XjXnXjXA.Z 2 = 4X*Xq.p.k o.w.{.p.*X`.Q T.Q I T.|.4X$.e.T.r.`.M w.T.U.'.F.] Z q.p.`.q.E.=.U.v.[.;.z.3X*X|.F.y.i.5X@.~ F.T.k 2 %.t.lXgXiX=.; $ 6 oX9X7.: ' m.E.OXC . vXyX9X+Xj.m.yXK.8.u.6X&XF.E G.dX{ w .X1X|.Q.).=XY.C.-.rXvXpXk.< } ZX6X6XB.^ +.r.&Xx.E x %.} s.lXdXc.j = # o.x.8.P =.R.(.yX#XK.C R ,.E.( -.y.8.#.G m.u.;.#.|.r.r (.b.../.1X|.y.U.u. X=XR.Y.&XF.R.eXwXU.c.V.).R.C.Y.c.} { 6.,XSXFXtX5.7 - 1 (.b.#.b.#.#.Y.U.Q.Q 7.+XR.R.I.].=.|.4X[.r.S.*XT.C.rX[.$.{.4XrX4X%.b.8XT.k l jXhXhX2XjXv.r.r.`.`.$.4X*Xq.p.l ] w.}.nXCX[.y 2 O U J.*X3X$.i.T.w.`.M w.T.H.",
"S.T.o.p i.O.[.e.R.T.*Xw.S.@.$.:XDXSX=X0 = 8 T Z B R ;.9 F t.6.` -.3.} A %XmXAXk.% C.n.W.7X-.. &X0X@X@XH ] 7X-XF.5.C.|..X+.G.^.M w !.(.v.c.).wX|.} ..pXpXpX9.e w.IXLXtXt o $ J.>XC.,.H C.P u.u.! L { ] ..c.=...@.b.R.%XvXyXk.( >.y.L.>.F.Y.b.^.8.b.M.;.9.F.#.r c.F.v.F.F.b.F.R.F.,X(.>XrXF.c.C.FXLXSX,.e 8 2 H { D.R._.E b.&X5XF.C.5.} #.#.V #.Y.| s.*XS.=XU ' =XY.nXrX%Xx.nXvXrX5XS.rX>XD.rXR.$.b.Q.rXhXi.S.:XU._ m R.|.hX[.4XSXjXv.I 8 $ 4X*XA.`.9 R A.[.`.[.[.o.`.W I *Xi.[.%.T.*Xe.i.Z A.[.b.S.T.&.i i.O.[.e.R.T.*Xw.S.@.;.*X3X}.'.] ;.|.W Z V R ;.8 F t.vXfX1X` 1 O 8 mXAXk.% F.n.oX7X=..  X9X+X-XK ' ;X-XF.8.Z. X X+.G.!.S u f.{.c.c.).eX+X{ ..tXzXgX7.e r.FXkX<X{ d +.G.5XV.,.K M.L u.bXeX:.t = ; c.=.....b.R.%XxXuXj.( >.y.L.>.F.U.V.^.7.b.M.;.9.F.#.r c.F.b.D.F.M.F.R.F..XY.&X>XY.F.Y.=XtXQ.F.H.b.B.u.)./.r.3.6./.bXMXtX-.l ; : G.#.-.F.6.6.R.x./.R *.&XU.kXwX*Xx.bXlXrX5XM.rX>XF.rX`.$.b.].rXhXi.S.:XF._ m R.|.hX[.4X'.i.$.'.2XO.2X2XA.`.9 R A.[.VXVX2Xy 2 $ I *Xe.[.q.T.*Xe.p.Z A.[.v.",
"F.E.,.l D.r.I._ [.$XI.A..X;.o.3XPXAXR.l > 2 v.s c M *X[ M %.5.@...-.;.>.n.j.mX).; T.9X+XK.*.. u.8XK.mXW...T.iXF.C.u.6.V.5.y._.S w f.{.,XZ.;.vX(.u.y.vXpX;X3.< @.PXPXgXr # 2 2XwX&X/.{ Z.V +.6.| E ` A L ;.h.[ b.y.'.>XyXzXl.( ,.,.L.>.,.Y.(.k.c.c.y.Z 8.R.H e y.R.}.1X4XwX3Xb.6.&XtXtXrXR.U.y.ZXPXMX[ e 2 : G P 5.{.F.#.B.Y.T.b.v.{.] 5.......&XB.G.iXM.] s  .;XB.gXvXqXv.rXkX.XwXI.U.|.R.4X*Xw.@.[.3X3Xi.$.3Xx.I y S.].T.T.[.VXhXT.W 6 % A.S.p.'.p e..X[.3X*Xz.W A.n W [.A.].w.F.*X-.J.s i.3Xz.S.E.e.k D.w.I._ '.$XI.A..X;.o.3XmXR.b.b.v.T.v.s c m *X[ M %.vXkX;X` 6 ; 5 z.xX@X; Y.9X+XK.*.. c.1XL.mXW.=.T.iXF.V.y.8.B.5.u._.F w f.{.1XC.:.vX).c.r.vXpX;X3.< @.BXvX6X<.D D.=XwX&X^.| Z.N +.vXpX,.8 O O ;.j.[ M.y.'.3XyXzXm.( 7.,.L.>.8.Y.Q.c.u.c.y.Z 8.R.H e x.R.}.5X5X4X3Xb.8.&X6XwX>XR.R.b.&XpX=XR.M.v.F.Y.).&XC.#.Z.F.bXvX6Xv.m : : C.r.#.C.F.u.>Xv.] N ..*XD.rXvX>Xv.iXvX.XrXU.T.Q.J.4X*Xe.@.Q.3X2Xi.@.3Xv.I y S.[.T.T.[.S.;.i..X{.q.p.S.i.'.p e..X[.DXDXT.y > O W [.A.[.w.F.=X:.G.n i.3Xn.",
"rX*X=.m i.F.Q.I U.:X].e.T.;.] 3XPXDXR.I 8 6 [.k W n R.U.R i.B.H.M.n.V.c.;XE.;X7.g &X+XE.j. .# =.mXj.+XW.8.c.*X*XW./.! t.| F. XP w 1.D.{.C.U.iX|. XY.mXpX(.7.; $.PXJX&Xr $ > =XpX0Xc.5.c.] } O.-.| ` ..8.9.h.=.-.e.J.wXU.9X9X*.n...C.*.;.E.m.3.Y :...` $.F.k < k.H.Y.6X>X3XnXR.y.=XgXmXMX5X.Xe.nXSXmXv.1 1 ; C s.Y.gX-.` b.|.y.M.F.b...F.u.F.c.&X-.5.3X,.R n  .wXS.|.Q.iXR.).>X=XtX*X|.=XJ.|.|.e.I v.*XT.i.o.T.i.o.y *XhX[.*X2XVXVX|.o.2 $ F.J.T.4Xp i.2XR.rXjX$Xo.A.U o.F.}.|.T.b.|.R r.s G.hX[.rX*X&.m i.F.]._ T.:X[.i.'.;.] 3XVX$XS.|.[.'.'.k E n R.U.R i.nXBXrX-.g > 8 E.;X7.g &X@XoXj. .@ @.bXj.+XW.8.c.%X*XY.(.] t.| F. XP w 1.D.{.C.U.tX|. XY.nXpX(.7.- @.gXeX(.X.Y b.2XpX9Xc.7.c.] O.gXgX9.0 = ; 8.j.=.;.y.R.5XL.<X9X*.c.*.M.&.,.U.m.6.P :.@.` #.F.k < k.H.Y.6X>X3XnXR.v.&XeXcXtX=X=XM.U.|.|.|.b.).Y.Y.(.|.C.] C.u.nXgX>XH.h > : F.b.5.F.5.#.R.,.] H ..1XF.Q.W.iXQ.).=X=XiX*X%X=XJ.|.|.e.I v.2XT.i.o.R.y.o.y *XhX].*X2XA.F.T.2XT.Q G.F.J.4Xu i.2X`.LXLX3Xy > $ W T.].|.'.b.].R t.i D.rX'.",
"hX$Xz.I e.J.[.A v.$Xv.] '.$.Q :XPXVXv.l > 6 [.n i.b.>X>XW r.D.Y.Y.9.7.n.W.0XL.v k m.m.L.+X*.< m x.....B 8.@.b.R.V.V.%.B.Z 9.<X<.u ~ b.1XM.M.pX5X(.F.uX(.;X^.o ;.PXSX(.g O = =XvXY. .9.>.@.| B.^.Z.:.R Y.K.[ &._ v.H.rX7XW.+X-.L.A ( ( =.j.` { ` ..] Z -.S.i @ C.R.9.|.R.=XbXcXF._.CXrXiX6X>Xv.bXSXnXc.4 1 : P X.G./.C.W C.4X.XC.eX&Xr.F.b.:.5.c.H.F.%X,.H.Q H *XQ.Q.W.M.-.R.R.F.hXQ.*XjX}.S.|.v.;.@.T.J.J.O.8.i.B p '.:XpX2X[.kXvXrX_ = = [.3X2X}.M :.'.T..XhXrXv.A.W T T.}.iX'.b.F.M J.U r.*X*XjXOXz.R e.J.].Z v.$Xv._ T.$.Q :XcX].o.i.v.}.*Xk r.A.>X>XW r.MXZXgX..7 > 5 0XL.v k m.n.M.+X*.< B x...[ C 5.@.M.R.V.B.#.B.Z 6.6XX.u ~ b.>XC.M.pX>X).F.uX+X&X^.X %.bX<XZ.<.J %.=XxX(.} 8.-.@.| nXBX(.h O 6 K.[ .._ v.F.rX8XW.+X>.L.H ( P *.j.` ` { ..] Z -.S.i @ V.R.9.|.R.>XvXkXF. XNX5X>X1X=Xv.R.Y.*X>XR.|.Q.3.F.|.F.} u.b.nXnXrXQ.k > > |.y.5.u.G.y.F.:.F.@.` (.Q.T.Q.M.=.R.R.F.hXT.&XhX}.S.|.v.$.@.T.T.J.O.y.i.B p '.:XhX2X[.i.b.=X>Xe.$.{.3X2X$XM q.[.T.DXLXhXn > $ W J.'.jX'.v.F.M J.U e.*X3X",
"3XM.n.[ J.2X].o.T.3X4Xz.[.e.@.T.DXDXT.k 2 6 ].m w.[.v.*XD.r.Q 5.-.3.C.%Xk.,.*.` , U.n.n.7X).% 4 Y.M.r...` B =.M.2.X.(.k.F %.fXH.s i. X;X*X&XR.kX,X&XpXgX<XP.@ W PXPXY.k $ O /.rXV...k.Y.#.Y 1X7.8.R.` F.c.n.8.L y.|.:XvXL.@Xj.h.) ( P ( ` v ` c.c.:.[ (.F.p % V.c.7.&X).=XBXHXF.u.nXrX>XF.,.F.MXvXkXo.; = - ' <.b.b.8.} b.R.tXY.=XR.] 8.b.y.-.5.&XC.M.C.&XG.j 1X>XwXQ.b.c.c.y.G.rX].].jX].R.'.:.i.:..X[.}.F #.$.] i yXwX5X].a.nXVX3XI 2 $ %.3XF.v.i W [.[.J.4X'.T q.$.U a.$.=X].o.e.m i.M w.2XrX3Xv.K.[ T.2X].] T.:X3Xi.[.e.@.T.$X*Xb.;.M.[.].m w.'.v.*XD.r.tXlX1X' f 8 > >.*.{ , U.n.n.;X(.= 4 Y.b.8.@.` V =.b.<.<./.c.H %.fXZ.s f.|.;X:X*XR.kX=X&XpXgX<XP.@ R NXfXV.3.Y N /.rXV...c.W.#.E HXxXC.A O 1 v.n.8.A y.|.:XvXK.#Xh.>.{ ( ( K ` c ` c.c.;.../.F.u % c.k.9. X).=XMXHXY.V.lX3X:XR.C.Y.U.T.C.U.).|.%XF.6.R.8.8.c.3.bXMXkXy.l 6 6 rXc.c.r./.r.M.Y.).D.m 1X>X>XQ.M.c.c.y.G.rX].|.jX[.F.'.:.i.,.}.'.}.H #.@.] i wXwXqX[.a.i.J.*X[.S.O.;.>XF.A.i W [.`.DXGX*Xy : $ U p.@.2X[.&.w.n b.M w.2XrX",
"T.T.I.I F.qXOXI `.$X2X}.].S.,.3XVXVX[.l > ; S.M @.y.,.Q.D.2.Y H ' c.x.n.P.>.*.{ % Q.>XK.;X;X; 1 >XC.C.;.` ....b.s.t.vXgX] u.<X9.F B.|.W.W.$XU.5X&XH.SXyX(.V.@ G JXxX^.r O $ C.wXk.*.b...E P C.( 8.R...[.7X%XK.Q.R.wX9X7X0XuXK.V.L.....j ..E 6.Z.M.M.C.v.b.n + ..y.Y.F.6X&XvXjXF.C.1XgXpXv.| Y.MXMXrXv.6 1 - R c.|.F.v.|.F.@.C.u.|.Q.E ).v.|.u.V.3.#.=.|.Q.] t ).F.8X>XQ.@.} >X.X5X|.Q.wX=X|.v.Z a.|.F.y.t.n | @.Z p 5X3Xb.[.q.nXnX2XZ 9 $ A.*X:.T.n $.[.G.}.*Xv.U r.$.T `.%.T.rX;.o.p O.F i.3XrXT.T.I.I F.qX].A `.*X2X|.].S.e.3XQ.R.T.b.v.i.F.V =.i.w.Q.D.2.dXrX&X=.f ; 5 >.*.` % Q.>XM.9X;X; 1 >XL.M.-._ ..@.b.u.t.xXxX` a.,X6.F B. XW.W.].U.5X&XH.SXuX(.V.; V 5X7.V.3.x ] C.wXk.X.m...R E nXuXC.A = 6 7X%XL.W.Q.4X9X7XyXzXP.m.L.[ ..l ..` 5.Z.M.M.M.c.v.n + *.y.Y.G.6X&XkXjXY.H.=XtXrXF.y.R.B.Q.W.).C.>X&X-.! V.^...c.H.SXnX>X;.h > > Y.C.#.5.B.-.8._.Y.@.c W.C.*X:XQ.#.} >X.X5X].Q.rX=X.Xv.Z b.|.T.e.r.M ~ @.Z p qX3Xb.].r.v.A.'.J.2XQ A.*Xw.F.s w.[.G.ZXSX`.3 : $ T J.;.T.rX;.o.u o.F i.3XrX",
"I.[.I.I v.*XT._ T.T.3X=X[.I.o.I.GXVXI.C 6 = Q s ] :.R A 8.f.6.@.X.&X@XQ.L.L._ G % F.@Xm.7.W.# 4 rXoX .M.8.m.L.9.(.! fXmX#.#.H.X.+.b.8.Z.Y.L.;X=Xc.} nXMX&X7.. $.JXJXtXg = : ).yX9.C y.' ` (...-.] ).` U.-X7XW.pXwX>XmX7X<XE.k.k.>.' ( g ' =.@.R wX>X|.@.-.O.; Z.c.Z.9.Y.H.R.>XF.{.tX>X>X>XR.Y.BXSXpXy.7 # > ' ..=X%X-.G.|.y.#.Z.c.F.} =X&X=X^.H.5.5.Z.B.C.8.9 j.v.Q.iXtXy.@.*X'.3XrX%XjX=X|.'.Z R.&XS.U.B.s ] A.o.9 |.[.}.CX.XVXcX*XI 0 O S.*Xy.`.9 r.G.t..XrX'.O.p.%.:.a.@.T.[.I e.y s Z A.*X%XI.[.I.I b.*XU.] T.T.3X2X[.T.' I.*XT.v.T.U.e.] i ] ;.I I 8.f.vXzX>XY.v 5 > L. .C % F.;Xm.>.W.* 4 yXOX .M.8.m.L.y.(.! fXmX-.#.Y.X.| B.8.Z.W.L.;X=Xc.} bXMX&X7.. $.dXeX<X4.} u.|.yXj.V x.] ` (.pXgXz.I = 5 -X>XQ.pXwX>XmX7X1XP.j.k.7.' ) j ' =.#.R qX3X&X@.:.O.; Z.c.Z.9.Y.H.R.>XF.|.tX=X|.=X}.C.C.&XQ.U.R.=XU.W } 5.,XM._.C.SXnX>X-.m 2 : Y.=XX.c.Q.6.9.v.c.9.k n.v.W.tXrXc...*X'.3XwX%XjX=X|.R.A ).|.S.F.a.s Q A.o.9 %X'.}.CX}.p.i.R.[.3XU A.*Xy.`.9 w.J.i.DXHX*Xy : ; %.A.o.F.].I e.y s Z A.*X%X",
"v.[.I.I a.:Xe.R *X3X>X*XQ.*X;.=.AXjXT.I 0 5 ;.} w.rXS.&.].R.#.5Xy.&.L.xXc.P.W.N @ b.)...>.@X# k -X@X( ` U.W.).5.=.x Y.eX9.u.u.6.G Y ] #.uX:XQ.,.C.X.6XiX;X{ + #.JXPXfXt # 2 iXxXP.v S.:.C.X.c.Z.' C.` U.:X>XQ.;X9X>XzX8X@Xm. .V.L.,.8.j C ( H R >XQ.Q.@...<.< >.T.F.-.Y.u.c.5XQ.|.kX{. X4X|.:.vXAXwX,.7 $ : G b C.Y.[ u.).R.u.!.C.>X..-.(.%XC.6X-.B.u.b.c.v.4 c.F.Q.3XrXb.=.%X&X].U.z.bX=XR.tXv.;.] i.b.#.n q.A.o.y x.R.rXnX5XhXjX|.l 0 O w.$Xy.G.m $.'.v.'.3X[.$.q.A.F.U ] v.v.W [.n n $.%.*XwXv.[.S.I i.:Xe.R *X3X>X*XE.*X;.;.U.;.v.Q.>XR.-.} ,.qXS.;.].{.kXGXwXL h g > U.W.b @ c.).' 7.@X# k *X@X( E U.W.).3.#.b Z.eX9.u.u.6.H H ] -.tX&XW.,.C.#.5XpX=X{ + -.6XnX6X{ ` R.eXxXL.c S.3.C.X.bXMXy.l * 5 7X;XQ.-X9X>XpX7X;Xm. .Z.C.,.>.g C _ H R >XQ.R.....<.< >.T.F.-.Y.u.c.>X|.|.jXR.|.=X&Xv.F.|.b.Y..XwX&X..9.^.,X| c.b.BXZX=Xi.l 2 : &XB.X.Y.B.5.#.V.8.x.t c.F.R.>XrXb.;.].&X].U.x.vX3XR.tXv.#.] i.S.#.n r.A.o.y x.'.rXnX4Xo.o.J.S.2Xm w.$Xr.G.m @.'.A.VXGX3Xy : 1 D.I ] M.v.W [.n n $.%.*XrX",
"M.*X$Xo.$.*Xz.U }.rXrX[.3X[.I S.mXiX&XC 5 0 v.Z w.tXDX$X:Xw.] *XW...v { 0X1XW.' < ~ ).,.(.@X; t ;Xm.( M.wX7.*.m.Y.b X./.B.b.Z.#.H -.#.C.).|.Y.F.V.` >XvXR.6.@ y.LXPX#Xa * ; W.1XV.V R.b.H.Y.Y.V.( V.7.T.>XL.W.+XY.M.mXzX;XoX*.8.;XM.W.b m y.` Z wX].$.] -.8.r =XS.Q.c.R.).b.].|.|.rXb...=XgXV.MXVXpXM.t ; ; U E ;X].@.r.c.|.F.R.b.F.[ c.C.R.).eX..P c.B.3.[ 7 u.y.5X6X|.F.=.o.r.R.b.v.iX=XrXVXS.W $.b.F.] a y.%.w.p y.R.Q.jXR.kXjX|.Z f O T.jXe.G.o.o.|.i.`.2Xv.W q.'.T.R R v.z.I *X9 U q.%.].:XF.*X$Xo.$.*Xe.W }.iXrX[.3X[.I S.v.o.T.U.E.>Xv.H :.rXSX$X:Xw.pXDXkX/ - # t 7XW.' 4 ` _.,.).@X1 t ;Xm.( v.wXy.*.m.L.b #.).B.b.F.-.J #...F.).%XY.F.V.] >XvXR.6.+ y.tXnX(.<.E 8.W.1XZ.C '.b.F.Y.MXmX8.m ; 6 >XI.T.+XE.b.mXzX7XoX=.5.*XM.E.v c y.{ H wXOX@.} ;.6.r <XC.Q.c.R./.c.|.Q.|.4Xb.-.=X6XR.).F.b.Y.).1X3Xb.9.,XG.K ` D.MXZX=X-.l 8 2 S.y.5.C.@.H 9.F.-.#.k c.y.>X5X|.S.=.] r.R.S.b.rX=XrXVXF.W ;.v.F...u i.@.:.u y.Q.Q.jXR.$.;.J.T.kXU J.hXw.G.o.o.}.i.ZXDX`.9 = 2 `.W W M.z.I *X8 U q.%.[.:X",
"T.$X$Xv.o.S.`.o.F.T.v.|.[.M._ e.VXpX[.B 5 8 M.m S.rXLXE.$X'.:.i.y.&.' v (.1X@X=.r R @X8.W.W.- c Y.n.*.` Q.8.W.&X&Xz 9.Y.).^. Xu.H u.8.9.U.1Xc.:.Y.%.*XFXeXZ.@ v.PXLX<Xj 6 1 +X(.W.L R.&X=.C.>XL.t ;.>.%XU.;.R.OX+Xb.MXvX9X:X>.C.Q.x.W.g ;.1X9.! U.>XQ.H.|./.x 9.b.R.|.&XG.c.y.;XeXR.=XB.b.v.H.nXvXpXL.h ; ; H x F.|.#.#.9.v.C.H.U.wX:.U.Y.F.F.|.y.F t.;.%.@.9 G ' ).3X|.i.R W :.2X|.R.nX*XrXrX;.Q @.v.R...0 b.:.Z 3 R y.y.|.3XZXtXR.I y $ R.3Xe.i.U z.`.v.}.hXv.m $.q.q.U I T.2XW *Xk $.a.M ,.S.T.$X$Xv.o.I.I.o.F.T.v.}.Q.v._ e.I.o.S.T.I.:XM.m A.rXPXT.$XT.lXmX5X( 2 O 6 >X+X-.t Y %Xj.E.W.- k W.c.*.` Q.7.W.;X&Xr y.^.R.R. Xu.H u.8.9.T.>Xc.3.H.#..XSXtXH.% b.bXpX(.6.R.H.+XY.Y.K R.&X-.C.GXMXR k = 6 U.=.Q.Q.@XM.MXxX8X;X>.C.Q.n.W.g ;.1X9.` I.>X[.F.|.R.x 8.M.R.|.&XF.c.y.=XtXQ..XN.F.Y.|.|.F.U.b.R.wX&Xy.7.Y.9.J E 5.ZXMX>X5.k 6 > b.R.#.b.-.E -.b.-.%.x L } R.3X|.x.R W :.>X].R.mX*XrXrX;.Q o.i.Y.o.e v.5.Z 3 R y.y.|.2XR.o.b.'.>XT '.3Xe.a.I e.T.p.SXKXT.2 = = q.I I T.*XW *Xk @.i.M y.S.",
"S.3X[.S.' T.I.W ;.S.v.$.U.v.=.v.SXpX3XA 8 f S.m %.rXLX7X$XB.~ A.C.n.k.` ' c.W.W.c l >.( m.0X7 l M.-.R c ..=.c.x.X.r i.|.1X&XQ.V.G ' 8.E.U.eXY.-.a.F 5XMX6XZ.; 5.PXLX(.h 1 > >X|.Z...R.C.-.c.Z.m.u b.u.R.W...U.;XW.b.iXpX8X+Xk.U.;Xk.W.t y.;XV...o.Q.Q.U.Y.R.a ` ).Q.Y.*X;.H.=XeXR.F..X^.F.#.C.pXvXgX8.0 ; - H j Q.U.} u.L.U.R.R.C.iXR.C.b.J.#.=.8.E 8.:.v.i.k R ..U.[.=.m ;.w.b.3XS.U.cX:Xe.|.y.] e.U.F.w.7 [.F.M p R ] [ $.|.HXjXrX_ 6 $ r.*Xr.`.I w.e.w.A.2XS.o.o.o.W $.;.4X*X$.hXB W G.O.[.*XS.3X[.I.o.T.`._ ;.S.v.;.U.v.;.v.OXo.:X].|.iXS.m ;.rXLX8X$XM.kXnXiX=.0 # * c.W.(.z k >.( m.0X5 j C.=.R l ..#.x.c.#.a t.|.>X&X(.N.G ] 8.W.U.6XR.#.a.Z wXMX9XZ.< 7.mXxXZ.-.H.F.1X).Z...).C.3.u.MXmXR l ; 6 W...U.;XU.b.pXpX7X%Xk.U.;Xc.W.r y.&XV...@.Q.Q.F.R.R.u ` Q.Q.Y.&X%.Y.>XwXR.Y.|.H.R.b.&XU.Y.|.y.c.Q.|.F.} c.c.G c.Y.KXkX&X:.m ; > F.F.@.c.y.#.y.b.y.y.B _ ..M.[.;.M =.:.v.5XS.U.cX*Xe.[.i.] y.T.F.8.9 |.S.M p E ] o.$.}.rX%.=X2X}.Q w.*Xi.J.I ,.i.w.VXDX[.y $ = W o.q.5X3Xq.hXZ R J.O.[.=X",
"S.S.3XE._ T.[._ i.S.v.e.v.T.' w.AXpXT._ 6 6 ;.A O.*XDXcXpXv.r.=X*X:XE.8.K &X@X(.p c n.K.W.(.o n Q.c.=...@...8...=.r r.3XwX|.|.k.K C.-.>.=X|./.|.a.#.3XrX_.l.o X.LXPX^., = 2 >X,X&X` ).` #.&XU.7.M F...Y.0Xc.c.rX;Xy.%XiXrX8XM.T.iXOXl.g @.<Xm.P ,.F.Q.C.b.R.N -.+X:XR.F.8.,XpX/.c.G.J.5.,Xi.5.bXnXvXc.c 1 1 #.` xX1X%.V =.Y.M.C.Z.eXR.:.v.R.@.....r.8.S.y.}.l B 8.U.|.v._ 3.|.b.|.b.R.>X:Xw.2XF.v.i.i.y.'.k }.R.y.$.R y.J.i.'.GXhX2Xo.0 O r.F.W i.Q ] q.i.{.[.[.q.U p.e.S.w.[.*X2X|.m I a.i.*XhXS.S.3XT._ I.[._ i.A.v.e.b.T._ e.U.=.v.&X].].=.A @.*XDXcXzXv.lXGXmXE.l ; O @X+XQ.p m n.C.W.@Xo B Q.M.-...@...8.o.=.r y.5XyX%X_.k.K V.-.>.;X|.).|.a.%.1XwX@X9.o | pXxXV.x ] R.>X=X@X' ).` #.@XBXxX@.B = 1 0XV.c.uX;Xy.$XiXrX8Xm.Y.tX+Xk.g @.1Xl.P 8.C.).C.V.J.M ;.%X:XR.T.5.,XpX/.c.R./.i.,XR.U.R.).=Xb.b.R.&XF.} (.u.E X.C.ZXnX&X5.B 9 ; 5X|.-.u.8.r.8.M.b.}.A B 8.F.].v.] 5.{.S.|.A.T.>X8X:.2XF.b.,.i.i.[.k }.T.i.@.R y.J.e.'.2X$.].rX2XM r.F.Z i.Q ] q.p.VXVX:Xy $ > e.S.e.R.*X*X[.m U i.r.*XtX",
"z.e.I.[.o.T.z.o.;.T.S.S.z.I.q./ mX3X;.I ; 5 y.M o.,.U.cXvXR.O.}.*X3XE.K.G L.' 7.2 ..uXv.>.c.o a wXj.L H ..u.,.y.B.s %.3XwX>XW.c.N.c...F.=XF.b.c.B.<.,X=X X9.+ -.JXPX(., : 6 wXY.V.' _.` { u.;XV.a [.>.).@X8._.wX@Xb.qXiX;XAXuXY.&X8.W.g G ;Xl.H F.r.M.:.5.R.Z 9.+X%X=X=XC.,X5Xb.Z.B.+.| J.U.-.vXNXgX..9 ; > -.) xX+Xc.8.y.b.>XR.c.C.] } =.R.;.H ' u.v.Q.R.A.Z _ B.y.b.].R.O.>XT.3XF.S.U.rX].i.{.T.W Q }.rXM T.}.R.] M #.r.T.`.SXVX3X_ 8 = ] T.O.b.W $.i.a.{.*XrXQ W hX[.'.,.o.kXhXS.m U r.U ' $Xz.e.I.[.o.T.z.o.w.I.S.S.z.I.q./ b.B R ].,.K.i.M ] ,.U.cXvXR.hXGXMX].l > O K. .7.1 ..eXc.,.k.o h 0Xx.K K ..y.:.,.N.s %.3XwX>XY.c.u.b...F..XF.b.c.B.<.,X=X Xk.+ %.eXMXV.s s.(.wXY.C.[ _.` { y.FXMX] A ; 8 @X8.).eX@Xb.wXwX>XAXuXY.@Xj.W.g M >Xc.K F.y.b.:.3.R.H 9.).%X*X&XC.=X1Xb.H.F.r.#.G.|.F.U.F.c.B.v.y.Y.y.G -.-.` -.B.bXvX&X;.k 0 2 |.R.] @.3.u.x.F.].b.L _ C.u.v.[.R.+.>XJ.3XS.b.U.iX[.i.|.J.W _ .X3XM T.|.T.] M $.i.R.T.}.J.*X.X:XW @.F.O.v.W %.i.p.VXDXhXy $ y [.[.w.o.kXtXT.m U r.T ] $X",
"v.w.v.:X;.I.I.I w.`.'.e.e.z.z.q.VX3Xo.h $ O :.m $.' ;.jX$X@.#.2XrXrXOX,.] -...L < s 9.x.j.V.; B :XL.( #.` u.=Xv.2.e 5.&XQ.Q.Y.c.5.u.B.Q.F.R.c.y.5.X.B.;XfXZ.@ } JXPXl.q 1 6 eXM.m.k.1Xc.-.8.uXl.4 *XU.=X&XV.1X;X(.c.3X3X XAXpX).9X&.oXb Z fXW.} u.:.M.] X.8.u z :.M.&X;X#.V.Y.C.N.#.#.s.D.=XS.nXBXuX..h > > u.| MXzXR.H.R.|.R.b.8.M.#.@.U.J.R N C.c.c.&X|.R.Z A H./.VXS.%.Q D.b.[.e.b.|.rX*Xi.R Q @.T.F.5X9 *XhX[.I R @.$.T.`.VXnX*XZ f = W [.i.D.r.v.S.A.D.hX*XI W q.`.A.;.b.T.3Xe.m W p.U ;.[.v.w.v.:X;.S.S.I q.[.`.e.e.z.z.q.T.k m ;._ B ;.M $.] ;.cX%XO.kXHXSX:Xl ; # >...H 3 z j.n.8.V.- N :XL.L =.` v.=Xv.#.r 5.&XQ.].U.c.3.u.V.R.F.Q.b.8.3.X.B.&XdXZ.@ } &XNX4.! C._.eXb.c.9.1Xc.3.8.JXxXA _ 1 7 &Xb.1X;X).c.qX>X|.AXpX).7X*.(.b Z iXW.O.a.:.S.] ..6.u z >.M.&X=X$.V.R.F.V.6.9.f.B.>X|.].b.:.C.Y.M.v.U...Y.3.R V. XMXnXbXr.6 > : |.R.E y.c.F.c.).R.F.R E G.R.mXS.;.~ D.b.[.e.b.&XrX*Xr.R Q @.T.J.4X9 3XiX[.R R } $.F.'.T.v.[.'.rX@.W |.i.A.r.b.A.A.VXHXqX8 $ : [.S.o.b.T.3X:.n W t.W ;.].",
"S.e.S.:XM.i.v.$.o.z.*Xz.A.I.;.I rXwXy.6 O O e.@.M.|.e.o.T.u.Y .XrXOXE.[ v.M.L G ^ e V.U.L.V.< 9 j.+X_ 7.` c.>Xv.#.@ 2.=XY.Q.=XQ.8.H..XQ.3XrX).Q.C.! | |.bXV.- E dXPX<X4 8 2 %X&XC.V.Y.3.N.-.Q.4.9 tX+XQ.L.&XAX;XC.8.vXxXW.>X%XW.9Xn.W.g n rX&X} ;.B.S.Q 5.%.F S -.C.b.b.-.3.R.F.F.H.2.d.|.3Xb.bXvX6X#.t 1 = { G 9X1Xv.c.%XwX>XU.;.y.a.#.@._ Q 6.Z.5.:.C.R.F.Q p B.F.IX3Xw.Q F.i.|.D.y.1XQ.R.i.m r.i.i...y.p iX$XrX,.Z m _ R.T.VXjXR.R 0 O o.e.e.b.Q J.F.w.S.hXwXi.U w.[.J.b.[.T.e.I n $.O.$.rXhXS.e.S.:XS.i.b.;.o.z.:Xz.A.`.q./ M R @.Z m 0 y.#.b.%Xe.o.T.i.tXGXAXI.l = ; S./ H ^ e c.U.L.m.< 0 j.+X' 8.{ u.>XM.X.% 2.,XR.Q.>XQ.y.H.&X].>XrX).Q.C.! .._.vXV.@ ] P CX(.J }.U.&X;XC.V./.3.N.3.FXgXA o.6 6 Z.&XAX#XC.8.vXvXW.>X%XY.9Xl.W.g m tX@X| ;.b.S.] 8.;.F G -.C.c.M.-.5.Y.Y.C.Y.6.B.}.5XR.U.R.C.C.F.R.F.C.-.| c.{ ..;XSXvXpXF.t ; 1 c.b.} R.).F.c.C.F.A.o.l V.F.IX2X:.Q D.i.|.J.5.1X].R.i.m 5.i.y.@.e.u pX*XwXw.Z M _ T.T.A.;.S.*X*XU Q i.e.b.Q T.S.w.VXLXjXi $ = [.`.A.[.T.e.R M $.O.$.rXrX",
"S.3X$X:Xn.$.*Xv.o.z.jXjX`.q.z.q.tXvXb.0 = O T.;.,.v.] w.=XR.F |.yX>XY.=.F.L.c.-.s x %X;XK.).7 t %X;X..Z P R j.T.7.@ 5.6X1X).*X3XC.8.Z.rXMXvXQ.Q.(.#.B.).;X_.@ @.BXPX@X: h > 8.(.b.C.-.L J c.U.( a >XwXY.b.).mX^.3.F.mXAX).M.Q.U.7X .;Xg s &XV.#.M.y.U.O.[ #.a G -.).Y.F.R.b.F.b.5.;.] #.|.tX|.GXbXeXN 1 6 : v.x (.|.C.v.M.8XvX*X,.:.%.#.=.] R ` B.9.#.F.Q.S.W t b.F.SXnXi.Q R.].*XA.O.R.S.Q.*X] b.F.F.=.@.t F.:XT.l o.] W A.}.HXpX,.I y $ A.2XW J.:.[.T.o.S.jX2XS.~ i.e.G.e.S.[.o.Z n [ %.w.:XkXS.2X$X:Xn.$.|.v.o.e.jXjXI.q.e.q.Z r.$.o.o.A Y.:.,.v.] :.=XR.rXSXVXQ.h ; 5 S.n.#.r x %X;XL.).e e ).9X..H L E h.T.3.@ 5.6X=X).&X3XV.8.Y.rXMXvXR.).Q.3.B.).;X_.# O.H.GXP.z kXc.8.W.b.m.-.K P c.AX0X` ' 0 6 c.).mXW.3.F.mXAX_.M.OXU.7X&.>Xg s %XC.+.b.j.S.} ..$.a G 3.).Y.F.R.c.C.b.6.;.#.2.|.pX|.=X).R.#.-.W.v.M.;.` -.H c C.ZXjX6XC.h : 1 c.Q.} ..G.F.u.R.U.B.Q j b.F.MXmXi.Q R.{.|.A.@.R.S.R.*X] b.F.S.;.@.t F.:XE.l o.] ` A.[.4X@.R [.hXW A.2X_ T.%.|.[.W VXDXhXB = : e.S.e.S.[.o.Z k [ q.w.3XcX",
"T.cXjX$XW o.rXT.o.[.*X3X:Xz.I.o.jXhXe.B $ $ _ q.m :.i.;.;.G.n }.:XQ.M.R.b.v.U.-., m U.yX;XW.m B 9XW.A Z ] @.$.v.7.& 5.>X>X|.:XkX1X|.b.jXMX>X1X|.C.9.R.|.C.7.+ a.IXFXP.; t 6 eX@X). X;XdXX.G.(.K N tXjXyXk.8.vXm.9.y.vXSX1XwX@X@XxXOXxXg 0 F.Z...%Xb.Q.Q.b.R.H G >.F.b.:.R.b.u.J.J.F.8.} /.T.E FXvXbX3.6 6 2 %Xc Y.%X=XM.U.:XQ.|.M.$.` +.x.y.] H :.H.3.|.M.F.Z p r.|.U.MXA.R Z.5X'.;.M O.=.].>X[.G.y.M.:.q.$ -.>XM.o.,.e.o.S.[.SXhXo.B y $ %.rX,.v.A.].|.W v.jX2X[.i.R.M.w.e.w.S.v.$.R @.i.i.S.qXT.cXjX$XI o.rXT.o.'.*X3X:Xz.z.o.} } Q F._ A I ;.M w.e.;.,.F.5XSXmXS.f 5 > c.U.-.< x U.iX;XE.c B >XW.L Z } @.$.c.u.% r.3X>X|.*XkX>X).B.lXmX>X5X|.C.9.R.|.C.3.+ a.MX,XV.r tX_.tX_.|.|.1XfXX.F.SX0X@.o.h 0 n.8.mXK.8.y.vXSX9XwX+X@XzXoXxXg 9 F.D...&Xb.Q.R.c.R.H H :.F.b.:.Q.u.r.J.J.F.y.-./.|.#.B.R.6Xb.b.F.U.|.y.#.-.H ! ;XSXkX6X=.k 2 2 b.C.@.;.c.H.V.&Xc.v.L z 8.|.F.nXb.E C.6X[.;.M @.@.].>X].F.y.F.w.w.$ ;.>Xv...;.i.o.S.[.}.o.n F.rXQ q.4Xe.b.M.|.}.I nXKX4XI : 6 M.w.w.w.T.v.;.R @.i.r.S.4X",
"v.3X$XI._ o.3X$Xv.S.2X:X[.z.q.l qXhXw./ = O m o.:.y.J.U.I ] i i.Q.T.M.*X*XU.>.8.t l ' W.>Xn.m a T.>.R ] #.y.y.M.| & a.pXpX%X3XjX>X/.v.5XvXU.Q.>XZ.K B.rX=X7., J.PXMXl.< t t bXY.&XgXxXxXG y.W.K 4 5XwX1XW...8Xm.c.R.pXAX;XMXxXk.#XzXxXv $ |.3.*.*X,.M.S.:.5X2.=.-.b.R.U.R.5./.b.5Xb.;.r.R.&X@.kXkXvXM.p 5 1 |.W V.Y.5XQ.&XT.Q.F.b.F.} Q v.F.S.3.C.F.#.R.b.U.R a C.C.R.jXy.Z H.5X[.,.M |.e.F.=X].G.e.M.W J.: O.R.S.;.,.J.;.U.R.VX5Xv.I 8 > W =Xe.b.v.b.2X] i.2XcX].o.'.e.$.@.i.T.v.y.] Z O.J.:XiXS.:X$XI._ o.3X$Xv.S.2X:X[.z.e.m Z W W }.w.Z B $.w.e.T.F.I ~ 5XbXvXv.f 8 8 F.>.8.r n [ W.8Xk.m a E.,._ ] #.i.,.M.| & i.hXpX*X3XjX>XQ.b.5XmXL.Q.3XC.( M.eX&X7.< J.bXZ.4.N kX<XMX^.&XgXbXfXG 9.SXwXA [ 8 0 P...8Xm.c.Y.zXMX;XMXxXk.-XyXxXK $ ].5.@.%X,.C.S.,.4X2.X.=.b.R.R.'.5.).B.3Xv.:.c.|.|.c.y.5.Z.Y.V.y.U.Q.C.r.u.R x C.SXcX>X..p > > C.>Xy.v.C.F.5.Q.v.c.R k V.S.T.pXv.Z H.5X'.w.M |.,.S.*X.XF.e.b.R T.% O.T.F.;.:.T.;.T.R.T.M :.'.*Xp.T =Xe.S.i.b.*Xo.nXGXVXI $ 6 e.;.o.e.T.i.i.] Z O.T.:XiX",
"I.[.[.z.I o.kXnXz.o.I.rX:Xz.o.z.rXiX[.I ; O Z _ R ] ;.I.y.G.3 b.M.|.$XqXpX=X>.C.< R ;.m.0X9XG 3 y.[ ..3.8.F.R.L.+.& a.kXMXwX'.=XU.=.] =XcXQ.;XR.8.P y.*XeXN.% {.PXFX<X1 0 0 W.4.&XnXgX&Xv c.m.b 3 *XrX1X).' qXP.-.>XuXxX;XAXxXj.j.oX>Xc % `.R.(.M.8.>X;.-.=X6...(.).pX,X|.J.G.).).b.-.| c.1XV.kXgX6Xy.0 2 6 =X` 7.(.rXQ.=X&X>X*XR.$.] +...@.b.b.C.,XV.b.-.M._ c m.c.F.|.b.O.&X2XS.b.@.F.v.v.U.o.i.:.;.e.e.: $.{.'.o.e.[.v.T.R.VXwX2XZ 2 $ U A.O.i.Q :.3X%.;.*XkX3X] v.].A.@.$.e.;.] R o.w.'.qX3XI.[.[.z.I o.kXnXe.o.I.hX:Xz.&.z.A ] S.[.e.Z B _ I ] ;.S.e.F.=XnXrXS.l f h >X>.C.< R ;.n.9X9XH 9 y.[ @.3.y.F.R.L.#.& v.kXAX5XQ.=XU.$.] =XkXW.=X^.8.E y.&XwXN.% {.BX<X_.b wXwX(.*.&XbXgX&XV y.mX<XV I f 0 (.} wXL.3.>XpXxX;XMXxXj.k.W.;Xv % [.Y.(.M.8.>X;.;.&X6.X.(.).pX>X|.J.D. X/.M.i.3.c.=XH.a.y.5.F.] 8.Y.U.v.c.8.H z ).MXpXwX8.h 6 2 b.>XF.C.C.|.u.y.:.c.] N b.b.S.%Xv.O.&X2XF.S.@.F.v.v.U.o.i.,.;.e.w., $.}.'.o.e.[.i.T.R.S.U }.F.T.O.U A.o.r.] ,.3X$.jXSXVX_ = > [.A.$.$.e.;.] R o.e.'.3XqX",
"z.$X[.[.o.I 3XlX;.o.`.qXcXz.e.q.hXvXcXI ; $ _ l p C ;.T.v.}.s b.*X].qXAX%XU.h.9., p >.E.).m.c O ..n.U.-.y.M.Q.U.u.w A.VXpXQ.T.>XU.u.r.=XmX;X XN.^.K ;.=X>X(.& 2XIXJX<X; h 6 =.! y.lX(.Z.u.+X+Xg % U.;X9Xk.j.mXj.F.vXMXmX0XDXxXOXn.k.U.c $ [.9XN.R.F.Q.x.W.F.G ! ).wXMX*Xb.r.#.C.c.F.;.....F.^.nXCXwX` > - > %XZ X.|.4X[.H.>XwX(.W.8.5.u.B.c.;.8.:.c.Z.] :.Y.@.m ;.z.*XT.v.#./.4X2X*XT.|.C.U.%XS.@.o.$.T.S.3 W v..Xv.;.F.o.].J.SXrX}._ : % U D.o.R.b.S.|.q.i.hXrX$Xo.M.3XF.I B $.;.@.Z R i.D.*X3Xz.$X[.[.o.W 3XkXq.o.I.qXcXz.e.q._ i.vXT.e.I W m h B ,.T.v.{.4XnXMXS.C h 6 U.h.j.3 0 :.Y.).m.c @ ..j.U.@.:.S.Q.U.6.w b.MXjXQ.U.5XU.c.:.2XmX,X{.f.^.H :.*X,X(.< 2XHXfX@Xx rX).-.P y.lX(.L.u.@XAX1XM C 9 0 c.j.mXh.S.lXAXxX9XSXmXOXl.K.E.g % ].9XV.Q.F.Q.v.Q.F.F E ).0XMX.Xc.y.#.B.c.F.y.#.=.F.R.u.&Xr.,.3.y.).Y.(.Z.N.=.E gXHXvX_.' h > > C.>XF.,.y.C.u...-.H.=.V =.x.&XF.b.@.].4X=X*XT.[.C.T.|.S.o.] $.J.S.2 W v.*Xv.;.F.o.|.R.[.o.F.*Xi.+.U D.] '.A.S.|.q.mXLXhX/ = > 3XT.U B @.;.@.Z R i.A.*XqX",
"e.[.[.:Xz.o.R.*XS.o.[.:XjXI.I.o.iXkXrX&.5 $ I I m B :.[.;.r.i 5.3X=XmXAXz.E.n...$ 2 b.[ W.c. .. =.;.C.x.;.v.U.R.6.w b.mXvX].=XkX=Xb.r.=X_.!.~.sX9.D W 5XuX(.q eXIXPX<X5 g 0 fXN.b :.&XC.R.*XoXc 2 F.>XtX(.j.xXm.b.*XvXvXQ.zXwXuXzXoX+Xv $ [.}.#.1X=X,.v.U.T.%.z >.+XHXeXF.B.u.b...C.R.#.5.u.%.kXSXwXR 0 1 6 T.] ..Y./.R.y.rX|.;.U.R.u.-.b.y.@...c.@.c.;...Z.=.t [ M.>X%XS.p Q.R.nXS.$.;.R.{.5XhXS.] r.|.&Xh R =XrXM.o.v.o.R.F.SXiXT.] > = Q {.R %.F.T.].o.F.`.'.$X_ v.*XT.$.e.Q.e.Q E @.r.G.jX:Xz.T.[.:Xz._ ).*XI.o.[.:XjXz.z.;.R w.3XrXT._ Z I m B w.[.;.r.5XvXVXT._ h ; E.z...$ 2 c.[ W.n.... =.>.M.z.;.c.U.T.5.r a.vXvX$X=XgX=Xc.i.|.wX^.aXXX9.D Q 5XtX_.q rXPXmX_.G vXwXgXk.c :.&XC.R.:XSX1XC B 0 f (.j.xXm.b.=XvXvXQ.zX0XeX7XOX@Xv % Q._.=.1X&Xe.v.K.T.2.z >.).JXeXF.b.u.b.X.F.R.5.9.b.#.+./.F.$.8.C.Y.8.8.,.c.-.{ xXFXmX1X..f 8 2 b.S.] ..,.y.8.@...C.:.l ..M.=X|.M.u '.R.nXS.=.$.R.|.5XpXF.] i.'.|.k I =XrXM.o.A.] R.G..XT v.3XA.r.O.R.R %.D.R.[.o.nXVX$XI $ ; :XT.$.i.[.e.] R @.5.G.jX2X",
"v.'.$XI.;.I '.=XI.e.:XcXcX[.I.[.jXpXrX[ ; O o.v.e.:.;.U.@.|.n w.*X*XDXAXK.%Xn...$ u ).x.A =.... =.R @.z.;.=.M.T.8.4 :.qXvXrX>XpX1X|.r.M.4.<.~.sX~.J J 5XeX^.w pXIXPX@X> f f SX9.5. Xc.V.3XR.-XK 3 rXrXgXeXx.xX7...M.&XtX).;XY.xX7X7X@Xv O v.G.} Q.wXn.e.x.S.@., P k.>X=X|.5.)./.#.-.Y.@.5.`.y.kXMX>XE t 6 ; c.c } Z./.&XC.|.R.v.=X,.F.r.u.c.C.-.c.y.c.c...F.-.k S.F.=XwXiXR b.|.}.*Xv.] B.=X>XS.M.r.y.r.F.l m [.$XS.x.5.O.i.;.VXbXF._ 6 2 u i.w.@./.T.T.o.D.[.:X3Xe.A.jX[.w.*X3Xv.} Q @.2.A.4XT.S.[.[.I.q.I '.=XI.e.:XcXDX[.[.[.o.o.2XyX,.A o.v.e.,.;.H.=.|.4XvXMXT.&.l > -Xn.*.@ p +Xn.C *.' . =._ =.y.;.=.M.R.9.4 ,.5XmXeX>XpX1X|.w.M.V.~ ~.aX~.J H >X0X^.q jXJXbXP.c pXiXSX8.5. Xc.B.3XW.DXwXZ o.f y uXk.xX>...b.&XiX).;XW.xX7XyX@Xb O b.Y.} Q.wXn.,.x.U.$., ( k.=X&X).5.|.).-.-.Y.;.5.B.5.6.B.F.v.c.H.C.y.V.c.y.u.X.BXLXBXgXb.l 5 > y.b.5.@.F.b.3.:.@.C.:.m U.S.*X5XiXR M.|.}.*Xv.[ b.=X>XS.b.y.r.5.F.l m Q.&XM.z.w.o.i.;.S.v.i.|.[.D.u i.y.#.R.T.T.] ZXVX4Xo.: > hX[.:.|.3Xv.] ~ @.2.A.rXT.",
"S.;.e.z.I Z '.rXq.o.jXcXcX[.I.z.vXpX}._ = = b.;.,.U.=.,.M..X~ w.*X4XmXzXyX;XE.9.o N m.j.C ( X.$ >._ ( Z R [ x.-.Z.r ] =XpXpXpX;XY.].;.R.0.0.g.aXsX~.^ 1X<X_.r 6XPXPXP.7 f 0 xXK ..dXu.G.wX;X;X9.m VXkXbXfXW.uX( $.%X5XjXgX+X=.iXoX7X@Xg X .X1XH.M.).E.I.,.x.Z , -.X.8.Y.4Xr.V.).-.' r.x.b.R.r.gXbX1X..p 1 O x.l K H.F.b. XrX.XC.=XR.}.8.b.y.R.y.u.#.u.C.b.@.-.p R.M.F.|.iXQ y.=XU.J.@.] @.b.yX].b.e.;.G.|.B i w.M.*XU.$.Q Q.Q.LXDXI.B 6 2 3 %.y.-.}.G.v.i.F.T.nXhXw.;.3X[.,.S.tXD.W O.i.$.a.'.T.b.$.e.z./ Z [.rXq.o.jXcXcXz.[.z.@.$.F.*X] =.M.;.e.U.@.,.M..XkXkXmX*X_ f 0 ;XT.u.X M n.j.A ( ..# >._ R Z R [ x.-.Z.e ] =XiXpXuX*XY.Q.-.Q.6.0.g.aXsX~.4.1X1X_.r 4XMXvXk.P vX9XgXK @.dXc.F.eX&XDXxX..,.f h fXW.yX( $.&X5XjXfXOX=.iXoX7X+Xg X }.2XH.M.).E.U.,.x.Z , -.=.y.Y.wXy.b.).-.] y.c.b.R.5.5.R.R.b.y.8.8.u.9.b.@.{ G 0XHXbXwXU.C 9 5 ;.y.B.:.:...5.c.M...:.j R.M.S.Q.iXR y.*XJ.T.@.} @.b.wX].S.e.:.G.*XB u w.M.-XU.$.] Q.T.rX3Xe.S.|.`.3 %.i.:.}.F.v.i.MXMXVX;.= = qX[.,.S.tXD.W O.y.$.a.`.T.",
";.S.S.;.;.o.T.S.;.W qX$X:X:XI.q.AXvX[.A $ = %XR M.e.R @.Q./.T :.:XrX>XzXyXU.U.| O ] n.U.j.' X.o x.[ P I ` T.:.-.9., B.4XtXpXpX;XU.R.@.Z.1.g.~.aXsXsXG.=XfX(.q kXPXLX1X0 f 0 pXK ] F.u.|.gX#X;Xk.3 nXvXbX7XV.uX7.u.&X=X|.=XmX).bX0X+X@XK . i.>XZ.W.>XmXrXF.c.%.3 ' m.c./.wXC.b.Q.} @.C.Y.-.^.U.nXBXeX6.l > = c.@.b c.F.R.;X|.3X|.=X>XY.Y.y.y.|.c.#.| 9.,.I E b.4 R i.U.v.Q.V C.].F.w.] E G.;.5XjX:XW y.}.T.k 9 A.v.$Xn.n.@.U.Q.DXnXrXo.> 1 u o.F.b.F.;.S.'.w.rXjXrXe.o.|.=XT.R.].|.5.] x.O.R.S.|.;.S.S.h.e._ J.S.;.W qX$X:X:X[.o.E.v.F.].W &.].R M.,._ =.Q.R.pXlXVX:XB f f U.L.X.O ] k.L.j.' *.+ x...L R _ Y.:.#.9.< b.wXtXgXpX>XU.R.$.C.<.0.g.aXsXsXg.,XfX(.q fXMXpX@X..wX0XpXK } F.u./.xX@XJXxXA ,.h g 9XV.uX7.y.*X=X|.,XmX).mXyX+X+XK . i.>XH.W.=XmXrXF.v.;., ` c.c.R.6XC.b.R.@.#.C.R.-.F.r.r./.&XR.,Xu.u.E | R.8.b.c (.SXMXwX,.C f 8 :.r.i.-.$...X.;.] } b.r _ i.Y.x.Q.V C.'.J.:.] E G.;.wXjX:XW y.{.T.k y A.v.$Xx.c.=.U.Q.3XM.=XrXS.D.u o.A.b.F.;.F.'.mXHXVXo.; = [.>XT.R.|.|.5.} y.O.R.S.].",
"o.z.[.I.] R a.A.z.w.3X[.cXVXI.;.VXMX|.I $ O ' I e.B i.z.[ J.W O..X*X:XyX:XS.M.X.@ E M.M.>.P.>.o >.k.;.=.,.Q.y.U.#.& J.rXMXMXvX1XF.v.A k d 0.g.aXsXsX0.Y.1X_.w nXIXPXuXt 6 0 fXk.#.y.B.hXvX>X;Xj.& hXpXgX;X-.;X8.y.R.|.4XjX9X$XAX@XP.P.( . q.R.k.@X5XmXqXb.Y.1XS 7.;.{ (.tXR.R.].O.#.y.] W c.Y.bXMX5X=.0 - - V.=.v c.i.i.C.v.*XE.>X].#.H.R.R.v.;.O.#.9.c.#.o.=Xp w.,.#.b.v.Z 9.S.T.A.m n r.v.*XnX$X] ,.&X[.Q 7 }.b.].;.,.A U.T.HXmX`.W 6 9 i q.[.i.'.o._ U.:.lX3X$XT.e.2X2X'.i.A.:.Z } :.Z i.R.M.o.z.[.I.] R i.A.z.e.3X[.cXVXS.;.T.S.T.*XI A ] I ,.A i.y.o.J.pXkXmXT.v f 8 S.M.X.@ _ m.M.>.L.7.. ,.j.=.=.8.W.x.F.-., J.rXbXMXmX1XF.v.H k d 0.g.aXsXsXt.F.<X_.7 nXHXmX7X .^.1XgXc.#.y.B.tXmX>XHXxXN @.f h -X=.7X>.:.R.].rXkX5X:XMX@XP.L.( . w.|.l.%X3XvXqXV.Y.5XD 7.;.{ (.rXR.R.R.$.-.y.@.O.B.C.:.R.F... Xr.(.S.#.R.U.|.x P.FXGXiXx.B 6 6 F.:.@.#.:.:.3.:.-.=.}.k r.w.#.b.v.Z y.U.F.b.B n r.v.&XmX].o.w.&X].Q 7 }.v.[.;.,.Z U.E.3Xb.b.2X*X.Xi q.[.v.'.] Q R.kXKXrXI 6 ; :X=X[.y.b.w.M } -.M i.[.S.",
"o.v.T.[.;.R $.5XI.S.hX3XVXcXv.T.MXpXv._ $ = I A o.l A.x.Z }.$.W U.S.OXE.iX3XF.#.@ m x.*.' E. .o ' *...8.C.OX|.C.-.@ r.tXiXiXlX1Xy.[ m I z ^ g.aXsXaXs./.>XZ.a pXPXPX;Xh 6 6 eX .x #.5.=XyX+XW.V.3 kXuXvX@Xn.W.L.U.Q.*XpXvXyX8XzX+X+XP.K . q.}.X.>X5X>X8X1X%XlX^ ..,.9.Z.R.F.|.|.y.#.,.M E 6.H.NXSXgX,.g = = ,.R b u.Q @.$...;XT.%XR.b.F.,XU.y.} @.#...Y.i.8.T.e e.w.@.F.M.$.:.=XF.jXS.Z :.i.F.5XF.;.o.).rX%.7 R.i.rX:.e.[ 3XA.SXDX2XI 2 > y I A.i.R.i.Y O.r.2X|.3Xv.o.'.}.e.J.w.$.M Q B.i R T.T.o.v.T.[.;.R %.5XS.S.rX3XVXcXv.E.S.@.@.*X_ o.Z Z o.k M.n.M {.kXhXhXe.l 5 f >XU.X.@ N j.&. .U.*.o ' &...j.L.Q.Q.C.-.+ q.pXpXiXkX>Xy.[ m R r <.0.aXsXaXu.R.1XC.a pXBXvX).-./.|.eX .k #.r.=XwX+XAXmXH @.0 h %XM.W.Z.T.Q.=XiXmXwX8XxXoX+XE.C . %._.X.7X5X8X>X1X_.lX~ ..8.9.Z.Y.G.|.|.i.#.y.U #.r.B.c.R.{.-.-.O.^.R.c.Y.U.&XE V.CXHXvXT.h 6 2 F.F.@.Q y.y.3.B.y.y.F.k ,.y.@.C.v.$.:.&XF.jXS.Z %.i.F.5XF.;.[ Q.rX$.9 R.v.4Xw.i.[ 8XA.J.2X}.[.S.v.9 I i.i.R.e.R O.nXSX3X_ 2 = [.}.w.T.w.:.M ] b.s W U.Y.",
"] w.I.S.z.Q i.rX[.T.3X$XVXcXI.[.mXjX;.l O O Z _ w.o.e.&.R A.1.~ b.T.;.$XzXM.:..., s [ >.*.j.) # n.[  .[ Q.;Xn.*...+ } rXpX,XtXrX|.] @.>X-.D 1.g.sX~.5.&X>Xm.z pXHXBXU.0 8 6 tX .x @.#.*X8XW.:.7.e rXvXmX;Xk.-.P.5XqX-X;XzXmXyXzXiX7X0X .O Z X.' W.1X+XF.R.Y._.J ` _.&X/.c.b.6Xu.@.` y.Q | #.r.nXnXkX[ 0 : = ' 8.` Z.;.B.8...=XM.U.%X*XH.C.R.F.Q ..%.9.|.U.R.@., $.=.c.R.T.;.C.R.|.=X%XZ Q } ,X3Xv.:...=X>XQ p 5X@.}.'.] ..T.'.VXSX[.I 5 > p M J.w.D.;.;.r.~ `.}.cXU.] }.R.b.=X@.R.B.i E M $.].*X] w.I.S.z.Q i.rX[.'.3X*XVXcXI.[.v.e.B A.m C B o.;.@.e.o.I F.bXpXrXz.8 8 h M.,.} & a [ ,.&.j. .# n. .[ ..).>Xn.*.| + O.rXpX,XtXeX|.] ;.=X4.D 1.~.sX~.5.|.5Xm.x fX6XW.m...&XQ.tX .c #.@.*X8XW.vXxXL [ h h ;Xj.>.Y.wXwX%X>XpXmXzXzXzX;X9X .O Z ..' Q.1X%XF.R.Y.|.F ` +X&X(.c.b.6Xc.@.} y.#.3.r.5.-.c.;Xb.-.#.9.B.8.H.).=XE 7.SXHXkXQ.l 8 8 F.:.%.....$.c.R.R.R.-.4 $.$.v.Y.T.;.C.R.|.=X$XZ } } ,X3Xv.,.@.=X3XQ p 3XO.*XR.Q @.R.R.`.[.J.}.S.A.p B J.:.D.;.$.i.pXVX2X;.5 $ [.R.b.2X$.J.D.i Q M @.].*X",
"I $.S.I.[.A.:.hXT.T.T.S.iXhXI.T.VXMXT.k O O m $.w.e.o.Z o.}.5.] S.*XF.iXiXc.,.` u n ` ' _ P.( . A ( ....c.>.c.+X..@ ..&X&X=X|.=X=XF.T.*X8.V.| D ~.! ] b.tXV.z ).MXbX;Xg > 7 >XX.H @.E U.-X>.,.L., 4XzX>XL.j.C.P v.mXzXuXAXxX7XzXzX7X8XoX= B 8.9.I.8.^.=Xc.F.c.u ( (.y.8.b.y.).F...} y.@.O.B.H.BXnX1X] 6 > 5 -.,.K C.R.F.:.#.c.=.M.&XT.3.b.|.R.5.y.-.3.v.R.|.e.< ,.y.F.;.F...} b.R.bXe.N u.b.1XR.,.:.b.*X>X$.p mXT.3X4X:.Z *X4XSXHX2XI 5 8 I _ .Xr.B.] r.q.i.5XF.jXT.B ] w.'.].S.v.W 7 M ] '.T.b.I $.S.I.[.A.:.hXT.T.T.S.rXiXT.T.T.U.v.w.Z m m $.:.i.$.B [ }.lXpXhXT.f f f v.;.] u n ] ] _ P.( . A (  .[ c.>.c.@X..@ ..=X&X=X|.=X=XS.F.&X5.Z...D ~.<.} M.wXV.z /.V.c.).*.c.%X1XX.F ..] F.;X>.vXMXN ] g 0 P.j.C.L v.mXzXyXAXxX7XzXzX8X7X+X$ M 8.y.S.7.Y.=Xc.U.a.a K ).y.8.b.u.|.F.#...8.-.#.B.b.r.:.B.D.c.Y.c.-.L =.U.|.A X.SXHXvXu.C 0 6 Y.b.u.r.c.,.:.y.F.).c.3 ,.x.C.;.F...} b.Q.mXi.N r.b.5XR.,.%.b.&X=X;.p bXF.3XrXw.V *XrX}.rX|.[.T.:XW Q 2Xi.C.] 5.w.bXGX}.&.6 O o.r.'.].A.b.R 4 V O.'.U.v.",
"Q a.2X$X[.&.o.].'.].F.y.'.n.v.$XVXAXv.6 $ o y u m ] E k R b.] R w.pX>X=XwXM.x.-.7 n ( { Q.;XK o / ( H } c.*.V.uXC.+ { H.7.&Xy.b.).Q.R.>X8.Q.U.Z ! z X.v.;X@XL 3.BXFX>Xg = 6 1XL.N F.8.M.8X-...,Xr >X].;XP.n.).C i.mX-XU.xXxX@XzXzX7XAXoX* g ).V.,. .c.%X3XQ.Q.x t ).m.R.F.B.b.C.8.R C.b.u.H.J.vXvX5X` 6 > > -...c B.F.=XS.y.|.x.U.|.*Xr.B.&X..6.R.y.B.-.-.c.;.< y.M.|.b.T.:.V C.v.[.U.N B.*X2XhX}.W ,.|.$XR 9 vX*XrXv.q.R 5XkXDXDX[.Z 6 > m M S.:.y._ b.A.e.rX*X3XS.I o.i.o.].5X=XU u Z W [..X] Q i.2X%X$X$.o.].].].F.y.[.n.I.$XT.E.o.A Q k p p m W W l _ b.pXpXqX3XB 8 y I.x.#.w m ` ' Q.;XK o L ( G } c.X.C.yXZ.+ } F.3.&Xy.b.).R.R.3Xe.W.U.Z J z #.y.%X@XP 8.Y.=X@X*.` Q.9XP.M H.8.M.9X-.gXFX( ' 8 8 K.m.).B i.mX+XU.xXzXoXzXzX7XAXoX; h ].m.,.] C.%X5XQ.R.x r @XM.R.Z.M.C.F.8.] C.b.8.H.R.-.5.y.:.@._.u.@.5.C._.T.` ..BXBXvX..C 6 = F.).5.5.F.y.u.@.:.y.:.4 u.M./.c.T.,.V C.v.].T.N M..X*XhX|.Q ,.|.$XR 8 mX=XrXb.;.W 3XvX:X3XT.'.T.A.n n S.%.y.R b.v.nXHX5X_ 2 O o.w.o.[.4X=XZ u Z U }.*Xo.",
"$.b.hX:XS.n I hX3XT.F.r.[.:Xz.;.cXMX] : $ $ I p Q M R @.C i.r.} ;.*XR.%XQ.,.R.9.a L =.8.L.n.C O @.7.L ] k.W.W.9XC.- H ' :.R.].R.Y.R.3X5X,.>X;X&XR.G b.F.=X8.b C.DXPX9Xg * 6 >X@Xj -.P v.T. .` +Xb &XK.pX@X*.P.G o.cX7XU.yXzXP.mX7XE.xXj.* C W.k.,.=.9.Q.Q.|.D.3 z @XW.8.].;Xr.i.R.Q 9.:.-.b.,XbXvXeXR > = - 7.-.e ..C.F.R.M.hXT.|.5XwXH.^.|.b.] R.b.#.r.y.@.@., R b.Y.:.M.;.R b.w.v.R.V R.2XVXDX*Xo.@.S.x.m > =X.XrX;.v.W *XVXLXZX[.o.; $ M Z S.$.v.A.S.S.$.*XF.$X[.I 3X$.$..XkX.XZ n n W hXkXR $.b.jX:Xv.l I hX3XT.F.r.[.:Xz.o.;.S.l l R R Z p W Z R @.C i.lXjX3XT.l 6 5 ,.Q.8.j L -.>.L.m.C # =.8.H ] c.W.W.9XV.- H ] :.R.|.R.Y.R.>XwXi.>X;X.X~.D M.F.=Xj.b C.=XbX&X7.] ).>X(.j -.P v.E. .pXSX../ 5 f @X>.W.G [ cX7XU.zXzXP.xX7XK.mXj.: B '.k.h.=.9.R.R.%XF.3 z +XU.8.Q.&Xx.y.R.} y.9.-.u..X5.:.F.r.O.c.@.#.b.Y.9.b.c ..MXSXnX:.m 6 > &Xv.B.;.B.b.3.8.j.$.#.7 ` v.Y.:.M.$.R c.w.v.R.N T.2XVXDX*X] @.A.x.m : =X*X4X=.v.W }.VXpX[.F.3XA.o.n Z S.$.b.S.S.S.kXSX'./ 6 $ qXo.q.2XlX}.U n n W hXkXR ",
"v.p.p.[.z.o.I rX].].v.O.T.qXz.;.vXvXe.: $ ; o.m o.O.Z R L J.i.2.v.].F.Q.T.&X%X3.P } ..( 8.>.v O =.-.C.8.c.M.*XbXV.# #.V.;X&XwX|.Y.b.).1XL.*XY.Y.<X .v.] ).-.M 3.HXPXpXg = 8 kX0Xz V m L ,.j.E eXP *XzXoXoX>.W.c ;.yX0XU.AXzXoXAXyXE.zXj.5 l wXP.z.y.9.U.v.c.Y.n t L.U.#.Z.v.-.C.R.} i.F.' -.b.bXvX>X' 1 = = #.L z ..r.>X%X3.Y.c.].>XrXb.5.).).8.F.5.{ C.] 9.b., :.v.8./.3X,.E R.b.T.x.k ).%XkXPXi.Z ;.A.T.Z = ;.a.'.;.:.t.4XkXHXmX=X,.= = W o.J.$.i.M.b.b.v.|.v.jXE.o.5XG.D..X3XS.I y u $.}.nX#.v.p.p.[.i.o.I rX].[.b.O.S.qXz.w.,.x.] k L y.] M O.O.Z R A J.nXlXwXF.h 5 5 *X%X3.P { ..( 7.>.v # @.=.C.8.k.M.-XmXm.# *.V.;X=X4X|.Y.b.|.>XY.%XY.Y.>X .c.] ).*.N 5.5XAX9X7.[ |.vX0Xz V c A ,.8.uXHX>._ f 6 W.>.P.x =.yXyXL.mXzXl.AXzXE.zXj.< l 9XP.8.x.8.U.v.m.J.s r C.U.=.F.c.:.F.R.} c.Y...#.u.r.u.V.5.| r.3.8.V.C._ 8.l P MXBXtXF.I 8 > |.R.|.8.B.y.6.b.@.8.b.7 :.y.8.R.5X;.W R.b.T.e.c (.}.kXPXv.I ;.D.U.Z - ;.i.'.w.,.r.rXjXyXM.R.bXo.o.T W R.@.c.S.b.A.mXAXJ.q.8 $ qXS.S..X3XS.W p p $.}.nX$.",
"o.r.`.:Xv.$.] T.Q.$X] Z e.jX*X:XVXmXQ.2 O = B l Z n c ] R .XE F v.&XS.>XkX:XC.P x u.{  .E.@XK * OXm.} Y.;XM.-X;Xm.< $.C.>X=X4X;Xv.$.Q.(.#.=X|.R.uX{ F.L L.@XP } DXPX9XC O 0 lX+XG R @.c.U.k.C +Xv iXvX>XP.-.Q.V F.oXK.C.mXxX*.K.yX;XmXk.7 A wXE.n.,.M.%XY.b.{.%.c 8.n.3.-.8.C./.>X-.E Y.9.c.5.gXnX=XE 1 $ ; P ` N R #.U.:.>.1X&X>X&XiX_...c.M.=.Y.r.} :.R c.-.3 ] ,.-./.].].] F.F.*XS.m R.R.MXFXS.U ..y.Q.$.# '..XR.[.i.;.2X4XLXSX3X[ 2 = w.O.`.;.;.e.e.F.].].r.%XU._ y.a.F.2X3XJ.W 9 $.a.{.3XZ o.r.`.:Xv.;.W Q.E.$X] Z e.cX*X:XT.v.S.M R $.B k Z x c } R .XdXtXrXF.h 0 f 3XM.P x u. . .P.@XC # %Xc. .Y.;XK.%X:XP., #.V.>X=XwX;Xv.-.Q.(...=X_.R.uX{ H.A Z.@XP { :XmX@XL.R rXlX@XV R -.b.P.k.uXSX..&.g 8 P.>.).V U.oXK.P.AXxXh.K.9X#XxXl.7 A 9XW.z.,.M.+XY.b.}.%.c j.n.3.:.3.C./.3X-.] Y.-.8.x.8.r.B.v.y.B.b.b.Y.M.] c.@.b bXMXgXR.l f 6 ].&XH.c.b.i.8.8.E c.-.e ] ;.3.R.Q.[.] F.F.*XS.m R.R.mXSXS.U [ y.Q.$.$ R..X'.[.y.$.=X5XhX].*XrXT.$.%.~ }.o.;.:.e.F.DXVXM./ 5 O z.p.S.2X2XT.W 3 %.i./.3XZ ",
"I q.[.}.e.W Z F.>X[.;.B [.rX:Xv.jXmX'.y = O y.;.Z Z Z p m 2Xi.Y T.1Xb.U.W.E._ z % L 7.m.P.0X .; ;.b...M.C.@X>XwX9.- Y.).+X/.*X>XQ.[ R.pX#.|.eX5XtX-.Y.=.).@X3.u.DXPXwXj O y cX).H } c.e.L.*.r 7.H pXwXyX@X*.C.R $X:XU.;XmXmXoXoX+XK.zXoXe A 8.T.S.,.C.W.Y.V.&Xr.V L.Y.7.3.-.8.7.=Xv.y.|.b.5.5.bXBX>X8.5 O = ( E 3 V @.v.L 5.F.8.Y.L.>XC.9.Q.|.@.8.|.8.8...A #.r Z v.M.C.R.e.E G.F.rX3XZ b.[.rXjX*X_ ] ,.v.o.O ).nXR.$.e.] i.S.HXDX>XB 6 - i.W 2Xv.;.S.b.o.M.3XS.T.S._ O.2.b.|.5X2XI 8 o.S.=X|.k I q.[.}.e.W Z F.>XQ.:.m [.rX:Xv.;.S.F.O.$.m u.-.Z Z Z k n 2XnXrXcX$Xf 5 6 Y.` z @ P 8.m.P.0X .; -.b...C.C.+X>X9X7.; U.).%X/.*X=XQ.] Q.gX#.|.eX6XtX3.Y.@.+X@X<.c.&XVX%X8.x 4XvX(.G ] c.e.L.*.<XxX;.=.0 f @X .Z.R %X:XU.&XmXAXK.-XOXK.zXoXe C 8.W.I.h.C.Q.Y.b. Xr.V L.T.8.5.=.6.8.=Xb.c.).y.:.8.-.2.y.Y.5.V.y.9.k.5.;.C.=.b bXnX5X,.f 8 5 $X).y.b.F.R.v.3.@.L #.u A b.M.B.R.y.E D.F.rX=XZ b.}.rXjX[.Q ] ,.b.] O Q.nXT.%.e.] y.A.rXrX].M.T.w.r.Z 4Xv.;.T.v.[ mXDXR.C 2 $ ] 2.v.|.4X3XI y o.S.*X}.k ",
"R 2X}.rX'.o.n $.wXF.Z U [.rXqXI.vXVXT.6 $ O -.@.D.o.@.I I 2Xa.Q v.=XT.C B M.` e X E :.C.8.L.) @ ` c.` M.).W.;X+X*.@ R.pXR.Y.wXuXC...>X6X} 5X5X&X|.8.V.=.&X_.5.V.HXPXAXC O 8 SX%X( ..[ T.zXK ; X.;.zX>X9X+X) u.M.qX8X+Xc.HXAXzXAX7XE.AX0Xr m &.M.].W.F.c.=XM.J.+.e +X>X-.u.|.b.c.Q...8.,.C.3.5.vXvX=X` 6 ; = 8.o.e N #.v.R 3.R.;.=.Z.n.8./.|.F...#.|.8.@.` =.=.a Z =.y.b.C.$.#.=XR.>X*X} :.T.R.T.b.R :.;.y.$.O c.].i.e.8.O.:.'.SXDX[.C 1 6 }.x A.A.=.v.%XU.S.pX'.|.T.w.R F b.2X3X2Xw.i Z b.R.{.Q R 2X}.rX'.o.n $.5XF.I U [.rXqXS.;.T.i.M R m -.@.F.o.O.I I =XnXpXyXE.l O O M.' t o E -.C.8.P.` # ` c.' b.).W.-X-X=.@ Q.iXY.R.wXpXC.@.=X1X} 5X3X&X&X7.m.#.=X(.r.B.3XAXmX^.H ].SX;XE @.' T.zXK %XpXc.;.8 0 +X' c.M.qX8X+Xc.DXAXzXAX7XoXAX0Xt v ..v.].W.F.c.=XC.H.$.e @X>X-.9.|.c.c.Q.$.u.v.b.-.:.} @.3.B.b.F.F.M.c.#.` ,._ v nXpX=XR 6 8 1 $XR.b.y.H.R.8.@.` -.#.c R =.i.c.b.;.#.=XR.>X.X@.:.U.F.T.M._ :.;.i.;.@ y.|.r.i.y.O.$.T.'.2Xn.T.S.R.{.u S.I.&.A.*XI.VXPX.XI 6 = U F v.3X3X3Xq.i Z i.[.Q.Q ",
"Z 4X*XF.e.;.n p -.R.T J |.nXcXjXSXVX=Xy 6 - m W o.y B ] ..O.G.O.x.*X>XA g =.,.g X @._ X.( 3.( ; 3.=. .).Q.Q.-XoX3.# |.6XeXtXvX1X;.` |.Y.E 5X%X).eX7.k.5.1XX.| u.AXIXDXv o > vX#X..y.' $XzXv : J.-.&XwX8X7X` 7.y.E.wX+X8.AXzXxXPXxX-XzXxXv 9 ;.%X:XU.c.U.pXu.M.] 1 L.wX3.8.|.Y.|.R.r.r.x.8.@.@.BXbX*Xk 8 - # 8.} a P -.).[ ..F.C.c.=XT.%Xc.c.:.} 9.M.8.' v.y.:.p R ,.@.;.;.T.~ R.|.5XI.Z b.R.S.F.[ Z w.=.$.#.O 8.o.e.F.,.Q B.F.MXnXT.I 8 8 `.Z G.F.e.:.R.].=X].F.*XwXS.$.O.T.2X2X2Xv.i B {..XT.] Z 4X*XF.y.;.n p :.R.W U }.nXcXjXOX$X[.o.R.8.m _ @.y V ] o...VXhX>XT.B O o ;.8.t X @.R ..( -.( < -.*.[ ).Y.OX>XE.3.# |.6XrXtXvX>X;.' |.Y.R 5X%X].0X8.x.6.1X<.| u.+XHXAXl.4 b.vX@X..y.' %XzXv &XMXn./ f 0 7X) 3.i.E.9X+X,.AXxXmXPXxXOXzXxXb 9 =.;X*XU.b.U.pXc.B.o.4 K.5X-.9.|.Y.|.R.r.b.y.-...-.r.#.#.#.r.b.F.8.c.9.@.` 8.` MXvXtX@.6 8 > U.|.R.c.C.F.c.] y.y.5.x ` e.o.;.-.T.] R.|.5XI.R c.T.M.F.[ R ,.;.;.#.O ,.o.i.T.:.E D.F.v.M.e.*X|.2X'.M F.T.e.,.T.[.KXZXU.I f > $.O.J.3X2X:Xv.i M [.|.R.] ",
"Z T.*X.XT.i.R a.F..Xw.H !.nXVX*XvXAX*Xl ; # O.'.,.n Z e.:.~ t.r.|.%X*XM.A _ ,.C X C L P K L ) , N ` 8.+XQ.:XoXoX=.$ M.|.wX5XvX>XF.@.).eXu.*X>XeX<XY.9.b.u.} +.7.AXPXyXg . 1 iX@X..,...Q.wXb 3 |.m.;XR.U.@X .@.F.M.%X@XL.mXzX0XAXzXoX;XfX .: ;.%XM.%X|.F.wXb.Q.w.1  .F.9.H.9.(.R.8.....=.F.#.Z vXvX=XH 8 = ; ..{ s ` X.%Xb.$.b.M.u.F.%XR.8.` R @.x.=.r.] @.R 5.p Z M.v.y.b.R.#.8.8.C.3X@.] c.r.M.;.R @.@.[ ;.$ y.i.J.S.$.Q i.:.VXHXF.o.y 2 J.U J.i.[ T.R.y.R.4X=XT.hX[.w.q.{.rX4X[.`.~ Z y.T./.] Z T.*X.XT.i.R i.F.=X2.F R.nXVX$X;.T.Q.y.i.] O.'.:.l I w.,...lXbXmXI.B > # _ ,.C X Z L ` H K ) & V ` j.).Q.;XoXW.*.% F.+XwX1XvX>XF.$._.wXu.=X>XtX<XY.9.b.x.{ | 7.E.MX;X7.< Y.iX@X..,...].yXz >XSXW._ 5 5 -X .@.F.M.%X@XL.xXzXyXSXzXoX-XzX..: @.:XK.).|.Z.wXb.Q.:.1 ) U.9.Z.c.Q.Y.8...-.,.b.#.] -.-.r.b.b.u.8.=.#.n.F.=.7.P BXBXpX] 6 > ; c.R.v.-.c.v.b.O.=._ :.l Z M.v.8.p.R.#.5.8.b.>X@.] y.i.M.;.Q @.;.@.;.% n.x.T.F.;.W w.@.T.rX;.5XrX].`.i `.z.I J.T.;.HXHX>XI h 8 %.q.'.tX4X|.`.o.Z r.R.'.] ",
"m 2XrXT.o.I I hXnX4Xu.n q.mXAX:XVXvXS.f ; = ] rXA.V R _ r.}.1.c.pX3X&X$Xn._ >.g   b ..[ _ -.b , ` 8.U.3XiXwXOX+X9.+ C.>X>X>XiX9XwX-.C.eXC./.U.>XC.3.#.F.Y.#.3.9.MXJX@Xg O 0 vX>X9.Q.` y.E.w 3 iXV.P.W.Q.JX7.( 0XQ.W.OXm.k.oXM.iX7XoX%X9Xj.4 F.E.).vX|.W.>Xb.T.,.9 L.).=.} C.C.x.8...@.y.-.} y.vXgX;X3.6 ; > ....j z ' U.|.:.F.R.c.Z.|.y.O.$.#...#.,.r.@.R L F.n L Q.M.F.=XT.<.y.] R.qXF.$.@.@.b.x.} =.@.[ R O x.|.v.;.o.W :.T.SXGX'.' 8 > }.Z ].y.-.F.].y.U.=X4X}.jX*X_ O.R.lX4X3X4X$.-./.b.F...m 3XrXT.o.I I hXnX5Xi.n q.mXSX$XS.M.,.$.,.#.o.5XC.m R _ y. XlXbXDX%Xl 8 > ' >.g   n ' .._ >.b < E 8.L.qXpXqXOX+Xc.@ C.>X>X>XiX9XwX;.C.eXC./.U.>XC.-.#.F.W.<.7.7.C.zXY.*.x 1XkX1X9.Q.' e.Y.q >XJX^.C 5 6 LX7.R eXQ.W.+Xk.k.W.M.iX9XOX%X1Xk.4 Y.E.+XvX_.U.>Xb.T.w.7 L.).*.} C.C.c.y.#.@.v.-.} c.y.-.c.H.6.8.r.-...C.u.;...x MXBXnXe.0 6 ; C.R.T.-.u.F.-.#...] A.M R E.c.M.;XF.#.y.@.Y.>XS.@.@.$.b.b.@.@.@.@.] % 8.].v.y.@.U ;.F.*X*X,.rX2XJ.{.i }.e._ M.}.o.GXHXrXI h 8 _ O.R.lX4X5X4X%.-.R.b.T.@.",
"I *XiX[.I I B .XpXiXS.N $.cXDX3XDXvXv.k ; > ] =XF.Z ] [ F.f.| 9.kXkXM.U.W.*.-.r . X.#.m.T.M.G 5 P ).v.;XFXAXpX+X7.. ,.;XQ.Q.vX;X|.b.U.Y.X.V.1X&X-.Q.9.B.>X3.3.3.zXDXuXg O 5 vX9XC.R.=.L m.r e 5XP.W.(.%XLX*.a kXcX;X-X7. .[ n.yXxX@X>XyX#XF &X:XM.vXgX>X|.B.W.$.r W.uXC.] b.C.=.c.$.:.).5.b.R.bXiXQ.b 7 > > =.] N b P F.T.#.F.rXY.c.F.F.] ,.@.....y.b.#.@.] M.n ' wXQ.Q.|.v.E R.v.v.M.e...} ] x.b.b.=.y.i.=.$ ..:Xb.@.,.:.J.2XLXHXM.B 8 y rX%.J.y.;.T.R.S.,.;.Y.*XnX[.q.G.b.3X2X5X=X$.W =.8.].Z I *XrX[.I I B .XjXyXb.Z $.cXDXqX*Xv.:.w.:.y.] =XF.A o.] B.f.gXvXGXwX0 6 5 &.>.t . *.#.m.T.M.G 1 R |.c.>XDXAXpX+X3.. ,.&XQ.Q.kX;X+Xc.T.Y.X.V.1X X-.(.9.V.>X3.<.-...:X;Xk.H Y.vX0XC.E.>.P n.r >XGX@XA 6 6 LX) a vXxX:X&X7. .*.n.yXxX%X7XyX;Xb %X;XM.vXvX>X).C.W.;.r W.uXC.' M.C.@.b.:.3.R.a.8.C.5...-.Y.y.8.c.#.L ..-.7.-.e kXMXpXv.p f 1 R.=X}.b.b.F.b.@.,.@.b.B ` >XU.T.R.v.{ H.i.v.M.y...} ..n.b.b.=.y.v.;.> ] *Xb.,.i.w.F.>XtXrX@.T.3XrXrXW J.v.R T.=X:.VXgXS.C l 6 q.R.y.3X5X5X=X@.E #.,.'.V ",
"W R.MXjXI.i.m e.rX*Xi.x A.cXDX3XMXVXb.A = 1 @.rX=XR $.C.H.%.+.@.rX>Xv.$X-Xn.` l . G U.W.7Xv.j 4 c y.c.%XAXAXyXx.-.; R.yX1X|.pX;Xj.;.iXxX` b.ZXeXZ.wX3.b.|.C.9.P.mXHXxXl O ; qXxX} Q.W.8.;Xb 7 ).Z.>.0X(.L.) 9 R.vX:X;XW.P.,.=XAXW.` tXAX;Xg S.yXL.gXpXwX>XQ.M.] r P.9Xb.Q.R.@._ #.Z } Z.b.c.F.pXnX(.c 0 ; > ] 9.L B #.%XF.;.Q.U.c.3.Q.|.R :.-.I :.U.y.#.;.R c.m B %Xx.Q.&Xb.! F.] :.].@.R @...].,.;.=.8.R T.t p b.S.i.b.i.H.=XDXHX*Xo.8 t |.O.y.T.y.F.R.J.;.G.M.J.VX%Xv.b.y.3XkX5X'.,.Z #.;.S.Z W T.MXjXI.i.m e.rX=Xr.x A.cXDX3XI.Q.;.R.%.F.@.rX=XA $.C.H.%.kXkXZX|.y 8 8 x.' z . K W.W.7Xn.g 4 x c.n.-XMXAXrXx.3.% R.wX1X%XiX7Xj.;.pXgX` c.BXeXZ.wX3.b.].C.9.Z.v.yXpXk.H :.9XxX} ].W.,.;Xb ;XCX(.h f 6 P.) 7 R.mX:X7XW.L.,.>XAXW.( tXAX#Xa S.yXC.gXpX0X=XQ.n.} t P.1Xc.Q.R.@.' $.L ..C.b.8.b.y.-...5.8.;.%.5.L { :.#.G a gXnXMXF.8 6 > U.|.%X,.7.R.B.-.,.] c.A B Q.x.U.).v.{ b.o.,.U.=.R @.$.R.v.8.=.8.o.T.h h b.M.M.F.r.v.=X|.tXA.2XtXbX.XM %.3Xi.T.R.,.MXVXA.m l 8 z.G.y.2XkXrX'.:.Z #.;.F.V ",
"I F.=XrX[.M.e.e.5XiXB.e A.rXDX$XmXVX|.A : > ..3X&X[ v.v.C.G.t.#.=X|.L.>XM.%X;.p   _ 7XP.;XL.*.4 z c.W.+XmXAXrXM...% ].pXeX(.rX7X,.,.5XvXX.F.JXtX;X>X .Z.%X9.Z.1XMXSXAXv # > rXuX-.8X+XF.mX( w @X%X>XeX&X[ ) 3 2XAXzX;XQ._.b.%XSX7X_.vXMXP.b U.+XP.gXeXL.M.wXY.S.e *.&X+XAXY.@.[ y.` ] &.-...U.vXMX>X` t > > c.c.c j @.Y.U.c.>XS.:.u.&X&X` ;.y.,.x.Y.6.=.,.] ,.R x OXx.>X].;.6.] ] ;.x.' m Z 5.T.&.` ;.;.] b.2 h 8.U.M.i.F.F.4XSXHX].I y p .X%.F.w.i.i.R.F.%.:.i.D.vX3XM.F.4XjXjX|.R.x.] b._ ..V R F.=XrX[.M.e.e.5XiXC.u v.rXDX].x.Y.U.R.y.c...6X*X] b.v.C.G.vXkXMXU.h 8 1 @X;.t   R >XL.:XL.*.q s c.P.+XmXAXuXF. .# |.pXtX(.eX>X8.:.qXvXX.H.HXpX;X>X .F._.9.Y.1XM.-XxXP.C r.iXuX3.>X+XF.mX( 1XAX;X' t 8 *.) 5 >XAXzX:XW._.v.|.DX<X@XvXMXP.c T.OXY.xXeXU.M.9XU.V.e >.&X+XMXY.@.[ 8.] ..:.c.@.y.c.c.r.3.O.C.#.#.' ` 3.E ` V tXvXpX] 8 0 8 |.Q.=XT.-.F.y.-.y.@.,.[ c Q.v.%XR.e.5.E @.,.y.o.R E 8.U.,.=.-.,.@.F.p j y.T.R.F.b.u.wX).kXv.2XrXrXB.s Q v.b.*X5XM.VXrXv.k l f z.F.tXhXjX*XT.b.E c._ ..V ",
"Z D.r.|.T.,.v.b.3XT.5.u F.$XiXU.mXAX3XI > : @.2X].i.M.M.c.u.i.F.|.R.y.>Xj.j.-.L   :.DXW.8X+X>.r b ,.C.C.mXDXpXS.` . Y  X1XQ.yX%XY.Y.E.zX-.).PXfX&XMXV.^.1X7.F.rXAXHXxXv = 6 mXpXF.iX;Xj.mX4.3 3X%XfXpX+X(.l.: .XDXmX-XW.qX%X%XMXn.j.v.1Xl.b W.OX(.pX1X-.n.W.=X].p ) Y.P.eX&XR.e.=.;.:.b.o.Q _.MXvX>X5.h = - Y.M.Z x x.b.U.U.).U.v.).%XtXR.b.=Xv.C.].F.%.Q.M.Q.y.l ].F.R.*Xi.=.V i.;.j.T.` @.w.;.].y.;.e.x.,.O y y.] ;.w.5.B.kXZXCX}.A 6 6 '.a.'.a.a.A.w.y.@.$.J.i.3X].:.).nXjX4XT.J.:.H J.@.o.l Z D.i.].T.,.v.M.3XT.r.a F.$XiXU.n.Q.|.'.b.a.@.,X].y.C.M.v.u.nXBXbXb.0 0 ; z.-.P   ,.FXW.7X-X>.r N >.C.C.mXSXzXV.` . R &X3XQ.uX%XY.Y.E.zX=.(.PXvX&XMXl.^.1X8.F.rXOXwXpXl...|.vXuXU.pX7X7.mX4.>XDXwX..f 8 Q.l.: *XDXvX-XQ.>X_.%XAXn.j.c.1Xc.N W.+X).pX9X>.c.W.>X].u  .W.L.rX&XY.,.=.=.:.b.:.#.Y.U.y.:.r.b.C.3.Z.` Z X._ E 3 eXkX5Xm 0 6 ; (.C.>XM.c.Q.Y.-.F.F.W.r.c T.F.R.].i.-.H ,.,.x.F.@.:.y.y.].M.;.i.c.v.9 k v.@.b.v.5.a.kX*X5Xb.>XT.$.U u Z '.*XR.*Xy.SXwXJ.p y 8 ] |.FXrX3XT.T.:.Z F.@.] m ",
"_ v.Q ;.T.e._ w.*XF.y.u ,.Q.vXT.VXSXR.l $ $ %.tXwXb.-.v.$.i.f.F.=XF.;.qXL.,.' g   M.LX-X-Xj.( z e I.U.k.&XpX;X;X-.o O.y.*X>XY.&X|.@.%XSXV./.PXxX=XBXZ.V. X` F.rXAXLXzXv = 5 SXeXM.8XAXoX0XX.e rXW.&X8XW.Q.) $ T.GX8XL.n.mX(._.mXP.m.*X_.@Xb C.:X*XW.;XM.L.W.U.F.a z c.=.( 9.F.,._ _ ] B.r.] C.MXvXwX] 6 : ; 5.L N b 8.M.R.;.OXrXT.Q.M.F.H.F.+XZ.-.Q.&X@.;.v.;X] N >XF.kXrX|.8.E ,.x.|.=X=.W @.;.].j.=.U.:XT.2 p S.o.i.v.D.y.R.SXSX[.B 8 2 2XA.`.b.D.v.i.r.@.5.R.b.=XF.;.{.}..XkX[.T.S.Y b.A.v.Z _ v.W ;.T.;.W w.=XF.r.p ,.Q.mXT.E.*Xb.M.R ] %.rXrXb.$.v.;.u.nXMXnXe.6 0 5 ,.' g   M.HX:X@Xh.` j r L.L.c.&XuX;X&X<.. O.i.*X;XY.&X X@.%XSXc.).JXbX,XBXH.V.).) F.eXW.yX0XV.=.U.FXuXM.:XAXoX0XX.5XHX%X_ 0 5 ).` $ `.DX7XU.n.MXQ.+XmXP.m..X|.@Xz C.*X%XQ.&Xm.U.W.F.F.u z c.#.( u.Y.,.' o.} b.b.] c.v.c.3.3.:.8.$.-.-.-.-.9.] e eXvXwXB 9 6 ; =.C.S.c.C.).R.@.;.F.+X$.V %XM.eX=XR.8.] :.x.C.F.j.,.y.c.%XM.-.M.Q.R.n k C.e.b.|.D.-.|.|.rXi.T.T.Z :.s W 3X].S.].v.SXvX'.k f ; C Y..X.XjX'.R.D.U A.A.v.Z ",
"Z v.S.w.A.e.Q F >X&Xv.V v.v.qXiXmXVXR.h > $ ] rXvXy.y.R.o.R r.B.=XM.F.pXm.` n.b O R.pX$XL.K.j.; 8 &X;X-.7.;X;XtX#.+ H.&X(.(.} @.b.3.Q.MXV.6XFXmXkXuXC.+XL.X.C.%XDXSX-Xj ; > JXeXY.8XAX0X;XG 3 .X=X).wX%X9XL $ [.;X[ %XE.@XW.iXzX>.=.eXkX@Xv &.T.L.K.U.#.$XQ.c.=XY C P.8...#.:.;.;.-.b.).b.H ,.FXMX5XL > ; 2 E =.R a -.=X].v.%XqXT.M.v.F.C.8.W.W.[ U.U.@.8.v.F.;.V &X=.tX>X&X@.E 8.U.Q.U.8.` E } v.;.M.E.M.v.8 m |.i.v.,.b.y.|.SXHXT.B y 9 rXJ.p.A.p.J.{.r.U i.J.D.=XU.v.F.#.R.rXM.R.F.E ,.i.A.n Z x.A.e.S.e.W Z >X%Xc.V y.v.qXiXv.U.v.r.i.} Q tXvXx.,.Q.o.U lXnXMX:.h f > ' n.c O E.zX+XL.K.j.- 7 *X1X*.8.=X;XuX7.@ G.&XQ.(.{ #.b.3.Q.MXV.eXFXxXgXfXV.%XL.X.C.%X;XOXW.k.k.N.JXeXY.8XAX0X;XD =XSXeXA 0 8 9X( $ [.;X&.%XT.@XQ.iXzX>.&.rXxX@XC =.U.U.K.Y.=.Q.W.M.*XH G W.-...@.8.@.=.,.N.).F.E 8.U.b.#.@.b.y.@.m ;.-.{ 8.} u pXkXvXL 6 1 > b.).W.).,.M.b.O.,.M.U.8.K Y.:.=X|.U.8.@.:.C.M.y.C.c.y.x.Q.v.j.M.F.M.A L R.F.U.R.b.[ b.R.pXi.2XT.@.%.u Y |.S.b.|.b.HXZXT.j 9 6 ;.C.} '.tXb.Q.D.W %.i.v.n ",
"B i.[.[.[.S.e.U }.R.b...c.b.$X3XVXvXS.h 6 $ n F.>Xv.b.;.Z W F.p.|.,.Q.>Xc.c =.c . F.;X>.K.OX>.+ k >XQ.U.W.1X).%X#.$ R.|.Q.R.y...-. XQ.9Xc.=XBX0X<XlX(.OX(.{ U.W.SXSX@Xv > > R. X..M.0Xl.k.g % {.bX9XzXuX>X` 3 :X9X` %X9X7X%XgXmXh._ ).bX7X..@.I.OXx.b.;.U.%X8.>XY M 7.#.-.b.Y.x.x.u.c.|.i.] M.FXMXkXU 6 > ; Q C.` r c.%X*XF.W.E.|.m.M.R.b.,.).c.@.n.Q...9.j.+Xv.z c.` 9.T.M...L 8.F.=Xv.y.D.;.;.,.B x.yX*XR.c e b.v.:.$.:.y.3XSXSX[.l 8 p jX1X{.r.r.J.=Xr.Z o..XT.5XF.U.F.a.rXiXy.R.y.$.J.*XA.k B i.[.|.].S.e.R }.R.b.@.b.v.%X3XM.e.i.,.R...n F.>XM.v.#.I W ZXnXvXo.h 0 ; v =.x . S.;X>.K.+X*.# k >XW.U.Y.1X|.%XX.@ R.).Q.Y.u.@.-. X].9Xc.=XMXeX<XvX^.Q.).| F.OX+X*XW.c.c.c.(. X..M.yXl.k.g |.ZXAX' h 0 ;X) 2 *X0X' %X9X7X-XzXzXj.( ].bX#X*.o.I.W.x.c.;.E.].j.>XW N 7.#.-.c.Y.v.v.u.B.).i.] y.C.F.u.R -.,.@.} ;.@.#.X.' j gXgXvX$.6 > > c.C.|.U.:.-.c.@.x.8.W.v.N y.;.y.U.U.C...:.C.Y.@.v.M.M.c.Y.;.:.U.R.U.@.G b.F.F.F.v.@.M.G.5X*X3X'.e.@.s U '.,.F.(.S.DXjXF.0 8 8 S.c.y.pXtX,.Q.r.@.R.*Xb.l ",
"A ].'.*X'.R.a.@.a.b.5.u Z O.M.|.DXVXb.0 $ $ } =X$Xv.@.] i.@.6Xt.y.$.|.T.M.8.M.c   @.U.L.-XoXj.# B rX*X=Xc.(.%XU.{ , ].>X=X5XpXwX>Xu.S.;X8.6XSX1Xk.vX1X%X>X-.).P.mXFXoXt * $ @. X^.%X1X( K e O a.&X9XzX>XpX( 4 8X-X:XrXyXoXI.AXmXE.>.%XSX#X .;.].oX*XS.=.n.T.8.y.u e } @.K c.Q.W.@.| { Y.F.E y.SXMXkXE h 6 ; $.Q.B.x ,X1X*X=.U.R.M.>Xb.b.i.] 8.=Xe.8.,.[ ..L.*Xx.e n.=.8.Q.F.=.H C.M.F.|.=.,.v.S.Q.c.v.wXwXT.m 7 c.T..X;.;.y.3XVXVX3XB 8 8 hXrX.Xp.i.F.'.'.U w..XR.T.;.b.v.@.3XhX'.S.,.] M.wXR.B R |.[.*X[.J.i.@.i.b.2.u Z ] v.|.*X[.,.] _ Q } *XOXv...] v.@.KXlX5X_ l 2 > j.M.c   @.U.L.%XE.h.= B rX;X=Xc.).%XZ.} % |.>X=X6XpXwX=Xu.C.%X8.eXSX1Xj.bX6XQ.9X-.Q.L.n.>XC. .' { #. XR.%X>X( K e Q.mX<X' h 0 pX) 2 qX-X*XtXyXW.U.mXAXW.>._.DX#X .>.OXoX%XM.;.n.T.8.y.t r [ @.K c.W.Y.@...X.U.b.] :.F.y.8.5.:.-.@.c.-.9.c.....a wXpXgXF.8 > 6 y.c.Q.C.;.;.5.@.=.M.T.i.c -.n.y.Y.R.y.' 5.b.b.#.x.b.b.c.Q.U.y.C.).F.@.G b./.=XQ.v.@.V.R.3X*X&XQ.o.Z Z M R.y.c.j.,.ZXVXG.9 : ; ;.=.W rXkX'.S.:.] S.5X[.V ",
"m T.*X*X5X>XR.@.] R.y.F #.:.i.T.VXVXe.8 = O Q F.;Xv.[ o.T.v. X!.y.` Q.=.n.E.,.e   E C.U.9X+Xn.o B rXM.L.` M.x.&X%.e >X%XU.vX>X>XwXC.R.=X8.1X&X_.C.dX1X>XW.3.>X).AXHX+XC 6 $ Q b.F.F.SX+XW.7 X B.Y.).;X;XW.K : U.cXxX9X-XK.z.zXOXK.>.gXBX0X( ] $XL.I.x.K.$X:Xn.` x < >.u.N ( C.).c.x.-.U.e.] -.MXnX*X} h 1 > -.M.F.r k.T.%X$.C.U.R.T.,.].v.] y.R.] ;.:.] ,.n.h.Z 6 >.=.Y.-.c.$.H F.B.Q.b.` ] v.[ T.y.;.Q.T.Q.H j U.R.}.@.:.|.4XSXDXjXZ 0 2 hXkX.X}.w.R..X5XW W R.R.'.$.;.A.}.}.*XF.b.,.A v.S.S.m m U.|.*X6X2XR.@.] R.r.F -.w.v.T.T.T._ R $.N Q Z.>Xv.[ o.T.v.SXCX4XV l ; ; U.,.g   E C.W.9X+Xk.o B iXM.C.' M.x.%X-.e =X%XT.zX>X:XwXC.R.>X9.<X=X_.C.dX1X7XW.8.>XQ.Y.8XL.L.W.K E a.G.Z.DX@XW.7 Q.nX;XA 0 8 P.K : U.zXxX9X-XI.x.zXOXK.,.pXAX7X) ' $XK.U.x.M.$X:Xv.` n < 7.x.b ` L.).c.c.:.M.y.] -.T.y.8.F.b.] G ( -.C.c.=.] N wXpXpXv.6 2 0 Y.u.M.G.} 8.;...-.n.,._ B [ x.M.v.C.8.@.C.v.F.#.C.b.M.y.Y.F.e.x.Y.R.8.' F.|.=XR.Y.r.B.b.wX].Y.R.;.] Z M T.x.@.:.b.MXpX|.9 6 ; I e.5X*X2XF.A.e.V v.U.F.c ",
"B ,.R.|.'.R..XQ.|.tXa.u.5XF.'.e.SXMXe.6 O $ n c.E.M.=.M.T.T.tX_.b.U v.v.n.n.M.x   =.xXwX-X0XoX; R zX,.[ ' R.M.R.#.O.6XY.rXzXQ.*XzX&X|.|.H.eX).H.u.xX&XpXc.` %X%XHXDX@Xv ; o n b.OXU.mXW.;Xb , 2X(.E.j.b P C ; ].-Xh.Q.K.K.F.zX7XK.h.tXpX7X .K.7X>.U.OXQ.>X>X,...#.4 >.@.N ..8.;.C.y.=.9.y.%.$.vXgX>X` 0 > ; -.b.-.a v.Y.K.] C.BXbXv.v.vXR.y.C.Q...@.x.#.8.T.A A 8 A L 8.:.v._ ..C.,.b.y.=.[ 8.,.U.,.@.U.Y.R.R h R.|.Y.R y.2X*XSXDX3Xk 2 > 4X4X2XJ.a.'.2X4XO.Q A.S.5XR.R.F.T.T.3XR.R.F.i.y.T.M.c N ,.T.}.Q.R.*XR.|.tXf.u.5XF.'.i.].S.] A C Z n v.T.M.;.b.U.Y.KXCXeXm f > > n.M.z   $.gX9X-XiXoX; I zX,.[ ] Q.M.Q.#.O.wXR.rXpXQ.>XcX|._.|.L.eX|.Y.c.lX=XuXk.` %X_.1X;X).L.y.e s B.+XI.xXW.&Xb =XDX;XB ; O E G ; ].-Xj.OXK.K.S.zX7XK.z.rXpX7X .M.8X>.T.OXW.;XqX8...+.q ;.@.N X.j.;.C.v.@.8.8.} @.y.:.8.c.-.c.H Y 9.h.b.' 9.H rXgXbXy.6 6 2 v.3.R.|.} ;.,...9.T.' ' B H 8.n.M.v.=...9.v.Y.#.b.v.y.x.U.G.-.,.G.Y.b.-.G.)..XR.Y.B.u.H.*Xb.` 8.i.e.M z b.v.$.M.c.PXPXlX8 h h =XM.3XF.rX].[.U.8.y.R.b.x ",
"C 9.:.T.S.T.i.S.1XeXr.~ M.S.3X3XHXAXI.f > O z y.M.Y.,.i.$.v.|.} #.} 8.wXm.x.;X .  Z yX-XK.9XE.o A wXC.F.e.U.>XR.B.| Y.%XpX>XQ.mXSXQ.R.%X9.).lX,XgX1XC.;Xy.c.M.F.DXAXP.g > @ ~ D.eX-XzXl.eX ., }.).OX>.K ,X>.; T.L.>.U.K.8XQ.zXzX-Xn.rXvX0X) v.7X..L.7XE.m.:X-.c.H e h...J W.m.8.j.F.@.c.b.#.-.vXmX3XL 6 > > Z.U.G.x Y.Q.F.R 8.gXjXR.MXSXQ.v.L.x.L =.8.8.v.U.x.v.r >.A -.-.=.y.R :.,.F.9.P P v.,.M.b.b.*XQ.U.V 8 Q.b.b.$.T.'.3XHXVXhXy 2 6 lX'.[.w.D.{.[.T.W n J.A.].].F.b.T.b..X'.T.R.A.-.e.u.E A 8.:.T.F.T.i.F.1XeXy.! B.F.3X>X5XQ.z.=.x.R x 8.M.T.,.i.$.v.FXkX>XL 8 0 > n.>X .  A rX-XU.7XE.o A iXb.F.,.T.>XR.G.~ W.Q.pX>XQ.mXAX/.U.%Xu.).fX,XfX,XC.>Xy.c.C.U.*XQ.k.>.C.F O.D.iX;XzXl.yX{ &XSX;X/ ; # &X>.- E.L.*.U.K.qXT.zXzX-Xn.eXvX0X .v.:X .E.;XE.K.:X=.c.Y e j...V Y.C.9.m.C.@.y.b.@.#.,.y.=.c.;.C.;.#.b.c.c.c.c.c 9XxXgXx.0 0 2 8.u.Q.R.` ;.y.,.c.U.x.y.L ` >.U.U.C.C.7.,.-.8.] 8.8.c.c.Y.B.;.-.Y.B.y.3.c.F.=X%XR.5.c.|.&XU.} #.:.v.Z n F.v.8.R.G mXtXF.6 > l iXv.=XM.1X}.R.].b.;.:.y.] ",
"Z ,.@.R.R.v.,.;.8.} ^ Y D.,X>X%XSXSXU.h 8 ; N F.8.:XS.,.@.=.5.Z @.-.R Q.M.K.8.V   A |.rXn.oXL.# m :X=XrXC.Q.pX>XZ.N ).&XiXyXVXMXvXwXqX9X@.-.1X6XeX+X5X9X8.V.8.%XPXvXL.t O O  XG.tX8XoXj.%XG $ >X&XQ.M.).MX7.o E.-Xn.x.:X-X>XDXyXE.e.iXFX7X( e.7Xn.L.M.[ &.=.@.,.$.u 8.@.z H.U.M.%X].=.F.T.[ v.FXMX1Xe.6 = * 8.c.%Xb k.B.,.Z #.).=Xv.Q.>XU._ C.T.I I R ] C.M.%XR.j ,.' o.[ b...V v.u.3.[ Z [ b.o.C.v.,.5XQ.J.V 7 v.$.y.$.v.'.kXKXGXjXk 2 8 lX[.*Xi.i.F.[.i.O.M T.i.T.b.R.A.b.i.T.R.T.w._ R @.:.m L :.@.R.R.b.:.-.8.} ^ J F.1X>X:XQ.%Xn.=.*X-.Z F.j.%XM.,.o.=.vXrX=X_ > 6 5 K.,.N   Z |.wXn.oXP.# m :X=XtXC.Q.pX>XH.N (.=XuXwXMXMXvX1X>X8X@.:.6X1XeX%X9X9X3.C.y.$XpXj.j.*.b M {.G.pX3XOXj.+Xv &XSX9XA > 8 AX7.o E.-Xn.x.*X-X>XDXzXE.,.iXGX#X( >.7Xv.K.M.' o.;.=.8.$.p 8.@.z H.U.M.%X).;.C.F.o.y.Q.:.#.Q.c.=.;.V.M.,.:.H.C.Z wXbXwXx.h 8 5 M.U.Q.=X8.;.y.:.C.M.Q.F.[ ` ,.M.c.C.b.c.c.;.7.] -.c.v.u.C.b.] o.R.R.u.a.c.b.|. XH.3.H. X^.=X:.3.8.6.Z H *XU.i.T.] gXbX).> $ 2 iXv.T.v.[..X|.,.L Z @.,.m ",
"L R.'.|.}.R.R.` F } ! 5.|.b.M.M.MXMXE.h 6 ; M F...U.I.v.e.r.B.] y.8.b.>X>XL.( g   Z |.;Xx.E.W.1 A Q.n.Q.|.U.wX|.3.j eX;X5XzXPXDXzXxXR.%X8.R.&X,X,XAXmX1XC.9.y.5XPXMXC.c O 6 dXy.%XyXOX*.W.v % R.1X1X1X9X(.( # 7XyXK.].zX9X|.iXoX8XK.;XAX0Xk.z.-XL.9XW.=.=.,.@.$.t.t *.@.c R.Q.x.U.T.@.Y.T.E Y.ZXkXeXU.t ; ; 8.[ } r -.y.e.] } 8.Q.F.x.F.y.] Q.>X_ [ y.b.,.n.T.>XV n.n.U.M.M.R G n.Y.8.Q.` M.M.@.M.] O.|.|.].R : M.,.,.R >.U.wXDXSXjXm 6 8 VXnX*X|.Q [.}.i.O.W }.$.[.$.] S.i.|.].v.D.F.@.A I R.@.A Q.'.].}.T.T.] Z ~ ~ 6.|.c.C.M.U.C.v.8.Q.-.M C...I.U.v.x.e.MXpX5X..p 8 8 K.) g   Z %X;Xj.W.W.5 A Q.x.Q.%XU.wX).3.j 6X&XwXyXPXSXzXpXU.).y.R.=X,X=XBXvX9XF.x.r.5XzXE.7.V.N /.dXu.%XyX%X*.oXv |.VXuX' 0 0 @X( o >XyXK.Q.vX9X%XiXoX7XK.:XSXzXk.8.-XL.9XQ.;.&.,.=...y.r &.@.x R.W.z.I.U.-.U.v.] b.U.:.:.Y.b.-.8.:...c.3.:.L m eXvXtXv.9 6 0 F.C.M.Q.e.y.F.F.j.v.L.Y.$.[ M.U.c.M.8.c.y.8.u.@.y.c.v.u.M.C.} ..V.F.B.H.H.Y.{. XH.u.b.).B.B.%.#.-.i.W } |.].b.5Xr.bXMX|.; > ; o.:.S.3XR.v.F.T.[ Z A Q.@.",
"m ,.T.M.|.3X*Xi.Y t.J ! c.} M.y.MXSXC.l 6 > ] C.' M.x.U.v.&.} } G.,.U.uXE.K.( r   R R.n.h.n.j.# A M.] S.tXwXrX>XC.H eX&X].rXDXLXHXAXQ.Q.b..XR.=XBXmX-X;Xm.:.C.vXHXSX(.K o > _.Z.=X>X:X .+X( $ b._.&XW.;X*XK = 2XmXyXpXFX7XM.I.oXyXOX-XmX#XoX[.$Xj.%X>X8.K.W.x.@.#.c -.&.L -.,.R ,.=.L x.i.R 8.nXMX5X' 2 # > k.} E 7 ' C.e._ =.:.' S.y.;.;...M.Q.@.x.).R...M.%X>Xm x.M.*XM.Y.] V ..8.F.pXh.n.].T.v.;.F.pX=XF.H < Y.8.v.R ..v.'.MXSXjXB 8 y hXhX[.}.;.[.*Xv.r.W R.%..XS.;.|.F.'.|..XR.|.i.6.v.y.,.m e.J.M.).2X*Xe.Y t.Y E u.] M.,.T.%X8.x.Q.b...C...M.x.T.v.@.gXgXpX} h f 5 K.' r   R R.n.h.n.j.O A M.] C.rX6XtX>XV.K 6X;X].wXAXHXDXvXU.Q.C.*X}..XMXbX*X&XC.8.F.vX1X@XY.(.z f. XB.=X8X-X .@XK +XvX<X( 6 8 ;XK O 3XmXyXzXDX7XM.U.oXyXOX%XmX7XoXoX-X8.-X>X8.L.OXy.#.#.m *.&.L $.,.R ,.=.R y.y.] u.b.b.O.,.C.b.y.@.E ,.b.E =.R 1XvXnXS.f 6 8 F.v.M.U.y.b.Q.).,.C.L.U.=...n.W.Y.F.n.m.y.y.b.#.y.y.M.b.F.B.] ] B.H.B.|.G.&X/. X).C.9.H.R.F.-.@.r.=X#.W F.T.,.6XC.ZXMX|.= 8 0 ] F.*X3XR.|.*X3Xi.:.v.y.e.",
"p v.F.,.w.R.].i.M ~ ^ Y |.] M.v.SXBXQ.l 8 > [ H.E Q.M.C.M.c.%.} F.....m.h.;X*.z   @.3X>XK.W.;X* V Y.=.c.>X=XjXbX_.r H./.].MXAXLXHXxX5XwXU.|.5X,XbX7X1X).Y.` b.SXLXAX@Xv $ @ !.5XeX:X7XL.wXv % |.;XW.E.%XT.C : 2XzXQ.wXSX@XL.$XOX-X;XOXuXP.j.7XoXk.>.n...8.U.M.] @.N k.x.Z ..,.i.*.;.@.-.;.] -.MXMXtXR = O ; c.;.#.r -.c.y.-.@.F.e.M.y.v.H.U.L.).:.=.*X,.,.Q.:X%Xm ..E.*XR.b.$.I @.( ,.U.=.Q.3X|.*XU.C.pXW.*X..- W.C.,.Z x.Q.i.ZXHXjXm y y hX`.`..X:.}.hXA.F.w.J.r..X.XS.F.S.F.Q.rX=X:Xv.;.v.v.[ p b.U.y.e.T.|.y.M ^ ^ Y |.] b.v.R.R.C.v.].F.} G.` T.M.C.n.v.kXgXiXL 6 > ; ;X*.l   O.wX>XI.E.#X* B Q.@.v.>X=XpXbX_.r G.(.].vXmXDXFXuX|.6XY.&X3X>XmX<X9X).Y...M.SXeXU.Z.Z.E S /.6XuX>X9XK.rXv %XSXeXC 1 8 (.C = :XzX+XuXDX#XL.OXOX@X;XOXuXP.z.:XoXc.>.n...,.U.M.] #.n k.x.Z ..,.i.=.;.=.-.;.@.3.R.M.:.y.c.y.F.@.#.c.y.] C.Q 1XMXvXT.h 5 5 |.M.M.Q.y.,.+XM.x.U.T.U.-.] c.M.U.b.C.C.V.Q.F.8.C.c.c.Y.Y.b.@.W H.H.D.B.u.tX_.H. Xu.<.H.J.B.3.R..X&X@.G |.wXN.nXH.GXHX5X= 2 h R.:.F.|.R.rX3X3Xc.-.M.x...",
"p y.Q.'.3X3X3XR.| s S O.T...y.=.MXvX|.v 6 > Y y.r.v.c.=.,.M.M.r.:.R ` ,.l.L. .z . 5.&X;X%XyX0XO l U.b.C.Q.kXnXpX3.J y.y.wXpXAXLXHXxX6XkXtX|.eX&XwXzXuXQ.pX].zXAXSXAXQ.g O O f.R.vXL.L.W.;X( 7 tXeX;XL.%XZ. .6 3X9XW.wXAXoXL.yXyX@XE.L.L.h.m.7X@XV.x.S.,.v.L.U.,.2.a  .E.` ` -.y.=.o.....[ ] :.MXVXwX=.2 = - M.:.-.k *.y.B.,.8.R.R.F.F.F.b.8.=.y...:.T.[ _ >X9XiXH *.z.U.R.#.F.y.} ..L ,.j.L.9X|.pXS.h.%XL.=XU.1 U.v.;.n 8.F.b.SXVX4XB f f `.4XA..X$.2XrXT.=Xi.3Xi.3X5Xe.c.%.R.R.5X=X].M.#.,.y.R k y.[.Q.5X3X*XY.} n F ^ /.@.i.;.M.b.Y.C.Q.v.R r.y.v.c.=.,.M.MXvX>Xm 5 ; : L.` z . 5.&X;X%XuX0X# k I.c.C.R.gXNXuX6.H u.u.5XrXvXAXDX0X).gXeX|.6X=XwXzXuX(.pX$XcXmXW.Q.P.7.z x d./.mXE.L.oX;X( =XLXxX/ 1 8 Y. .; =XwXW.rXAXoXL.zXyXOXL.L.L.h.m.7X$XC.x.I.,.x.U.U.,.2.s  .E._ ` -.8.=.o...-.] ] #.C.U.#.y.c.c.C.:.M.Q.:.#.Q.b.6XFXMXE.6 2 6 M.R.8.c.:.,.U.n.9.W.Q.R.y...,.M.y.y.M.R.y.H.C.b.8.r.B.C.H.b.O.E b.C.F.a.y.fX!.H. Xu.<.G.F.B.t./._.R.#.} 6XyXH.bXb.ZXGX5X> > 8 y.] =.=XY.=X.X*Xv.$.8.y.R ",
"t y.3XT.VX>X].U.E F F ~ R.R y.b.nXBXb.l 8 > z ..y.].M.,.U.Y.R.-.y._ n.E.E.' ( C   } y.+XV.Q.yX; a Q.;.B.lXCX).1X9.G 4XB.=XmXDXHXHXwX6XtX1XW.&X=XwX#XuX>XAXyXcXmXSXMXL.g O $ D.,XGX;X-X,.M.*., F.>X+XM.1X). .3 :XyX@XwXmXW.k.qXzXK.OXwX@X' I.8XOXB.%X:XF.M.E.R.8.y.x ( L...3.C.F.v.S.:.x.@.;.c.AXvX;X] 2 = - n.Q.8.s C.v.5.S.F.|.%XF.S.F.;.] -.} $.8.Q.>.x.;XY.pXR ..Q.x.F.|.kX] @.V.=.' 8.,.>X&XMXn.( T.Q.y.v.9 :.F.i.H v.Q.v.VXlX[.M 8 8 4X4Xa.*X$.R.hXb.T.e.2XJ.}.T.e.v.w.|.,.R.*XR.F.8.y.v.R h i.>XR.vX:X).C.` F F +.R._ y.b.y.R.#.x.>XM.c ..r.Q.M.:.U.W.CXkX5XC 0 6 5 ` ( K   ] y.).C.W.yX* k R.:.M.lXBX).1X9.H ,XF.=XjXvXSXFX&XR.6X9X(.%X&X0X@X9X:XAXyXjXcXY.U.c...b ^ D.4XHX0X@X>.K. .%XMXyX/ 5 0 ;X*.% :XyX>XeXAXoXn.qXzXL.+XwX@X( U.yXOXB.+X>XM.M.T.E.9.u.z ( M...-.C.Z.x.M.8.c.=.;.y.R.8.] ;.r.8.@.y.U.Z.,.-.C.F.5XbXzXI.8 > 6 F.b.,.v.y.y.T.v.b.Q.F.Y.9.R 8.Y.:.@.F.R.' u.Y.F.:.-.u.C.Y.M.} ] c.u.B.#.-./.|.^./.y.6.B.V.H.8.Y.G./.-...|.1XY.=Xy.MXFXR.> > 8 S.V F.rX@.H.|.R.M.3.v.M.R ",
"m C.5X|.iXwX&X).V b s Y B._ b.R.vXjXS.I 6 = n %.|.kX+Xc.M.%XV.u.U.] ' eXC.` ( j   Z c.(.7.K.@X+ Z J.c.gXfX|.).fX3.e G.,X5XmXHXHXDX+X&XpX=X] 5.=XvX<X:XwXDXzXAXDXSXmX*Xj o @ {.GXLX#X@Xj.=.) # E Q.7XW.>Xm.K h 3X>X;X>XuXuX .+X8X;X9XuX7XC Q.-XQ.r.Z.;X%X$X%XQ.=.} x 7.>.R R C.|.F.].;.c.F.C.Q.AXnX>Xm : = 1 v.W.b.V ` -.H.F.C.M.Y.Q.b.v.%.;.,.` ~ 9.E.Q.Q.n...C.;.B :XM.Q.1Xb.c V >.z.,.;.*.Y.M.Q.M.>.%Xe.] 8.0 ).=Xb.@.;.T.J.nXVXhXp 6 6 }.D.a.hX%.A.3X$.T.b.2XA.T.S.@.v.y.F.8.F.>X*XH.$.T.F.=.N F.>X*XrX3X|.T.V M b Y b.] b.R.y.#.:.*XQ...m %.&XjX|.m.M.%XMXbXpXA 6 0 5 ' ( j   H x.(.7.C.+X@ Z U.b.dXpX)./.pX9.u F.&X>XxXvXMXMXV.B.1X&X..y.&XxX;XQ.%XSXzXAXBXW.C.Q.k.e J {.JXPX7X@Xh.&.( ).rX;X' 6 0 M.( 3 2X7X7X>XzXxX .$X8X-X0XzX7XC Q.-XOX6.L.;X+X+X:XQ.=.} s >.&.G Y C.&XC.Q.-.c.C.M.U.Y.y.#.R R @.8.3.c.c.-.@.c.5.5XnXpXx.6 = f 2Xv.y.C.u.b.U.U.T.M.c.C.M.' 7.|.F.c.U.U.#.u.F.F.c.-.u.F./.u.} Q b.u.B.D.t.^. X X/.2.<.u.^.H.5.Y.C.C.u.#.F.>XF.C.-.SXSXR.> - 6 v...M.Q.:.b.=X3XC.$.Q.R.,.",
"j $.R.>X>X$XT.Y.Q b S W O.R u.R.VXwXT.[ 0 = H 5.vXvXiXm.M.).#.u.&X` ' _.8.*.L j   #.L.c.c.n.7.@ :./.lX&X_.eX&XU.K w F.V.8XuXAXAXxXj.&XpX<X-.R.>X<Xm.;XiXDX8XAXxXDXFXiXC O $ XXJXAX7Xk.>.c. ., $.R.*X1X>XV.( j T.K.@X:XyXW.( n.;X7XOX;X7X( OXOXU.} m.W.:XW.oXU...@.N -.W.' #.M.M.9.M.@.m.).Y.8.MXkX>XR 2 ; ; c.c.|.5.B 8.F.;.y.F.Q.F.v.@.b.M.[ -.{ c.x.,.8.[ ] 3.8.v R.M.&XY.} L 8.=.=.x.Q.=.E.;.c.U.M.*XM.R.=Xh M.Q.v.] ,.F..XGXVXDXZ 8 8 `.J.a.rXA.'.2XZ T.@.J.i.T.T.] i.i.T.b.u.{.].C.@.F.|.] k =.R.>X>XT.F.C.E M F Q @.] y.R.F.W b.5X>X..Y 5.kXvXuXm.M.).xXbXbXV 5 6 ; *.L g   #.Y.c.c.j.>.& %.).lX&X_.eX&XH.( a F.b.&X9XpXpXfXX.y.,X1Xc.F.Q.eXV.|.>XSX9XmXuX).-XwXP.F Y XXJXDX0Xj.*.j.) Q.tXQ._ 0 0 L.[ 2 T.m.;X;XpXoX .n.:X7X$X-X7X( $XOXL.} c.W.>XoX$XL.[ @.b *.L.R @.M.v.8.S.=.v.).Y.,.M.:.-.$.@.,.y.#.,.F.c.x.C.F.eXBXkXi.6 ; 8 *XU.Q.R.9.M.M.y.M.c.m.x.c.@.=.).C.c.U.b.-.b.V.H.8.3.r.F.F.y.} E C.B.^.Z.B._.,X}.|.#.| u.R.G.8.G.H.N.y...Y.|.Y.C.:.FXBXR.> ; 8 =.R b.Q.c.5.).=Xb.} F.*X=.",
"6 ;.F.M.%X>X=XT.v.m H H 5.$.J.Y.GXpXrX,.f $ ] r.4X>XwXC.U.M.} 2.H.#.Z c.,.' *.v   @.).Y.M...P x dXCX6X&X0XY.+XC.R r b.].%XMXmXpX9X7._.eX+Xc.>XF.B...u.1XvX:XyX9XSXLX(.g = > J.NXnX@X-.x.c.{ x .X;XT.Q.W.M.K a *XE.W.Q.8X+X] n.:XzXU.;XoXC L.&.x.9.8.K.>X:X%XM.=.@.N [ uX8.@.b.#.[ C.;.x.Q.M.c.FXbX>X;.p = = 7.x.y.} P r.i.;.b.F.F.@.=.y.%Xb.x.|.c.F.8.@.c.M.;.' ..c >X$X>XM.=.G :.v.&.L.%XM.C.c.Y.v.] &X&X&X|.m C.:X,.U @.*X2XLXGXZXB 2 8 e.hXq.*X'.T.[.n w.W O.i..XT.=.a.b.F.y.F.=X|.J.@.R.T.` p ;.T.M.R.Q.R.A.y.I Y H ,.;.F.F.*X$.3XvXiX@.} 6.5X>XwXC.F.M.gXvXgXE > > = ' *.v   @.).Y.c.=.P x dXCX1X,X9XW.).C.! n F.).U.rX>X5X>XX.5./.^.S.|.F.R.8.C.=XvX>X8X;XV.yXL.3.<.s.G.ZXMX0X..>.x.G 1XFX9XB 5 5 W.C , [.L.+X).yX#X[ M.8XzXP.7XoXC E.&.x.u.7.M.8X:X>Xv.*.:.M ' uX:.} M.@.E U.;.j.|.S.8.%Xb.@.b.F.:.#.c.,.@.W =.u./.eXbXpXo.> = 6 *XM.U.|.c.8.y.v.C.C.U.M.u.X.' =X).).%XQ.%.u.c.B.y.:.c.H.G.r.` ] B.B.H.Y.6./.1X.X/.5.} B.B.G.8.B.B.c.B.#.F.(.U.).c.HXMXx.: > 0 ,...5X>X-.b.>X4XF.} {.R...",
"e ] F.C.%X5X>X2Xi.c Y ! R.v.R.1XKXiXtXM.h ; c.@.Y.).>XL.U.).6.+.u.=.L U.E.L.c.(   W ).Y.>.,.>.@ H <X(.R. X).1XV.G s 4XtX;XiX8X>XfX7.Z.1X).y.pX5XY.8.c.eX7XW.>XuXSXKXP.5 o ; ,XNXSXL.c.C.8.{ R |.&XQ.@XW.W._ a 5XW.,.,.W.k.,.>XpXzXK.oXP.C ,.[ U.Y.P.W.>X%XR.C.=.@.E C @X8...y.:.;.Q.b.;.%X%XF.MXVXwX] 8 O O 3.v.y.@.V %XJ.i.F.M.R.y.;.M.T.x.T.8.3.c.U...8.M.v.;.R 7 K.zX3XE.Q.| P ..R >XU.x.U.L.Q.S.9.;X=XU.%XL c.>Xx.H ` pX3XGXSXjXh : 8 hX`.p.hX[.q.A.B o.%.D.w.|.T.$.y.b.F.v.F.*X.XT.$.T.r.H k #.F.M.Q.|.'.{.y.M W } F.b.R.=X1X$.5XFXpX5.c.$.Y.Q.>XL.W.Q.bXgXwXE > 5 5 E.k.P   R |.Y.,.>.X.@ U >X^.Y._.Y.;Xc.L H =X>XQ.>XF.R.uX-.| G.H.R.&X|.;XZ.C.>XwXW.;X0Xn.uXV.G x <.,XBXGX;X>.y.>.V wXGX;XC 8 8 @X) > wXW.>.,.%Xn.,.wXzXzXK.oXP.C z.' U.Y.H.E.>X&X).U.;.,.R v 7X,.R u.;.@.OXU.;.%X>XF.Y.T.e.,.y.` @.C.r.8.-...8.;.eXvXwX;.6 = ; Q.C.S.c.9.c.b.c.M.C.R.c.x.] P =XQ.Q.Y.,.b.y.C.F.b.-.5.R.F.5.E E V.u.d.G.-.H.4X=X/.<.<.H.^.N.8.d.t.u.B.#.H.&XF.Y.c.FXbXM.2 > 6 @.=.=X>X,.B.|.2Xb.] J.8.R ",
"9 Z R.R.|.=XB.Y.W k 2.Y Y.M.-.&XFXpXrX=.g : u.#.3.Q.j.8.C.eX^.<.c.8.9.W.K.m. .G   R ;X,.;.;X9.@ ,.wXL.>.=X&X1X).K e }.cXwXvXuXeXMXm.).pXeXU.gXMXbXZ.] 3XzXU.cXmXSXAXW.( - : 6XuXNX@Xm.Q.c.X.@./.Y.M.1X).Y.K p R.P...&.M.*.8.yXyX7XE.8Xj.( z.M.Q.Y.8.Q.].Q.T.E.y.;.} v >.' :.F.U.Q.Q.F.c.Q.).F.bXSXpX..6 - ; x.C.:.O.N _.|.U.v.y.>XF.,.Q.>XM.L.=.{ (.(.v.,.j.M.L.y.0 h.;X$X%X*X` -...L U.M.8.9X%X%XnX%XY._.T.=X] x.>XR.E ` 5XwXHXSXnXl = , `.`.$.hX[.w.p.l $.y.{.w.T.S.$.D.u.S.F.F.|.'.b.#.i.] R x ] F.R.Q.R.y.F.O.V %.| F.C.;.&XQ.:.3XiXwXy.u.-.7.(.j.9.C.wXBXlXeX] 0 5 5 m. .G   R >X,.-.;X9.@ :.1XL.8.&XQ.&XY.P z Y.=X=X1XL.R.xXZ.| /.1XQ.wXrX5X%Xy.=XpX%XzXpXk.U.P.;X#.6.6XuXHX9X7.W.M.K eXGX+Xv f 0 @X( O Q.W._ [ m.h.n.zXzXOXK.7Xh.K n.M.E.T.-.Q.T.W.T.R.x.M.} e >.A ` F.R.Y.%XE.v.Q.:XF.K.Q.M.-...-.-.y.;...-...j.-.tXvXrXv.7 ; > U.I.M.:.3.B.c.8.C.F.Y.U.C.] L _.Y.Z._.c.c.y.H./.c.r.8.H.Y.5.E E F.D.B./.u.B.>X=X/.X.<./.(.N.6.H.u.3.u.6.F.).).=XC.SXZXY.4 ; ; M.u.|.>XM.v.].2XM.Q r.L _ ",
"4 s }.R.U.v.u.5X@.c 1.~ Y.R.:.C.kXZX=XB 9 = r.-. .8.-.C.c.1Xs.X.b.T.=.C.K.@X .t   ;.rXM.W.Z.%X@ M.bXZ.n.>X>X>X1XP w %XMX>XDXMXtXgXZ.6XgXgX%XvXBXbXY.,.jXxX:XAXxXAXAXL.' 6 ; f./.0X@Xc.n.3.#.X.F.Q.L.*XY.M.K c v.Y.-.=.W.L.M.:X+X-X-XzXK.C [ n.:XM.@.).>XW.U.|.U.` ,.b ' ;.3.Q.U.y.x.x.@.x.j.=.bXMXpX@.7 = = c.F.y.:.c R.].U.y.Q.5X>XT.qXqXE.U.U.#.XXwXyXv.-.=.n.y.t m.K.W.>XK.R 3.=.` U.L _ @Xc.U.iXY.;.M.|.Q.@.y.;XS.$.I U.R.HXSXhXI : % `..XO.2X*XA.J.y ] S.'.i.T.*Xi.F.;.v.|.S.*XA.F.a.y.O.R m R J.F.U.8.$.|.@.R r.%.R.].5.B...J.].T.1X$.8.-...8.=.c.c.,XbXgXtXv.6 > > @X' g   -.rXm.U.L.&X; v.xXZ.M.=X&X%X&X` x R.1XeXMX(.).6XN.5.).1XQ.;XwX>X&XF.1XmX>XvXyXj.L.V.&X).6.t.^.gX0X7.>.8.` eXZX+Xl 0 8 -X .= ;.L.=.&.-X+XK.yXOXOXoXzXK.v =.K.>XM.} Q.&XL.E.:XM.' ;.j ' ` _ Q.F.,.c.v...j.x...y.M.M.-.y.8.@.y...Y -.E c.c.pXkXpXS.k ; 6 |.T.M.b.u._.W.C.Y.M.c.U.Y.5.' ).M.C. X/.u.-.R.&XF.5.y.C.R.a.] ] r.V.Z.{.V.Y.XX5X/.u.} /.(.N.5.N.y.} 6.5.Y./.%X).B.FXFXR.2 = 0 |.b.b.>X].S.3XR.F.#.i.] P ",
"t k F.).Y.y.F.=Xy.W +.%.>X1XR.9.kXZX>Xl > $ v.8.` c.=XY.] X.! +.M.L.j.C.h.j...t   O.%XL.R.( ^.q 3.7.7.R.hXcX;X_.( z gXPXFXHXpXwXbXZ.c.BXbX1XvXmXmXU.S.MXMX8XAXSXFXAXV.B 8 2 -.:.=XV...M.8.:.X.b.;X).%XW.9.` m v.U.C.E.*Xj.;.%XwX7X7X-Xm.j ,.E.:X|.8.W.8X+X>X%XF...;.V -.u.-.F.b.8.C.8...C.T.#.vXMX5Xo.0 ; - M.c.).Q.N Q.Q.Y.F.R.U.Y.bX%X].U.v.*X$.^.Q.qXM.W.,...-.0 ' h.@X*X%X..8.n.M.*XA c.+XM.x.+X*X8.U.R.Q.y.;./.b.y.m v.].AXVX2Xm = > *X[.q.A.S.p.[.p i.}.T.[.`.S.o.i.;.,.R.R.%XS.].c.:.i.Z Z @.b.F.R.e.;.{.e.$.] u.=X*XT.b.] F.&XH.C.] c.9.} c.%XU.] =.gXgXiX,.f > ; h.&.t   ..].U.R.( ^.q 3.>.7.Q.rXiX+XQ.X.G 6XeXbXSXH.F.&X6.#./.F.Y.&X-X9X).V.Q.MXiXxXpXj.U.j.W.6XZ.@...uX@X` &.=.;.fXZXuXA 0 6 OX7.2 v.E.Q.:X8Xn.,.qXzXzXzXoXj.e M.Q.:X>X#.U.>XQ.>X:X,...y.j *.,.} M.v.@.Z.8...W.Q.] 8.U.=.$.8.v.-.v.` 8.c.E M.v.gXvXiXc.h 8 8 Q.F.v.R.8./.Y.c.U.B.y.C.F.8.L ^.F.r.y.v.8.5.H.|.).u.y.H.R.6.` } u.C.B.,XB..XXXXX,XV.| V.G.V.#.9.5.6.s.5.b.R.(.Y.V.SXBXc.2 ; 6 v.-.}.S.F.|.:XW.%X} y.$._ ",
"7 e /.4X|.5X].R.R.%.Y | &X*XQ.b.vXSX=Xh = O u.b.=.|.+XL.=.C.| Z.Y.U.C.W.L.>.` C   R Y.Q.wX9XfX; ` C V c.Q.yXwXY.c a nXPXAXSXeX6XBX;X&XtX1XpXmXAXxXW.C.pXzX8XAXxXmXDXl.g 8 > }.Z.n.l...F.,.3.X.y.R.F.Q.Q.3.E m C.%X%X%X;Xj. .x.8XzX7X7Xl.c I.I.oXtX8.%X+XU.>XW.M.E ,.-.Z.9.;.Q.|.=.3.-.#.Z.v.#.mXmX5X' 8 > > M.F.Q.F.E C.].Q.U.M.8.c.FX>XT.=X].pXx.>XyXmXL.n.Y.j.R h ,.x.>X).Q.C.C.Y.U.z.x.V.-X%X&X>XQ.b.Y.U.F.3.y.{.F.;.m R.wXFXVX2Xm 6 6 2XJ.T D.J.`.rXk v.=XA.|.:X*X,.$.$.;.i.].%XT.U.R.] O.U R @.R.5X|.U.,.F.J.b.R r.>X%XF.F.e.F.}.F.y.E M.b.-.%XW.C.=.Z.gXNXpXx.g 5 5 >. .C   R Y.Q.eXwXeX& E V H b.T.>X>XW.( N =X&X9XvXY.F.^.B...#.:.c.pX9X&Xn.C.F.eXuXxX&X .).7.8.+Xu.(.c.U.;X .>.L ..kXMX*Xh f 8 Y.;.3 T.wX:XiX9X*.&.E.zXzXoX7Xj.l [.E.-XVX-.+X+XU.wXU.,.[ b.G c.....:XT.} -.-.-.U.M.] C.y...} =.,.c.n.@.m.8.G Y.C.vXMXuX[ t h 8 T.U.Y.>Xy.Y.%Xx.Y.u.u.9. XF.L C.R.b.c.x.#.c.Y.H.H.r.y.;X|.u.] ] H.G.G.^.c.tX XZ.,Xy.Q Z.H.B.#.N.D.2.<.#.6.R.).F.Y.SXMX=.6 ; 6 K.L N.v.@.|.%XE.Q.F.:.R @.",
"r x &X,X*X5XR.U.].-.#.6.c.1XF.8.pXnX|.r ; # r.Y.` M.C.Z.V.&XB._.,X;X;.P.L.m.c.j   -. X1XpXE.(.& %...c T.&XOX>XY.q a LXPXmXbX;XdXPX<XfXuXQ.;XvXuX).P.M.:XoXOXvXuXxXHXc.t 7 6 wXeXZ.*.` |.M.c.#.5.M.x.T.y.#.' C y.).).%X@XW.8.,.zXn.n.+Xk.' ;.M.$X*X8.n.Y.%X&XM.-.V 8.3.&.&.8.U.U.-...-.' U.W.#.vXMXtX..9 ; > U.Q.Z.%.` b.U.Y.T.U.U.C.|.%X$XT.Q.pXU.@XcXvXQ.Y.:Xx.M.V ;.n.OX+X).=.X.W.c.oXqXh.@XpX;XwX).m.Y.R.c.b.u.Y.J.] Z F.*XHXDX2Xk > 9 2Xw.$.{.3X2X|.M w.'.A.R.=XwXb.r.@.$.a.F.=X].M.b.R u.H R y.&X3X%XT.;.v.R.S.] y.T.Q.,.v.] y.R.B.u.' r.Y.} C.c.C.V.%XNXSXMXW.8 5 1 n.x.h   $.&X;XpXE.(.< @...B Y.).Q.1XZ.b G pX).Y.1XY.H..X9.} 8.-.F.&X*XQ.H.c.x.*X9X9X&XK %X>...)./.6XeX%XW._ U.=.:.vXMXW.h 9 6 Q.m.m Q.>X7XqX7XW.>.S.mXh.h.@Xh.A x.E.:XrX5.n.W.%XuXn.' ' T.G ( ' *.*XU.[ ( 9.' U.%X-.c.).M.8.#.>.m.b.>.*...H M.M.vXvXwXb.h 6 6 Q.F.S.=Xb.V.,Xc.U.y.5.3.H.8.` C.y.F.c.c.-.#.y.B.B.B.B.=X|.b.#...C.B.B.G.u.dXH.G.,Xu.+.H.G.2.J s.u.#.X.#.u.Y.|.Z.C.BXMXx.e - 8 M.L y.v.,.e.T.>XU.:.%.@.A ",
"9 a C.=X|.4X5X=XR.-.{ 9.8.W.E.9.pXbX Xx ; # } b.G [  .K Y.uX(.B.F.U. .-.&.8.>.&.. H R.@XyX+X@Xw F.)...].4X6X5XwX4 h PXJXxXfX&XwX6X^.fXgX*X>XwXzXn.j.Q.iX-XL.iXzXvXGXk.6 1 6 wXuXW.*.] ).Y.(.9.D.U.j.' :.:.K E y.T.C.Q.L.L.M.x.wX7XOXK.L. .;.>.$XM.[ =.F.Q.3XW.y.` ` -.8.M.8.R.R.-.=.y.y.W.Q.,.bXvX1X..8 = 6 M.F.y.#.E y.U.%X|.>XW.Y.W.>XrXQ.@XpX-.H.-Xn.c.C.n.v.>XZ j.$XE.V.%X-.( ,.M.MXAXE.L.pXW.).>Xc.C.Y.Y.C.r.B.v.w.Z Q.>XGXVX'.n 6 8 '.A.O.%.:XT.v.n W {.D.F.|.].:.O.q.O.A.8.*X].y.$.Z F.U R a.|.=XI.Q.i.{.|.F.] M.R.*Xb.J.$.:.R.D.N.] } b.' ..{ ( Y.eXSXnXpXx.5 ; = y.>. .. Y /.@XyX@X@Xe b.W...].=X&X>X&Xv ' MXV./. X).Q.&Xu.{ b.9.n.Y.1Xv.3.Y.C.*XyXtX;XL ;X8.` V.!.wXmXyXL...Y.,.F.MXFXm.8 8 0 =XW.@.R.+XE.yX@XP.K.oXcX-XoXk.j.C x.n.+Xn.' ;.U.E.9XU.( M.M.x ..h.' @X>X@.E F.M.W.%Xx.n.U.M.n.M...c.F.;.[ ] V c.U.MXMXvXM.h 1 8 1XR.R.=Xu.y.C.@.F.3.-.-.Z.y.{ c.c.3.8.C.-.#.F.F.t.B.F.;XH.r.E ] B.y.u.8.5.H./.Z.G.5.1.5.6.6.n u.f.| <.u.b.H.(.b.u.nXMXy.8 = 9 T._ v.C.C.b.Q.Q.F.' [ T.[ ",
"0 a F.iX&XR.|..X].] ` b.8.c.v.x.kXSX&Xx $ O $.#.n ..=.` C.#X#.<.G.%X*.[ ` ..x._   M -.,.>XL._.a Q.:X).|.pXY.Y.U.7 a HXMXvXgX&X_.Y.Z.CXvXgX1X&X8X+XU.iXAXyX-XyX-XxXAX8.; - 6 6X0XQ...] M.b.^.8.G.Q.Q.;.#.c.L #.-.F.F.W.c.x.-.;.%XzXzX+XC.' ,.n.:Xn.,.v.j.T.U.C.x.A ] c.c.x.C.&XU.y.x.8.b.8.c.8.MXvX>XR t > ; ;.c.y.-.H 8.c.1X9X).U.M.;X>XiXW.:XpX8.C.+XU.Y.%XU.Q.pX..V.;XT.' yX:X` C.yXmXvX:XL.OXK.-X>XC.b.Y.Y.#.<.u.b.@.k T.*XMXVXS.m > 6 T.2XW A.:Xw.J.n q.'.i.J.S.S.@.$.w.%.J.i.T.3X,.] m e.R @.F.|.[.].U.=.T.=XM.A T.T.].R.F.y.M.%XB.u.] w.%.H $...] Z.@XxXvXtXU.6 = * ] x._   M -.,.>XL.).r R.%X).Q.1XV.b.C.b L =X8.R.>X,X&X(.V.L ..j.W.H.6XY.:.F.,.wXpX0X@XC P.>.c #.^.wXuXzXk.=.Y.' G.SXSX@Xg 8 8 ;X).8.c.@XE.yXP.n.&.I.yXzXzX@Xh.C K.I.:Xv.,.T.8.U.n.>.[ *X|.N *.L.,.>X>Xx.' C.&X=.[ ,.>.OXM.=.W.-.b.E.,.] Z z 8.,.FXSXpXv.g 6 6 >XU.).>XB.8.u.} U.8.5.V.B.#.! y.8.8.b.,.5.y.R.G.F.B.b.Y.R.B.Y ` c.5.B.G.6.Z.!.Y.b.#.3.| 5.t.M <.y.#.<.F.G.^.|.b.c.MXMX8.t O 6 S.R M.Q.U.%XT.|.F.o.;.>Xh.",
"c z ^.gX).C.|.1Xb.@.] /.9.:.8.8.pXvX).M 1 ; U.@.V ] Z.| c *.-.G./.>X_ 8.Y.} ..(   m X.>.0XL.>Xr R.iXU.W.wXZ.3...q 9 rX6X&XeX1X6X_.C.eXgXkXiXQ.iXzX>XAXmXzX-X-XoXxXHXm.; 6 1 >X;X@X,.Y F.).|.5.R.;XW.c.-...K #.o.Y.Q.Y.k...` ;.OX7XzXj.>.,.x.I.8XL.c.M.c.+XM.n.b.E L x.j.-.c.j.c.v.c.,.y.n.c.;.vXpX=X] j 8 6 b.|.=Xy.Z -.U.&X|.Q.U.3.U.Q.mX:X8XpX8.n.Q.Q.M.W.I.8XzX' E.OXM.n.wXiXM.;XzXmXyXOX%X-Xx.Q.M.y.F.). X%.#.B.R.:.u M.R.SXPX3Xm : 6 [.3XU A.*Xy.T.0 e.J.w.R..X[.$.a.%.a.F.y.T.|._ e.n A U r.U.R.T.[.I.o.S.%XM.R T.T.].].T.v...U.R.F.8.T.-.U ` c.` b &.kXNXkX(.> ; 5 ....(   m =.>.0XL.1Xj F.wXU.T.=Xb.-.*.B m F.{ F.5XwX&X_.k.R V.-.,.;X X|.|.J.b.wX9X%XL.c ).c.c Y.-.*XiXzX@X&.C.-.Y.BXSX;Xc 8 8 >XR.-.j.%X-X9Xk.=.C I.zX7XzXh.( *.oXqX7XM.m.L.W.iXS.v.>.OXrXR K K.[ h.E.e.[ ).Q.z.j.8.[ ,.c.X.C.x.R.Q.x.[ L a U.M.SXMXpXv.8 > 6 yX%X%X>Xv.r.b.} F.-.8.Z.b.5.E N.y.b.b.|.U.b./.R.F.c.8.Y.).B.Q E 8.y.^.H.V.G. XG.H.3.X.<.u.s.E 5.Y.6.| V.^.H.&XB.V.NXBX8.t $ 6 M.-.;.|.|.|.&X>Xy.B.v.OXm.",
"r S H.MX&XC.2XR.v.o...).;.m.W.,.xXMXQ.Z 8 $ M.:.[ A m.K V >..X/.=X=X*.[ E.>.../   H =X@XxX;XuXb ).AXQ.M.wX:.(.7.r u wX>X/.eX&X;XC.y.&XpXwX1XpXzX8X:XzXzX8XW.-XiXvXDXc.= ; - +XY.C.( H H.Y.F.#.a.Q.).9.y.c.M } -._.C.C.c...,.j.T.+XyXK.P.8.M.I.uXL.x.j.W.1XU.b.R.r.` ,.j.-...8.C.c.F.8.=.c.U.#.xXeX=X' h 0 6 b.F.=XM.' C.Y.R.v.R.T.b.8.W.rXOXwX9XF.' %XwX:XM.j.7X$XC &.K.Q.m.zXzXU.;Xm.%XyXK.x.%X>XT.,.c.C.R.M.~ } F.R.5.x @.R.GXKXhXy = 2 A.2XZ ;.$Xr.F.V @.{.i.F.|.*Xi.%.i.F.$.;.S.S.o.[.M Z r.@.R.&XM.[.S.o.v.*Xw.R .X*X*X:XT.Q.e.:.R.C.:.U.M.,._ 9.E R ,.SXZXnXT.6 = 5 ,.&.(   H &X_.xX&XfXv Q.mXQ.M.&X*.F.9.C R (.] i.1XwX>XY.k.c.B...F.=XU.C.c.H.u.,X+X+X).v W.j.N 5.P W.+X7X>.C V.[ S.SXSXzXl 9 6 (.y.n.c.E.K.OXk.&.[ -X7X-XzXh.h.=.:X8XzXm.c.m.&XMXn.M.M.E.wX} C =.B =.E.' [ K.n.M.I.@.] 9.>.8.j.x.M.Y.,.M.=Xc U.b.AXMXvXT.h ; > 1X).Q.).r.-.B.@.b.-.B.&XU.u.} B.B.b.u.).B.b./.U.M.C.b.Y.Y.u.} ` y.c.!./.2.F.,XH.C.X.! 6.Z.s.P u.C.u.2.H.B.Z./.F.c.bXSX-.7 = 8 R.#.R Y.eX=X].wX5X|.8.|.%X",
"x x k.=X1X/.rX|.y.8.b.|.K.Q.rX9.vXMXpX[ h $ ^.M.U.' ` { v.M.C. X&X%Xv.[ x.=.>.n.  E eX;XuX).<Xg %XMX%XL.Z.-.|.&Xr 3 eX<X_.uX(.&X3.c.>XvX9X;X8XmX8XOXrX8X8XL.E.zXMXmX8.j 1 = %XW.8.P P u.b.5.5.F.&X%Xn.} 9.} 3.#.R.|.W.c.8.L.n.U.8XxX@XE.&.x.n.oXC.n.8.C.;XM.C.&X5.P C.M.8.-.=.x.-.M.M.y.c.C...bXvXeX] j p 0 } ] H.b.F.&XR.|.U.Q.Y.F.y.,.|.&X%X>Xy.8.%XeXuX:Xn.E.OX` *.OX$XOX;X;X9X&X+X-Xz.W.` >.>XQ.R.y.M.y.B.R O.H.b.i.x $.Q.SXHX*Xy = 2 T.jXU T.jXw.F.$.o.|.w.A.|.S.] ;.A.Q.;.o.v.M.o..Xy W q.$.T.Q.v.:X$X=.w.[.v.R |.rXrX|.].I.] T.Q.v.y.T.U.W.[ P ` F.U.ZXFXbXL.0 = ; =.,.z.  ` eX;XeX@X;Xz Q.mX@XL.c.-.G.(.} H C.E u.=XQ.|.Y.c.5.y.B.R.S.).b.x.u.8.W.).1X&XL 8.#.V.u.K %XQ.W. .C k.` ,.SXGXxXj 6 6 &X$X>XC.>XwX+Xn.n.z.:X7X7XAX-Xl.A -X-X7Xn.>.k.W.vX=.n.OX-X>X@.( -.` >.E.&...C.n.n.U.' ....*.x.,.y.U.M.8.x.].Z ;.b.HXMXcXT.h ; = R.=XU.Q.B.y.C.#.%.y.f.Y.F.y.{ N.Y./.Y.Y.b.8.F.C.F.C.F.&XY.r.E Y 9.u.B.^.-.B.,XR./.{ +.6.!.u.M y.Z.9.| u.c.H.Y.F.C.NXHX;., > 8 v.} R ;XMX*X|.wXhX4X@.b.C.",
"c l ..F.=XY.>X=XF.b.y.5X&X*XpXU.gXBXxX_ 7 O Y.Q.M.&.b | C.W.V./.1X=XQ.*X8XY.>.;.. y.uX1X9X8.W.G T.AX;XL.C.-.v.(.; w V.=X_.;XW.^.9.>XgXuXmX7X>XuXT.>XyXzXmXL.K.9XmXMXV.t > ; %XY.-.K Y 3...B. XY.wX(.u.R M.C.C.#.Q.).Q.P.m.Q.j.E.7XpX;XoX>.x.M.n.M.K.Y.U.F.%Xb.Y.#.j ).+X#.8./.x.x.b.y.9.-.Y.y.MXvX>X` 0 8 9 H.8.8.Z.).C.R.|.R.Q.>XF.v.c.Q.R.M.wXY.H M.>XiXY.h.z.OXA ,.OXK.%XK.Q.uX).U.Q.U.M.L ,.C.%Xc.,.c.C.F.} R R.b.@.x Z y.vXSX4XI $ > [.2XW `.3Xw.b.W i.'.e.G.3XS.R $.$.i.$.] T.*Xo.[.k @.a.M ;.e.v.$X$Xv.o.S.T.o.F.T.v..XQ.v.[ S.Y.x.;.T.E.E.;.v X.Y.>XMXFXBXY.h 8 0 W.>.>.. y.dX9X1X>.W.G M.mX&XU.m.-.8.Y.P P 5.z u.,XR.Q.&XQ.9.U.&X|.qXrX_.Q.Y.-.u.(.9X@XK j...y.9...OXQ.m. ...F.V i.HXKXmXl 1 5 =XwXK.@.Q.pXQ.,.P.E.E.xXoXzX7Xl.C :XqXoXM.*.M.P.vXn.K.U.K.E.@.v A ` j.h.&._ U.v.M.M.=.] ` ` =.M.v.n.[ *.c.,.l 8.U.HXSXgXT.h ; ; F.R.F.).Y.-.C.r.=.;.d.H.F.b...u.Y.).c.F.B.y.H.M.C.c.8.U.Y.t.#.E 8.B.!./.6.F.,X|.%X| E Z.,XB.J ~ 9.#.~ r.B.^.Y.y.V.MXSX:.1 : 7 u.#.Q iXzXY.F.wX3X=X@.-.>X",
"N ] e.M.W.U.+XU.v.v.@.|.>X>XwXL.MXAXuXC 6 O v.oXQ.:.G K *.=.E H.=X^.W.%XW.W.M.>.. o.Q.U.+X-._.3.1XxX&X=X_.>.'  ., e b.(.P.v X.&X' H.wXeX0X+X9X1X|.pXqXvXMXL.n.+XxXFX#Xt ; > W.W.l.K O.V.8.Y.!.R.U.C.b.R u.C.C.E Y.Y.Y.+Xc.Z.m.Y.8XyX9X7XL.K.h.x.Q.M.W.C.Y.tXv.C.] 9 C.>X-.7.Y.Y.Y.b.M.y.,.Y.c.nXvX5XH 2 = 2 B.C.&X1X6XeXb.|.'.R.Q.5XR.&XT.R.M.9XT.=.U.W.%Xv.,.M.Q.Z ..qXR.=XW.OX;XY.V.;X7Xx.@.n.U.W.+XU.C.Y.C.8.Y {.J.$.m H [ vXjX2Xo.: 8 *X}.~ r.2Xy.G.Z ,.i.$.i.[.T.o.O.o.$.w.w.5X3Xq.rXZ R J.@.].R.x.3X[.S.[ T.I.W ,.S.M.;.T.M.;.S.OX,.v.T.%X>Xx.b H 8.M.xXBXnXc.l 8 5 E.n.>.. ] W.U.+X>.+X3.;XyX;X;XW..._ ..m ] k.a 9. X|.].%X=XF.,.H.wXMXvXQ.).).9.R.Q.W.(.c C.Y.9...O.Q.OX+X` b.C.c [.PXGX&Xh 1 5 &X>XL.j.|.yX;XoXm.oX+XzX7X7XzXoX*.7XzXK.U.( &X+XW.oX:XM.h.E.-.L ( ' =.M.,.` R.F.v.U.@.E [ @.;.j.8.F.%Xj.c.,.a L.:XDXMXpX).I 6 6 b.F.Q.&XR.b.C.y.} y.6.B.B.y.5.V.C.F.u.y.y.b.C.Z.F.F.b.F.F.b...E u.d.Z.G.-.D.rX/.b.X.#.^././.! T 3.` | y.B././.c.Z.BXFX$.1 > 9 -.#.] dXiX(.|.iX=X3XT.C.|.",
"] E ;.U.R.v.|.T.b.y.:.B.|.=X8XQ.BXSXuX_ 6 O L.W.j.c.G ` ..k P C.(.7.%X9X8.C.L.A o y.Q.Y.Q.M.&Xc.>XxXW.(.C.Y.;X8.< e =XR.3.b c.fX .=.1XfXV.).zXwXR.wXuXzXyXW.k.7XMXMXx.l 6 6 >XW.c.b f.,X&X_. X=XC.Y.(.G E B.Y...F.U.Y.(.W.^.j.c.:XyXiX9XL.m.=.x.].x.Q.).U.eXb.(.,.,  .F.y.C.8.Y.U.,.:.@.:.F.;.vXkXtXV 1 - 1 3.7.H.Y.b.V.b..XB.B.|.5XU.U.Q.).L.Q.Q.-.M.W.C.n.h.n.E.[ ' :X%X>X%XQ.>XM.3.;X7Xx.=.).).$XM.C.U.R.b.$...(..XJ.:.Z 5.ZXvX2XR = 6 hX2Xn 5.D.U y.o.] r.r.D.T.'.q.W i.i.F.e.T.*X.X.Xm Y t.r.*X2Xi.I.2XI.] '.T._ i.S.v.e.A.I.o.z.E.,.,.|.Q.I.j.B P 3.` kXZXvX| l 0 ; V.L.A o y.Q.E.).C.>Xc.|.eX+X(.9.c.T.8.c _ C.a 5.|.*X&X=XkX>X_.b.kXmX:X1X|.F.V.).%XM.L.V F.c.c.c.b.7X+X@XC C.Y.` w.HXDX=Xh > 2 >XQ.%XU.&XyXxX+Xh.7XoX-XoXzXzXzXh.oX7XE.I.R Z.L.>XzXoXh.h.M.' t ( Z ' n.c.h.U.,.c.M.' R c.8.=.C ..x.W.c.Z.-.t s.>XHXSXrXR.' 6 > R.R.U.Y.Y.B.b.#.` c.;.|.C.r.9.&XR.G.R.y.#.V.H.Y.C./.C.R.C.-.@.#.5.^.Z.XXu.G.5X/./.G b _.(.G.^ E B.u.#.B.G.H.|.V.u.nXFX=.: = 2 u.y.{ Z.iXM.C.9XtX3X_.b./.",
"` E #.&X&XM.|.Q.C.M.y.#.N.).>XY.SXSXwX` 6 # U.OXn.=.K @.} l V G.Y.X.c.9Xm.m.Q.j.. x.Q.OX;XW.(. ._.xXk.k.` W.rX_.g 9 5X;Xu.u.}.<X9.C.>X<X*.c.pX1XR.yX9XmXyXP.h.yXMXuX..p 6 7 7XQ.V.w a.wX%XY.C.).Y.C.H.#.R F.V.{ C.T.=X@XC.Y.j.-.W.zXyX7Xm.m.=.K.E.L.1X|.Y.>Xm.T.,.7 m.Q.-.{ b.c.c.,.9.:.c.b.-.MXgX1X} 1 > 9  X#.C.b.$.a.b.|.J.F.&X%XM.=X&XOX%XS.L.W.-.n.U.&XK.L.vX-.h.qXM.7X+XE.&XZ.3.W.zXv.C C.%XQ.K.y.9.U.).b.#.R.|.R.$.M $.vXVX}._ 2 8 *X*XW $.T.o.b.W %.i.i.J.[.3XO.o.}.[.}.,.o.jXrXT.m U r.W ] U.w.e.I.[.o.T.z.o.;.T.A.S.v.v.w.o.S.L A ].c.v.:.b W } A pXSXfX` f 0 > m.OXk.. x.Q.Q.;XW.+X{ ).uXm.8.P M.&XQ._ _ N.s u.6XiX&X>XpX>XR.a.5XvXE.Q.3XL.X.U.>XW.Z.G 7.....b.U.7X9X7Xg ,.wX*.@.SXMX;Xl ; 6 5XQ.1X+XY.0XxXW./ 7XoXh.h.zXzXzX/ z.zXh.W.| ' W.+XL.>.*.' ,.G t ( A L ` x.,.%Xc.v.S.v.H ..c.S.@...8.c.;.,.8.a 4.Q.MXvX>XR.C 1 6 R.|.;XF./.{.c.O.} B...Y.F.y.3.&X/.R.D.F.-.y.b.F.B.H.V.F.R.C.~ E } Y. XdXB.B..XH.).~ S  X XG.J } G.Z.5.V.Y.H.H.C.-.bXMX-.: : 6 V.9.M 9.yXV.:.;XrXT.Y.` &X",
"` E #.T.[.F.U.).F.C.r.-.c.C.;XY.BXBX>XA 6 O F.).;X[ x #.F.;.] H.(.X.,.%XM.K.yXP.o r.U.%XpXW.P... XbXN.7.Z C.+X<Xz R eXQ.F._.eXL.{ _.eXW.&XeXpX9XvXAX8XmX7XM.=.E.mXgX..l 8 8 ;XW.7.w b.).Z...3.V.>XF.W.` N F.c...Y.|.%X;XZ.W.V.x.L.7XyXyXn.P.c.T.;Xm.eXeX;XR.C.R.$.a Q.0XC.' c.C.;.y.8.c.Y.b.8.vXpX&XO.6 6 8 .X3.8.|.H.J.u.>X=XY.=Xv.c.=X=X_.U.Q.C.A ' Y.wX%XM.U.9Xm k.cX-X:X$XQ.>X(.M.+X8XI.Z m.W.Q.%XU.:.R.R.F.@.rX5X|.@.Z #.vXVX*XI > 6 [.hX$.Q [.i.D.r.b.A.i.i.2X*X] W w.T.S.;.A.T.qXe.n T i.I ;.I.q.w.I.:Xq.S.S._ e.`.[.e.w.S.v.;.R.n c i.;.o...a ] i.,.vXSXkX( 8 8 > K.yXL.X y.T.%XgXQ.W.*.(.gXV.3.Z b.Q.1X..,.B.s b.jXMX>XR.=XU.#.} =XgXW.=X(.9.X.b.Q.Q.V.v y.#.x.).U.-XyXoXg ,.pX>.} ZXMX XA 2 0 >XQ.Q.;XU.;X;X9X( 8XyXoXn.oXzXzX/ h.zXh.;Xb.=.#...>.n.I m ;.@.t ' &.C.,.x.j.T.8.M.R.$.c C /.U.x.[ ,.K.Y.U.M.n ..M.SXAXtXS.0 1 6 R.|.U.Y.Y.9.R.F.E 8...W.Q.b.r.M.$.y.y.y.c.y.M.b.Y.C.u.c.>X/...W ` ^.,XfXH.u..XV.c.5.u.Z.B.D.E #. X_.y.V.!.B.F.b.6.kXMX:.2 > 6 w.} M ..vXy.y.Y.=Xv.v.] U.",
"K V } R.Y.M.C.>XQ.x.y.-.V.Y.1X=XDXBX XC > # Y.U.;X*.C { %XF.@.,X=X..c.OXj.n.oX&.: r.Q.%X9X%X9.-.R.xXZ.-.] (.(.6Xz E =XF.F.^.eXV...gX<XC.1X9X;X7XiXzX8XmX$XQ.n.;XmXeX3.A 0 8 Q.L.-.e t.).F.c.b.r.'.3X@X{ v b.V.-.R.*XR.).U.).n.;.M.L.R.7XE.W.*.K.%Xm.1XeX>X;XQ.M.] e E.9XV.Y.R.@.` -.] 3.F.b.6.nXpX>Xt.2 1 > ).&X/.B.R.O.u.lX_./.|.c.Y.wXU.U.T.E.M.' =.=X1X9XK.,.M.V j.mX$XmXOXM.*X1XF.Q.mX%X' C.U.Q.8X(.-.5.u.b.%.pX*X5Xi.m Y pXVX[.m = > *X[.I o.i.e.b.W F.F.:.v.hX3Xi.W %.T.R.v.[.T.e.R n $.O.q.hX:Xz.e.z.:XI.i.v.$.o.e.2Xz.z.I.;.W V Q o._ _ ' 8.H ] |.U.pXGXnXK f 6 ; m.oX*.; 8.W.%X9X&Xk.-.W.eXV.>.` Y.Q.wX=.,.G.x b.nXzXR.T.>XY.u.:.>XMX=X|.C.^...y.;X).@XG 8.c.).;XL.$XqX*.t o.wXj.L SXGX&XZ 1 8 pX8X+XQ.U.wX+X7X .wX0XoXh.h.OX7X/ n.7XK.j.....j.;.m.K.R Z =.[ r _ _ Y.L.U.M.T. .c.&X..R ] R.v.c.@.' ,.S.F.M.s X.Q.LXMXvXR.t 6 0 y.C.Q.F.Y.9.U.H.] R.F.&X;X|.c.b.5.r.%.y.C.-.Z.F.c.r.B.b.F.y.} ] ] H. XpX^.D.R.} | <.Z.8.D.b.Y #. X|.B.F.Y.D.F.u.-.nXMX8.7 6 6 |.b.R H %X-.y.U.S.R.=Xy.M.",
"R N @.Y.R.C.y.+XQ.8.-.[ B.c.U.;XMXMX&XL 6 # F.C.y...' ..M.Q.] Y.1XX.Y.>XU.K.n.K . -.W.+XW.>XV.9.Y.gX9X) E P _.&X9 #.6XU.Q.R.<XV...5X).Q.5XQ.K.>XiX8XwXMXW.@Xm.@XbXMXM.Z f 8 oXU.9.e } 4X(.F.s.6.%.|.>X .s b.j.u.|.&XM.Z.C.Y.C.c.%X7XQ.;XW.U.,.W.W.M.wX9XL.m.1XY.b.e >.@X).MXU.-.o.,...-.8.5.;.nXpX5X#.2 : 1 ).B.H.F.a.| B.fXeX=X*Xb.V.>XR.C.M.%X;.=.M.:XY.+XE.,.n...k.cX:XcX%XE.W.G.-.).;X>X` *.m.;X1XU.i.r.8.b.-.&X%XY.R R @.jXnX:Xo.= $ ].hXW a.2X_ T.:.|.T.Q i.rX*XU.$.i.i.A.i.v.`.o.M c o.%.q.:XhXz.3X[.:Xz.@.*Xz.o.z.jXjX[.q.e.$.Z u.@.@.;._ v.` E v.F.gXSXBXL l 0 5 K.m.K . #.W.OXW.>XN.9.H.wX;X( P } ).>X` c.C.b G.jXvXQ.*XgX=Xb.i.*X<XH.XXaXZ.P } >X1X@XG ;X)..X7XL.-X;Xj.v ..OXc.A SXZX:XB 2 8 5XOXM.).U.wX*Xm.' E.0XyX7XOXE.oX&.I.7XOXM.' >.n.x.' n.;.[ ;.:.p *.=.=.v.M.,.c...u.R.A.@.Y.M.c.v...(.U.>.Y.U.H { Q.PXAXvX&Xh > f F.v.M.Q.F.-./.{.N 1XM.Q.wX>Xr.u.B.G.w.y.Y.8.C.).v.r.b.8.Y.C.r.@.E C..X1X/./.u.5.#.7.y.B.C.u.H X.s.Z.#.a./.V.N.C.8.bXMXC.2 2 2 R.3X:.` 8.] @.].|.wXpXb.y.",
"P M #.M.y.b.x.|.OXY.8.O.8.x.c.Y.NXbX&XC > = ).U.L.=.G ,.).W.{ u.,X5.%XwXW.j.j.C . H M.%XK.Y.-.Z.1X0X0Xc.v x /.Y.w #.gXQ.%X_.&XV.| R.Y.).Q.1XQ.3X7X;XOXyXW.oXn.3.BXBXc.k 8 6 m.E.V.e Z 6X).,XN.#.%.y.|.k.G y.>.9.B.Q.Y.c.8.L.Z.C.%X+XOXQ.Y.W.7.Q.Q.U.9X;X,.n.W.>X'.e ) W.L.eX%XY.,.@.;.y.b.5.#.vXpX>X} 0 ; 1 &Xr.V./.F.~ 6.6X9X5X>Xc.8.+XM.M.c.rXy.j.;X%XC.U.>XE.M.C.7.zXcXcX$X+XH.C.m.U.' *X#.8.M.>X8Xb.3.c.8.C.] F.:XR.@.@.i.jXVX2XI $ O F.4XW %.wXe.b.b.|.|.R i.rX=X[.i.J.S.e.e.w.T.v.;.R @.i.i.I.*Xz.cXcX$X_ o.rXT.o.[.2XqX:Xz.S.[ } O.Q T.o.' ] E V H.Q.gXnXBXE B f 6 h.j.C . G C.+XM.Q.>.C.=X9X9X-.c N (.W.` b.W.x v.5XvXwX>XpX>X|.y.b.s.1.~.sX~.^ ] >X@XV.P 1XY.F.OXoX:X:Xh.g _ M.M.B MXFXvXI 6 f 3X%XE.+X).%XW.m.K OX9XOX7X:X-X@Xh.oXzX-XK.=.[ n.j.[ L.y.( ` L t j.,.,.W.;._ C.-.#.M.w.5.W.wX%XM.:.wX>Xn.F.R.b.' W.GXmXpX:Xp ; 8 F.c.M.&Xu...Y.=XG Z.8.Z.wXwX8.D.D.R.=XY.8.b.).).C.:.H.c.(.C.9.-.` C./.&Xr.V.H.u.u.6.P C.C.G.M | s.9.E 5.G.B.u.F.3.bXZXC.2 > > ).iX;.[ ..M ] &X].}.pXF.T.",
"R b 5.c.:.8.@.U.E.%Xb.y.5.b.V.u.BXBX(.B 2 = R.|.F.[ G ,.%Xm.( B.,XX.F.+XM.h.h.B   G c.F.9X).X.Z.&X+XL.E ` B./.V.w -.6XM.|.&X1XV...R.&X%X).%X%X%XK.7X>XyXc.k.( C xXbX8.k 5 ; m.Q.C.e W /.F.Y.B.| #.f.&X#XB 5.$...a.*X9XW.m.%XC.y.C.%XOXQ.M.).,.E.:XQ.U.&XM.L.Y.L.S.a c c.#.( y.Y.,.' ] ..b.r.8.mXvX>X#.p ; 6 |.F.F.1Xc.../.5XrXtX>XH.8.$X,.c.7.>Xx.L.E.>XwX,.n.L.Q.-.9.MXyXiX%X*XU.M.U.U.x.T.:.v.x.*X>Xv.8.-.@.c.V M.|.R.e.-.F.kXVX|.Z O $ '..Xp.W .Xy.b.y.S.=X] $.%XhX*X@.Q.e.;.@.r.T.e.i.E A @.J.:X:Xv.:X:XI._ o.3X].v.z.:X:Xz.z.w.l Z R R =Xi.o.Z I o.Y.+XcXvXlXG j 6 > h.x.C   B c.Z.9X&X..Z.;X+XL.V H 8.F.L.P -._.b $.>XiXuXeX&XY.Q.:.Q.6.0.~.aXsX~.+. XW.9.b |.c.F.U.' z.:XW.7 ] U.U.C BXBX=XC 6 6 pXwX+XQ.W.W.W.L.C uXyXoX;X-XoXW.>.Q.zX$XE.,.=.K.M.*.K.Q.R ..R g n.8.v.>XT.o.,.` ..M.y.] n.>XU.=.E ,.$XE.%X=XW ..4XSXbXpX$Xm > 1 v.c.9.W.;.-.8./.H V.Y.m.T.Q.F.F.R.|.=XF.u.c.Y.).H.u.H.|._.C.c.-.K c.(.1X7.u.V._.G.<.F y.Y.G.~ 2._.G.| 3.Z.G.u.y.-.NXSXc.: ; 2 5XqXe.R :.k Q 3X>X3XvXS.M.",
"} H 8.v.,.-.] ,.>X*XQ.:.y.N.c.c.SXBXZ.l > - F.R.n.` L =.Q.n.:.y.^.3.).%X,.;Xx.g . -.8.-.tX1X .C.W.P.C.../.&XH.6.% ] >XZ.Q.&XtXc.R F.Q.-X;X).Q.Q.v.n.M.;Xc.E.` K kXbX3.l 6 ; 8.y.k.r W =XF.C.8._.Z...v.fXz -.-.#.b.|.>X+XY.Y.c.8.L.E.E.Q.+X@X7.x.E.M.n.U.=.Q.Q.M.&XY C Z.,...=.8.,.;.=.9.Z.v.#.bXnX1X@.p - > ,.8.R.&X X^.5XQ.uXpXkX>X8.%XM.n.{ W.S.Q.%X;X>X,.c.7.I.G *.>Xx.+X8X|.Q.R.v.L.%XQ.y.U.F.$XrXC...8.=.C.[ B.R.G.=.y.T.mXmX*XB O 9 J.T.o.T A.o.e.] ;.3X%.@.|.jX3Xo.v.].A.@.$.i.;.} R o.w.`.3X$Xe.[.[.z.I o.vXnXv.q.[.jX:XI.o.z.Z O.F.].i._ A Z R v.T.bXvXkXH l 8 = 7Xn.h . @.j...pXpX .Z.W.P.L.` F.Q.R.).B @.Y.a F.4XtXpXiX>XF.R...Z.^ 0.~.~.sXsXZ.&X(.9.c _.b.U.8X>.&.K.W.8 $.R.U.C vXnX1XA 6 6 *X:X%X7XE.:X7Xm.v 5XzX#X7XE.E.K.>.E.yX7X%Xe.` U.M.,.Q.W.L ( [ k m.,.y.+X%X,._ G ] 8.b.:.n.).Y.y.R >.E.E.iXpX@.-.MXFXMXvX$XA 5 6 c.8.X.v.b.V.C.R.N W.C.M.>X%X_.C.H.1X>XY.u.C.c./.C.C.U.H.Z.c.c.X.V H. X.XZ.H. XY. XD.| c._.H.| 6.(. Xy.6.Y.H.B.s.3.bXBXc.; > 2 ;XW.I.,.$.Z $.&XrXpXyXM...",
"E n -.c.b.;.@.-.&X;XY.F.;.=.8.Z.SXBXU.k - # V.Y.x.;.] ` C.....6.Z.{ |.9Xm.oXk.t . Y.E.m.wX+X .W.+X7.Q.;X(.Y.V.| % Q Y.-.9.|.tX8.] b.R.Z.M.R.M.tX$Xh.[ &Xm.C.` y.vXpXx.l 6 5 W.c./.g F }.Y.|.u.V.u.! #.Y.l y.C.' u.5X>XW.c.C.8.c.M.K.U.Q.;X;Xk.j.U.oXe.v.;.U.%X8.1XY N 7.@.-.c.Y.v.v.u.u.F.y.;.nXkX&X#.6 > 2 F.R.Z.>XeXG.fXwXkXpXrX=Xj.L.W.R.-.v.c.c.n.C.,.M.v.c.Q.Z H U.=.M.Q.yXvX>X9.U.9X%Xb.Q.;X>XrXc.c.c.@.F.-.b.b.R.y.@.C.jXSX|.I = 2 :Xi.O.U G.o.`.v.D.$Xq.w.rX3X$X;.A.3XF.R B @.;.@.Z U u.b.*X$X,.$X[.[.o.U 3XjX;._ z.qXjXI.q.q._ i.iXT.v.] ] m l >.n.nXvXgXN l f > OXn.t . Y.T.M.pX1X .W.@X>.>X>X@X(._.U.V y.c.w J.rXvXnXvX5XU.b.L k d 0.g.aXsXsX6.H.Y.Y.n Y.L.|.8Xm.n.E.@Xg -.>XT.( kXnXrX` 6 6 ;X;X8XwXQ.-X%Xj.l M.yX+XL.M.L.oXK.OXqXOXoX%X_ 8.C.>.E.%Xc...R a j.c...W.OXT.;.] ] ;.R.b.n.b.U.S.:...,.U.%X%Xu.K vXHXSXuXE.A 6 ; c.b.3.r.c.Z.Z..XV L.Q.c.>X>X0X+XV.Q.R.I.3.C.c.Y.(.F.F.Y.U.Y.9.| x u./.Y.t.Z.5X X6Xf.#.9.Z.B.E 3.N.(.F.B./.G.B.C.-.nXnXY.5 ; > |.%XW._ Q O.-.Q.jXwXwX` x.",
"L x ] x.;.:.] R Q.b.c.5...E 8./.BXnX;Xx ; ;  X XC.;.` ` *.C P X.(.| +XrXW.j.n.j   c.8X-X9X(...Y.W.*.U.).7.P X.| @ -.9.` ..Z.=Xc.-.8.R.9.,.+X).iXmX%Xv.&Xc.C.-.H.kXiXv.B 6 5 *XW.(.z F >X*X_.3.r.|. .u.(.N r._.3.-.6X9XOX8.C.,.Y.Z.%XE.W.0XOXn.j.E.OXQ.M.=.M.E.,.y.e r } @.P c.W.U.=.@.5.F.v.r.bXbX=X:.9 : 2 >Xy.:.).>X|.gX9XpX).=XQ.#.c.C.U.F.Y.b.U.=.M.W.M.M.v.,.V ( E.x.T.W.MXuXU.[ -.=X).%XC.c.).E.).Y.H.E B.%.-.).=XF.[ i.kXVX[.I = > 3XA.r.~ /.R 2.D.T.].@.b.S.T.].o.v.*XT.$.y.[.e.Q R @.r.G.jXQ.=.[.[.$Xv.W '.*XF.q.[.:XjX[.I.o./ w.>XiXT.o._ A m ' :.MXvXgXV l h 7 k.n.g   c.9X;XuX@XX.&X).7.*XW. .C V./...C.3.; %.rXpXwXpX>Xy.[ z D d 4.g.aXsXsXu.Y.(.C.N C.Y.).$Xn.E.$XOXg M.+XE.L tXBX>X..6 6 xX>XOXW.Q.>XoX&.t L.yXoXK.7XE.K.m.n.7XoXL.:X[ 7.-.8.L.I.k.&X:.p *.;X8.L.U.v.v.y.] x.F.e.M.=XQ.%X8.;.M.j.=XW.b.P (.HXHXiXn.B ; ; M.M.C.y.b.Y.8.H.L W.+Xv.%X*X>XC.8.).Y.R.r.y.u.Y.%XZ.c.c.Y.Q.Y.-.M 9.B.G.u.Z./..X_.s.{ X.u.G.#.2.6.(.G.H.Z.V.B.F.c.vXvX(.7 # = M.M.z.' } O.@.C.wX>X>X[ R.",
"C r ..,.;.=...@.Q.F.B.#.E 5.5.#.SXFX(.l ; - (.(.M.=.` C =.l E 3.Z.P Y.9Xh.>.j.c   ..Q.;X%X(...Y.V...C.Y.7.C E X.$ r.B.5.5.D./.3.-.y.Y.c.] R.*XqXzX).8.Q.c.m.c.L.vXvXc.h 1 5 *XT.H.b Z kXQ.b.s.H.=Xm.m.tX( 5.c.#.r.4X9X*X7.M.*.y.L.%XE.Q.iX@X>.;.U.K.S.x.M.$X-Xx.] x , 8.u.B ( C.Q.c.u.8.c.v.-.vXMX>XR 9 ; 2 |.$.9.C.%XF.eXvXrXwXtXU.-.v.=.M.C.U.n.).Q.U.:Xv.Z.M.[ I P |.M.M.T.L.C.c...{ B.|.&XU.C.C.Y.Q.Y.C.Z -.;.#.F.|.F.y.r.kXcXA.B ; ; [.[.G.y r.w.#.R.T.F.] A.J.*X:Xw.S.rX[.,.|.3Xv.] } @.%.D.rXv.i.[.].I.&.U '.=XS.w.3XcXcX[.I.I.o.o.3XwXe.` [ ,.=.v.[ MXvXgXx k f ; n.j.c   } Y.>X>X%X..+Xk.j.zXU.L j 8.&XP -.3.& @.6XpX;XrXrX|.] =.=X,.V 4.~.aX~.4.{.%Xm.L (.Z.8.E.n.:X-X7Xl Q.Q.%X .yXZX=X[ 6 2 iXU.M.U.E.zX@Xh.7 T.yXK.W.-XK.h.E.I.-XoX' U.x.h.n.k.+XW.8.9X}.E V.;XZ.I.n.x.U.v.R ] @.=.k.9X*X&X;.:.U.>.).wXF.{ 8.ZXPXmXE.h > > _ y.u.r.F.Q.Y.%X*.W.1X_.&XT.1Xu.b.R.R.U.3.Z.5.Y._.Y.8.C.R.%XH.-.F c.H.J.B.c.|.,X XH.! J u.Z.5.<.N.^.C.G.H.Y.H.F.u.vXvXY.6 $ ; ;._ @.,.8.] y.F.3X8XS.@.C.",
"L u y.,.y.v.@.-.|.R.v.b.u.u.F.c.SXHX1Xc > - B.|.j.8.8._  .L ` 5.B.! U.9XU.E.j.K @ @.(.M.Q.=X} Y.W.P y.Y.c.-.| ! & %.t.u.u.D.Y...@.8.Q.x...Y.L.W.W.j.8.Q.x.Y.C.%XMXMXZ.l 5 5 %XF.H.H Y eX&X-.).G.5X%Xb.eXN Q -.G Q *X9X;Xc.c.@.-.M.Q.I.W.yX@Xj.K.-X8.U.W.W.;XwX,...@.3 >...V X.8.=.c.c.=.8.C.y.jXvX=XR 7 - 2 U.$.|.=X=Xy.1X6XeXeXMXwX8.C.M.8.M.+XV.L.vX).*Xn.C.M.,...B ;XM.F.Q.-.C.y.5.C.F.F.Q.).c.M.).%X8.3.H 6.%.} y.U.Q.I.:.gXZX*Xo.0 ; T.[.'.u $.y.:.|.H.v.i.b.S.hXrXe.;.3X].e.A.hXA.W O.i.#.a.'.A.e.=.e.z._ Z ].rXw.o.iXcXcXI.I.I.&.$.S.*X[ ;.M.O.;.Q.y.bXMXdXN h f 6 OXj.( O ..W.m.%XeX} &XV.' W.^.` k 9.7.P M.9.7 #.&X|.&X|.=X.XS.T.*X8.C.X.S ~.<...F.=XL.` F.x.n.OXx.OX-XW.&.U.+X).*.wXVXwX] 2 > iX+XU.Q.oXzXoXh.6 ,.;XK.E.E.m.j.E.n.oXI.m.L.M.&.8.8.W.wXV.Z.].u.+XW.K.M.U.M.).M.O.@.@.-.C.=XQ.j.-.8.U.T.C.6X%X-.*XMXAXMXpXl > > y.8.y.Y.G.V.(.eX:.c.Q.Y.U.Q.P.F.R.R.&XQ.j.y.c.C.F.F.a.Y.|.&X=Xb.c 8.^./.B.c..X,X/.u.#...6.t.W ! G.(.G.N.Z.H.V.B.c.gXvXT.6 = 2 M.-.y.L 8.F.c.C.U.U.Q.S.9.",
"V 9 8.x.L.T.] @.&X|.C.F.Y.9.Y.-.MXSX_.v 6 ; G.c.A >.C.;.=.K P @.Z.+.&XxXoXn.>.K O ..W.V.).P.{ (.k.K y.k.-.8.{ D , T 2.y.u.F.).N.5.v.M.:.L v.v.T.E.8.M.L.8.F.x.W.mXMXY.C 5 5 OXU.c.! M 1X).M.F.B.|.>XQ. XV E 5. .} 5XrX%Xm.c...` U.).L.Q.yX:X7.M.-X..K.-XW.m.:X=.c.Y e j.=.J Y.M.9.c.M.#.c.b.-.kXkX;X{ 8 2 > :.} }.|.>XJ.F.R.&X1XkX*X8.Q.=Xc.T.;X8.k.vX+XK.=.L.C.v...V %Xv.wXiXv.=XV.&XBXvX>X|.Y.L.1X9XwXM.Z.Y [ 5.} |.U.T.j.c.kXMX:X' > 8 rXA.G.y O.D.b.F.;.A.].e.5XhXrXi.o.].>XU.R.].}.5.} i.} T.S.R.o.v.I.e.;.Q J.U.o._ qX:X$X:XI.;.[.v.F.].Q =.$XR n.n.,.vXbXgXJ l h 8 n.>.( X [ W.m.+X%X..<X>.` @XL.N n c.{ ` Q.^.5 @.G.8.|.8.b./.Q.Q.>Xy.Y.Y.H ! S @.v.Q.@X..x.C.+XOXh.I.OXL.h.W.W.Y.>.3XnX;XZ > > pX;XU.E.E.8XoXj.6 &.7Xn.E.+Xm.,.OXE.W.E.L.M.U.-.M.8.,.7XW.K.>X>.>.U.L.n.Q.M.U.R.@.@.U.v.,.=X).8...=.L.C.j.,.Y.3.wXDXMXuXiXC > ; Q.,.M.Q.c.c.R. X} -.M.:.b.F.=X7.H.C.Q.5.@.:.C.Y.R.F.H.F.&X&X&Xy.M 6.).(.u.B.,X|.Y.B.{ O.5.y.J <.(._.V.u.Y.G.F.B.y.vXvX=X0 ; ; c.T.] l $.M.F.).*XQ.>Xv.i.",
"A p :.x.v.|.y.#.R.F.F.|.R.Y./.-.bXvX(.l > : C.M...c.=...M.L A -.f.+.).pXE.h.( c # x.+X).).m.3.&Xc.v 8.c.-.5.^ F w H ~ | p.|.&XF.B.B.@.8.L c.F.%X;XC.U.m.-.C.9.W.pXvX).m > ; T.T.c.{ { pXC.c.B.} i.>X8.Y.{ @.).V.#.5XxX+Xc.c.*.E &X:XE.E.yX+X>.n.OXn.L.v.[ &.;.$.8.$.r 8...x H.L.K.Q.F.@.v.C.-.gXkX).E t 2 ; y.@.-.b.T.=XB.U.|.|.iX>X:.L.;XQ.E.yXL.-.zXU.x.=.@.j.,.-.c M.M.W.&XQ.|.H.>XZXvXrXC.R.1XlXpXuXC.#.#.` c.R =XF.Y.,.x.iXMX*X' > > 2X|..Xi :.R.v.R.] ] R.;.rX*X|.I.i.=X*X'.i.A.,.M } ;.M i.'.x.I z.[.I.' R a.S.v.w.3X[.jXcX`.;.I.F.T.%XR _ @.I ;.[ M.xXkXpXM j 0 5 j.( c O ,.(.W.).V.7.eX7. .>X7.c m W.7.5.;XP.q E ..3.U.).R.Y.R.3XqXe.>X;X&XY.P c.F.(.m.b c.Q.-XK.( ,.>XP.&.OX+X;XL.1XVXwX` 8 > lX+X8.Q.Q.8XoX( ; 8.qX>.OX7XK.=.I.E.3XE.-.%X8Xm.+XE.W.zX@X( ,.8...K.T.n.E.U.8.y...=.Q.M.>.c.W.W.v.y.W.M.,.9.Y.3.0XLXmXeX:XB 5 > Y.u.F.Q./.C.).u.z 3.;X] E U.=XB 3.c.M.r.3...u./.Q.v.V.c.R.>XR.a.x c.Y.B.u.d. XY.^.u.E } G.G.#.#.B.G.b.B.H.C.G.u.C.lXmX&Xf : : r.i.,.` [ C.M.W.*XQ.%XM.;.",
"R m [ ' ,.).v.c.XXG.b.G.c.b.H.u.bXbXY.h = = M.T.8.c.;.=.v.( l -./.#./.-XK.M.M.r . 9.1XZ.V.Y.^.eXV.{ P 9.c.u.! n F ~ +.O.J.}.dXF.%.F.B.:.H v.|.>X*XU.C.k.E C.c.m.pXgXQ.k ; ; b.n.9.{ E tXc.B.H.O.b..X).>X8.] ;Xc.| |.9XW.c.=.{ H R.;X%XE.:X@XK.c.OXC.9XT.-.=.,.=.@.y.e *.$.c R.R.x.L.F.[ c.b.-.vXkX|.Y 9 : : u.} c.R.B.C.H.C..X>XeX%X] y.W.*XW.pXY.-.xX%X-...-.C.M.e.C M.U.R.).U.C.(.pXAXMX>XC.Q.N.=XpX5X8.5.u.A B.` F.i.|.y.y.gXSX[.Z 0 8 [.G.v.y I i.i.R.y.R @.r.|.|.*XS.@.Q.}.5.T.w.$.M ] A.i R U.M.W S.I.$Xw.R $.3XF.S.rXrXVXcXM.E.I.@.$.*Xo.o._ I o.R F.gXgXkXS h 8 5 K.n.p   :.>XC.j.P.(.NXk.3.k.>.3.C Q...b.eXC.7 $.V.|.%X5X&XY.b.|.>XP.*XY.Y.>XX.y.[ U.7.z [ %XQ.>.( &.I.n.' K.Q.;XP.>XmX1X[ 0 > >X%XC.Q.W.;Xh.&.0 ..W.n.-X8XP.&.>.z.7XW.j.;XwXU.uX1X%XzXyX .A ;.c.$XM.y.M.Q.;.-.:.` K.Y.;.9.M.Y.Q.9.T.E.R.*Xy.E ^.LXAX1Xn.h ; > Q.M.C.wXY.u.R.Y.c #.1XH.b.R.Q.] 3.c.B.-...3.N.F.F.u.a.u.W.6XR.B.n 3.Z.G.y.6. XY.|.u.| ..G.^.Y.5.B.Y.8.b.(.J.C.B.F.vXbX/.h ; : F.T.*X@.] W.,.n.:XS.S.M.v.",
"A c R I ' Q.8.@.5X XC.).|.Y.R.F.bXMXC.0 - = ,.M.=.n.j.[ ,.` j #.d.9.u.k.W.OXc.V @ 5.;Xc.-.W.P.1XV.P E  XY.:.! w M O.O.~ %.G.nX XV.D.F.8.N i.T.&X9XY.F.8.R H.v.c.pXvXQ.c ; ; 8.y.>.{ M |.8.R.b.u.-.Y.Q.Q.k.} (.P.Y {.1XC.P.-.V R F.F.7XU.+X@XE.oXOXn.-X%X7.K.Q.z.#.#.x -...R =.,._ ,.;.] y.M.$.gXpX.XH 7 : : D.O.B.b.c.c.G.Y.).1XwX5X..;.F.;XU.;XQ.;.9X%X-.;.m.C.Q.y.G >.W.iX8XQ.R.|.MXVXpXQ.Y.6XB.F.tXU.8.b.5.N 9.8.].#.F.T.@.cXVX}.I 6 2 [.S.b.p m J.w.B.$.#.i.o.J.[.iXT.$.}.R.b.>X@.J.D.a Q M @.[.R.I w.I.S.z.W i.tX[.T.3X*XMXVXI.[.z.w.B v.B C I _ q.,.b.iXiXtX! 8 ; 5 oXn.Z + 2.;Xm.*.W.^.BXk.;.Z.L.8.] (.[ M.%XL.t @.c.=X&XwX=Xb.;./.Q...=X%XQ.eX .C.E M.P.b [ U.-Xj.[ ' x.h.( ,.).>XV.>XjX|.[ h > >X8XL.C.C.%Xh.&.l V oXE.W.-XP. .h.K.W.-XU.uX7XM.uXuX%X8X9X .N ;.K.E.Q.R.U.|.c.C.y.A j.M.8.C.b.n.M.>.Q.T.Q.Q.v.Z ..SXAX1Xy.l > 6 R.b.F._.y.V.:.b.Y ( &Xc.v.Q.M.Q u.u.F.5.X.-.N.R.Y.8.u.8./.>X|.C.c H D.H.H.u./.H.{.R.9.9.s.H.Y.B.d._.u.6.H.^.D.a.Y.vXgX%Xl ; O :.).F.[ ' U.=.8.M.U.M.Q.Q.",
"_ a ..-.( v.y.] 5X{.F.H.}.Y.F.} mXBX|.l ; - v.y.:.U.j.=.m.Z a 6.G.3.u.c.W.E.L.{ <.<.0Xm.x.W.Y.&Xk.N P /.c.8.#.b F 2.+.V W i.tX6Xb.c.H.9.a i.|.;X>X).Y.m.E /.Q.Y.gXnX|.V > ; y.C.-.#.M F.Z.Y.H.6.%.&XR.T.*.:.Y.9.H '.;XL.Z.5.R t F.U.%XL.>XoXn.$XoXm.>.x...8.U.M.] @.M j.x.C @.8.x.=.,.;.:.y...kXvX&XM 2 ; - J.#.t.Y.Y.,X8.C.)..XeX>Xb.R.1X>XR.Y.R.Y.+X=XR.y.U.Y.v...b C.U.rXtX*X&X3XtXiX9X3X|.&XB.f./.U.c.8.@.j -...wXF.|.|.i.tXVXjXI y 8 [.T.>XI ] .Xi.b.] ,.r.i.2XS.rX[.Z ] i.'.].S.b.R 3 M o.'.T.e.V q.S.S.[.b.w.hXT.T.J.U.tXqXT.T.T.F.v.e.Z m B @.,.b.;.rXpXdXH 6 ; 6 E.W.{ ^ 4.uXL.c.W.P.xX7.} ).+X` 8.m.,.(.>Xm.7 C.Q._.W.&X*XQ.] R.gX<.|.wX4XeX7.F.:.R.W.E b.].tXL.' [ Q.n.' v.Q.W.c.*XpX=Xo.h 6 8XwXL.E.h.L.&.( v ` Q.W.W.9Xh.' :XE.K.P.L.L.W.,.7X;XW.oX-X7.c T.m.).wX%XR.].v.U.5.C OXW.8...c.c.x.8.C.Q.,.=.C.] Z bXMX5Xv.l > 6 |.;.r.C.b.,XY.b.-.C eX%X&X*XR.! r.H.F.y.7.u.F./.R.M.r.c.).|.J.b.n L R./.{.u.Y. X&X/.H.8.Y._.c.t.t./.R.y.G.H.D.u.C.vXgX).k : O ,.F.;.[ ' ,.,.x.K.I.v.eXW.",
"o.N R @.8.x.M.5.rXF.G.B.D.G.B.@.bXvX_.l 1 - M.F.=.M.>.&.>.v L s.(.5./.j.m.+X+XM i N.>Xx.8.W.Y.@XX.G J C.c.9.<.! F +.t.| R b.|..X8.u.u.8.c a.|.+X&XU.Y.3.L &XR.c.pXnX>Xk > > c.b.-.3.H ).m.C.Z.s.3.).B.b.x.#.F.3.x R.%XY.u.-.E t 5.F.Y.n.W.m.K.oXQ.C.n.M.,.n.U.U.8.-.j  .E.` ` ;.y.@.} @...@.#.mXvX|.c 9 - : /.y.y.%XH.Y.H.c.V.b.=X.Xb.C.=XeX|.Y./.^.+X.X%X=XQ.L.T.y.v ).;X8XiX>X|.Q.].).*X&X1XrX/.C.M.R.M.7.5.x ] ` 1XY.|.v.:.jXDXMX_ 0 2 Q.[.v.n M S.%.i._ v.b.i.4XQ.qXM.R ] i.O.'.5X=XU u Z W }.|.W I i.:X$X[.@.O.].Q.[.F.r.R.I.z.$XT.R.@.H ] n y a I @.] rXlXdXN 0 ; 6 %X@XS w u.9Xn.n.-Xm.uX( E C.).=.Y.W...W.%X7., T.eXT.Y.4XiXC...=X1X} 5XqX&X_.8.c.,.%XV.H b.;XQ.&X....n.h...b.;XL.L.1XrX|.] 0 7 >X>Xm.m.n.L.*.' A ] C.L.W.zXj.v qX>X$XE.>.>.*.,.;XpXOX%X>X@XL |.W.m.pXgX>XY.c.Q.;.V W.+XM...M.C.;.8.M.U.F.8.|.:.@.xXvX>X*.l 6 6 U.-.#.c.Y.).C.v.;.G eX_.%XW.$.u.y.F.U.C...@.B.R.F.H.F.-.Y.|.F.B.Y ..u.Y.Y.u.).1X/.C.u.-.Z.^.5.| B..X^.Z.^.J.i.u.B.vXvXY.B ; O 5.y.,.] _ x.,.x.$X%X8.v...",
"R.R.| b.&X=X5X+.6XG.F.G.a.a.5...nXpXb.j 1 ; Y.M.8.c.n.h.*.v g } ,XD.Y.v.OXoXW.b & 3.;XM.8.Q.j.V...-.z Y.Z.-.<.P F +.V.| @.B.J.u.-.5.-.#.x #.{.|.).Y.8.9.n ).R.Z.bXFX=Xc 1 1 C.C.5.9.Y H.,.Y.V.H.B.V.y.v.C...G.=.n v.Q.M.G.-.} c } Y.).W.OXK.E.-XW.B.%X%XM.M.E.Y.8.u.z ( M.[ 5.C.F.x.b.,.c.y.y.MXnX=Xb 7 ; 6 |.F.x.1XR. Xu.5.Y.u.H.|.#.:.Q.,X|.u.F.Y.eXtXvX1XR.Q.+X*XZ L.0XyXwX=X%XR.R.wXS./.dX6XtXF.F.rX=XY.R.j ..;.R.R.*X@.b.hXSXVX&.6 2 3Xb.Q n M J.q.b.b.S.A.;.|.A.*X[._ 3X%.$.=XkX*XI n n W hXkXM O.v.hX*XS.l I hX3XE.F.r.[.:Xz.;.;.M.l k Y R Z k o.W ] pXpXdX#.0 ; 8 W.).b + 3.9XY.j.9X..W.G 9.L.U.C.W.Y.' Q.Q.9.1 Q.>X5XwXpXwX;.` &XY.E 5X%X].wX7.9.y.>X9.N Y.).).&X' H >.] 8.F.).U.m.eX4XB.A 6 0 >XiXL.L.m.M.>.L ( @.,.W.m.L.j.m T.zX;XOXW.L.,.].xXoX' 5XmX@Xz L.:XL.uXgX9X%XY.n.$.l W.;Xv.U.Y.8.,.,.,.v.U.C.M.:.` mXjX=XR g 6 ; U.8...c.^.M.Z.F.} m >XU.C.&Xb.c.5.Y.R.:.-.#.u.R.|.F.B.@.b.).F.a.Z ] V.R.^.y. X=X&XN.-.Y 3.^.s.5.G.1XY.B./. XY.B.C.bXvXY.C > O ] y.M.o.A v.;.-.wX:X=.M.' ",
").V.| ).tX>X X5.).R. XG.G./.f.r.dXpXR.c 6 > R.U.T.U.U.n.' j 7 P ,XC.Y.W.+XP.7.c @ 8.:XU.x.).9.7.{ ..w 8.C.Z.-.| M #.G.-.} V.u.G.3.u.H.<.c %./.R.H.Y.F.u.x D.>XY.nXSX|.m 1 5 Z.8.3.u.3.C.} C.Y.Z.b.B.u.F.L.-.Y.{ J :.Y.F.(.7.9.v...b.>X).E.>.Q.OXQ.y.Z.+X$X%X-XQ.=.} a 7.*.Z P M.&XU.R.;.c.C.u.MXBXfXE 7 - 1 b.F.b.).|.6X6X=.Y.).R.D.5.B.F.rX|.i.-.&XeXvXkXU.8.M.%XwX..c.Q.>X:XT.;X%XF.eXwXR.,XeX=XF.(.Y.c.:.H.V L ..y.a.J.,.y.mXGXbXo.> 2 mX@.o.W Q `.o.u.S.b.S.v.}.v.jXQ.o.3XF.S..X4XA.W 0 u $.{.VX] y.i.p.'.i.o.I rX$X[.v.O.S.qXz.;.e.x.] k R y.] B $.;.L wXtXgX@.p 6 0 L.7.l . 9.>XE.c.>X=.V.z ' L.C.Y.Q.W.,.U.+X7., F.|.wX1XkX>XF.@.).6Xu.=X>XrX<XY.8.b.C.k.J Z.+X>XC.` ` j._ ..R.U.|.Y.pX>XM.Z 6 0 >XwXL.c.).Q.h._ @.,.R.W.L.>.7.h *XzXzX-XY.(.v.R.AX<X).jXmXP.v U.W.W.pXwXU.M.>XU.M.r 7.+X).xXY.,.c.v.x.c.,.8.@.y.[ MXvX>X@.g > > F.8.8.u.C.3.Q.Y.y.G ;Xc.m.=X/.5.@.R.|.^.V...6.Y.).R.b.@.F.,X|.U.Z #.F.^.!.y.(..XH.D.3...| 8.V.s.V.eX(.B.^.=X/.B.B.nXvXC.k : O } F.|.;.Z C.M.;.%X:Xv.U.z.",
"Y.H.}  XeX_.(.3.Y.H.H.f.G.{.1.t.gXdXC.h > > +XQ.c.+XW.h.[ B r H ^.r.C.;XOXm.j.r @ v.wXY.m.).Y.c.} { < 8.F.B.-.E H 5.Z.u.W R.Y.,XY.G.H.u.N +.Y.F.C./.H.9.N #.R./.ZXAX|.G 7 7 W.V.u.H.C.9.H #.F. XG.c.u.U.c.,.i.H n } 3.G.|.8.E J.-.#.|.+XOXj.W.E.M.} c.L.;XOXOXU...@.b *.L.L ..C.M.y.b.-.8.v.b.vXkX1XL 7 : > 6.%.=.y.M.&XtX-.N.6XR.|.u._.).tX,Xb.F.1X1XgX>XT.e.Y.>X3X:.9.U.wXiXQ.Q.&Xb.SXpXY.1XkXwXC.U.Q.u.8.M.E G _ Q.{.F.T.i.vXGXjXo.6 8 rXS.;.$.~ [.o.;.,.e.S.*XR.:.|.E.' y.p.F.2X3XT.W 3 $.p.'.3Xl W i.`.2Xv.$.] T.T.$Xo.Z e.cX:X:X[.v.C.N R =.C m W Z m tXeXdXM 8 8 8 n.j.r X b.yX;XC.%X).W.t B M.Q.L.|.W.x.L.+Xc.; M.>X>X=XtX9X6X:.C.eXZ.R.U.;XC.3.#.V.Q.j.G -.L.).j.=.] j.L y.Y.B.Y.M.pX=X.XR 8 6 %X;Xm.x.).>X8.' M.n.%X%XW.Y.K.9 *XSXzXOXY.;X(.|.mXk.j.u.>Xk.v (.W.(.uX1X7.n.U.;XR.u  .Y.M.9X).Q.M.e.v.v.F.%.#.C.y.vXMXpX=.8 > 2 b.-.5.M.c.,.&X&XM.k /.b.3.u.8.-.-.R./. Xf.#.c.H.Y.&Xb.#.H.,X=XY.V #.G.H.J.y.V.6X=X,XV.@.<.B.C.6.u.<X^.f.F.>X).c.N.MXgXF.k > = 3.y.Q.y.L ,.v.v.K.Q.M.U.;.",
"8.y.<.1XxX=X/.6.,XC.V.B.a.=XH.B.BXkX-.1 = 8 4X5.] b.C.M.U.8.@.c.u.5.Y.Q.P.V. .7 @ e.9XP.9.C.W.8.G | e #.u.6.<.| P 5.Z.| F 5X}.c./.(.F.Z.2.5.Y.).B.^.C.H.N } P R.GXFX>XZ 8 6 Q.R.R.B.9.6.H ] B. X XN.D.Q.m.l @.} t E -.H.F.3.M %.Y.u.F.Q.W.,.E.>.x.,.>.n.>X:X%XM.-.;.M  .yX,.@.B.$.[ C.;.:.B.b.vXkX>XM p : > R.b.F.C.6XdXy...c.1XC.5X{.B.).J.H.#.9.wX>X5X&XR.v.Y.Q.+X:.C.M.rXwX%X|.Q.U.MX=Xb.,XgX>Xy.c.&XF.5.b.] V ` Q.wXG.$.y.pXvX[.o.f 6 S.T.w.r.Z rXv.;.U.n.] S.4Xv.U.I.W O.2.v.}.4X3X_ 9 o.F.=X|.p m w.'.|.e.I Z F.>XE.q.M |.qX3Xz.;.S.F.O.$.m u.;.R R A wXrXdXW 0 8 6 m. .5 . ;.pX%X7.W.>XL.r C c.U.y.W.1XQ.*XW.7.@ y.&XR.Q.cX;XOXv.U.Y.X.V.1X&X3.Y.7.b.*X7.V -.c.W.b.=._ $.V %.V.V.F.c.fX>XJ.L 0 0 >X1XW.c.W.&Xk...Q.c.L.W.L.W.=.6 [.AX>XU.n.vXW.+XmXP.n.*X).@Xb C.:X%XQ.&XM.U.W.Z.F.z b m.=.P 8.Y.x.[ ;.#.F.b.@.c.M.vXmX1X_ t > ; ..O.#.F.8.C.F.|.T.e c.|.y.c.8.] 3./.C.c.#.} C.Y.%XR.b.B.Y.eX>XM.M ] G.V.^.b.C.gXuX,XZ.6.<.6.u.<.6..XD.u.H././.H.C.bXvXF.c > = u.y.U.S.[ ;.c.y.M.M.,.S.U.",
"5.B.<.,XgX1X^.<.(.,XZ.t.B. X|.(.BXgX3.7 = t ,X~ Q y.L.R.Y.>.b.u.3.t.|.C.C.,.{ e , b.+X7.c.Q.L.9.J ~ e W +.6.B.G.| M./.3.a 5X&Xb.J.G.c.Y.{ E G.|.C.B.H.^.N +.} a.ZXSX1XB 6 8 =X=XY.B.Z.y.H } y.G.Y.u.H.R.W.` ..u.e #.;.G./.8.G R c.} b.Q.K.>.K.*.M.C.C.U.:X%XQ.U.;.8.R C ;X>.` y.;.-.E.M.:.F.U.vXmX>XN p ; 6 .XB./.,XkX=XH.-.c.=XF.|.Y.C./.8.B.5.u.=X>X|.b.v.y.x.Q.U.$.C.y.Q.$X*XwXQ.F.Q.F.C.6XpXR.y.b.;Xb.3.=.@.Z L C.Y.y.i.y.pXkX=XI 8 > T.S.R.{.u S.S.o.S.*XS.T.vXR.|.T.,.U Z v.3X3X3Xw.i I z.'.].U Z 2X'.rXQ.$.n $.wXS.Z H '.qXqXS.&.[.z.B R N ;.;.F.$.] iXtXdX~ p 6 6 >.K < $ y.%XK.V.9X;X+Xa R n.L.M.%XwX+X;X8.3., R.wX5X).iX>Xj.;.pXxX` b.BXeXZ.5X3.c.).C.L C.U.%XW.,.' ..V A }.(.Y.F.eX5XG.p h t %X9X@XZ.|.*Xc...R.U.W.%XW.;X .> $X;X[ $XT.@XW.rXzXh.&.rXkX@XC ..E.L.I.U.=.$XW.M.*XH G W.:...-.8.,.:.8.C.|.U.Q 5.Q.SXnX=XA 0 1 - c.#.} F.u.b.u.c.y.j C.,.F.x.v.` } 8.B.B.a.c.Y.B.1X).u.-.U.&X>Xb.M ` C.F.|.y.Y.1X1X X).5.#.u.9.s.t.).5.-.C.,X1X/.c.bXnXH.m 1 - %.3.v.S.y.:.b.M.C.M.,.].;.",
"c.t.#.Y.1XpXXX<.,XtXd.B.Z.{.,XB.bXgX-.9 ; 9 ,X+.| u.Y.Y.Q.3.#.F.N.t.C.Z.Q.j.' r 4 c.%X>.>.Y.).c.J } s Y u.u.}.dXV.C.Y.5.s 2X,X#.G.H.G.G.O.} F.Q./.B.G. XG t.J.B.SXFX&Xc 2 6 |.&X|.B.8.V.Y H c. X&Xy.R.|.L...#.#.a @.../._.c.E ..5.H U.%Xm.,.I.x.F.U.-.T.U.W.T.Q.v.v.] r *.A ] F.T.Y.Y.M.v.M.c.nXvXtXC h 2 8 .XV.8.>XtXu.Z.b.8.1X_.H.R.Y.&XG.B.B.8.R.1XR.Y.v.-.y.|.|.;.b.8.Y.&X+X>XR.C.&XR.u.1XeXF.C.5.&XF.y.8.} c B n.@.i.U.y.jXnX[.l > ; *X*X2X`.n T.T.,.e.R.].iX].v.|.rXA.$.O.J.2X2X:Xp.p Z [.|.R.U V 4X.XT.i.;.k u :.R.Q U }.mXcXjX[.$X[.] R.:.M _ =.l V pXpX1X^ 6 2 8 n.C < @ y.OXk.V.;XuXW.x ..9.L.Y._.wX>X>XV.*., Q.tXtXR.yX>X8.,.>XvX..Z.JXpX;X;X .b.R.V.C..XU.|.).9.-...' i G.R.C.b.pX%XD.j 8 8 *X>X@XC.F.).m.E F.;XOXwX:X+X..8 $X8X[ %X9X7X&XpXzXh./ Q.bX#X .=.I.oXx.v.=.U.$X8.3XW N 5.#.-.b.Y.v.v.b.V.|.v.@.M.|.MXSX=X` p > = C.O.` U.C.:...y.6.k C.x.-.9.M.` ] J./.i.c.b./.8.|.1X/.y.c.1X=Xy.V ] Y.G.V.9.D.6XtX6X,X#.| D.!.u.5.^.6.#.u.=X1XC.u.kXbX).m > = ..y.b.b.b.] @.v.%XZ.:.T.E.",
"/.u.E _.=X4XZ.| dXlX^.J.H.=X&XV.MXgX8.6 O 6 fX<.2.F.Y./.Y...#.<XG.s.V.c.x.c.-.z 4 ,.).m.-.).W.8.F n s F #.r.F.tX,Xv.B.P H .X,X| X.t.u.%.! W R.Y.J.R.C./.j #.H.!.GXSX.Xc : 6 F.Q.).b.a.7.J ` G. XY.%.b.R.).*.a.C.a Q u./.Y.9...} ..M U.9XP.>.n.n.OXv.} W.).U.T.%XM.' :.e ' ' ' ).C.,.k.,.-.L.8.pXbXgXZ t : > =XJ.;.=XR.c.,X%Xu.,XR.|.C.F.}.B. X/.@.c.R.C._.R.5.$.&X>XC.;._ Z.*XQ.R.Q.y.&X|.3.B.5Xb.8.V.5XR.8.r.#.m c x.v.F.U.:.pXkXv.B f = wXhX`.`.i [.x.I T.T.;.>XeX).R.jX*Xq.q.'.hX4X*XJ.O.Z q.R.'.I n T.*X:XS.i.I A.J.=Xw.F J.nXVX$Xq.Q.R.i.i.] O.'.,.Z Z vXMX1X~ 0 5 5 M. .7 X @.Q.+Xc.%XwXOXv -.c.c.T.U.uXuXwXC.` X W &X3XQ.uX@XY.Y.Q.zX>./.PXkX.XbXV.Z. Xc.B.Q.Q.%XR.9.5.u.3.e H.&Xc.c.gX).5.a 2 6 %X1XOXQ.9.Q.j.Z y.R.OX9X+X9X .0 3X-X*XtXyXoXU.mXAXoX;.%XFX#X .=.].oX*XM.=.v.E.8.y.e r  .@.K c.).R.=.....R.F.] y.R.MXZX>Xy.l > - U.b.X./.Y.b.-.H.u.k u.#.3.M.] L $..X}.U.C.6.6.#. X).{.B.C.eX*X-.H R V.G.Z.s.B.6X6XtX&XE ~ u. Xf.r._.B.u.s.^..XH.B.vXvXR.m > # #.5.F.S.:._ R x.Q.v.8.U.OX",
" XG.3._./.,XB.Y /.,X^.XXB.}.|.B.bXtX3.9 = 8 bX3.%.,X,X%XY.-.E V.6.u.V.c.T.).*.j e c.;Xc.*.W.Y.N.E J r Y +.O.B.r.R.%.%.E e J..X<.| +.#.6.| } .X).^.H.B.B.r M r.J.FXVX|.m 1 > |.5XY.V.G.} J | u.F.u.5.C.%X&Xn.Q V.K -.8.D.&XC.*.L :.Z T.OXL.*.T.U.%X>X@.K.>XQ.7X%X,...v.j *.,.} F.v.-.m.y.-.C.y.vXkXwXH 1 $ 1 6X|.b.M.M.B.1X1X#.R.c.&XH.-./.C.&XH.i.u.H.c.|.R.-.#._.wXF.;...c.Q.Q.U.).8.).b.B.B.;XF.3.F.=X|.b.;.:.E t 8.Q.v.v.$.pXkX[._ 8 = rX2XF.}.i }.e._ S.|.o.3XeX,X].mX3XI O.R.lXrX2X6X$.:.'.v.U.U k >XrXT.o.I I kXlX5Xi.n w.VXVX:XI.v.,.&.w.#.o.5XC.A R pXbXgXE t 6 8 %X&.7 $ 8.%XW.j.;X8X). .-.` C.W.c.).;X@X*X-.+ O.x.=X;XY.&X|...$XSXN./.KXlX&XBXL.c.(...i.|.U.;X).m.u.3.E 9 |.^.).u.vX1X$.m 7 2 %X>XW.&XY.Q.#.m b.Y.W.;X(.Y.( 2 U.cXxX8X-XK.x.zXOXL.,.pXBX0X) ' $XK.U.j.K.%X:Xb.` n , 7.x.b ( C.).v.c.-.F.8.] #.F.MXjX1Xy.h > : V.F.X.c.b.V.8.F.r.x c.X.-.c.=Xb.,..X}.>XG.c.8.5.F.|.|.v.U.1X&Xy.H } N.B.G.B.B.|.6X4X X5.| Z.Z.G.2./.G.5.u.^.,X/.B.vXbX/.c > # ..u._.R.b...$.' v.{ 8.F.v.",
"s.u.Y.&XB./.V.J _. X/.B.t.6X XC.NXfX..0 1 t dX4.C.H.tXeX(.3.R 6.2.u.8.L.Q.+X .l l C.;Xm...Z.Q.8.X.| w b <.a.c...#.a.u.N.x {.tXH.+.| 2.d.J ~ 5X).H.B.B.!.b x Z.B.GXHX>Xm 1 2 /.wX&XY.C.#.J ! X.5.F.{.Y.5X(.8.Z H.9.C.9.Y.=X&Xc.K #.L S.%XW.@.*XE.OXcX-.W.OXU.wXE.,.[ v.H k.@.&.+XU...8.:.8.n...vXpX&Xc 2 > > =X}.C.b.R.|.R.Y.| _.G.H. X@.F./.&X>Xa.B.R.B.Z.B.b.8.Y.;XC.5.#.Y.Y.Y.>XR.#.M.F.-.B.%XR.Y.F.R.=Xv.:.:.C l ,.>XM.=.e.vXnXtX@.f ; T.:XhX6XW J.v._ J.=X:.F.;.5.{.MX[.;.H.i.>X3X5X2X$.R #.y.Q.k B .XhX[.I I Z .XpXrXC.M $.cXDX3X*Xv.:.,.;.u.] =XF.R @.iXnX6XY 6 8 0 %X' g ; c.;XoX-.Q.8Xm...` ` R._.-.>.).%XtX<.@ F.|.).(...#.b.5.Q.MXV.eXHXxXfXtXC.(.V.-.c.Y.|.Q.Z.Y.C.7.y.x .XP.).b.nXvX-.t 7 8 E.;X%X&XV.C.9.` F.U.U.m.C ` K > OX+Xj.OXK.K.U.iXqXK.,.iXpX7X .b.8X>.U.OXQ.;XqX8...@.3 >.@.N ..8.-.m.y.-.y.u.%.;.;.jXkX>X@.f ; ; c.8...F.V.8.#.V.5.j Z.u.3.8.=XD.;.R.J.R.u.r.y.8.V.F.F.y.Z.&X5Xc.Z E R.B.a.B.t.H.dX5X^.2.1._.H.s.3.!.^.u.u.G. X XC.vXnXH.c 2 = #.V.&X%XC.@.@.` 8.@.;.M.8.",
"u.^.(.>XB.,X.X| /.5XeX/.6.kX6XC.SXdX..h ; h 1X<.9.&XgX=X,.{ #.s.B.9.C.m.OXm. .5 N -.W.m.' B.W.3.! ! w u 1.D.y.G 1.B.J._.b }.4XH.! J +.G.} H |..XH.C./.XX! #.Y.5.HXKX6XB > 1 J.yXiXY.C.7.J ^ N.u.G.^.R.U.C.y.Z y.c.Z.8.R.).).^.{ u.C v.8XL.;.I.E.OX3X-.n.Y.%XyXn.` ` R.V ( _ -.Q.M.....:.=.C.y.vXvX>Xm 6 ; : R.*XU.=X|.u.c...(.B.b.9.Z.5.9.,XtX}.r.@.R.b.H.8.y.F./.&XM.r.$.C.Y.R.*XY.E x./.u.b././.|./.U.>XM.:...[ H R C.F.b.F.vXmX4XI f > 2XhXlX.XM %.3Xe.T.R.e.F.T.5.b.LX*Xv.F.y.2XkX5X'.:.H ..;.S.x H T.VXjXv.i.l y.rX:Xu.x D.cXDX>XI.Q.;.R.$.H.@.wX*XR o.nXZX,XE 8 6 0 K.( * 4 ` m.j.-.M.U.m.[ N ] Q.U.C.C.&X).%X#.$ R.}.Q.R.y...-.|.Q.wXk.=XMXeX1XkX(.L.W.X.F.%X_.Q.L.Y.U.V.!.G y._.Y.C.kXNXu., 2 0 %X>X1X>XL.%X(...|.Y.E.8.E  X7.; E.L.*.W.K.8XR.cXzX-Xv.tXxX9X .c.7X[ U.7XW.K.%X=.c.Y e j.@.H ^.C.8.c.C.@.c.b.#.-.y.nXvX=X_ t > > b.N.] B.c.u...y.b.b Y.C.^.|./.c.} Y.C.R.G.F.#.8..X=XF.y.M.|.Y.r.N H ).^.f.H.u.B.2X,XH.+.6.(.Z.#.6. X{.G.Z.Y.=X}.B.bXbX(.m 2 ; t.u.C.R.U.;...] y.y.i.M.c.",
"G.^.Z.&XH.=X6XH._.6X=XZ.3.lX,X-.AXuX..c 1 7 ,XZ.H.dXfXpXL.} #.N.!.Z.V.k.oXL. .g L >.m.>.( #.8.c.{ ! & a d.Z.u.| a.u.=XfXs b.&Xc.+.~ ~ /.3.Y G.5XR.^.).,X-.5./.B.SXHX=Xc 1 2 ).wXBX@Xc.5.b t.wX6X&X_.=XC.Y./.N Z u._.8.Z.G.c.u.#.-.( @.].L.*.K.n.OXn.' ;.U.E.wXU._ n.F.x  .>.[ +X|.;.-.b.5.U.F.vXvX5XR a = - =X].|.=X5X#.9...u.<.#.3.^.N.u. X1XR.i.#.F.G.Q.C.r.@.c._.U.B.B.5.Y.%X|.Y.` ..Y.8.r.H.C./.Y.F.|.8.@.-...e C u.R.T.F.MXmXkXI h > :XhXrXb.s W i.M.*X3Xb.T.Z %.r.VXrXc.F.rXkXjX*XT.v.E c._ @.k Z S.=XrX$XM.e.i.3XiXC.e v.iXDX|.z.R.Y.R.y.c.} 5X&X[ i.vXMXgX| 8 6 0 K.( # r  .*.[ k.n.M.M.-.b @.;X_.Q.y.Y.%XY.{ & ].>X*XwXpX5X>Xy.F.*X8.eXSX<X9.vX1XW.%Xc.W.C.M.Y.U.Y.W.Y.H.9.#.<XZ.Z.tXgX/.7 : 9 |.yX9X>X&X>Xk.B ).%XT.L.R.xX7.O T.+Xn.x.%X-X8XDXzXE.,.iXGX7X( ,.>Xv.K.M.' &.;.=.5.#.t 8.@.z G.U.K.OXQ.=.F.T.] c.&XMXbXtX_ 8 = ; y.).| 8.#.5.-.:.N.M N.c.F.b.}.b.5.Y.).R.|.b.3.F..X|.R.F.c.C.U.b.U R c.B.G. XF./. X6X/.y.| (.H.6.s.=XB.t.Z./.|.b.N.vXbXR.c 1 : G.F.x.C.c.:.;...,.=.c.M.@.",
"} X.B.;X,X=X=XV.}..X^.{.t.=X_.3.BXgX=.t ; - ). X,XgXbXbXC...E B.Z.s.m.7.m.n.m.l L -.m.9.L -.C.C.P J + i d.V.B.+.B.J.tX&Xs J.H.{ H F O.B.3.F D.1X/.H.Z. X3.} H.u.BXSX=Xk 2 0 &X>XgX<Xu.#.w B.6X>X(.V.).R.Z.H...M R.b.X.c.V.F.Q.C.X...[ ;XU.[ I.I.$Xx.y.U.h.I.x.>...$X}.Z ' K.>.).:Xb.,.x.c.x.x.vXmX&Xc 7 = = ,X6Xb.y.R.C.Y.| } X.u.5.N.u.#.Y.|.R.r...b.R.H.Q.F.E 3.,X|.b.R.8.B.|.%XF.Y G c.b.3.H.8.R.Q.C.R.y.R.R.] > l y.] i.A.bXbXVX[ f > 3XF.o.U u Z R.%X'.*Xv.T.I i.O.rX*X{ |.GXrX4XJ.J.:.H F.o.] l m A.i.}.T.;.v.b.1XY.r.a S.$XiXI.M.Q.|.[.b.u.#.>XQ.y.y.vXnXeX#.t > 5 j.K.; 9 ' *._ 9.F.Y.L.y.c =.:XC.c._ C.n._.-.e >X%XR.gX>X>XwXC.R.>X8.1X&X@XC.fX1X:XC.9.%XY.Y.Q.Y.Z.H.c.u.Z.X.1X(.H.pXeXD.% $ 0 ;X9X;X-X+X>Xj.B H.*X).>X>X).) O qXyXK.$XmX9X%XyXoX7XK.:XAX0Xj.z.-XL.wXQ.;.&.,.@.@.i.e ..@.c R.Q.x.U.T.=.T.U._ Y.R.kXMXvX-.9 : ; ..,.} -.-.5.c.r.%.J #.6.B.y.G.-.u.Z.=X.X/.b.5.b. X|.F.u.M.Y.R.a.H Y B.G.B.&XB.1X X,X XZ.#.9.B.N.9.&XB.G.G.R./.C.H.MXnX/.c 6 1 y.b.F.M.,.=.-.[ ..#.x.c.' ",
"R._.).dX6XeX Xu.=X{.^.J.| 2..X_.vXvX8.e > > .XdXNXtXnXgXP.V P N.!.u.Z.-.j.m.W.z _ [ -.m.` 3.u.' { J % e Y t.H.%.2.{.CXnXb /.5X^...-..X1X9.F H./.{.^.F./.N...F.V.CXSXeXN > 7 =X5X1X;X..| e B.Y.F.@.5.b.>XC.W.K a N.-.5./.|.C.1X&X-.,.` M.k.x.Q.;X;Xx.m.M.U.wXC.n.,.OX5XR K m...,.U.x.,.v.c.M.x.nXnX&Xc 2 = - ,XrXD.@.F./.c.O.| { u.9.G.N.9.u.(.|.).u.b.U.R.^.r.-.8.=XF.C.B.#.C.&XY.C.P N c.r.9.=XC.M.R.B.F.F.Q.;X8.9 k F.=.M.[.MXjX5X_ f : T.T.B %.u U 3X%Xb.].b.].v.D.i.rXx.Z R.&X.XjX'.R.B.U b.S.v.B I v.W ;.Q.;.W w.*XF.y.p ,.[.mXU.E.*Xb.b.W ] %.rXwXv.] vXxX6X..t > 5 l.P.5 8 C C ` x.C.C.M.W.G :.%X:.] ` Q.M.R.#.| wXY.rXzXQ.>XcX&X).%XH.eX(.H.u.kX&XyX8...)._.=X).|.Y.c.c.B.r.E ,X&XV.gXiXc.$ - 9 iXtXQ.+X%X-XL.R F.).(.U.-X&XK $ :XmXiXjXDX7Xm.E.oXyXOX-XxX#XoXW.%Xj.-X;X,.L.OXy.-.#.n =.[ L =.,._ ,.=.L x.y.R y.y.MXvX>XK 1 > > ....` c.n.#.c.V.5.H c.8.u.H.b.~ #./.&X|.|.H.c.Z.=X&Xb.c.C./.Y.r.E H H.R.G.B.u.kX_.!.=X6.} B.G.u.5.,XB.5.8.H.G././.bXbX/.m 6 > f.u.F.R.b.9.9.@.,.8.F.U.@.",
"G.8.H.=X<XNX,XY.6X=X.X5.~ V.c.Y.BXvX8.6 > 1 .X6XlXtXeXpX(.N J u.Z.Z.L.>.>.*.L.v ` &.k.).' #.5.9.7.! + a 6.B.B.+.O.G.4XFXH u.(.s.X.| 4X_.5.{ 3.i.|./.r.C.B.s.9.#.NXBXwXm > 2 5X&X;XY.| 5.t f.R.Y.c.B.1.].wX*XP 7 v.V.c./.&XY.%XY.#.C.' c.c.x.:X$X7Xn.k.m.+XMXn.M.n.W.rX} C =.C =.M.' ;.x.x.F.M.vXnX5Xm 6 = 2 1X5XF.c.R.F.R.i.H G Y.Z.,XF.3.9. XtX|.8.F.R.R.4Xu.#.u.>X[.R.H.-.C.Y.M.b.] Z ^.C.8.&X|.i.v.b.F.F.M.M.-.9 Z &Xe.M.T.nXtXQ.A h : rX`.o.%.u U |.F.c.|.b.3X|.a.:.>XE.;.V.o.'.tXb.[.F.W :.e.b.u n v.v.e.v.z._ Z 3X&Xb.N i.v.qXiXn.U.b.e.v.} Q tXpX8.;.MXpX&X} 9 > ; &.k.* j ' ` ,.v.Y.c.n.(.B =.*XC.b.,.T.>XR.B.} Y.%XzX>XT.mXAX).R.%X9.|.vX,XfX1XV.&X>.c.M.F.Q.Y.B.P.C.Y.Y.V.G {._.5.vXpXr.$ ; 0 iXvX-X*XwX9XC.../.&XW.E.OXY.K : :XiX%XwXDX#XP.+XoX@X;XOXfXoXj.7XW.c.>.v...,.U.M.] @.b k.x.C ..,.i.&.;.@.;.-.] -.R.BXnX>Xk - > > -.r.L c.M.5.,.b.u.O.V.8.u.B.,Xu.6.y.=XH.b.F.H.Y./.&XY.B.B.F.G.u.Q R B.B.G.u.9.lX!.^..Xu.| B.Z.<.| ^.u.#.-.W.^./.^.nXvX/.x 7 > %.3.Y.Y.F.c.c...$.c.M.T.j.",
"G.Q C.Z.&XNX6X|. X|./.!.N.8.C.8.bXNX/.6 ; - &X/.4XlXtXyX^.L Z 6.).H.(.x.,.*.L.K  ...C.U.C L 6.8.c.| @ 4 d.D.G...f.D.VXPX6.2.}.N...J |.^.c.<.X.).). X7.6.B.B.{ +.NXBX=Xm : 2 |.|.tXZ.y.d.q ~ 6X(.Y.c.1.$.%X1X .< a.x.F./.&X|.eXL.8.%X*.F.U.,.$X-X%Xx.-.k.L.xX;.n.OX+X>X#.( ..' ,.M.;.7.U.v.Y.F.vXZXpX@.> = 9 ,X5XG.E _.b.a.i.#.L u.G.^.c.{ s.1X6X}.5.|.pX=X.XD.@.9.1XpXG.V.V.V.F.Y.).] m H.F.9.=X|.:.u.B.b.F.Q.Q.b.j c c.i.i.F.kXiX].m f 0 rX].e.] u Z '.,.F.R.M.*Xe.u.E rX:XM.v.i.pXiX,.].y.O.R.*XA.p l i.[.}.'.A.i.U }.R.b...c.v.$X>XA.e.e.:.R.} x U.:Xv.5.jXtX=X5.f 5 > h.j.6 t L ..;.#.C.8.,.V.G ` %X%X1XM.Q.pX>XH.N ).&XyXrXAXVXvXeX3X9X..3.1X1X6X%X8X1X-.c.6.'.5Xm.F.C.8.C.b. X{ r.1X9.vXeXu.$ = 2 *XxX).%XrX-Xn.*.=X>X+XY.Q.Y...: >XwXW.rXAXoXL.iXyXOXL.U.m.h.M.7XOXC.x.I.,.x.L.U.:.-.s  .W.` ` ;.,.@.[ } ..] ] -.M.ZXvXtXC 6 ; > y.:.| c.M.c.r.H.b.5._.r.6./.=Xy.5.F.|..XY.G.b.R..X XC.#.b.C.R.b.] E c.u.V.#.3./.)./.^.t.2.u.u.d.E H.t.2.y.^. X XZ.nXbX^.l 7 : #.#.Y.D./.H.5.#.` 8.C.c.v.",
"!.P Y.^.&XvX,XY._.F.J.^./.B.F.Z.MXbX8.j > >  XXX!.|.eXtXY.P F u._.B.).C.M.C.7.` =.N ] V.G | c.M.c.5., 3 t.6.!.B.{./. XgX..f.}.G.<.} .XY.9.3.| =X5X XZ.u.Z.u.H u.SXBX|.V > 2 >X|.R...y.!.w S fX.X6XB.| @.y.&Xl.z a.,.F.F.T.tXOXj.c.Y.-.M.K.,.-X7XOXn.;.m.L.mXM.n.L.K.U.=.v A ` 7.h.,.,.+XU.F.F.bXZXpX} 2 : : N.|..X@.eXR.D.D.8.P X.c.Z.8.J N.&X1X{.y.(.bX2X5X6XC.C.c.nXF.8.-.F.Y.M.C.R x C.V.6.).R.5.B.R.R.F.;X5Xv.k t v.C.=XS.jXhX$XZ f 0 wX].] M n n '.x.v.u.:.Q.R.a.E :.;.;.;.W 4XjXR.F.:.] b.5X'.k l |.R.*X'.'.a.@.v.b.:.u H o.A.|.*X'.,.] ` Q } =XQ.v.] iXvX1XC.f > > h.*.t j K { ..} 8.=.:.R.Z [ T.c.R./.T.5X|.3.a eX;X9XpXPXSXzXxXR.$X8.R.,X,X=XBXmX1Xb.8.y.>X>XQ.F.Y.V.G.F.tXP.H R.G.NXeXy.% $ > %XuX@XW.1X@Xm.' F.>X+XM.>X&X..> *XyX;XrXAXoXm.yXzXI.+XuX@X' T.7X+XB.%X>XC.M.T.Q.y.u.j ( M.[ 3.C.C.v.S.,.x.@.#.c.Q.vXpX>XG 7 ; 2 T.u...M.y.c.;.F.M.#.u.b.@.Y.|.y.5.R.|.=X|.F.F.H.1X&X|.5.b.H./.y.Q ] B.y.B.D.r./. X X/.#.| 6.J.V.~ R.u.#.6.N./.).R.kXlX&Xm 4 : 5.5.Y./.>XY.5.} 5.9.c.=.-.",
"/...H. X XfX6XB.R.y.G.^.f.f.H.N.MXnXc.9 1 > Y.6X!.t. X).-.} #.Y.{.B. XY.).L.-.' C.{ E F.V { u.c.H.G.j $ a.d.XX.X{.XX{.+.~ Q a.D.} Q .XR.3.6.H {. X/.&X9.C.#.J a.SXBXR.V > , F.C.c.Y.!.D.r H |.Z.(.V.| | N.=X<Xr r...,.V.b.nX0XW.u.c.,.n.L.M.-X8XE.K.` +X+XW.Q.7XM.h.W.=.P ( ' *.v.,.,.%XF.,.M.MXZXrXV : > : b..X5X:.b.B.J.{.X.E 6.u.J.:.| u.(.5XR.-.W.xX5X|.{./._.#.,X{.&Xu.b.@XC...H z c.Y.3.H.G.8.c.F./.u.|.Q.M.m c R.T.|.y.MXnX=Xl h 8 $XT.[ R k i T.x.[ ,.b.W.@.G.E Q.e.I i.3X*X3XF.A.8.Z i.I.F.p j U..X*X5X=XR.O.] R.r.F %.:.i.T.T.T._ W ;.Z Q F.;Xv.` pXMXtXa.k 2 5 n.[ t C ..( ` W 3.8.8.M.V ] M.[ b.>X5XtX>XC.G eX=X).rXDXPXLXAXW.Q.M.=XR.=XBXbX%X&Xc.3.b.eX1XQ.G. XZ.R.R.kXP.R eX_.SXfXB.2 $ 6 >XeX;XU.+XW.8.L ;.).-XU.1XK.( 8 =X7X>X8XzXzXX.$X7X-XqXzX@XC Q.7XW.y.Z.-X+X%X*XQ.-...a 7.=.C P C.;XF.].#.v.F.M.Q.Q.MXgXQ.j 6 1 > M.C.#...@.-.8.b.u.=.#.u.Y B.R.M.-.=X.X.X|.|.).&X/.=XB.#.r.F.G.5.] E C.N./.D.B. X5X X)...! 5./.D.| !.H.X.2.6.Y.^.).kXvX Xn 2 : 2.<.3.|.5X^.t.{ @.6.u.:.:.",
"B.9.Z.G.^.dXeXY.V.y.u.Z.Z.G.,XG.NXbXY.j ; ; +XfXXXt. X1X^.X...Y._.R.&X/.U.;XZ...P.-.#.&X' P -.c.C.#.3 @ f.D.{.D.t.XX{.D.F W O.!.6.O.G.,Xr.#.s B.N.G./.C.Y.5.P 5.SXSXF.B > $ y.y.H.^.3.6.r W 1XF.C.9._.Z.} b.xX< %.#.c./.b.tX;Xm.9.U.k.c.W.C.E.-XoXI.` C.L.;XuXOX>.h.M.' h ( A ' j.c.n.T.y.y.y.vXZX5XR > : 2 F. X,XO...|.}.b.:.#.y.u.C.H.| 5.5X1X/.c.Y.AXkXeX|.-.5.{ (.Y.<XU.C.&Xj.E F x c./.a.B.R.y.R.B.B.b.R.R.N.m j Q.|.).v.MXBXQ.m t ; B $.;.,.i 9 v.v.@.b.B.fXvXdXP nXvX*XM.>XU.4X'.].Y.,.y.T.M.t p 8.T.|.[.R.*X].|.tXf.t.5XF.'.i.].U.' I C H n u.T.v.@.vXMXkX.Xk 5 > W.m.j ` -...E #.C.u.,.L.H ..Y.=.y.&X=XhXbX(.e H./.Q.MXAXLXHXxX5XwXF.|.>X,XbX9X7XW.C.@.u.kXwXW.Z.^.c.b.J.bX(.l 1X XMXvXr.> O 2 >XeX1X&XQ.U.j.L i.U.%X&X;XL...7 F.M.-X>XzXoX) n.-X8XOX7X7X( $XOXC.} m.W.>XoXOXU.[ ..b *.L.P ..C.v.y.S.@.M._.Y.8.M.kXvX*XZ 7 > 1 n.R.V...u.b.X.Y.9.#.8.-.u.c.C.y.` R.Y.,X2XwX).U.y.F.F.} c.F.F.r.R ! B.B.H.H.5./.4X X/.<.! B.s.B.| s.u.| 5.V.^././.bXkX|.N 6 > <.#.<.Z.|.=X5.@.} #.V.b.8.",
"#.E -.B.Y.tX6XF._.B.B.B.!.!.(./.NXvX9.9 1 > |.1X6X!.1XgX1XV.| W.Y./. XW.W.1XW.#.(.X.5.=X..P X.c.Y.y.< . +.p.!.f.t.{.{.B.! $.2.#.Y ~ J.R.X.E U R.J.G.C./.Y.s.V 5.HXCX/.m > $ r.r..X1X<.{.z n |.Y.=Xu.B.a.P #.^.< -.b.6.H.|.pX1Xc.,.M.k.9.E.n.E.8Xn.E.&.{ L.OXE.>.=...,.R p / ( ( *.8.x.).Z.M.b.bXnX5X-.4 = > F.{.|.;.7..X.Xb.b.} :.c.5.3.Y y.rX}.|.U.M.MXbX>X*XB.6.X.6.F.6X].Y.=Xc.D.+.a u.5.%.u.,Xb.Y.B.C.F.&XT.C.k 0 Q.v.R.R.FXpX[.I f 2 V R o.e.u u b.e.e.Q.N -...y.E M.DXyXc.>XM.2X|.].[.b.:.:.v.G x 8.,.U.F.T.i.F.1XeX9.! b.S.5X>X3XQ.e.@.z.R z 8.M.Y.;.vXvXeXF.0 > 6 OXL.x *.*.#.} #.3.b.C.W.c _ F.u.b.F.kXnXtX7.U u.r.rXjXAXLXDXxX6XvXeX|.eX&XwXxXtXW.eXR.4XzX&X).Z.C.3.u.H.|.8.K %.|.SXNXy.6 o > =XiXuXW.>X;Xk.] |.|.E.E.P.W.K 1 ].L.+XOXyX@X[ M.8XyXK.;X@XC E.&.n.r.7.M.8X>X:Xn.;.:.M ' uX;...b.@.` U.=.j.).S.8.:XvXvXrX-.6 $ ; n.y.-.#.C.:.} c.} R./.} C.-.U.Q.;.C.R.H.6X3XR.9.x.H.H.-.8.).Y.-.H E V.u.B.H.3.F.6X=X/.#.+.!.^.9.+.6.+.| <.N.(.XX|.bXgX(.m 1 : #.<.6./.,X/.%.2.} O.c.C.V.",
"..} r.D.H.=X6XY.,X!.XX#.f.!.XX(.BXfXV.9 - > |.{.dX.X&X1X/.9.} H.).R.,XL.M.Y.8.3.F.@.X.(.E P 3.r.).H.s . U t.G.u.y.J.5XC.J Q t.d.F ^ f./.6.| H }.&X^._.1XN.5.J W SXBX=XB : $ c.c.Q.eXB.!.b s ,X=X|.5.t.|.{ 7.W.q -.Y./.C.tXvXyXU.Y.C.c.,.E.,.I.7Xj.+Xc.=.=...>.n.R c ,.=.a ` [ c.,.,.x.W.R.F.y.vXvX6Xa.7 : > S.F.}.F.X.|.{.|.b.O.8.:.#.N.#.s.6XtX4X=XM.FX4XJ.b.C.3.-.u.V.|.F.U.1X=XF.Y t Y.b.u.B.&Xc.R.b.c.F.=XF.C.x 7 c...b.Y.BXjXcXo.8 l ] L } @.y u .XI.y.T.E ..b.F.c ] I.iXi.T.b.].|.|.:.R G @.:.k c :.@.R.Q.b.:.-.8.} ~ Y F.5X>X$XQ.$Xv.;.%X-.V F.,.%Xn.vXcX5X5.0 > 5 n.j.r v { #.E @.F.c.b.U.l Q F.3.V.pXCX(.1X5.J 5XV.=XmXSXHXLXyX6XtX1XW.&X=XuX;XuX>XvX>XwXiX(.U.C.b.V.B.F.D.{ #.B.Y.HXFXc.t X = |.pX0XW.>X%X8.:.).|.Q.%X%X&X) > wXU.>.,.-Xm.e.qXcXzXK.oXl.C z.' U.Y.H.E.>X*XQ.U.>.8.Y B 7X,.Y x.;.@.OXU.;.:X>XY.R.SXmX>X` > # > v.F.r.#.F.u.K B.t.|.b.L 5.` C.R.R.L.).{.>XF.y.Y.V.).F.c.y.R.F.#.H E C.G.f./.r.V.,X,X/.| <.^.^.9.<.H.t.} 2.B./. XH.NXkX.XV 6 , +.<.B.&X X/.#.} %.V.3.F.B.",
"@.M O.B. X6XtX=XdX/.{.u.G.H.,XF.SXxXZ.9 = - c.R..X&X,XR.C.X.-.(._.).1XV.j.).8.8.Y.8.| C.E J #.3.H.9.J X U f.!.G.B.F.}.|.E W <.!.T O.f.f.-.X.n R.6X^.C.a.Z.9.P H ZXZX}.B - = 6.C.&X*Xy.B.b s lXR.b.b.H.>Xc.M.lXz #.b.H.G.6XvX>Xc.U.L.8...n.8.M.%XL.j.=...8.=.n.K._ Z ;.] j ` ( U.v.8.c.U.Y.Y.R.bXvX1XD.p > 6 i.y.J.#.3.R.D.c.-.@.c.R.^.H.B.<.6XtX].v.y.SX6XrXF.F.-.9.&X=XM.x.C.,XB.F.H 9 b.H.u.B.R.B./.V.:.b.).Y.Y.c ; F.y.F.,.vXmXmX_ : 5 B p R v.i G |.*XM.tXy.-./.G.a M.z.o.:.S.3XR.i.R.T.] A A R.] l R.[.).|.R.T.Q Z ~ ^ t.|.c.C.M.U.C.M.,.Q.:.M F.=.M.M.vXvXwXu.t 6 > OXm.N G H } E #.u.9.9.v.H -.F.8.6X6X X_.dX3.e Y.=X9XvXHXLXFX+X&XdX=X .8.=XvX;X*XqXAX8XhXmX+XC.c.c.-.a.H.R.| V B./.SXAX9.l o $ .XrX9XE.%X;XL.9.Y.Y.U.>X-X+X] # R.U._ [ K.>.n.cXzX7Xn.zXh./ z.K.T.E.-.Q.R.W.U.Q.x.M.] t >.C ' F.R.W.*XQ.c.OX>XT.C.SXVX>XA 6 ; > N.u.y.| -.` ..c.c.Y./.B...X.9.F.=X).B. XR.).U.v.R.,XF.@.B.F.!.6.E } y.b.D._.f.J.,X5X/.u.} /./.s.X.B.t.H <.5.{./.).nXkX/.Z 9 1 2.#.f. X XV.6.r.@.w.B.y.} ",
"#.! +.H. XeXtX X5XF.H.&X_.R.1XY.SXCX/.4 - > N.G.p.f.=X>X&XX.7.Y.=XR.&Xc.8.Y.V.X.c.{ } Z.| G ` 8.8.5.D . W f.G.H.b.G.F.R.#.5.#._.Y F u.R.6.3.M J.&XG.a.<.!.s.! G nXFX=XZ 1 ; r.F.Q.|.t.!.G M tX&X-.|.G.5X;XM.eX< n 8.y.3.R.wX8XL.n.T.m. .j.h.S.$XoXm.' -.x.x._ n.#...>.:.t &.[ ,.v.8.-.n.C.H.F.bXvX4X@.7 2 2 U.F.>Xr.y.6Xy.c...3.C.V. X/.c.X.dX XR.M.c.gXpX6X4XF.-.^.tX).F.Z.u.F.b.4XW a Y.C.b.u.R.J.R.F.y.H.=X%XF.x , %X8.U...vXvXrX[ 6 2 I 2 O.tXM a C.Q.;.pXb.|.F.T.u =X3Xo.F.=X3XR..X%X=Xv.:.v.x.$.r e.T.b.|.5X*Xe.W 6.Y E y.[ M.e.T.%X8.v.Q.b.@.B.} M.,.MXmXwX} 8 8 > >XW.C N j { ` O.#.8.8.} v D.H.1X).R.eX&XU.G e F.C.>XpXAXAXxX7.|.pX1X;.F.>X,Xc.>XyXAX@XcXwX>X>X^.c.5.r.G.C.X.W Y./.GXBXF.A O $ 5XuXwX&X1X&XE.8.U.W.K.+X+X+X .% ;.U.=.&.-X@XU.yXOXoXoXzXl.v ;.n.:XM...).%XL.E.%XM.] ;.a ' ' E Q.F.:.m.y...n.x...x.AXMX>X] 6 = 2 b.$.u.] C.} | ' X..X_.c.G #.F.Q.R.a. X).R.U.U.V.B.=X{.r.b.H.R.-.H @.b.G.Z.XXB.&X,XXX,XB.| V.Z.s.{ 6.t.t.6.#.H.J./.nXkX(.P 9 1 #.%.1..X/.H.#.O.i.#.8.V.O.",
"u.+.+.u.6X=XdX,X/.Y.1X=X,X1X1X.XBXbX Xt > 1 C.H.D.t.=XeXeX3.-.Y.6X XQ.9.x.W.Z.c.Y.X.3.^.X.G K Y.R.u.J X M +.J.F.5.O.H.c.6.9.t./.~ ~ J.G.F.u.G G.Y.G.N.+.Z.Z.X.x pXbX6XV : 2 5.|./.&Xu.6.J r 5X_.B.Y.D..X>XW._.4 s -.x./.Q.*X:XY.).U.Y.-.8.n.Q.-XOXK.;...n.,...K.y._ &.L e >.=.8.M.;.[ C.Z.8.F.MXtX=XU 2 ; > A.-.F.B.3.4X=X:.| { H./.7.B.r.` =X/.Q.).y.W.bX4X4X|.3.V.tX|.F.u.B. X|.b.M 2 C.Y.6.<.b.R.B.V.b.L.&XU./.V : _.n.=.o.MXbX%XR 6 ; o.R.kXnXZ 3 %XiXc.GXJ.=XtX*Xe U.bXR.-.F.Q.Q.rX3X3Xv.-.b.v.R 1 b.F.y.w.R.].y.M ^ T ~ {.] b.v.R.R.V.x.OXM.] C.` T.v.vXvXpX-.9 > > -Xn.v H N X.A ..y.x.y.#.F ,XeX X_.=XY.@XZ.L u M.].%XMXmXxX9X7.&XeX_.v.1XF.C...9.1XzXQ.5X;X).9XH.c.b.6.B.u.X.H b. XBXmXU.B O O .XiX0X+X*XQ.T.j.R.>XOX*XQ.Q.7.9 v.T.Q.-XiXn.h.qXzX7X7X-Xl.g K.oX7X>X@.U.>XQ.>X:X,.&.y.a *.,.] U.v...Z.,.} W.Q.} 8.SXvX>X..0 = > -.y.V...C.W J #.5.>X1XC.! 6.H.=X1Xb.|.1X>XZ.c.<Xu.{. Xb.F.1X.X5.L } H.G.D.^.c.dX XZ.,Xu.E V.!.B.{ s.G.%.| y.a.H./.bXlX).m 6 1 N.5.#.H.H.{.<.1.B.5.6.#.#.",
"^.B.1./.,XG.6XeX,X;X).C. X}.&X{.FXbXa.7 = ; C.G._.<X1X1XeX=.} &X0X%X(.j.8.(.C.3._.9.Z.N.` X.E F.).-.Y % k 2.H.y.r.D.,X^.5.V.p.2X| H J.b./.D.` y.F.XXc.E Z.Z.X.z vXmX&XZ > ; 5..XR..Xu.5.{ M kXC.c.B.R r.wX>.C.z a U.).1X&XwX&Xc.|.m.Z.,.,.y.U.7XOXU.,.&.K.n.[ M.Y.E ,._ g 8.,.c.|.c...8.M.C.F.BXpX1X@.: - : b.:.u.R.c.F.&X;Xb...k.C.5.u.u.7.t.J.=X(.u.R.pX,X5X=Xk.Y.dX|.u.c.F.&X.Xb.F 7 y.Y.u.u.V.R.R.(.c.C.Q.x.Y.=.: L.-.] A MXvXQ.A 1 0 ].nXZXgXU u gXcXH.FXb.|.rX&Xk b.*Xe.] $.=XY.>X.X*Xv.@.8.y.m 2 e.].'.wX3X>XR.| s S ^ /...y.;.D.c.Y.C.Q.b.R u.y.v.8.pXvXjX9.t = > K.j.A K P y.L } 5.V.x.8.z r.%XZ.H.R.Q.>Xc.G z 5XtX;XiX8X;XgX3.F.1X_.x.pX1XY.8.c.rX%XC.*X7XY.1XV.5.5.8.Y.6.#.k f.xXFXBXR.k $ O &XpXuX).%XOXW.C.Z.Y.m.>X:XU.>.9 T.9X:XiX7X&.&.K.zXzX7X7Xj.g $XoX:XVX#.).%XU.wXE.,.[ c.H c.....%XU...3.-.-.U.M.] C.vXpX&XR 0 > > 8.b.-...^.c.E ^.r.a.%XZ.! u.F.>X5Xy.G.6XeX1XQ./.5.u.B.F.F.6X|.5.} -.F.B.B.B.6.dXY.H.XXy.+.H.D.+.S 6.a.O.} u.R.Z.C.vXgXY.A 0 9 <.} 8.D.H.B.~ Z.Z.{ 6.y...",
"] D.B.G./. X6XdXfX(.L.^.H.).=XY.CXNXc., $ > s. XXXdXdX&X<XX.#.6X=X_.;XG #._.C.u.&Xu.Z.N.{ X.Y -.6.] E @ u u./.b.a.G.J.B.} 3.J.tXX.F J.D.H.d.E -.G.'.B.#.a. X9.x CXZX.XV 6 > B..XU.).5.r.{ M jXb.b.H.} b.5X%X+X) w 5X9XZ.b.F.C.,.8.U.C.k...M.W.-X7XOX;.R U.c.=.W.Y.H [ $.c k.#.y.Q.C.8.:.:.y.C.bXvXkX#.1 : > b.b.&XR.-.|.B.R.>X;.} V.3.).u.} | 2.6X).N.u.tX1XR.].H.(.1X XZ.V.G./.Y./.W , -.Y.-.B.y./.^.4XM.x.Y.x.#...1 ..:.:.$.SXvX|./ 6 0 >XeXkXgXZ w ).zXR.5X:.C.5Xb.x F.%XF.V F.rX..H.}.R.M.8.v.b.B 1 y.3XU.nX:X%XU.` F F ^ R._ y.v.u.R.;.c.*XM.c ..r.).M.vXSXpXV.0 # # U.,.8.L i.V.O.$.-.F.%X8.e M.1Xm.-.|.&X1X_.J e |.cX9XxXuXeXnXm./.fXeXU.pXMXbXZ.] >XyXM.xXuXC.W.C.R.u.#.Y.c.7.x O.eXSXmXY.B = O %XxXwXL.|.>X+X).C.C.x.).W.Q.m.V T.>X8X8X7XW.=.m.zXh.h.-X7.Z z.E.:XiX;.c.E.%XiXn.` ' R.V ( _ =.-XU.] _ 8.` W.%X=.m.SXMX9XR 9 1 > 8.:.-.} /.).` ^.u.r.C.>.} N.Y.%XQ.y.Y.Y.y.=XY.r.u.y.8.H.F.>XR.%.Z } b.y.u.5.3.H./.G.G.t.5.2.<.2.u 4.B.U } V.H.H.G.bXdXB.H 8 2 2.E 5.J.u.8.c.d.B.u.^.^.u.",
"-.B.5.u.D._.6X,X<X&XY.G.Z.R.H. XFXbXB.6 - > 9.{.XXdXbX&X;XP r.eXL.(.wXH | &Xb.V.1XN.B.Z.{ N k %.B.Y | % s f.J.b.5..XD.5. X^.J.lX} H !.u.r.5.H G.R.{.R.{.G. X7.w ZXBX|.C 1 > D.{.).F.u.-.! a }.b.R.r.y.~ ).7XU.( e tX7XM.Y.M.c.8.;.M.y.9.;.U.W.$XOX+XQ.R ,.c...U.W.k.,.] g j.8.-.C.S.V.b.8.#.Y.vXbXtX5.2 = 2 b.b.).1XF.R.>X/.Q.b.-.R.5.>X|.} Q u.Y.8.G.R.1XtX.XR.6.(.1X=XY.| B.Y.).F.M & X.u.5.G.c.u.H.1XM.U.Y.8...R < M.).c.Z.MXnXiX' 8 0 W.rXeX>XE 7 v.zXU.R.@.].&Xb.l ;.%Xv.} M.Q.:.B.=X>XF.@.R.U.@.e F.5X&XrXrX*XQ.N b n Y b._ b.R.y.$.:.*X|...x %.|.iX).nXMXjX7.l - # L.>.9.V ..y.@.5.3.H.&X(.r Y.xXC.M.&X=X>X<X( w |.mX1XFXMXtXgXH.6XgXgX%XvXZXmXY.y.jXiXQ.MXpXW.W.V.1XB.<.H.c.Y.x W gXSXvXC.l = o b.cXpXL.%X%X>X%X>XL.j.*X;X%XU.-.T.+XU.yX@XW.M.OXzX-XoXz.j.Z v.n.$Xm.` >.T.E.9XU._ n.F.x *.,. .%X*X@._ U.m.Q.%Xx.m.MXMXwX-.6 ; 6 %.@.5.] b.).L R.%...| 1XN.^. XU.R.y.c.H.-._.>Xc.5.5.V.C.F.%X_.u.N ' b.6.B.H.9.B.H.^.u.#.<.| 5.6.s | f.~ | Z./.{.(.vXgXC.m 9 2 #...V.H.9.H.H.<.f. X_.G.B.",
"5.y.<.s.Z.XX,X/.fXdX/._.(..XV.u.NXgXN.4 - - u.=X<X&X1X+X&X<.-.tX@X/.<XX....X(.H.eXV.F.B.3.E k c.Z.| <.& n %.H.u.%.5X!.2.>XdX}./.6.b f.s.r.6.s a./.&X}.!.G.G.X.% nXMXR.Z 2 ; u.R.F.b.6.+.X.< G.^.Z.B.s.W %X6XM.C F 1X(.M.c.y.R.8.V.M.c.c.-.Y.K.%XW.L.$X_ -.` -.L.x.c.gXr.e >.+X8.y.v.y.V.R.r.M.MXvX>Xr.2 : : =.-.b.=Xb.R.,XV.b.F...F.9.G.y.6.Y H.F.v.c.=X5X=X&XR.c.C.gX6XXX#.b.|.,XC.n % 3.5.t.u.b.y.b.|.M._.|.F.V.u.0 8.U.v.-.nXMXgXL 6 0 Q.|.C.=XQ 9 R.wXU.R.;.>XY.V.c @.>X=.L M.].y.8.|.*Xv.} F.*XW 6 =.R.>X>X$XY.U.` n F E ] E v.R.F.M b.wX>X..H 5.kXvXwXbXBXxX] j > = ).k.-.V -.b.` @.u.{.C.^.G F.m.5./.wXpX;X%X( s gXPXSXHXuXeXmXZ.N.BXvX5XxXMXmXP.C.mXmX+XMXMX;XU.9.Y.H.V.Z.9.3.4 %.kXHXmX=Xl ; O A.wXxXW.*X7X>X%X&X+Xj.=X;XQ.Q.8.c.+XE.uXL.n.&.U.zXzXzX@X7.A I.I.:Xm.,.U.j.U.n.>...%X|.Z  .K.,.;XqXi.' C.&X;.&.-.>.SXmX>Xc.8 > 6 ;.] #.E 6.}.} C.-.} { &X6.Z.Z.u.H.-...3.@.&X).B.B.:.8.9.-.Q.|.u.H E u.8./.G.Z.G. XG.H.5.X.<.9.u.F #.R.5.J u.H.!.,XMXfXG.m 6 , +.+.B.H.B.,Xy.J Z.^._.D.d.",
"D.2.#.Z./.XX/.^.6XnXlX,X&X,XF.5.kXnXH.: = - #.}.XXG.1X1X(.c.5.1X1X_.<X#.| ^.Y.c.1Xu.^.Z.#.P e #.7.| ! 3 x t.B.b.y.G.G.%.y.:.H./.Z.T 4XD.(.s.F a.V.G.5XB.#.G.4., nXZXG.H : 2 /.B.S.F.#.#.| q =XR.u.N.B...%XT.`  .w R.;XY.#.-.b.,.C.U.C.m...Q.W.E.L. .n.;.;...>.+XZ.3.JXrXn C.(.m.,.,.j.F.F.c.H.MXkX1X} 1 ; > :.-.B.(.` &X X;...-.@.u.#.C.` 5.c 3.F.F.-.wX1X5X=X=XR.|.|.1XB.E 5./.{.J.U + u.Z.t.N./.Y.F.H.b.C.Q.Y.R.>.l 8.;Xy.L bXvX6X[ f h n.&X|.Y...3 R.>XT.5XV.6XU.] x v.qX,...3X>X-.V.>X3XG.} |.Q.L % :.F.b.%X>X*XT.b.m Y H :.$.H.Y.,X$.5XmXpX} ] 6.5X;X9XMXAXpXE p - - |.8.c.G -.u.Y ] b.R.R.&XN u...P C.T.wXwXY.c a VXPXAXFXeXeXBX&X&XiX1XpXmXMXmXY.M.yXyX%XMXpXC.W.c.F.c.b.&Xk.N.b %.tXSXvX*XB ; X w.:XpXW.).wX%X).%X).Y.;X).%XY.-.8.%X%X9Xj.=.C I.zX7XzXh.( >.Q.8X8XM.C.L.Y.yXS.n.>.Q.rXW ( K...h.Q.,.&.Q.Q.,.x.8.[ vXbX>X;.0 1 6 b.;.#.O.r.u.Q C...| 3.Y.u.Z.8.u.#.] u.` V.wXv.P._.b.c.).F.(./.5.H } u.u.H./.<.G.,XH.Z.X.! 6.G.y.Z 5.b.3.~ _.G.H.=XCXgXH.N 6 1 t...B.Y.^.,X/.^ Z.u.Y.F.V.",
"XXH.3.B.f. X!.!.6XnXgX=X{..X(.(.NXNXN.7 > = ` F.{.y.%X6X,X#.} ).^.^.).X.#.).V.6.6X(.(.c.] c r %.9.-.E < 9 .X9.c.w.b.5.H R b.@.r.2.Q !.b.&XH.V a./.G.5X^.N..X(.r SXBXF.A 2 > J.B.r.Q.u.5.<.< |.C._.X.!.R.R.Y.L  .+ R.pXP.N.%X;XQ.M.(.U.c.[ U.K.U.E.x.n.,.=.3.` E.:XK.0XgX..+XW.M.8.y.c.U.r.8.Y.MXkX6X%.1 - 6 b.y./.tX5.F./.y.c.u...Y.5.6.#.` 8.y.x.y._ W.J.1X4XiX).F.8.b.F.Z y. XR.!.Q $ Y.^.u.s.H.Y.F.|.b.b.Y.Q.H.;.L c.;Xv.-.nXMX>XL 8 0 K.wXrX/.#.9 Q.qXx.Q.c.<Xn.-.n 8.$X@.#.=X>X,.M.|.5Xb.] J.8.V : Q F.C.%X4X>X>Xy.n E E J.v.).1XeXO.5XLXuX-.b.X.H.).;XMXBXgX-.p ; = V.:.x.} 8.b.] E u.H.b.&XJ b.9.L R.).).1XY.r t LXPXmXMX,XpXJX<XdXuXQ.*XvXzXW.W.m.>XoXM.pX9Xk.1XZ.M.C.G.0Xk.^.S Y =XSXMXQ.C > o r.R.rX+XF.>X:XW.Q.).W.|.).T.8.b.n.U.K.OXk.*._ -X8X-X7Xj.j.*.>X7XzXn.j.K.&XMXn.S.n.E.rX} C -.v =.E.' [ C.M.M.U.o.[ vXvX1X=.0 > 6 v.M..X5.u.:.H Y.#.X.C.b.E 5.c.9.;.Y.H.b.&X,XQ.v.N.x.M.c.Y.5X/.#.N ' c.u.V.!.<.B.,XR.(.' | 6.^.6.z 5.B.3.J B.!.Y. XNXkX/.V 6 , %.#.c.(.%X1X^.^ V.H.(.C.B.",
"<X<X:.#.f./.D.H.dX<X,X^. X,X(.!.CXvXu.< - - 5.a.!.D.F.eX1XP !  X(.).>X5.2./.V.6.,X^._.3.Y b x -.r.6.! w % G.3.k.T.tXy.-.@.|.r.5.O.s a.u./.H.N 6.R.R.).(. X X_.a FXSX/.B > > J.B.D.Y.3.6.4.s ).C.&X3.B.b.=X).@.7.3 }.yX@Xc.%X=Xv.C.Q.Q.W.=.U.U.U.L.V.>.,.' 7.{ [ OXE.xXJX#. .n.L.n.U.c.u.-.c.U.bXgX>X5.2 - 6 Y.C.G.,XR.b.F.B.Y.-.' u.Q R.R.} V.3.F.Q.;.Z.R.J.6X5XR.j.9.H.B.} #.XX XD.o.O 5.,XH.u./._.H.).U.).R.F.b.8.L c.=XH.y.bXmXQ.( 8 0 n.|.iX5X..s U.>XQ.eXY.-XQ.c.H :.c.n.c.|.3XM.u.[.*Xb.Q y.Z Z , Z Y.R.|.=XB.R._ s 1.Y Y.b.-..X|.%.3XpXrXr.a.-.5.Q.8.vXMXbXd.p 1 - c.@.9.X.9.F.] ] b.Z.M.C.E D.Y.-.&X>X=X1XeX4 p PXJXzXgX@X6XeXW.fXgX&X>XwXuXn.,.Q.yX$Xx.5XuXu.1XC.-.B.Y.0Xm./.J Z %XAXMX1Xm 6 O W >XpX+XQ.Q.U.L.|.>XF.Y.Y.Q.Q.>XC.%XwX+Xn.m.z.7X-X8XAX7Xn.A $X-X7Xn.*.k.E.cX=.n.OX%X>X$.( -. .>.K.[ *.C.x.n.U.[ ..gXxX5X' 0 1 > c.c.{.-.:.r.W F.#.3.Y.b.| X.C.C.F.F./.).Y.=X).F.b.,.c.5.=.H.R.-.Y ] u.s.G._.5.C.1X|.|.| E Z.,Xd.F Y 5.{ F 6.(. X).bXpXY.B 2 1 r.#.u.,X(.(.C.F G.6XC.8.F.",
"=XfX3.E B.XX6X!.,X1XdX,XXX6X XY.BXbXu.9 - # -.!.!.!./.eX(.G E H.^.Y.,XV.3.).B.u.5X(._.c.E P c #.V.u...b 3 r.B.c.5X8X&XMX|.R.b.Y.#.M J.|.|.R.N 5.R.G.F.C.G.Y.Z.q GXGX/.M : > {.J.2X).3.s.d.} 1XV.y.@.,XH.>X>XR.3.e 5X;X)._.n.Z.C.y.F.Q.).*.M.L.Q.L.,.m.U.{ ;.c.+XwXoXj.%Xu.G y.M.>.Y.c.=.@.8.u.nXvX>X..2 > 6 =XG.C.=X|.5XG.Z.B.y.G B.y. XC.H 5.` C.Q.Y.F./.{.1XF.x.W.V. XF.8.-. X}.J.O.O -._.R.!.6X_.M.Y.F.|.C.C.B.@.` 8.+Xb.c.vXkXL.l 6 0 z.Y.>X=X| s Y.8X+X|.M.>X>Xc.n } wX).c.c.:X[.F.>XQ.F.#.u._ V : s }.R.R.v.c.1X@.k r.~ R.R.,.B...Q.R.U.1X} y.-.X.8.-.mXbXvXX.9 ; : u...3.8.3.c.} } 5.b.c.^.E R.%XF.).1XF.Y.Y.q h HXMXbXgX&X&XZ.H.SXbXfX1X%X>X%XT.yXAX7XU.%X%Xc.;XC.#././.1X(.G.P ` wXSXvXeXm : # Z R.mXwX>X>XOXQ.Q.;XU.Y.F.|.>XL.*.T.pXQ.h.P.E.E.mX-XzX-Xj./ $XyXOXK.*.C.L.bXM.n.L.L.E.@.v A ` j.h.&._ U.c.v.M.;.] pXpX>X8.h ; ; ,.,.8.' y.a.E i.-.B.eXR.r.#.B.G.Y.y.b.-.H.).=XM.c.3.c.V.b.F.V.r.H | V.u.D.G.-.B.tX/.b.X.| !._.(.H F <.H Y 3.H.{.1XNXvXH.V 2 1 i.5.9.(.(.).H.M (.Y.u.6.u.",
"R.tX8.} u. XfXkX XeXeXXX^.|. XG.bXbX5.7 - $ u.dX/.G.<X6X XG } _.Y.Y._.6.9./.C.3.|.).|.Y.G G n 6.b.u.B.n $ i.9.c.%XmXpXDXAXc.G. XC.s G.,XG.B.H 5.R.F.5.H.H.H.Y.3 SXKX/.R 6 > /.R.6X).c.u.| S 1X9.[ } B. X3X;X|.^., G.Y.Q.%XU.M.Z.3.C.).;X>.j.n.Q.K.M.U.].P y.R.;XyX7Xm.m.X.L M.:.;.x.y.V.} =.y.nXgX6X6.6 : 7 |.y.&X5X=X>X).a.R G { c.u.R.).u...#.8.F.=X).C..XR.Q.F.c./.6XB.` y.!.XX2Xr.% { Z.R.&X1X XV.H.C.).B.H.H.O...y.H.b..XkXvX*XC 6 > ,.>X4X1Xa.e C.:XT.Y.C.>XY.] c @.].x.$.|.F.U.|.*X].*X} r.$.N > k F.).F.y.F.&Xy.W +.1.=XwXR.8.] .X|.c.b.E c.u.' c.%XMXgX<X} a > ; V.( #.3.9.Y.] #.#.F.c.).} |.>XC.F.>XC.r.*.e 3 eX9X=XuX,X6X_.M.eXgXlXuXOXiXzX>XVXmXiXE.U.k.c.gX_.c.&X/.).C.F.R m |.SXkXC.B : O Z |.vXuX).>XwX%XQ.Y.F.).Y.).=XE.j./.yX%XW.m.%X+XzX-X-XzX7X&.:XzXK.L._ &X@XW.W.7XM.h.W.=.L _ ` ;.M.,._ Q.F.v.I.@.E cXvX>X..0 > 6 C.8.y.-.a.b.E } y.B.).G.-.X.c.Y.|.C.u.#.3.Y.%Xv.&XH.b.).Y.).b...R #.c.!.D. Xa.G.5X/.^.H x _./.G.Y F G.9.R y.). X,XCXgXC.V 2 2 a.3.6.!.^.&XC.J Y.B.s.V.Z.",
"R.&Xb.! B.^.dXeX,X5X,X{.D.H.}.|.BXMXN.< 1 = C.eXeX^.1XeX,XP ~ _.^.b.,Xk.Z.).V.u.&X/.b..XH b Y ..u.|.|.j $ '.lX XiXMXAXPXAX9X}.&X^.3 B.B./.B.Y } b.u.Y.b.G..XZ.{ GXSXV.R 9 1 Y.B..X%Xu...2.#.eX*.-.5.%.G.qX>X8.X.a J.+XOXQ.U.c.L.y.C.c.+X7.8.U.K.E.E.-X%XB Z.eXwX8XoX;.-X:.L Q.U.c.M.y.F.b.u.C.nXlXtXu.9 2 6 r.B.u.6X.X-.Y.r.u.K { { X. X|.c.F 3.H.Q.R.b.)././.Y.Y.b.C.5X|.-.r.)./..X%.% { /.R.6XgX,XY.F.5.H.C.(.u.E ] y./.R.b.kXgX9XR > > ,.3XmX;Xc.< r.wXOXR.&X+XU.c N y.$XS.R C.v.@.).%XE.Q.F.,.R R ; t ).6X|.4XR.R.T.%.P | =X=XQ.V.8.&XR.%.5.G c.N.:.+X).NXvXuX{ c 1 1 c.K u.-.u.Y.E 8.y.B.u.(.y.&XpXL.c.=X-.|.9.r s wX<XR.eX&X>XC.u.&XpX9X9XiXzX7X:XpXiX;Xm.E.Y.8.&XQ.c.R.&XW.c.&X{ t a.MXkXv.B : o H Q.uXpXQ.+X=X+X@XC.U.T.b.).Q.%XP.|.wXxX+X7.8XOX-XOX8XzXzX*.E.7XoXK.( V.U.9XzXoX>.,.m.] t _ C [ k.n.,.U.8.v.C.] ` mXvX1XB 6 > 6 C.H.8.-.b.Y.5...-.f.^.Y.u.#.c.).1X,.b.r.3..XY.M.Y.H.Y.R.C.F./.V.M Q #.H.{.fXB.B.&XH. X} M XX XG.M P H.Z...u.1X/.|.MXpXB.A 2 2 B.#.N.^.s.Z.F.J V.G./.F.(.",
"=X6XH.X.G.5XeX4X6X,X_._.!.G.5X,XNXCXc.1 6 = R.eX6X/.5XeX_.z ^ &X).V.dX9.^.@Xc.y.;XR.b..X<.b V H y.}.B.E X i.nXhXzXqXcXAXcXFXwXR.u.s J.&X=XB.Y Y b.C.|.F.^./.3.| SXSXZ.V 6 > G.c.R.=Xc.Z ..` SXk.9.<.5.=XrXQ.y.N @ b.wXwX>X>X%XC.;.b.,.Y.-.v.U.m.n.oX-XQ.R c.E.C.z.n.&.OXH.( L.k.U.F.y.y.C.c.M.vXkXpX2.6 : 1 |.=X[ R./.5.r.V.b.F n #.3.,X1XC.E 6.G.;X2XB. X1X1XF.c.<Xc.|..Xu.B.gX,X1Xv.% C. XH.eXeX4X&XH.3.R.R.|.y.H ..V.)./.a.lXgX*XA 5 : v.pXMXR.} 9 @.8X8X;X.XY.v.Z H :.>XM._ y.v.,.,.T.>XU.3.$.@.m < x =X=X&XwXT.T.R.-.#.6.b.>XM.5.E F.H.+.2.' r.R.` C.V.bXBXbX5.C 7 6 Z...5.9.C.c.P u.#.c.C.(.=.*XeXL.c.V.-.&X<Xr 4 eX<X_.pX).&X,.c.>XbX9X;XwXMX9XQ.qX8X7X8.L.9Xb.R.Y.F.Y.u._.C.W.3.b r.FXgXL.C ; # Q |.pXeX+X>X9X9XY.c.Q.U.F.Q.L.*XY.L.>XzXW.A 8XoXh.K.zXzX0X .z.zXk.W.' ' P.+XE.>.&.[ h.H 0 ( A K ` j.h.%Xv.c.S.v.G xXbXrXI 6 ; > ,.Y.b.6.N.M.8.Y r.5.D.B.6.8.F.Z.Y.y.#.-.c.C.Y.c.F.8.J.u.5.y.eXG.Z ] @./.,XdXR.u..XB.b.3.9.B.B.D.H ! ,X&X5.b.|.H.{.nXlXC.Z 9 2 B.%.u./.s.^./.x s.^.H.G.B.",
"{.>Xc.3.Z.lXfXgXeX6XXX!.Z.Z.,X5XMXNXc.< > # C.pXfX/.=X,X(.s ~ ,X&XZ.gXc.B.<Xc.3.).&XF.1X#.H Y ` u.Q.y.3.X O.4XwXiX$XqXDXLXDXMXpX_.n b.R.Y./.y.%.|.&X/.|.|._.7.Z bXHX_.k 1 = c.F.R.|.c.E X.9.BXc.8.#.D.2X%XQ.c.7.& a.vX9X%X>XQ.T.8.9.b.Y.*.y.U.W.,.m.L.c.Z >.OXj.>.h.x.L.c.c m.,.R.b...,.v.-.:.vXgX=X6.p - 1 R./.] H.J.i.-.V.(.u.P /.i.u.&XC.! u.C.1X5Xy.Y.4XtX1X(.R.r.u.c.B.F.gX=X4XJ.: b.H.|.6X>XH.R.u.#.Y.H.F.b.L | F.J.C.H.bXuX).C ; - |.AXcXE.] e B.qX7XU.Y.F.Y.G H ] >XE._ y.C.C.v.Q.Q.F.R ] T.A : a Z.=X|.rX4X*XJ.#.} 7.9.Q.W.8.R r.^.t.6.H } B.P ....uXSXbXC.C 6 5 C.` J ..H.C.} y.3.G.u.c.,.U.1X(.9.x.=.V.#X; 3 V.=X_.<XP.^.9.>XkXuXxX9X;XyXU.>XwXzXxX>.8.*XC.=XY.v.u.<.|.U.Y.9.e O.MXpX).A > = M '.rXwX>X5X&X+XY.^.%XQ.T.T.Y.Q.(.M.;X:X9X( qXyXoXn.oXyXzX/ h.zXh.;Xb.=.;...>.x.R c >.@.0 ` &.C.,.x.j.W.y.b.).$.m eXSXtX[ 6 ; > U.Y.F.<.G.b.%.R b.%.).C.8.c.6X(.{.'.:.} H.Y.Z.c./.u.B.u.N.y.Y.3.N E #.Y.,XlX/.B./...} 3.Z.9.B.f.M { ,X,XB.u./.{..XnXlXB.l 7 e F.<.u.!.Z.G.B.x 6.B.H.C.V.",
"!.D.3.3.H.gXlXbX=X1X{. X(.G. X&XMXbXc.9 $ = :.gXlX~. XbX_.x }  XeXH.lXB.b.,XH.c.>XR.c./.` H 7.V y.F.G.G.. $.{.*X].M.z.zXDXAXMXMX,XM J.>XV.H.6.2.tX1Xb.B.).,XX.u gXHX&Xc , - F.F.v.V.V.-.| ~ 1XN.b.-.B.rX:X>X&X_.z r.vXxXL.Q.+XU.n.c.F.|.8.8.;XQ.x.U.U.x.H 7.yX;.' E.>.E.M.z W.j.Q.U.y.y.y.F.3.nXBX,X%.e $ 1 r..XB.r.} t.b.8. X XP R.u.y.B.3.} N.R.|.Q.y.U.Y.9.1XU.r.t.r.6.Y.G.eXQ.}.i., 3.H.C.=X=X8.C.5.-.).R.D.F.Y P H.H.H.B.pX5XY.V > ; _.fXvXM.@.z ).>X%XC.V.Y.U.B E P *XM.R M.Q.U.|.T.|.F.] =.>X&., k Y.iX&XR.}.=XR.` L c.8.x.x.y..._.).t.2.N @.#.G =.X.pXNXMX9.V 6 1 8.{ ` #.u./.} 5.5.u.#.c.c.Q.6X&XF.c.@.@.8.7 w m.(.P.v ..,X` Y.eXeX0X+XqX1X|.pX7XpXzX-...Z.c.=X).c.8.u.u.=XwXm.g ;.FXAXQ.` 6 * w F.pXuX+X;X+X:XW.Y.).Q.).+X+X).W.M.>XOX#X .7XyXoXj.h.+X7X/ z.7XL.j...} j.-.n.K.R C ;.] p ( ( U.S.E.M.T...b.&X@.R vXMX>X;.8 = : R.Y.C.u.H.C.#.E b.} W.C.-.:.=XR.=Xb.c.' 8.u.8.j.H.R.a.r.u...|.u.@.#.%.Z.&XeX X{.u.-.#.3.9.B.C.u.n E B.Z.O.5.&XR.(.NXbXV.x 8 t b...b.N.^.^.b.S 2.R.F.^.C.",
"D.+.u.X.H.tX1XdX|.{./. XXXZ.s._.BXxXV.2 = 2 M.;X,XD.^.eX&XS J u.Y.V.tX7.N.&X/.u.&Xb.Z.G.3.Y c.N c.:.pX+XX T J.lX3X|.>X>X|.wXwX(. Xa }.tXc.B.| 2.4X&XR.). X+XP e dXSX=XV > : F.Y.c.u.F.#.6.E CX_.!.-.5.=X>X=XQ.Z.z B.gX0Xm.y.U.T.c.C.C./.c.-.R.Q.j.T.n.c.Z 8.;XU./ z.>.K.,.K U.( j.Q.U.b.:.F.8.bXFXeX] 2 - > u.J.D.t.W 5.R.r.V.}.G R.#.....,XV.^._.Y.Q.y.c.Y.-.|.>Xu.5.-.V.Z.c.&X>XtX5.2 :.J.B._./.B.F.V.#.H./.B.D.] M H. X/.C.fXwX%Xm > 2 &X(.Q.*XZ.Z _.rX%Xn.W.Y.].C } ` *XS.=.;.%X|.).|.>Xy.b.y.W.,.h x (.gX).H.&X>Xb.@.] R.9.;.,.8.E 7.F.C.B.3.T.#.Y =.N.fXpXtX#.A 6 8 c.} H #.9.Y.#.| 5.r.7...#.=X6X/.N...F.=XU.t e =X(.X.j c.fX) $.1XxXV.).zXwXR.5XwXwX8X7...+XV.|.&XZ.N.B.6.y.eXW.z %.SXbX>X' 9 > m |.pXwX_.=X9X>X<Xc.b.Y.U.%XQ.C.Y.M.qX%Xm.) W.0XyX7XOXK.oXh.I.7XOXK.R -.n.x._ M.@...>.,.t *.=.[ M.v.8.c.#.9.|.b.@.ZXMXwX@.8 1 1 n./.F.b.V.&XJ.Y 8.' Y.Q.b.:.y.] a.w.@.y.8.x.u.F.Y.^.G.5.G.7._.c.` #.=.F./.>X6.V.H.9.9.6.J B.F.V.i J s.3.M ~ H.H.D.BXlXu.N 8 8 b.#.5.G.N. XR.F 6.,XF.=Xb.",
"r.r.u.` Z.lXgXtX|.H.^./.G.B.^.G.NXNX,.< O 6 _.c.dX6.V.&X^.b | G.R.Z.dX8.V.&Xk.8.&X-.N.,XV.` Z.N Y.] |.(.X U a..XQ..X}.tXH.b.b.R.dXt }.4X/.t.5.#.1X%X1XtX&XY.{ s pXZXeX_ 1 2 F.y.` b.9.#.N.O.IX<XG.Y.-.G.iX).M.V.! | xX+XW.4X|.Z.U.Z.Y.R.Z.r.U.E.n.8.>.;.` { m.%Xz.A &.n._ g L.>.n.U.8.C.y.:.#.MXnX1X$.k = $ %.B.B.B.r.~ G.t.5.2XY V.#.} |  X9.H.C.c.F.-.| 3...=XQ.C.B.5.8.8.] %X6X6XD.7 R v.V.).c.N.^.H.u.F.^.R.F.Y z c./.R. XkX6XR.V ; > ).Z.>X>XY.M u.1XM.8.Z.9.>Xm K ] 5XR.%.` Y.wX=XR.3X5X).;.).L.e H Y.MX&XY.4XR.i.] ` ).:.c.W.-.X.C.m.).=X..B.8.@.L c.pXvXeX5.L t e k.V r 6./.N.H } r.u...L } Y.=XY.9.C H.pX1Xx 7 wX&Xj.r. X0X8.Z.<X0X .c.pX9XQ.rX>XzXwXj.=.%X9.H.%XQ./.u.3.#.Y.+X) ;.MXmXY.B > 1 c y.>X9XU.%X:X>X;X&X;X%X%XQ.&XE.(.U.].E.m.K $X7XoX0X7X7XoXh.$XyX-XK.&.[ n.h.[ K.y._ [ I e j.,.,.U.=.` C.8.;.C.r.5.MXGXpX:.0 6 6 C.R.F.R.c.Y.F.L R.C.&X=X&Xc.u.;.a.O.-.C...c.Z.] -.^.}.f.^.Y.&Xc...-.#.c./.tX3.u.V./.G.<.M u.Y.d.F <.XXZ.b H F.,X^.nXkXB.c 8 6 5.O.O.f.#.Y.G.s 1._..X1XY.",
"u.a.G.X.Y.1XvX6XU.Y.G.J.(.G.Z.Y.MXvX(.c o > b.W.4X~.Y. X^.b 5._.<XY.=Xc.c.(.V.5._.^.Y.&X7.` V.z c.N y.Z.+ Z f./.5.} r.1XG.V.u.F.6Xr G.rXY.Z.3.H =X4XgXkX,X(.| S tXvX>X_ : 2 C.c.-.b.8.8.N.u.PX_.9.fXu.b.].v.R.7.G Q pXL.Q.5X>XU.Q.W.C.F.U.8.U.U.C.c.[ [ ]  .m.).h.[ >.K.i.h m.M.Y.M.x.M.v.,.:.nXBXwXr.t = ; 6.B.u.G.G.r.G.G.%.r.H B...} -.Y.u.Z.y.u.-.} u.] C.1Xc.Z.(.x.n.+XB.%X&X/.G.u @./.).G.B.C.).u.:.R.H..XD.R a y././..XnXeX;XC 2 6 F.M.;X1XY.c 9.+Xh.>.L.c.pXc c 8.=Xa.} E ;XcXQ.R.3XrX|.] c.,.u N C.=X>X&XtX].,.;.V.;XC.OXwX,.X.P.rXpXbX| R.U.Q.-. .fXSXuXX.L 0 0 7.b e s.(.c.} 6.C.u.} J %.F.>X(.6.x M.|.eXv L eXQ.F._.pXV. .%XeX^.1XwXiXqXvXMX>XvX9X8.=.Q.c.F.H.Y./.V.@.9.Z.pX7.@.bXbXC.B > : u #.4XiXL.>X*XuX@X&X=X%XW.|.;XW.W.C.T.W.L.( hXiXOX7X7XoXoX*.E.zX+XE.,...K.n.[ M.Y.P ;._ g k.x.y.:XT.#.8...3.U.b.} vXSX6X` 7 ; 5 R.R.Y.F.8.(.J.N 1XC._.wX>Xr.t.a.!.q.%.U.=.c.&X@.-.Y.c.|.C.N.Z.3.| { } Z. X,XV.G.&XH. XG.! u.).Z.! | (.<X#.` |.)._.BXgXH.k 6 7 } 2.#.B.H.=XG.n <.G./.Y.G.",
"y.<.#.5.s.,XbX6X@XH.G.H. X/.H.^.NXxXF.e = 1 Y.=XkX!.|.dXY.! u.,X,XF.<XH.Y.).^.B.=XXX).^...E G.b E Y +.s.. Z .X.XD.#.H.=XG.B.B.B.!.x D./.Z.1X3.N R.=XeXvX,XN.X.N eXbXtX` : 2 Y.j.c.:.#.9.-.c.KX&X6._.6.R.%XT.Y.k.w Q 1XW.F.1X%XL.).C.-.C.C.3.F.U.8.>.' @.A ` &.l.n.M.M.E.=.k j.=.c.n.c.y.r.c.8.nXnXeX:.7 $ > /.y.H.B.G.N.{.!.r.+.n R.@.X.Z.c.E 7.c.c.:.F.H.V.=X1XQ.c.b.x.C.c.R.iX/.V.a.e *.Y.R.F.u.F./.F.8./.H./.G.U a y._..X5XZXeX|.L 6 2 %Xc.C.+XC.G -.).-...Y.M.;Xc x r.>Xb.#.] eXiXF.v.&X3X].] y.Q.c N -.C.=X].5X=XF.v.y.6X>X5XkXM.` ).mX>X>XL Y.%X$Xm...pXSXlX5.Z 0 0 V.G V N.H.Z.c.C.,X3.P S #.D.;X(.c.H R.).bXK E =XY.F.R.uXV.| bXeXW.1X9X;X;XyX0X>XuX@Xm.#.(.c.u.F.R.b.Y.^.6.{ pX7.R bXMX|.B = ; z @.=XxXW.;XwX7XOX;X=X%XQ.F.L.W.+Xc.Q.;XK.v 3XzX@X7XK.E.K.h.oXqX7XOX;./ M.c.=.W.Q.Z ] @.j m.;.y.W.Q.v.=.E =.v.C.;.MXZXwX..8 ; 6 ).>X).u.#.Y..XG F.8.C.iXwX:.D.G.{.4X'.$.v.^._.b.` .XY.&XF.C.Q.C.E ` H u. XG.6.Z.dX X6Xd...8.G.N.z ! 6._.d.t.Y.H./.CXkXG.j 7 2 6...#.f.Z.).N.b | B.B.F.V.",
"Z.2.1.u.G.).bXdX&X/.^.t.!.Z.G.H.MXNXC.4 # 6 &X_.lX!./.dXu.G u.,X,XY.eXG.F.&X^.7.Y.c.c.9.{ ~ N.M ] | F | X W {.!.t.t.{.`.u.f.s.%.V.a H.=X/.(.9.S B.{.1XrX).c.} F tXNX6XV ; > R.C.x.c.-...-...FX0X3.6.2.b.1XQ.Y.8.r W S.3.b.rX*XQ.Y.C.u.b.c.=.M.U.,.=.,.[ ' / [ ,.h.K.OXE.=.t *.*.x.x.c.8.,.F.u.vXvXtX:.p - > F.u.D.t./.u./.D.5.5.Z F.#.5.H.i...#.G.Z.U.F.Y.).R.=XQ.S.b.,.c.-.] R.|.G./.x -._.R.{.d.b.R.(.r.,X,X|.{.Z M Y.H.&XrXFXtXY.C 8 6 gX|.,.Z.Q.@.%.(.=.*.Y.Z.8Xk s u.5X8.%...eXiXY.R.3X].%Xb.b.F.m -.b.M.Q.R.%XM.y.,.R  XwXyXiXk.9.Q.uXOX).L C.*X;XM.X.fXMXtXL B 0 p /.G r t./.u.G.F.Y.#.J S ^ u.1X_.9.a 5.6XgXN -.eXY.|.Y.1Xk...gX%X_.rXQ.M.;XwX>X>XpX).L.-.Y.N.H.'.>XY.u.F...` J.*.] SXmXQ.B = 1 b :.].iX%X%XuX;XQ.).|.%X*XQ.OXT.).c.W.W.j.l M.yX@XL.n.oXoXK.OXwXOXOX].C -.V.X.L.W.9.>.} r j.9...P.OXU.;.] :.M.F.y.bXMX5X;.h ; > Q.|.Y.r.#.8.^.G C.Y.b.U.Q.C.F.).%XrXF.-.c.). XC.#.&XbX).r.=.Y.H.5.#.E u.V.G.u.C.|.1X&Xu.H X.B.J.Z E <.(.f.G.C.H./.NXbX^.j 7 6 #.5.X.6.u.Z.3.S ! 5.^.C.y.",
" X!.1.t.G.6XeXdX1X/.J.y.Z.G.^.XXBXnX X7 O = c.U.sXXXXX,XC.S c.,X&X).eXV.5.&XW.u.1X9.3...! F <.#.5.E ! <.X O.f.XXb.2.XXr.5.G.5.y.(.b b.pX1XY.Z.F f.>XeX=X/.H.H D tXvX|.k : ; F.F.8.-.{ %.#.i.nXvXZ.<.! u.>XM.+X..z M M.=.5.rX>XY.,.8.8.C.P.3.M.U.n.x.K.;.[ =.[ ' _ n.K.>.] 8  .;.M.c.@.x.y.u.F.nXMXgXv.p > 6 R.D.r.!.{.] y.-.6.y.M 5.#.Z.wXY.u.3.V.F.H.v.b.3.Y.|.=XM.c.-.v.V.y.R.)./.J.n ,.1X,X|.f.| u.^.b. X1X|.5XU N Y.^.,X6XBXfXH.C 6 6 gX%X9.c.^.5.u./.8.-.V.c.=Xk t } Y.c.u.#.Y.iXc.v.=X>XR.u.b.b.L @.b.R.Q.C.=XM.x.@.R r.1XwXwXQ.Z.%XrX9X|.` Q.*XL.Z.| gXSXeX' Z 8 6 1XH < !./.V.u.R.b.#.J i 6.G.&X@XP.e W eX0Xv r.fX%X1X X&XN.} *XY.>X%X>XW.8X%X;X+X*XW.C.u.-.5.B.G.=XF.6.F.V.] Q.3.E SXBX>Xv ; 7 K @.>XcX;XY.>XOXU.U.%X&XQ.Q.Y.L.U.M.E.L.>.g U.yXoXm.7XE.n.K.K.7XOXK.$XR -.` >.L.n.k.lXy.e *.<X8.M.U.M.v.y.:.v.M.y.bXSX6Xu.h 2 2 C.&XR.F.9.V.R.n Q.M.m.>X%X).c.F.1XwXU.#.V.y.H.Y.#.Y.>X|.8.6.(.&X-.=.| V.G.!.u.B.|.,X/.Y.H H B.D.F F Z.^.2.u.N.)./.NXkXZ.c 6 2 #.-.-.Z.C.c.y.s | H.<X/.s.",
" XZ.1.6.D.kXtXlX,X/.H./.^.!./.XXSXBXY.7 # - k.Z..XG.XX,X^.z /.dX(.U.>Xc.6.&Xc.3.eX(.*.N J J | P +.J #.2.% %.t.!.G.| +.G.}. Xu.C.XXq y.6X1XH.N.J D.}.5X1X(.Y.{ J tXfXb.c 6 1 Z.c.-.#.x.7.H y.PXeX^.4.E w.E.x.F.H a N } ! b.3X5XM.:.:.:.F.Z.9.b.T.c.x.oX,.' h.K.n./ >.K.K.v.9 L n.v.x.8.x.8.:.=.kXbXfXy.k - : H..XJ.G.=X#.V.).r.y.F Q r.B.).H.6.#.b.Y..Xb.c.:.u./.|.v.&XY.c./.C.&XQ.y.H.#.( _.6XR.y.<.#.C.Y.R.=XC./.Z m F.H.^.5XnXpXY.G 8 6 pX|.Y.c./.8.B.|.8.b.-.-.C.n r :.Q.F.u.P C.wXC.-.).*Xy.-...T.` y.c.=X>XQ.>XQ.c.S.] ] H.>XrX;XW.).wX>X|.E F.;XE.W.[ bXSXwX| A 7 6 =XY 3 u.).u.$.F.G.Z.J e D._.=X&Xu.a u.fX).V u.wXY.>X&X0XN.` =X>X9X;X|.Q.*XL.:X>XOX8.c.-.G X.B.B.R.b.V.H.Q.8.6XZ.L SXmX%XL 5 7  .m =XjX9X>X>XU.E.U.|.|.U.Y.C.C.U.c.].Q.,.0 E.wXm.E.-XE.h.OXoXOXL./ x.=.=...3.+XU.7.JX6XM m.;XT.n.v.c.Q.M.%.y.$...mXSXwXu.j 2 > R.&X).H.Y.C./.V Z.).x.>X1XwX).u.W.T.F.#.B.5.6._.#.c.(.M.H.H.1X=Xu.c...V.!.G.B.u.&X XF.6.J ! a.t.i H !.u.B.5.6. X,XSXbXH.c 6 2 8.y.5.u.H.Y.<.a 1.!.=X XN.",
" X!.f.6.f.XXlXnX|.).=X,XB.H./.,XCXBXV.g # = N.s..XG.XX4X&XM B.0X&X(.eXC.u.1X8.H F.C.9.P D ^ { x ~ Y ..F X %.G.a.B.t.~ .X,XY.-.#.B.e #..X^.Z.<.P f..X5XrXY.C.X.J tXbXG.m 2 1 9.y.B.@...c.#.y.SX).#X5.1.b.Q._ _ +.a u } #.B..X>XwXW.C.;.Y.Q.,.;.F.U.c.n.;.Z ' >.x.>.OXK.n.].u ` m.m.=.y.,.:.c.r.gXvX=XR l = 1 b.V.G./.}.|.u./.c.G.#.] -.a.^.Y.b.3.c.).=Xc.V.c.u.&XQ.M.R.Y.Y.Y.u.U.Q._.y.} L /.1XR.5.+.#.Z.c.Y.(.=XR.U R G.R./. XNXxX=XC 7 6 Y.Y.9.V.%X8.F.=Xx.b.3.#.U.N j b.|.u.E E -.iXx.y.C.|.=._ @.R...F.v.U.|.Q.%X%Xc.8.#.O.F.&XpX1X|.=X1XR.Y.W B.=XeX>X{ bXJXpX..C 0 6 >XM , G.}.3.y.c.u.Z.b i u.=X&X].8.} D.dX/.x -.1XY.,X&X1X7.c |.;XrXyX).Z.%XT.W.Y.).j.Z.X.V u.R.B.b.C.G.Q.3XW.%Xc.r MXMXY._ 1 > | M $XMXpX=XiX>X).L.R.|.%X|.C.Q.-Xj.U.E.h.g e.7Xl.E.E.K.h.-Xn.P.E.j.k.-.=.;.` E.>XC.6XkX} @X+XC.x.M.M.1XQ.v.c.3.5.SXFXeXu.j : > F.=XR.b.R.b.C.Z W.+Xc.%X;X0Xb.-.(.W.Y.#.3.@.u.C.#.u.M.c.|.G.1X|.y.8.%.H._.(.1.Z.tX/.:.8.P #.B.D.u J 6X_. XB.^.{.,XCXvXC.c 2 2 9.u.| | B./.u.s | B./.F.V.",
"_.XXdXt.!.r.lXKXdX1X%X^.H.Y./.1XBXSXZ.t # > V.y.XX!.,X=X^.b 6.eX<X_.gXC.3.|.u.P &Xc.c.} J S | F t.!./.| @ O.XX`.b.p.Q N..X^.3.R 6.w H =Xu.^.H.H B.T.&XgX+X9...M lXFXwXL 6 2 7.c.C...H -.X.U.fXQ.&X9.#.J.>Xn.R 8.x t 5.6.%.|.T.>X(.U.c.R.>X7.=.M.Q.j.m.j.[ >.h.x.,.E.n.h.x.u ` k.-.,.x.c.c.b.B.vXkX>X@.k > $ @.y.J.H.F.dXH._.F.V.3.R r.9.F.Y.b.8.H.H.R.v.-.8.C.Y.Q.C.Y.c./.:...8.eX=Xb.E H /.1XH.a...` 8.=.M.&X XH.+.R b.B.H.H.nXgX1XL 6 6 R.b.c.c.<XV.^.=Xy.=.#.B./.P M F.|.|.b.} #.>Xi.:.R.F.v.;.b.R.8.v.C.Q.%XM.%XQ.[ ` $.-.F.%XrX6X X).W.Y.Z.3.,X1XtXwX{ gXPXMX=.L 6 ; Y.n & &X1XR.8.R.).).z & O.R.|.F.-.N a.6XV.r Q H.#.Y.Y.;X .m [.=X+XQ.Y.c.5X].M.3.=Xc.Z.{ P u.H.H.Z.R.V.J.%X&XW.u.N BXbX_._ 0 1 Y R *XcXxX).wX;XW.Q.F.|.%XW.U.Q.>Xj.b.U.m.g &.;Xj.I.OXK.&.:XE.oXE.c. .;.` >...[ OXW.xXHX-.*.U.W.8.Y.H.&X=XF.C.y.#.nXFX6X#.0 2 7 y.(.F.F.H.Y.(.} Y.9X|.=XT.9X8.c.Y.Q.U.X.C.R Z.(.@.-.V.).Y.@.).1Xi.-.O./.XX Xs.t.,XG.u.] Y ..G.Y.F s (.<XY.G.). X&XFXvXc.A 2 6 B.3.~ | V.C.3.F <.F.y.u.G.",
"/.<XlX!.!.XX6XCXgX&X)././.|.|.=XBXBX1Xt O > -.N.XX_.6X<X^.x u.6XeX%XwX8.5.(.V.E ,Xc.] E 2.X.3.S +.,X!.D X O.D..X}.H.i.r.J././.r.f.e H R.5.H.B.N J.F.|.wX=X9.#.r nXSXwXV 1 2 Y.x.C.9.V 3.=.F.&X_.vXF.2.*X%XL.-.-.j x O.} r.v.F.wX%Xj.-.;.*X9.@.U.W.m.,.n.@.' h.K.n.,.;.,.x.k ( ..9.Q.Y.R.v.a.B.vXMX1XE 9 : - u.8.t.H.D./.R.G.{.c.O.H u.5._.C.y.y.1XH.R.R.r.=.Y.R.Y.M.).C.'.5.8.c.U.c.F.-.` Y.&XC.9.3.@.9.R.F.(.C.B.#.` C.!.R.^.bXvX,X` 6 > (./.u.c.tXb.Y._.C.b.8.F.R.#.m b.U.R.%X:.3.C.-.[ R.&Xb.$.8.v.v.c.b.Q.R.M.).F...[ ] ] (.).1X=XN.c.Y.Y.XXZ.dX6X&X+XK tXJXFX*.A 6 6 C.J w tX|.(.9.>XF.^.x % Q y.H.F.u.P N .X_.H 1.6.` -.7.&X*.R A.1XQ.L.W.C.|.%Xc.a.&XL.Y.3.P 5././.y.F.;.Q R.W.>.c.G AXMXiX( 8 6 X.} R.kXuXQ.;X9X;X).c.%XQ.c.v.,.>Xm.M.W.j.7 8.7X>.OX7XoX&.E.K.:XK.' h.U.` -.c.).qXE.j.-Xu.P m.Q.-.U.x.R.R.v.c.:.` gXCXtX' p > 2 5.F.H.B.r.F.1X-.k.R.U.F.R.U.C.H.R.1X;X8.7.8.M.C.%.| 1X%XC.] &XeX:.%.} H. X XN.5.Y.u.3.} E { c.R...x Z. Xb.V.^./.{.CXnXy.L 9 7 C.8.^ +.G.9.<.S | u.Y.|.R.",
",XlX6XG.Z.4XdXNXeX_.(.|._.&X|.,XFXBX(.a O = N.^.<X(.).1XY.r a.1X(.(.1X} %. XY.J Y.-.P ;.#.c.N.F +.XXs.J % +.G.4X5X2XD.$.{./.B.-..XN M R.^.}.Y.N a./.1X;X@XX.{ u nXnXQ.g : 1 _.c. X-.Z 5.c.^./.C./.#.N D.-XC.i.R.K 3 } ] 5.v.U.iX;Xj.-.$.R.Z.@.M.$XM.,.E.=.A =.n.m.K.n.*.v.m ` ....T.R.U.C.C.u.vXBX6X] p : $ C.b.B.B.5X{.^. X Xb.~ E c.} Y.c.:.8.=X/..XH.C.=.F.Y.C.8.Y.).{.u.-.,.Y.H.|.:...%X>XF.c.u.] -.R.(.(.9.Z.E ' c.H.J.6.vXkXeXR > 1 _.Y.B.9.1XY./.R.F./.7.R.;X:.c y.R.%X%X,.c.M.$.O.|.Q.,.L y.F.8.c.b.|.F.S.U.M.c.y.] $.Y.).F./.Z.C./.F. XG.lXxX>X1Xz gXHXvX3.C = 2 ,XG w XXJ.wXy.1XU.-.b @ H y.|./.u.{ E =X=XH | s.u.H.B.C.-.N 5.;X%XM.M.C.Y.&XY.C.Y.(.Y.c.H i.6XY.u.Y.u.} =X:X).Y.L BXAXuXH 2 6 #.#.b.vXpX;XtXwX>XW.B.;XY.j.c.,.).V.c.n.K.l ,.oX=.OX7X@X&.&.&.:XE.h.M.Q.V x.W.%XiX:XK.E.-.` E.,...,.v.M.-.b.,.c.G.gXNX6XE k ; 6 G.F.u.b.C.V.)...-.C.:.b.F.=X-.C.C.|.3.` 8.c.Y.1Xr.b.1XM.3.G %X6X:.-...a.,XtXZ.5.V...9...} E 5./.` F G._.H.r.F. X=XCXnXu.N 9 7 B.u.{ 2._.N.6.Y <.9.F.=XG.",
"B.6XkXZ.{.NXlXdXlXeX&X&X/. XR.|.ZXFXR.4 O % s.6X<X!.<XeXY.b 5.6X&X&X=X3.u.|.H.]  Xj.Z.H.E 9.9.D ~ 2.t.^ < t.G.5XtXJ.B.t.J.D.}.B. Xx n /.,X,XV.N %.,X&X).H.<.<.s nXnX|.c 1 ; Y.=X=X9.U B.C.9.9.P B.3.H F.wX|.:.u.( m c.5.y.Y.F.>X1XW. .8.F.k.-.U.-XI.] h.[ ' ,.,.M.T.,.` [ N  .j.8.Y.b.v.R.C.B.vXkXeX@.0 > # G.R.^.G.|./.B. XY.=XG.H :.] R.Q.B.r.F.u.D.F.-.y.Y.).M.F.).%X}.r.#.=.).Y.).b.` Y.Y.H._._.| ` B.F.b.Y.H.s.E c.C.r...BXNX>XA 6 9 =Xc.V.@.R.Y.,X).u.c.:.(.=X..a -.|.5XQ.v.e.R.@.Q Q.b...Z @.M.b.B.F.>XR.y.8.C.y.M.y.R.u.u.s.Z.7.u.b.C.=X_.<XtX;X&XP pXKXAX..v 6 6 ,Xc 3 F.e.>X@.>XC...H @ Y 5.&X).1X#.E .XH.} J D.J.Y.c.8.X.} @..X).Z.U.#.Y.%XH.Y.=X&XC.9.H ~  XF.H.H.y.#.:.>XW.C.K ZXFX=XC 6 6 } M u.uXuX%X1X-X+XU.|.;X:XC.-.m.W.k.y.n.K.m A L.L.OX-X-X&.&.n.E.$XE.OX%Xc C.eXwX8XE.-.7XB...&XT.8.-.R.F.#.Y.C.Y.1XnXkX=X..p > 2 H.B.%.D./.G.8.N 3.&X..E T.1Xc <.b.v.5.<.' ..Z.&X;.R.>XC.5.X.&X=X@.y.@.3.6XtX{.V.u.H.c.u.#.#.C.F.F n s.Z.B.5.H.|.,XBXZXb.c 9 7 C.t.#.<.B.V.6.D <.C.H.H.b.",
"G.B.6X^.^.lXFXnXlXbXlX,X&X|./.{.BXCX).p # 1 ^._.(.{.6X1XH.H ^.1XeX1X<X8.6.6...} /.3.Z.9.Y u.9.! ^ ! X.<., 1.a.} R.-.R.p.r.J.R.B.s.e n O.G. X).| +.H.=X1XZ.c.u.r fXGX=XH 5 - -.|._.Z.V R.(.7.*.K u.f.1.}.>XQ.] u.3.#.|.c.u.=XR.Q.|.L.c.*.6.-.:.F.L.v.A ' [ *.C.v.U.+X[ ' ;.Z X.C.c.v.F.U.C.-.D.nXgXtX8.0 : $ G. XB.G._.R.B. XC./.B.Y Y.F. X&XU.u.{.B.D.b.r.C.L.&X*Xy.M.+X*X8...c.Q.&X*XU.X.U.C.F.R.).#.M N.V.a.C.R.c...B.2.%.#.nXGX=XC t 6 |.G.,X#.N.(./. XY.b.8.C.(.[ p y.).>XU.M.S.J.,.] b.@.@.l R B.F.F.H.Q.R.@.#.y.#.F.F.b.6.-.B.N.} 8.8.r. X/.H.wXeX/.9.kXHXFXC.C 7 5 V.b u R.r.c.' 1XV.| M o J B.}.=X).5...H.u.{ G J.F.Y.C.-.5.#...}.).F.b.#.F.=X&XH.Y.y.G.N.P E {.R.B.Y.Z.| :.wXR.,...SXSXc.l 6 6 ..F c.kXpX@X>X9X>X).B.U.W.L.T.j.c.*.3.,.j.Z Z U.L.U.E.j.' oXI.j.K.oX-XW.Z V.U.C.z.K.&.+XZ.` W.C.Y.c._.Q.c.Y.R.&XH.nXnXnXR 2 ; 1 F.G.b.6.F.a.b.H *.1XC.V.R.Q.` <.b.c.} { 7.5.5.;.;.y.>XM.B.| R.|.] u.-.B.|.1Xu.9.H.(.C.y.} 5.s.G.s S Z.d.#.#.b./.Y.SXGXV.x t 9 u.5.#...%.B.B.^ 6.Z.H.V.c.",
"(.u.=Xr.B.gXZXZXkXNXfX X/.^./.Y.CXGX Xz # 2 5./.,XXX=X<XC.M N.eX1X@X&X3.-.y.8.u.^.8.9.R N X.3.{ <.u.6.<.% ! G...v.D./.2.D.F.,XG.#.q 3 ~ G.,X1X#.O.B.|.R.-.u./.s tXJX=X[ 5 ; 5.F.&XN.V R.@X^.7.z t.6.5.|.T.Q.y./.J G R.V.B./.|.=X%XL.M.Y.c.3.#.8.V.,._ -...-.U.Y.M.OXx...e.H ..c.C.Y.Y.T.).v.y.vXgXkX8.t $ $ H.kX/.^.=XU.R.=X8._./.N 1XS.(.>XU.r./. X}.D.r.C.c.(.eXM.|.Y.>XF.` c.Z.W.(.U.-.Z.Y.+XY.5.<.u H.r.V.Y.H.y.N.s.6.G.c.kXBX)...0 5 0XfX<X#.Y.&X&X&XH.c.#.G.Y.c.L ;.b.%X).Y.F.A.v.%.b.$.E e l /.R.F.y.C.1Xi.[ y.3.F.C.y.c.B.G.u.9.H.@...G.J.8.=XtX=XX.tXHXSX7.v > > 7.b J R.u.c...).C.N.M . M G.Q.5X).6.u.|.V.3.Y |.=X).Y.#.| N.! |.R.R.u.6.V.,X).N.B.<._.9.{ S V..XR./.Z.5.u.&X@.3.( nXBXC.t > > #.y.u.=X1XR.*XuX7X9XV.Y.+XC.Q.&XC.7.-.@.>.H Z y.M.L.oXL.' Q.z.E.&.h.m.c.B >.OXn.h.h.v.E.v.K L.M.R.9.U.rX1X=XU.(. XMXBXrXU 8 : ; c.J.H.u.R.5.y.Q P &Xb.c.Q.b.E 6.u.F.-.` ..9.N.H.@.-.OXM.b.Z b.R.o.:.@.8. XdXu.s.V. X/.5.H %.u.6.F Y (.Z.Y L b.eX XFXFXu.a 2 6 s.t.~ } B.9.Z.+.u.(._./.H.",
"&X XY.F.{.lXHXMXlXuX6X X<X&X Xc.NXNXB.l # > 5.Y.(.,X_.@X7.n 2.6X1X(.<X-.5.F.(.V.6. .=.G N #.X.| u.(.6.{ 4 ! u.} a.J.|.%.&XU.=XG.H.z w s./.=X,X! #.G.H.M.H.Z.!.z tXCX).H 1 = u.G.=XW.H R.Y.c.*.V {.d.r.|.U.R.eXC.S F .Xc.F.R.=XiX@XW.j.(.(.8.#.j.V.F.-.-.8.' m.Q.Y.c.x.;.y.Z ..F.c.Y.C.c.=XF.8.kXpXpX:.t : - H.^./.&X1XF.H.D.{ V..XG Z.y.H.>XR.5. X&X5X=XM.8.H.H.0Xb.%XQ.Q.8.K C.W.%XE.F.=.(.1XwX;XV.u.q Z.c. XeXC.8.r.V.<.B.6.kXMX&X-.0 8 fXvXZ.-.F._._.&X/.C.5.V.C.V.E ] c.M.F.E.U.U.Q...i.,.R e x F.Q.F.:.R.=XF.u.F.F.R.G.b.C.G.C.V.! 8.3.y.u.G.Z.!.pX1XN eXHXBXV.` ; ; 3.! S c.Y.1X{ /.&X3.S . s a.u.,X&XH.b. X!.V.R 6XeX&X(.P F 3.E }.B.R.u.b.,X).F.f.V.| H.V.| x Q c.&X).N. XA.|.[ -.C lXLX9Xm 6 5 #.Q R =X6XM.;X%XyX%X1XwX>XW.M.;X&X9...-.*.' } -.c.j.M.L.>.E.7XOXh.K.K.,.n j.yX;.[ W.>.m.C.L Q.L.Q.y.Y./.c.&X=XR.H.BXMX5XV p 6 : B.G.Y.C.1XJ.y.#.V eX_.%X*XQ.E 5.F.F.c.3.-.V.G.).G.v.F.U.C.Y  X,Xy.b...c._.1XG.Z. XH.XXH.} -.Z.2.E Y !.<X5.`  X,X/.BXBXB.p 4 5 5.t.6.O.u.G.B.Z #.F.=X=Xb.",
"_.6X,X/.^.1XBXSXfX6XgXgX6X,X1XC.kXpX^.c O 1 C.U./.H.J.eX*.x a.6X&X(.gXc.c.(./.3.V.c.9.3.{ | P -.9.Z.c.{ , W 5.a.}.D.F.3.=XF.5.r.!.N n 5.F.R.,X3.X.r.Y.)./.6.6.b gXZX|.B > 4 (.y.H._.G b.7._.^.z {.u./.|.).|.bX&X( S ,X X>X9X%XuXQ.C.] C.j.` v.-.k.F.=.*.7.8.W.+XW.n.Y.n.Y.#.@.c.8.c.U.(.1XC.y.tXvXtX5.0 1 = }./.G./.1XC.B.-.X.#.R.H C.U.Y.S.b.H..XwXrX>Xb.-.R.c. XC.9X>XQ.M.m L.].Q.U.C.c.6XuXpXeX#.6.u c.c.H.eXV.u.c._.E y.c.lXNX<X..8 6 pXlX&XO.8.%XeXdXZ.).8.6.Z.c.] ` y.,.@.U.Q.U.U.F.:.R ` 1 e /.5X|.|.).R.R.B.c.B.B.H.Y.H.Z./.c.#.3.| 8.^.G.!./.fX&Xz eXFXxX7._ 0 > X.X.S u._.<X! 8.(.c.D   s r.y.|./.R.u.B.Y.G.L R..XR.c.F J 7.J ^.F.4X1XB.XXQ.C./.9.P H.^.{ s 5.y.R.).u.b.U.>X5.x.G kXHX9XP 8 5 ..M O.|.uXC.>XyXuX+X&XwX;XP.] Z.j...c.*.*.-...c.c.M.L.E.;.E.oX-Xz.E.n.8.N 8.;XU./ x.,.k.-...W.=.H.-.c.fXU.1XkXR.y.BXMXtX] p 1 : B.a./.Z.&Xb.y.%.V 9X)._.R.=.u.i.H.T.M...X.B.|.#.T.b.M.*Xy.O.R.pXU.y.] u./.G.N.N.<X<X6XG.#.3.B.6.s J 6.^.G.6.Y.Y.^.CXBXY.9 6 2 u.u.#.r.-.u.B.F 3.(.>X,X#.",
",X,XF.5.b.5XbXBXeXeXbXdXXX X X^.BXvX_.e o 1 b.:./.G.{.{.3.a 5.6X|.V.|.3.H.@X^.H.,X(.Z.#.| #.J V.-...V.u.w Z u.b.F.J.r.#.J.-.:.W f.b e | c././.s.5.B.a.=X&Xy. XS 4XZX&X_ 1 1 C.5.a.C.V Y.G.(.u.a }.D.G.*XR.*XpXpX7.H 1X1XkXpX9X8XC.M.` Y.V.{ y.,. .Z.` ..7.3.U.,.-.C.C.M.Z.c.9.b.8.Y.Z.%X&XF.B.vXgXtXr.0 1 - ^.c.y.Y.^.H.b.i.u.c.H.M U.Y.U.;X).&XZ.1XzXkX).X.|.Y.).Y.wX;X).].N M.%X*XY.R.8.F.6XkXOX..!.t -.Y.c.8.#.V.Y.Z.Y ] ^.NXGX1X` 0 6 ).8.F.#.|.R.Y.=XG./.8.-.u.b.#...y.b.8.y.M.|.R.5.;.@.B 4 x &X=X}.=XT.U.|.B.b.c.F.B.Y.%XC.F.6.} 3.} b.tX!.B.<XeX&Xr fXJXpXG l 8 t N.J ~ 5.^.V.x -.|.Z.P   s r.:.J.F.F.B.G.C.(.n a.D.5.R.X.5.Z.b G.{.6X6X!.dXH.{.).B.#.b.,X7.x {./.b.b.H./.|.1XQ.Y.x vXHX0XC 5 1 H W O.|.uXQ.1XyX7X%X&X1X$XoX..(.C...r.=.` u.L 8.m.m.).L.-.%X;XL.;.=.&.' ` ` L.:Xh.A -.n.] C 8.=._.;...&X|.F.*X5X).FXSXkX6.k 1 > 5.G./.u.B.c.b.] m ;XU.C.&Xb.b.:.Y.R.$...3.Z.H.R.R.[ c.K.i.u.|.nXR.;.$.c.H.Z.N.G.(.wX.XV.` #.c.H.F J | _.^.H.c.H./.CXFXY.9 1 2 V.u.5.5.5.6.3.! 6.,X/./.C.",
"{.XXV...6.5XCXnXeXgX6XXXY. X=X/.NXCXB.< $ > u.V.Y.5X!._.<.a 5.eX).c. XB.(.Y.V.B.).).c.{ 3.} H Y...8.a.9.k | 2.u.G.R.F.X.=X5.b.#.| S J (.H.|.&X9.%.!.u.).5X^.!.G wXSX1XL : : &X9.V.H.P V.Y.).N.c R.r.:.U.F.=X9XMXZ.| gX+X>X7X>X>XL.W...y.V.#.b.y. .Z...' ` u.Y.8.-.U.W.x.Z.;.,.F.-.b.C.|.].b.R.lXkX5X[ t : = 5X;X).Z.R.C.u.b.H.Z.|.R P.Y.U.6X|.tX1XwXpXwXQ...=X;XrXQ.=X+X].%XV ,.U.%XQ.%XF.9.&X1Xx.v.D.3 K &X&Xy...| _.Z.} ..b.kXBXpX_ 0 t /.u.&X/.{.&X XeX_.i.#.3.c.R.-.' 5.C.F.y.M.R.U.} =.T.R 4 a Z.>X|.,X>X}.H.y.r.V.u.c.(./.C.(.Z.G H.-.C.wX6X/.eXdX0Xb dXJXkXH Z 6 t u.x z X.^.u.G b.1X9.F . s } B./.H.b.|.u.#.f.Y R.G.r.#.] U.Z.J  Xd.Q._.t.G..X/./.H././.,X*.4 !.^.B.u.t./.*X>XU.1XG pXDX9XA ; 1 Y a.y.|.xX>XwX9X;XU.U.>X%X-X>.L.V.-.c.7.) C.[ ..=.V.W.E.,.*X@Xn.n.;./ _ ] { V.W.z.&.,.E.:.c ,.8.Y.=.c.F.,.-.:.a./.SXZXkX] t 2 6 G./.=Xr.b./.C.y.H |.c.M.&X).5.../.&X^.C.} 5.N.eX5X@.M.C.i.#.Z.6X|.3.} u.H.B.Z.s.R.1X/.(.E Y N.B.Y F Z.(.u.u.5.).,XCXBX(.t > 4 f.5.B.6.} u.V.S #.Z.).&X1X",
"G./.,X9.r.,XZXnXfX6X X,X,X.X6X XnXNXu.4 ; > -.m.B.{./.<X<.s s.6X/.B.>X8.Z. XB.3.Y.^.Z.6.{ } P Z.` -.B.X.F G.N.Z.^.F.B.G /.b.^.D.<.r 6.#.G.5XH.#.5.s.D.=X XB.G.D wXKX=XB > 2 tXQ.C.,XP C.Y.(.Z.N }.b.R F.U.3XjXSXP.<.gX&XQ.OXW.>X).U.8.M.C.3.5.8. .=XC.-.P 8.Z.M.-.x.Q.C.Y.-.c.H.c.C.&X|.G.6.R.BXvX5XZ 9 : = 1Xc.m.C.&X).2.G./.x.Y.#.L.L.U.=X&XpX%X1X).=XY...F.Y.wX8XvX1XuXS.j ..;.+XwXR.C.5.H.).C.c.| q e Z.(.R.V.` N.&X{ 8.y.pXvXfX` 6 5 H.XX6XV.N. X4X<XR.D.} @.8.V.,.@.8.C.F.U.F.Q.U.$.,.;X=.2 l Y.pX|.Y..X|.R.-.y.H.F.u.&X_.V.1Xb.N ).#./.eX,X!.6XeX&Xr 6XFXxXP L 6 ; ..! H V._.9.7.|.NXX.b & s f.J.F.)./. XZ.#.a.5.J.5XXX#.] 5.B.r {.^.G.H.+.+.}.H.C.J.J.J.G.{ + t.F.B.C.9.5.|.rXM.u.G pXGX9X' ; ; n +.C.>XrX>XqX>XK.OXM.&X>XQ.Z.Y.L.9.-.,.) .Xb.c.*.c.Q.W...E.OXK.=.' A o.A ` >.c.x.n.M.W.=.V [ ..8.:.c.U.8.B.'.$.#.lXvXnX` h 1 : D./.}.R.c. XW.b.x Y.M.:.u.8.-.#.Y.(.|.u.#.c.u.H.rXv.M.;XF.-.c.eX|.:.@.F.{.D.V.y.).=XJ.s.E ~ r.r.s Y _.C./.8.#.XX,XCXCX=Xt > > B.c.a.6.5.!.^.J B.B. XkXeX",
".X X,X7.B.eXCXCXbXeX,X6XXX^..X XvXgXZ., - 7 c.C.R./.!.{.^ D Z.,X<Xu.&X3.x. XB./.eX,XP.V.5. .X.(...8.H.#.M 9.B.(.u.5.(.5.~ u.H.B./.4 ^ +./.5XG.2.5.f.H.|.).G.!.K rXGXwXj 7 2 1X%Xb.).z 6.F...E E F.R.-.R.R.&XwXrX7.6.gXW.T.>X;X%XL.+XV.F.c.3.5.>.G W.c.;.,.C.L.&XZ.>.L.,Xb...E -.Y.(.F.:.y.#.b.NXpX6XG 7 1 : H.=.u.c.|.|.y.H.H.Z.Q.8.c.R.U.&XH.eXrX>X6XtXR.} c.b.>XxXxX1X;Xb.e ;.=.M.wX>X%XB.V.M._.k...b 4 N.V.c.@.| 9. Xy.u.b.tXkX6XL e 7 gX(.&X^.Y.,X^.,XC.D.r.C.c.5.c.u.3.G./.Q.{.|.M.F.b.OXh.j b |.gXR.B.}..XF.8.b./.D.6.1X|.-.|.u.x 9.` C.vXfX(.,X<X(.w dXGXSXV l > = 9.Y c.Z.N.5./.R.,X..S & i 2.u.F.)._.=X(.+.O.%.F.tX,XB.-.R -.e J. XR.,Xr.1.!.8.u. Xt.+.^.3.% B. Xb.H.9.B.jX>XS.#.< wXFXrX' 1 > V Z u.=XQ.;XwXyXE.zXW.).|.+XV.L.m.6.5.-.G Y.c.8.c.L.L.%X>.h.+XOX[ _ ;._ ` ` =.>.,.n.U.U.@.N =.-.-.9.&XR.:.Q.=X{.-.bXnXnXr.1 - : D.J.R.&XR././.F.a y.R.u.c.8.} :.R.V.u.| ] Y.Z.C.>Xv.%X*XC.r.U.gX|.;.:.C. X!.5.f.6X.X-.B.| ..u.B.i Y 6X,XbXJ.B.XX,XNXFX&Xt ; $ 9.C.6.2.Z.{.B.H H.G./..X|.",
".X3XR.r.t.kXbXCXkX6X,X,XXXH.{./.MXbXV.< = 1 b.Q.5X X6.Z.~ s G.pX1X9.=Xu.^.&Xb.^.1XeXZ.Y.^.5.3.Z.7.#.c.! H F R.,Xt.R./.J J y.B.#.d.< s ! .X&Xu.u.b.!..X).=X/.N.! 6XGX1Xm 2 > R./.F.^.H -.V. .{ %.Y./.F.5X|.R.|.eX@XB.1XY.%X>XAX0X&X1X>.8.C.-.a.u.j 0XR.:.Z.V.%X=X&X..-.@Xb.E L ..3._..XY.y.u.8.BXkX1XH 9 : ; u.c.u.c.F.B.u.c.u.V. Xu.8./.|.%Xb.=X>XeXwXbXrX-.V.F.T.8XW.n.%X[.N x.M.M.wX1X5X|.:.&XpX5X).#., fX+X8.V.} V.6XF.#.u.gXgXY.H 5 t gX(.Z.H.^.^.B.lXp.p.1.Y.8.6.(.5.Y B.&X/.F.;X5X'.y.(.T.r E /.bX_.F.>X|.Y.r.u.|.H.r.,X/.5._.u.K } L :.vXfX!. XBX_.r fXJXFXE C 5 0 ^.M 3.9.Z.X.U.1XV.^ b & i 1.~.Y.Y.U.U.Y.Y L 5.i.ZX|.| r.6.#.q 5..X|.5XG.N.B.f.J.,XC.N.,X(.r XX^.u.R.b.{.*X%XS.c.S 4XHXvX_ 5 ; b a a.R.|.:X*XwX(.pXcX&XwX;X;.7.C.3.N.c.g 9XR.3.W.C.Q.%XU.,.W.+X>.,.h.&...,.>.=.' m.n.,.] N *.v.c.8.).&Xa.R.R.}.{.vXkX6X_ 9 > : r.H.H.C.H.B.B.8.c b.8.H.v.v.E ` -.B.u.%.r.R.C.Y.kXF.Y.Q.B.Q C.eX=X] ..H. XZ.y.6. XY.5.@.] H B.R.H r (.gXeX!.s.,X6XSXZX0Xl : : ^.y.<.u.B.{.u.Y !.H.|.V. X",
" X4X,XV.V.vXNXbXtXlX,X X_.H.!.{.CXbXZ.4 = > 9.Y.,X!.H.H.<.M t./.u.-.&X9.).&Xa.(. X%X} Z.).3.8.G.| #.!...F U B.H.5./.!.s T r.b.3.1.b s d.|._.y.r.G.G.,X.X,XG.u.| eXJXW.c > $ r.|.y.Y.{ 5.=X^.9.E }. X|.Q.|.R.1XvX@X<.&X&X>XvXDXeX;X;X7.y./.P.#.=.z eXF.7.&X=X=X>XQ.#.3.dX|.} | F.c.Q.>XR.3.C...vXrX1XE h : = 5.W.8.3.G.B.r.c.B.H.Y.@...R.R..XF.Y.H.&X5XrXQ.;.&X=X+XiX8Xm.;XiXV 7.>XS.).>X>XU.B.).U.y.B.6.@ @X|.r.u.#.c.&XC.5.7.vXgX&XC 0 0 &Xu.H.E 8.4XXXp.p.d.r.Y.H.Y.).c.H B. XF.G.|.4X&X$.b.j.x P Y.1X&X).tX&XF.F.R.)./.6.u. X&XC.u.F } Z.M.>XXX!.^.uX<Xr rXlX1XH N ; 7 Y.x #.9.k.G v.H.C.G.! i & ~ p.9.%XM.F..X8.Y Z $.CXjXH.y.G.V.< W /.|.&XG.u.t.R. X/.(.XX,X_.r 4X&XC.G.f.}.wX%X3X X9.eXHXAX( 1 ; S u .X1XwXQ.Q.7Xm.eXDXyXiX9X7.y._.^.@.#.g 9XH.8.;X|.Q.>XoX8.M.>XC.x.M.,.[ v.W.M.' >.x.j.=.G -.Y.b.8.:.(.R.F.J./. XNXkXpXO.2 2 : i.b.=XY.V.u.F.r.c c.y.-.9.M.` ` G.R.r.5.c.H.u.(.nXJ.R.Q.F.#.C.Q.&X} | C..Xd.6.6.u.u.3.] H H u.).#.a 6./.^.Z.s. X,XCXMX*Xl : : _.Z.u.s.6.(.B.~ s.B.t.H.R.",
" X X1XC.3.tXBXlXgXvXXX X/.!./.H.SXBXc.4 - 2 c.C.H.G. X^.4.x t.H.u.V._.7.U.V.-.G.Y.V.E -.N.B.5.Y.E ` c...H F | u.J.{.!.S Q 5.b.B.6.D x u.J.^.{.B.C.H.=XF.Y.u.u.| tXHXY.m 2 $ b.%XQ.Q.3.5.1X^.#.%.}.Y.B.Z.U.c..XuX(.7.Y.wX+XwXmXrX+X+X8.B.|.@X-.@.g <XU.Y.xXJX3Xv.@.6.+.y.>XB.{ V.c.M.|.u.@.] +.kXpX;XE 0 1 = #.c.V.6.u.y...y.F.H.y.} =.c.i.B.&XV.b.).=XwX%X[ L.;X9X:XpXK.W.iXz Z.=XS.|.wXtXQ.v._.b.C.c.B.@ V.%XY.3.L u.eX).u.5.bXxX,Xc 9 1 &Xs.H.E <. X}.p.q.f.r.8. X%X&XV.Y C._.F.c.R.|.|.w.r.).Z H u.L._.R.tXeX].R.{.=Xb.5.Y.B.Z.&X} x c ^.(.m.dX6.s.&X Xq 6XnXiXu.v > >  .n | c.k.K i.u.c.Z.J i X T p.c.Y.c.6X.Xa.c n a.kXZXY.2.H.Z.@ $.{.=X6X9.<.D.J.R.u.c.Y.R.^.< 2XtXZ.H.5.F.rX|.&X(.X.dXFXmX( 1 = b 3 G..XpX7XwX7X>.Q.pXwXwX;X>.b.*X@X;.@.r #XY.W.gXMX&XM.9.v.,.Z.*Xv.>.;.L &.n.x.=.M.8.,.y.N -.F.c.-.r.Y.|.b.F.u.u.MXnXtXt.2 1 2 H.G.).H.b.B.H.F.M 8.#.-.n.] R @.}.'.F.c.r.5.6.5X>XA./.Q.R.r.b.Y.S.` Q u.=XH.#.5.7.-.Y...N J #.&X#.x u.G./.6.<.{.,XBXnX_.h $ 1 _.V.u.u.d.).b.~ #.B.f.d.6X",
"_.1X.XV.3.=XNXnXSXpX=X).XX(.H.Y.BXnXy.e : 2 C.Q.V. XH.N.s.s N._.XXR.c...9.8.3.(.Y.C.....u.^.9.u.{ 3.F.] Y J 5.B. XB.(.J D.>XH.s.Y J +./.u.R./.V.5.f./.R.c.8.9.X.wXZXC.Z 1 - 5.Y.Y.R.k.r.1X_.#.5.|.B.C.C.#.u./.R.eX^.Y.&XU.Q.OX;X%X;X8.F.eX).-.Q q fX|.U.Z.gX5Xv.y.:.8././.H.=.:.5.(./...8.Y Y bXpX).E 9 2 1 Y } u.u.%.r.#.<.r.f.r.#.} Z.R.B.F.Y.b.|.1XeX|.P j.Z.8X;X;XE.I.iXb W.tXU.Y.eXiXU.=.Q.|.C.u.H.; L.9XL.N.7.-.^.Y.=XC.bXgXP.L t 7 9.N./.B.|  X}.p.O.J.u.c.@X(.Q.N.J G.1XM.y.Y.R.Q./.B.Y.L r.C.v.U.Y.1X=X&XH.F. X/.V.V.F.8.c.R.s.a V.c.W.,XXX!. XY.w kXCXFXZ.t * ; G x 3.c.C.P =.Z.9.=.F w X Z 2.8.8.6.6X{.f.H m R.4X6Xu.@.6.B.& %..XR.=X6.<.!.|.R.;.H.(.R.^.< 2XbXN. XB.5.5X5XF.l.k.rXZXxXv 1 ; e s p.%.gXeXqXeXj.n.T.%XrX9X8.F.gX+X$.Q r fX_.U.P.9X*Xv.n.,.y.Y.Q.M.,.,...c.M.,.;.8.#.c.-.N #.8.u.y.:.a.J.;.5.c.c.MXSXlX#.< 1 6 C.H.(.F.B.R.F.V.H 8.-.-.c.=Xb.5.|.R.=Xb.6.#.B.1XjXF.;.T.|.D.c.v.M.Q ] 5.B.B.f.u.c.6X|.F.X.J B.).Y r u.f.1Xy.E }.lXHXGXY.g # 7 1XH.5.B./.H.6.#.7.u.{.V.!.",
"!.G.a.9.#./.fXkXbX6X/.|.,X X/.Y.BXkXc.e ; 1 (.&XZ.!.G./.5.x G.6X&XH.Y.8.P.Z.c.H.C.c.( =.5.Z.3.<.#.H H.-.! J t.H. Xs.^.G y.,X X=X3.w | r.-.a.Y.V.r.t.f.C.u.b.r.3.6XnX).C 1 : -..XY.F.>.V..XZ.X.b._.Y.&XV.=.N G.R.1X@X/.wXW.L.%X).%XwXj.Q.vXeX-.] < 0XeXY.9.R.tXF.j.Y.(.dX=X@.-.G.#.8.y.9.H.W b eXtX1X{ t > 1 b.5.H.3.O.-.O...t.5.b.u.| F.b.u.b.H.F./.6XeX5XR ' c.>XW.%XiXU.8X*.c.=XM.&XfXwXc.y.^.&Xr.=.5.6 j.7XC.B.G.Z.=XdX(.^.DXNXY.L 0 1 9._.6XC.9. X4Xd.t.G.u.u.^.^._.G.F Y.Y.-.#.N.,X/.|.N.Y.#.5.:.F.C.Y.eXQ.%Xb.-.G./. XJ./.L.c.f.E T N.H.,XdX{./.dXB.s bXJXSX-.j > 1 3.! X.X.c.z { Y.9.8.G d . U O.#.R.b.J.,XJ.V ] |.{.V.#.] } 5.% s XXB.c.5.6.#.B.b.R.c.H.,XZ.E tX<X<._.XX5.].v.Y.c.X.eXZXuXv 6 = x X p.B.eX1X>XvXm.,.%X%X8XpXj.).nXuX-.] < 0XrXF.c.Y.3XM.k.M.M.;XQ.,.=.M.[ =.x.c.C.@.` E } } -.8.b.Y.c.Y.wX'.B.r.#.NXBXtXQ 2 1 t Y.^.&XF.G.H.u.V.H 9.C.3.8.=XD.#.b.H.J.r.-.r.u.H.b.r.y.Q.'.J.C.v.v.@.E 6.B.G.t.y.C.kX&Xc.8.! 9.B.n b !.H.rX&X#.,XkXHXCX,Xk = 2 6XZ.u.B.B.u.#.~ G.B._.B. X",
".Xt.u.u.} H.lXdXgX&XD.^._.!./.^.BXNXu.6 ; 9 (.&XH.{.H.,X#.s !.eX<X&XdXY.|.Z.B.Z.9.W...:.C.9.{ 5.| r 9.#.| F +.y./.B.H..._.,XH./.5.s Y } r.F. XB.H.f.f.c.b.B.8.3.wXZXY.B 1 1 y./.c.c.c.c.Q.V.Y u.Q.R.).y.#.l #.G././.|.tX;XQ.).W.).+X&._.1XF.r.S.7 P.=XY.9.|.R.F.R././.6XeX#.#.H./.X.=.| 6X] F bXkXtX..t > : 5.5.F.] #.r.Q E 6.5.r.H.O.b.Y.R.1Xu.V./.=XeX>Xb.H.&XwX=X).5X=XU.=X|.b.C.=XrX&XD.u.F.=XB.8.c.4 ..&Xc.9.b.C.dX6X)._.bXbXY.l 5 1 V.N.<X=Xu.6X6X=XXX/.a.N.^.^.@XN.G Z.F.5.-.u.{.G./.8.!.6.%.r.R.c.Y.kX1X&XC.@.B.!.f.D./.F.).9.M b &X X&XsX{.{.fX5.w nXJXGX(._ 0 6 3.X.#.( Z.g j C.W...J n   $.f.9.G.F./. X).} Y G.N.^.#.#.H.6.@ i 4XXXG.Z.2.a.b.x..Xu.R. X3.! ).&X3.Z.Z.u.=XU.|.C.` ;XZXuXC ; - Z X Q f.^.Y.5XbX+XC.Q.Q.>X+X) .XeXP.r.F.4 Z.=XF.9.).R.F.Y.H.b.%X|.3.' Y.M.P ..;._.-.] -.r.:.6.V.c.r.u.V.5XT.C.b.u.bXMXpXr.9 1 6 ^.}.;XZ.F.8.X.u.` u.G.H.^.{.V.] c.r.F.H.b.| | 5X.Xv.5.U.;.b.C.C.y.@.@.-./.^.H.Z.V.4X1XV.#.E } #.T s s.y.G.c.8.&XkXKXGX|.v = 1 1X9.6.F.d.9.u.} s.f./.^./.",
"{.u.f.^.#.Y.eXgX6XM.s.s.!.!.Y.&XBXBXZ.9 # - c.Z. XXX X,X3.a H._._.|.6X).Z.u.N.-.9._.L 9.Y.N.X.y.X.e 9.6.} S } 6.H.G.8.} H.6X=X/.d.s H ~ #./. XH.G.B.H./.&XF.V.u.rXNXC.A 1 6 V.N.r.v.Y.8.Y.k.! y.U.F. X9.3.H ! ).&XH.).pXOXM.Q.).7XY.*.b.C.} 2.G.e k.Q./.N.6Xb.F.C.#.(.eXa.| #.b.c.u.u.} c.E c lXlX%XV 2 $ = @...u...2.%.H H 6.t.u.R.-.b.&XU.Y.H.c.b.B.=X.Xy.b. XgX4X).|.>X).dXwX&X|.C.&X).9.6.|.gXR.y.B.a C L.u.V.:.Y.eXeX,XB.nXfX9.9 1 6 Z.u.eX,X2.(.kX5X}.{.y.Z.G.t.Z.C.F u.R.Z.-.a.Z.Y.R.-.B.u.5.y.F.u.).6XpX%X-.5.r.Z.Z.H.6XZ.H.H.P a X.k.H.lXXXXX6XN.w bXSXBX(.H 0 5 X.3.E =.=Xr H c.(.(.! b . %.+.#.^.-.|.&XY.5.Z =X/.dX^.B.!.Z.q u !..X,X,Xd./.dX1XR.Y.|.&X7.x c.eXY.6.9.#.*X&XR.C.K >XmX%Xv > = Y < b !..XH.&XvXW.8.W.).yXQ. .n.F.| %.H.e k.|./.N.1Xv.C.M.-.Y.5Xc.8.] x.8.;.8...b.=.G #.#.L ] ..-.5.8.u.R.y.B.5.u.kXMXdXy.9 7 6 J./.&Xb.b.#...5.E #.V.B.9.|.D.2.c.b.C.G.5.O.r.D..XJ.5.R.y.C.r.c.b.} O.8.^.G.G.c.C.Y..X|.6.Y | N F s 9.u.M.Z.F.|.pXGXHX=XC $ >  X9.5.B.Z.!.u.t.8.!. X8.J.",
" Xu.5.r.2.B.eXbX5X(.Z.Z.B.(.G. XBXnXV.t ; 1 Z.H.XX!.,X,X6.w .XlX/.C.].Y.(.W.-.3.W.N.G x.c.N.X.X.<.r O.<.E M | %.C./.R.} r. XR.).H.b ^ s.2.H.,X/.H.f.J.,X,X3.t.B.kXbX9.c 6 1 b.s.u.F.C.8.Y.-.} #.b.Y.=Xy.u.Y.! f.4X_.v.+X).8.uX).).OXk.Z B.! %.@.< 7.=X/.5.).y.B.J.a.s./...2.Z.>Xy.R.r.{ X.9.N pXgXR.H 2 : > 8.R.H.u.Z.6.| P 6.t.R.).M.y.1XY.&Xu.5.^.u.R.{.@.#.Y.5X>Xb.R.6XgXkXNXtX=X).|.1Xu.c.|.tX&Xy.:.-.P =.c.+X6X&X:.6XdX,XZXpX..e 1 1 u.s.,X Xt.^.BXfX/./.3.V._.t.(.(.s t.G.c.6.3.C.G./.} b.C.-.<.u.u.C.6XvX|.b.6.V.s.!.G. X^.^.9.P H 5.k.Z.XX!.<X,XV.& SXPXMX=.v 7 5 N.L Y 7.C.r Z #.V.^.J d . d O.u.d.u.(.&X(.! a tX5Xb.^.!.f.(.^ F H.1X(. Xf.XXbXeX3.5.|.wX*.w #.eX(.s.| #.].W.U.Z.N 4XpX_.c 6 ; 6.c.F 2.4X.Xi.:X+X-.uX).%X+Xj.C B.` 2.@.4 7.=X^.9.).y.b.F.t.u.|.@.-.u.).;.C.c...3.c.H E } m ..| 8.C.r.Y.R.F.R.u.u.vXMXfXH.9 2 > c./.R.F.u.u.5.5.} R B.u.8.S.O.u.B.R.).C.] #.B.a.=XS.@.F.y.8.u.c.B.#.-.u.F.B.H.6.C.,X|.{.u.%.2.! S s u.:.F.=XR.Y.vXPXGX|.B = 1 ,Xu.| u.G.R.V.#.N.Z.G.! F.",
").B.5.t.6.!.,XbXtX X^.XX| B.!..XBXNXc.k : 1 Z.c.,X(.{.<Xs.r B.,X(.,XvX<X&X(.9.6.P.N.x 8.C.9.| P ^ e Y ^ ~ ~ B.y.G.&X X#.F.}.F.B.!.F <.<.} 5./.|.{.B.,XlX5XZ.F.^.BXkX#.p , 9 Z.b.y.Y.m.,.y.} Y #.-.H. Xu...}.} Y .X1XZ.Y.Q.U.>X).6Xm.*.Z C.Q.-.@.i l. XH././.v.u.D.%...#./.u.u.fXF.a.#.-.Z.B.@.gXkX).` j 0 6 :.b.i.5.V.F.(.<.5.r./.u.F.M.Q._.eX4X#.Y.|./.D.5.V.F.eX.Xa.$.tXpXkXmXR.y.F.=X;XY./.F.5X>X-.y.m N @X9XeXU.-.C.eXfXtXNXnX5.t - - Y B.1XJ.t./.>X1X,X&X3.B./.N.!.B.s 1.u.v.8.#.H. X).:.B.F.u.<.y.B.Y.,XgX6XH.C. X} 6.J.XX/.XXX.X.P | c.9.,X!._.,X!.w bXJXMX(.' h 9 (.<.X.k.Z.q n Z.M.N.D i + i F ^ !.5X).>X|.#.3 tX1XV.J.B.u.XXG s D.=X.X}.D.lXnXrX).Y.1X1Xv q ~ ,X|.Z.| | F.v.U.%.n 6XtXb.m 8 - Y {.E d }.wXM.T.Q.Z.>X|.yXV.*.A F.Q.<.@.s l. X!./.R.b.y.M.%.} 3.R.u.8.wXM.u.5.8.B.C.$.` %.Z ..V.&XR.#.B.H.b.B.H.{.nXnXgX@.7 h 7 |.Y.R.F.u.V.G.B.%.| c.V.F.u.F #./.F.H.H.@.y.b.Y.CXZXu.U.R.M.c.B.c...#.a.F.V.B.G.B. XY./.c.a.+.u.<.s ~ 6.,X=X&XY.iXBXSXpXR $ : (.1.E f.V.H.B.#.Z.^.H.#.Y.",
",X X!.6.u.H.tXpXdX6X}./.d.Z.H.,XNXSXY.z # 1 H.9.XXC.XXXX<.u t.}.>X=XxXxX&X,XY.V.C./.K ` Z.V.3.~ E u H t.2.B.6XY.G.1X XE ,X,Xu.G./.P #.6.~ 5.R./.G.u.{.nXeX;X1XY.vXbX-.8 > 7 &Xc.C./.M.v ;.#.x } 5.H.Y.8.F r.Z.~ p..Xv.:X0XY.Q.c.Y.m. .K i.M.C.%.r 7.<XB./.F.y.-.F.v.Y 3.Z.y./.tX|.r.+.5.c.u.H gXBX|.8.h > : #.%.} +.} ] 5.| 5.t.C.r.#.$.y.C..XhX3.c.6XY.|.a./.).tX,Xb.Y.gX5XkX=XT.c.H.|.|.|..XB.wXrXy.8.V z xX9X1XH.3.(.fX,XfXZXeX5.9 = # ^ Z.XX..H Z.vXNXkXC.} B.B.^.^.b.n 4.Z.8.6.} Y.&X.X] G._.H.G.6.d.H.eX4XeX1X.X Xu.Z.^.6XV.,Xk.#.S V.c.8.<XG.XXXX6.w bXFXMX).' h 8 @XH.V.C.H.b x c.C.H.n i i d +.r.4XJXdX1X).3.e 4X6X#.B.G.H./.} s t.R.J.D.r..XVXtXtXkX1X^.P r Q /.5X_.#.i.R.n.C ] E =XwXb.m 1 - x O.G.T f.1Xj.*X9XW.Q.c.).n.` K i.M.B.-.r 7.,XB./.F.,.:.B.i.E 3.C.b.R.1XR.-.#.y.b.y.E } F.Y c.Z.B.b.@.6.y.6.5.r.Z.kXbXeX-.6 6 ; C.C.=X|.y.F./.C...#.W.R.Y.|.5.6.y.H.-.@.-.v.b.y.tXSXF.|.F.F.b.c.v.E } 3.F.B.H.V.B.,X X,XH.s.#.s.6.F 6.y.C.|.R.u.R.vXbX5XL # % _.#.J d.H.b.N.#.^.|.).Y G.",
"eX X!.1.t.G.lXfXvX1X).R.&X XY.5XSXBXtXx O 1 9.c./.!.<X<Xs.r /.6X=X6XtX<X7.).&Xc.Z.Y.G | &XZ.-.J s e H +.#.r.dX1Xc./.s.Y }.6X6.5.d.F Y <.M {.R.b.G.2.G.kXvXtX>X/.NXvX-.9 > 2 ^.u.F.T.(.` #.a.j 5.5.J.|.u.Z W 6.s r.1Xc.>XrXL.L.8.U.n.-.; :.).W.Z.u G  X).B..XC...y.u.E Z.eX XXX|.a.f.y.R.8.@.u.gXMX).Z.g > ; @.O.-.t.-.E 2.H V.:.C./.b.H.C.6XfXy...c.1XC.5X/.C. XH.G.#.c.fX>X1XR.Y.c.b.R.Y.Y.=Xt.wX(...8.#.4 8.&X^.^.s.V.fX XeXZXeX:.N < - } u.D...Y <.fXbX=XR.O.-.G.B.=X/.F 5. Xu.H...^.tX.Xc U.>X/.D.1.t.D.kX6XdX=XR.R.,X XY.eXH./.1X3.x B.<.k. X!.<X,XZ.e NXJXBX.XL f ; ^.&Xc.B.B.g D &X^.8.F + 3 d U +.J.nXGX/.F.P M XX4X} ~ 6.t.1.b 3 !.Y.5.B.| J.lXVXMXkX=X(.! b W b.(.Q.#.D.).@X[ ` 6.=XpXc.N 6 : M n 5.w r.4Xx.>XrXL.L.8.W.n.>.# :.).^.F.e K |._.B. XC.@.u.u.Y Z.1X.X XR.y.r.y.(.9.=.y...C.H W.c.c.y.=.6.b.a.r.%.B.nXMXrXZ.j 1 ; 3.N.1X Xi.{./.Y.8.9.W.%X=X6Xb.-.b.D.b.-.r.R.b.b.R.v.b.|.F.F.b.5.c.E R u.C.G.H.G.V.5X|.=X|.u.{ +.d.T !.Z.@.|.G.O.|.MXnX5XI = $ ,XZ.~ i._.c.R.-./.tX/.j R.",
"lXXX^.Z.1.G.XXCXnX(.).5X=X1X,X>XFXSX(.l O = Z.^.,X!.(.<Xk.< G.XXY.1X+XY.#.5.H.(.b.Y.G { _.C.3.! S w Y +.] r.B..X8.u.8.b {.1XN.s.6.S | <.Y 1X/.G.Z.#.p.2XrX4X>X/.vXbX5.6 > 7 =Xr.J.|.L.=.%.-.j %.#./.&XN.H E O.u G.pXQ.|.vXL.j.c.M.E.j.; M pX&X8.< g Y.C.5.,X:.c.R.B.6.,XKX,X4X,Xu.y.5.c.8.F.-.MXFX).c.9 2 ; :.u.3.y.%.....H B.y.}.,XC.R.1XpX,XF.#.c.=XH.|.R.M.(.r.B.5.u.5XwXR.,.i.y.8.H.b.c.1Xu.G./.U.gXc.e  .N.Z.N.~ 9.lXlXlXBXiX9.H 1 6 6.f.(.u.u.<.,XkX5Xb.E } f.X./.G.u 6._.R.|.C. X1X).m (.dX}.Z.!.t.G..XNXvXY.).wX1X6X1X1X&X XH.5.a | V.^.<X!.H.6XN., NXFXkX).v 5 = #.C.(.9.^.r r _.C.8.! i & F U W p.-.,Xa.@.P 3 J.XX#.! ^ ^ <.! e ,XU.b.V.| D.rX4XjXbX1XN.X.n x D.5X&X#.R.:XW.8.@.| ;XpXr.L 8 > G U O.3 p.dX(.Q.xXL.8.c.C.U.j.; m pX;X9.3 g Y.F.5.,X:.b.Y.b.8.,XJX5X,X.Xi.6.:.c.8.C.-.C.%XG Z.:.Z.9.:.y.c.V.:.-.u.lXnXwXH.p 2 > -.c.,XF.B.F.V.Y.C.:.C.C.Q.>Xb.-.f.u.R.F.a./.A.i.F.,.v.J.].F.F.R.b.Y N u.Y.B.B.H.D.&X|.,XR.#.| #.s.D V.Z.B.F.B.#.R.kXkXkXA $ $ H.u.J d.(.G.{.F. X5X^.l |.",
" X/.XXdXt.G.t.lXPXdX<X%XG.&X|.=XSXHX^.8 O = V.6XXX!.,XdXN.u u.&X).fX=XW.:.-.c.1XZ.N.K } Y.Y.5.X.| < d t.1.5.5.a.D.B.c.S !.rX{.d.t.T 1.! Y kXR.C.=XV.f..XJ..X>XH.bXxX3.9 1 7 Y.-.y.R.W.;.a.F.k } y.|.Y.8.` Y Y 4 G.iX*XQ.zX@XC.Y.Z.K.7.7 p hX3Xv.3 b &XW.F.,XC.).1XJ.u.tXFXH.=XtXJ.r.-.#.-.).c.bXFX/.| 8 ; = ] R.#...6.3.b.H Y.Y.,X.XB.8.1XtXc.Z.b.8.3X|.H.Y.Y.%XH.V.B.6.Q.5XR.F.c.;.#.Y.=Xb.R.F.r.=X(.eXC.r X.8.,XXX!.V.dX,X6XFXvX^.x 1 9 !.t.6XH.#.2. X6X=X} #.#.Z.^.<XH.a <.H.H.b.c.6X6XeXc R.)./.XXfXf.G.t.lXJXeX<X%XF.=X|.1X|.dXV.J s Q N.1X,X!.,XfXC.t bXGXbX9XB 5 = *.u.eXV.s.b S H.V.7.<.F & i 1.d.u...t./.a.u.z {.hXJ.| ^ 1.d.b i lXY.u.,XZ.G..XF.=XpX/.b.! b Y ^.&XF.| i.Q.+X8.y.V.1XwXF.L 2 - { P Y % G.pX_.Q.xX+Xm.Y.L.M.7.5 u hX3Xx.3 v &XY.U.,XB./.>XF.u.eXFXT.&X6XG.r.#.@.-.(.c.y.&XS 3.:.8.-.} R.8.#.r.8.F.vXnXpXC.p 6 1 :.9.1X&XY.F.Y.Y.u.#.c.C.b.U.b.b.b.G.F.F.y.R.F.B.Q.F.C.b.H.J.R.F.c.H N 7./.G.B.J.B.).rX|.8.} Q 6.s.D s.N.D./.D.<./.vXbX1X_ $ $ J.C.J 6.H.b.b.V.1X1X1Xc R.",
",X^.<XNX!.!.2X4XJXfX@X).|.Y.|.1XSXCX|.j * 1 ^._.^. X6X1XV.z &XtX1XgX1XZ.8.8.=._.u.N.#.b ,X).3.! J 3 i t.d.5.} B.B.H.Z.x {.4XR.2.Y J f.<.n 4X=X^.,X^.f.{.|.tX_.Y.BXtX3.e : 1 a.6.F.&X;Xc.Q V.K 5.6.C.,XV.X.N O.4 y.+X).;XyXl.-.1XZ.h.` w , 3XAX/.w b ).Y.C.y.} b.1X|.Z.=X>XC.{.,XB.} E C.3.-.x.MXvXF.9.p = = ` C.|.-.] b.R.Y b.r.C.5XR.;.=XT.c.,X&Xc.=XY.}.F.Z.|.V. XR.@.u.R.C./.F.5.~ .XrX).y.:.F.J.F.n.b.4 3.(._.^.eXc.=XeX,XGXBXZ.C 7 > f.5.,XtXf.<.B. X).C...} u.H.,XB.s | d.b.3.H C.Y.tXp |.,X!.,XNX!.!.XX5XJXfX_.|.|.T.|.6X)..XG.5.J C.(.&X^.XX4X6XZ.r GXLXSXeXC 6 - -.*. X6.y.X.e  X(.<.P d + w 1.G.7.V f.J././.z .X6XH.E M T !.K 3 XX&XH.,X{.p.}.|.kX X XR.G F ^ a.G.r.#.b.&X;XV.E u.tXgXC.m 8 > *.x } , i.|.Q.:X9Xk.-.9XZ.h. .7 , 3XAX(.w b (.Y.B.y.} V.1X}.C.=X=XC./.>Xb.{ E F.8.;.x.b.$.a H.D.] @.] V.).#...b.).kXnXeXC.l 1 1  XC.R..XH.).).R.X.G c.=X8.y.F.B.#.y.H.Y.b.B.C.Y.|.F.b.F.R.S.R.u.y.F H B.a.B.B.^.u.R.|.|.B.%.] b.6.{ -.N.5./.b.B.:.vXFX4XA = $ B.a.Y #.N.y.u.E V.Y.eXp |.",
"dX4XlXdXG.Z.dXdXMX<X X(.Y.Z./.Z.FXGX Xx # 8 6.R.,X,X,X;X6.a ).gX<XtX_.&XP.).Z.N.{ B.3.w 7.C.Z.P J + r d.u.N.5.D.y. XdXz F.}.B.<.~ F !.6.S G.kX1X=Xf.B.4X2XpX>X_.BXpX<.7 = ; F._.Y.1X(.8.Z H.u.V.u.Y.,X&Xl.N } e i.R.uX*XrXL...L.j.k.} l l  XBX^.M q c.c.$.5.#.-.D.a.{ 1XrXB.B./.|.E /.Y.|.@.:.MXnXR.b 9 > : #.y.c.| #.O.r.E } Q C.rX{.b.b.C.V.1X1X#.R.c.&XH.#./.B.&XH.y.u.J.u.).J.#.} _.pXU.#.i.F.Y.H.M./.r { Z.C.Z.^.9.>XgX XBXvXc.b 5 : Y 6.,X6X/.s.R.>X.X;.5.] 3.u.Y.6.s J #.Y.5.N 6.(._.a %XdX1XlXdXZ.G.tXkXbX<X&X).H.Z./.F.,X1X/.s.F ^.6.^.<X,X,X;X9.u CXPXBX1Xv 8 1 (.Y.c.) B.X.& 3.b.Y.P S . w d.D.u.{ f.B.6XNXa b.=XV.| J T {.<.r f.lX5X,XB.f.4X1XgX1X&XY.E D F #.#.C._.H.wXQ.y.V D.bXbXZ.C 0 8 V.b Q 4 i.Y.uX*XwXL...L.j.x.[ x n |.ZX^.M q u.c.@.8.#.;.D.u.} ,X4XC.B./.|.` ^.Y.).@.3.B.c.F Y 8.u.c.#.y.b.X.:.@.r.gXgX>XT.m > 1 ).b. X&XR.F.F.C.V.k *.1XF.B.Q.Q.] 3.c.C.=.| -.N.R.b.-.u.Y.F.R.C.F.N b C.Z.B.d..Xr. X,X,X&X%.+.b.C.3.N.5.W r.H.C.c.BXGXeXH = $ u.6.S } 6.B.5.Y 9.^.).p |.",
"Y.s.eXkXV. XCXCXdXdXeX X&X_.=X9.nXNXF.x # , 8.Y.(.,X_.)...x u.6X1XY.Y.;Xc.;X&Xu.P Y.9.< 9.,X(.V D X r d.D.F.#.G.H.4X&Xs H.D.X.E J Y y.6.F f.NX,X&Xu.G.XX>XvXvX).MXgX3.e 1 > G.^.R.U.C.u.G u.c.Z.5.R.).).(.` <.a i.gXzXQ.pX+X .1Xc.n.....k F.1XC.F < ..b.y.B.-.y.r.#.} u..X5.B.H.H.3.eXG.pX,.H.MXmX%Xx 7 ; = ..H.{ M @.R Z x #.B.B.=X|.B.c.R.).R.^.X.).G.H. X#.Z./.=X2Xb.B.R.C.F.b.c.5.^.5XF.6.a./.).H.6X=Xu L ^.,X/. Xu.>X1X,XbXfX=.r 6 > <.G.gXF.t.D.=X>XY.8.-...Z.Z.c.9.r ! ^.,Xu.H ^.<XW.x ).J.B.6XlXV. XCXZXdXfXfX X_.&X&Xk.N.!.y.s.E f.7.Y.(.,X_.). .x bXJXBXk.j 8 ; =X&Xl.J Z.9.@ 7.&X_.G S . w d.G.B.| G./.fX&Xa G.F.{ G F ~ p.5.s t.NXXX.X6.G.1X>XmXmX%XZ.X.S J B.N.Z.H.R.Y.C.u.Z i.bXMXC.C 6 7 (.! #.a i.vXpXQ.zX+X..1Xc.m...} l F.1XC.F < ..b.y.C.-.y.t.$...y.&X5.B.H.G.5.eXF.tX8.Y.c.c.P G -.u.....H...H $.] U wXkXpXR.h 2 1 B.8.B.,X).c.|...y.W ( @Xb.v.T.b.! y.u.H.3.X.-.N./.F.r.a.R.Y.R.R.).n j V.^.J.Z.C.u.dX=XH.R.5.#.D.D.V.5.R Y F..XY.B.CXHXeXR - O Y.t.b #.!./.u.} (.<XY.c /.",
",XG.B.eXH.R.bXKXnXdXNXFX6X4X6Xm.gXeX/.c O 1 V.U./.J.!.4X! z /.lX<X=XAXc.k.eX/.V.b 5.N.e V.Y.X.P D + w T 5.J.5.t./.nXNXS Y.1X(.X.#.R..XN.S H.tXeX.X#.D.rX5XgXAX<XbXgX..z 0 0 .X_.=XM.Y.Y.N H a.).8.F.U.a.u.X.{ z n hXwXU.rX-Xj.Q.>.7.Z...: J.>XZ.} < 8.r.-.:.a.R.5.2.y.Z.eXr.u.B.G.%.^.R.wX#.b.gXgX&Xb 8 ; ; @.b.i.E b.@.} N @.%.r.).&XT.;X|.u.u...(.B.c.9.Z.8.y.=XtX}.w.#./.b.H.r.8.F.R.2XF.u.r.R.{.F.5XR.w L _.=Xu.{.u./.1XC.NXgX9.0 ; 1 s.H.gXZ.H.D.Q. X).).3.X.9.H./.<.q ^ G.6XH.J /.1XN.G D.,XG.V.rXY.!.nXKXnXdXNXGXfX6X5Xc.| E D.B.n Z.V.U./.G./.6X{ z CXPXBXR.' > : tXW.C.x 5.N.q u.R.=.P d . w Y t.!.2.r..XCXMXb R.6X^.{ #..X<XN.s G.tXeX&X..G.rX6XvXFX>Xc.| z 6.6X6X,X_.>XC.Y.).n V bXSXC.B 2 > y.X.` r n hXrXU.wX%Xn.W.3.7.Z...: J.;XZ.O.< 8.y.-.:.a.R.6.%.y.Z.eXr.u.B.H.%.R.^.4X=.C.@.3.E J ,.y.y...b.i.} b.:.-.eXvXeXy.p 2 1 &X5...|./.Y.gXF.b.@.V eX&X&X*XR.` 8.F.F.y.8.9.F.R.R.b.b.Y.R.H.|./.n x Y.R.D.B.f.y.kX/.J.|.r.| H.u.6.-.a.R R.=XF.r.BXJXtXB = = F.u.s 5.H..XH.} _.6Xu.F F.",
"fX{.u.=X5.B.lXFXGXgXGXNX,XXX X^.SXlX/.e O 1 c.5.).G././.| a b.eX,X(.xX7...gXZ.9.S <.^.w 8.C.P.5.J . u 6.f.a.#.+.D.4XSXP u./.N.-.| ,X X#.F ! F.,X|.-.'.CXgXxXvXeXnXgXJ m 0 0 R.V.).R.Z.Y...M J.V.X.c.M.F. XZ.P z 9 4XgXF.>X>XW.K.c.W.V. .3 [.=X^.$.; ..-.-.c.N.5.-.,XG._.=X/.R.u.c.#.y.^.b.-.u.MXbX}...h 2 9 ..%.B.8.,.y.8...^.+.-.,X}.}.*X5X+.y.| u.<.#.%.^.c.9. X>XR.y.%.F.F.R.C.r.} V.|.Y.F.(.6.^.).%X^.t a Y.N.6./.6.c.gX;XGXbXc.r 1 1 5.u.fXB.#.-.U.F./.Y.u.E P b.&X6.w Y s./.3.Y s.^.-.J |.fX{.u.=X5.B.lXSXGXkXGXNX,XXX.X/.(.6.!.! s H.b.5.).G.!./.{ i nXKXBXV.( ; ; gXZ.9.v #.^.4 6.C.Y.3.D   w 6.Z.p.| O.!.rXGXJ u.(.l.| ! 6X&XX.S Y D.,X(.#.R.ZXkXvXvXuXc.| 3 D.6X1XR.N.).Y.H.Y...M ZXbXu.l > 1 |.Z.P b 3 6XlXU.>X>XL.C.c.W.m. .3 '.=XY.%.% ..-.-.b.B.5.#.,XG._.=X/.R.u.c.#.r.^.b.#.y.c.c.H 8.C.Y.=X..-.D.y.,.v.u.vXCX5X@.l 1 6 _.u.5.B.Y./.1Xb.y.@.V eX_.%XR.#.u.r.H.U.F.@...V.{.b.U.H.r./.Q.R.H.b t C.H.u.u.r.6./.(.G.G.<.} %.#.;.} u.W y.J.$.C.BXBX&Xn = - c.5.x <.V.H.5.} u./.3.Y {.",
"vX&X,XY.D.{.nXJXMXbXtX5X/.dX5X/.NXCXZ.< O > 9.C.G.6XG.R.J w B.bX=XZ.).fXC.).@XZ.b Z.Z.% Y R.C.8.<.. , t.G.G.X.B.D.NXKX5.1. XV.X.J {.Z.6.! n 4X=X.XC.H.rXMXMXwX9XgXdXL m 6 1 ..5.B.3XF.(.K a b.>.3.^.&XC.rX1X} P 3 J.|.U.3X9XL.x.C.L.' >.l .X4X,X#.; Y.Z.5.b...R #.Y.y.N.6Xc.).b.#.N.B.5.-.| u.nXZX=Xb 0 > > ` @.v.#.v.y.L n 5.] } ,XtXb.y.R.C.^...} X.u.3.N.u.3.^.|.T.y...b.R.F.R.F.R -.,X%Xb.).r.B.&X|.D.i e C.B.#.Y.7.c.NXkXHXBXC.a : 1 6.6.|.r.} ` U.c.=X^.@.J Y V.F.<.s | N.u.....G.).C.| /.lX&X,XY.D.|.nXHXMXbXdX1X{.6X,X/.s.XX6.M S s.u.c.H.4XJ.R.D w NXPXMXy.l g ; ). XZ.b G.Z.@ L /.C.6.<.. ; t.G.G.} a.D.CXPX5.2..XB.| F .XY.6.P z 5X=X.XV.G.tXZXZXwXeX..! w B.Y.Y...5.V.>XC.W.K a MXgXV.C 8 1 uX1X} P , `.|.U.qX9XL.x.C.L.' 7.k 2X5X,X#.; Y.Z.8.u...R #.^.u.V.6Xc.|.b.#.b.V.5.-.| y.B.R.O.R r.c.V.} @.b.#.b.c.[ jXbX=X] l 7 1 :.c.H.u.(._.(.F.b.] c ,XU.C.;Xb.u.5.R.R.3.-.#.u./.).F.F.y.C._.].F.M e c.H.8.V.J.y.H.^.{.G.| #.#.r.u.} 3.Q H.F.b.N.CXZXR.a ; : r.<.F 2.B.y.#.2.H.(.V.{ /.",
"lX XdX1X/./.5XSXBXdX1XdX,XdXrX}.MXNXy.4 ; 1 :.c.C.}.!.,X^ s  XvXW.(.+XeXY.pX X7.P G V.4 P ;XH.8.6.@ : t.t.!.D.{.{.}.gX} f..XH.<.~ ,XC.5.7.r .X6X/.V.B.|.bXrX=XY.gXgXL n 6 2 b.N.2.Q.3X;XP 7 a.C.b.R.&XH.;XQ.` c.2 t.=XQ.).uXj.` G.Y.j.7., Z '.5X%.4 &XH.u.b.v.%.@.H.,X,XbX>X=X/.8.u.G.(.N.X.-.nXAX=X9 h > ; -.Z.|.@.b.C.-.n W } -.5XtXb.@.C./.u.+.| { u.y.^.B.6.u./.|.{.u.V.F.J./.y.#.3.,XF.C.H.@.V.=XY.B.x r Z.C.6.,Xc.C.1X6XFXSXC.a 1 1 !.#.|.5.2.6.B.Y.6X/.5.F ~ /.u.<.r ! <.|.=X! G.,X#.| H.lX XdX1XR./.6XCXBXpX1XdX<XdXrX}.N.Z.| F <.V.-.c.C.}.!.,X^ s GXKXgXC.l 0 6 fX&X7.J G V.< P =XU.8.1.+ % u.t.!.B.}. X XgX..a.}.G.<.! ,XZ.5.3.w }.wX).V.B.}.vXtX;XW.| <.w b./.Y.c.N.2.'.4X>XK 9 bXbXY.Z 8 2 =X(.` c.6 i.=XQ.].pXj.` G.Y.j.7.2 M '.>X%.4 =XF.c.b.i.-.@.Y.,X XlX>X=XR.9.u.H./.V.X.#.V.R.@.p Z.C.;.-.C.].@.C.B.3.tXgX=X] c 6 ; -.3.c. XY.Y.y.Q.Y.y.Z ;Xc.b.&X(.y.../.|.Y.B...5./._.Q.b.-.V. XF.C.F 4 u.Y.r.!.H.B.!. XY.R.5.<.s.B.u.@.u.5.R.5.F.B.NXMX|.p : - 3.<.s #.#.Y..X..H.=X-.| /.",
"6X6XXXY.-.b.6XnXBX>X6XkX4X_.{.!.vXdX^., ; 6 c.b.F./.G.(.D ^ 4X=X1X).4XgX>XHX=XP.-.H C.r J @XC.R.!.r o a.t.XXXX}.XX!.#.~ T a.G.~ T .X{.| B.4 |.eX6X,X| B.=X5XpXC.bXbXG e t 6 Y.c.2.#.|.1X .< y.x.F./.&X&XiXY.-..X9 r.hX3XwXiXj.-.5.v.m.c.r 3 4XrX:., W.(.C.5.R.G.b.G.&XH.,X&XF.J.Z.!.{.R.#.c.8.vXbX6Xx 6 6 6 =.Y.&X;.r.R.b.H @.@.H.1X4XF.u./.H.R.i.H V ^.Z.,XZ.3.9.@XtX}.8.F.Y.R.5Xb.#.u.>X'.R.Z.-.B.Y.C.b.M r |.6X9.k.8.t.4XgXKXHXc.9 1 7 G.#.,X9.| +.| /.dX Xy.! <.XXu.s.b <.4.=XkX@.D.Y.} E 9.6X4XXXY.-.B.6XnXBX1X6XkX4X_.{./.3.| s.b 1.XXc.b.F.^.G.(.D ^ GXFXMXZ.C f 8 KX;XZ.4.G C.e G _.C.R.J.0 X f.t.XXXXXXXX{.+.| T a.D.^ W .X/.O.u.< .X6X,X,X..D.=X4XkXC.u.f.< ~ 6X_.Y.s.1.$.*X1X .< bXvX).A 8 8 gXP.:. Xe r.tX3XrXuXj.-.y.v.m.N.r 3 hX4X-., L.).F.5.R.F.b.F..XH.1X|.J.H.C.!./.R.#.b.5.-.u.6.V #.(.Q.=.Y.&X,.c.R.b.tXkX>Xu.k 2 2 D.8.y.^._.b.u.&X|.v.a ).M.:.y.8.#.-.R./. Xu.#.u.Y.R.}.F.6.F.Y.F.B.Z 3 N.G.6.G.R.5.J.,X^.Y.3.| u.B.5.} B.:.D.i.^.V.MXZX=Xa : 1 N.6.D <.6.{.pX$.B.Y.} ! u.",
"XX{.,Xu.] 6.6XFXNXeXfX6X_.D./.G.NXvXV.< : 1 c.Y.1X X<.3.s d 6XZXF.b.1X6X=XSXeXfX8.#./.b r Z.b.C.<., . a.D.XXG.t..X{.G.J Q O.!.6.~ A.5X2.| % }.1X1X_.-.B.=X.XR.} nXBXH 2 p 6 6XN.| #.y.|.c.z b.:.F.F.R.jX%Xj.8.Y.z w.5XhXMXpXC.8.1X).' c.L % }.Y.O.% ` F.|.R.>Xy.u.C.C.#.R.F.b.u.V.C.^.Y.y./.5.kXgX&XG 7 0 h Y.T.tXF.8./.|.r.H #./.=X4XJ.E ).b.b.i.#.L u.F.Y.c.| u.,X6X|.5.|.pX=X.XB...u.>XpXF.V.V.c.H.Y.|.Z 4 R.<Xu.G.u.5.6XdXKXGX6.4 : 7 B.+. XG.} | ~ a.=XfX#.X.3.G.B.d.s ! s.5XvX5.b.H.-.J s.XX/.,Xu.] 6.6XFXNXwXfX6X_.D.J.G.F.s.4.S <.H.c.Y.1X X+.5.s S JXIXyX-.Z 0 8 ZXeXfX7.#.(.b r Z.V.C.#.- . a.G. XD.t..X}.D.F W O.!.1.} D.6X%.| % .X3X1X).5.B..X=XR.] u.!.q M kX&X1XN.+.#.y.&Xl.z nXxX).B 6 h +Xm.8.Y.x %.rXtXmXuXC.5.,XQ.' c.P $ }.Y.O.%  .H.|.R.=Xi.u.B.C.#.R.F.b.u.V.C.^.R.u.R.:.@.| E { <.1XmXR.T.rXF.r.).|.nXpX1Xb.h 6 6 u.r.-.C.|.8.R.Y._.Y.7 c.).r.c.8.} :./.C.b.#.} V.Q.=XR.V.C.C.Y.Y.R.Z 3 N.H.s.B.^.5.B.,X{.|.X.| 6.G.3.T C.%.u.5.H.Z.CXFXG.k 1 , D.s.s ^ N.&XkX8.c.H.#.J u.",
"dXp.!. X9.u.6XGXMXfXeX X!._._.!.SXMXZ.4 - 1 9.W.1X{.G.d.d J {.nXV.#.=XgXY.GXBXuX3.#._.P w c.b.Y.s.&   O.d.`.a.t.{.{.Z.Y %.%.1.Y T G.H.E E s 2X1X9.Y.i.%.u.t.y.Y.BXNXP 7 7 1 ).V.! <.N.&X<Xg r...:.B.b.MXuXW.9.6.b U .XkXxX7Xj.H.(.&X).H. .# `.wX$.& ( V.%.r.F.:.-.` F.R.F.u.:.H..X|.G.5.} Y.y.pXvX,XG 7 7 l zXrXtXv.9.R.R.5.} 8.y.B.|.&X@.eX^.D.F.5.P X.u.G.r.H V.&X5X/.u.(.bX5X5X6XB.C.c.NXD.8.-.Y.U.M.b.M q V.H.6.Z.s.2.|.rXHXFXB.e 1 ; Z.X.B.t.E X.4./.dX=X#.#.} %.Y.N.S J s.=XF.] -.,XdX~ &XdXf.!.&X9.u.6XHXMXfXeX X!._._.!.Y.D.6.J | F.8.W.1X{.!.d.d F FXKXtXE B p 2 GXMXiX5.#.|.P e u.M.Y.f.%   } p.!.u.t.{./.B.! $.%.%.Y Y G.G.! ! s 2X1Xy.Y.r.-.u.r.y.Y.Y.G.r F  XZ.).C.{ +.c.=X<Xg vXpXb.c > h uXW.y.6.b Z =XkXmX7Xj.F.(.&XQ.H.X.+ `.rX$.% ` C.#.y.G.:.-.` F.R.F.u.:.H..X XG.5.} U.y.] 8.#.{ -.+XAXzXtXrXv.y.Y.'.bXgX1X%.p 2 9 y.R.8.B.|.#.V.u.8.e.a C.8.F.c.n.` ] 8.B.B.c.u.H.V.6X|.u.8.U.U.b.V.Z , c.Z.u.B. X5.F.5X|.|...} B. Xu.} %.| 5.5.D.T.SXMXb.j : : R.Z.b ^ N.|.U.} 5.1XtX~  X",
"{.}.,X X9.C.nXJXSXNXgXXXXXXX/.H.FXNXG.7 , 1 ;.C.u.^.,XG.J Y XXrX3.O.|.tX=XbXmXwX{ { 1Xx r c.9.&X/.a   Z t.H.u.r.J.5XB.H ~ u.d.F ^ p.^.<.2.3 {.tX8.R..X| #.#.Y.^.lXkXP 3 0 1 C.9._.Z.} V.xX< -.#.c./.b.gX9Xm.8.C.K n ].HXzX+X-.F.Y.n.m.3.3.+ O.nXA., ( R.} } V.;.E y.F.J.F.5X5.a.,X{./.J.a.5.y.vXvX5Xc 2 6 l pX+Xe.o.b.U.D.U H b.B.b..X4X-.b.B.J./.X.E 6.u.Y.-.| s./.4XR.-.W.gX5X{.{.(._.-.,X/.,Xc.c.+XC.{ M 4 V.Y.{ t.D.~ B.dXHXBXB.p 7 < s.<.6.^ Y | s. X4X{.+.N Y b.M.B.s ^ d.1XS.#.2.|.u.Y Y.}.{.,X X7.G.nXHXSXNXgXXXXXXX/.!.,XH.u.P d.(.:.C.y./.XXZ.J J GXKX1XH m 0 8 bXMX9X{ { ,Xx r V.8.&X_.r   U t.G.u.t.J.6XB.F ~ t.d.F ~ f.^.<.+.3 /.tX9./..X+.#.#.Y.^.6.6.r W ,XF.H.6._.Z.} b.xX< lXpXU.L > t 1Xm.8.F.P n Q.HXzX@X>.F.Y.M.m.3.7.o O.nXb., ( Y.} O.V.#.E y.F.J.H.1Xy.u.,X{.^.J.a.5.u.5.5.6.J ] +XSXzX|.i.o.c.R.F.tXpXrX#.9 2 6 c.y.-.u.Y.y.@.` 8.:.j C.c.:.u.b.` ] Y.{.r.b.B.^.8. X1X(.c.M._.C.#.J , Z.!.5.d.D.3.F.6X/.B.#.<.G.R.^.~ ~ } ..%.i.N.SXZXR.p = 1 !.f.s <.Z.,XS.#.2._.y.J ^.",
"{..XeXH.%.B.FXZXGXkXdX X<X=X&XZ.GXMX@.< 6 1 F.W.=.XX!.<.| M &XeX| @.b.pXH.>XvXxXH b &XE 3 #.:.U.c.K . F f.!.J.B.F.{.|.E E #./.T T f.u...#.@ i.4X|.y.G.} ~ @..XeXkXCX` , 6 6 =Xu.B.b.P @.Y., -.b.8.G.|.jX9XV.,.v.K s .XPXPX9Xc.F.Y.U.M.U.u.$ i hXM.< z ).y.c.C.-.] O.r.5...;.B.F.v.r.B.6.6.8.v.kXgX1Xc p 7 h yXF.v.] 5.R.r.} P r.G.J.=X2X} ..|.}.b.-.#.u.y.C.^.O.5.1X1X/.c.Y.BXgXeX|.#.5.| ^.Y.,XT.m.&X8.E b r u.,XD.1./.3.u.>XHXBXy.p 6 5 9.4.(.t.~ 1.t.}.6Xu.2.+.U f./.f.3 F s.=X%.~ t.5.M s s.{..XrXH.%.b.CXFXGXkXdX X<X,X&XH.,XG.b F _.H.F.).-. X!.<.| F FXJX=XR p t 6 >XxXxXH b ,XP 4 #.:.U.c.J   U d.!.G.C.G.].|.E W #.(.Y T p.i...#.+ i.6X|.y.G.} Q @..XeX3. Xr s }./.=Xu.B.c.P O.Y.< xXvXC.N 9 h 9Xc.,.c.G z .XPXPX8Xm.Z.Y.U.M.U.c.$ i hXM., z ).y.u.C.#.] } i.5.@.;.F.B.b.i.B.6.r.8.b.@.@.5.H N.1XmXyXF.b.@.5.}.y.gXfX6Xe.p 2 7 u.#.3.F.V.c.u.-.H.y.a u.@.:.c.] L @.&X}.R.M.r.-.#. X|.}.Y.M.&Xc...J , 8.,XH.u. Xd.G.5X!./.L F /./.G.| ~ u.y.#.B.|.SXCX|.k = > ^.B.w Y a.|.r.~ t.-.Z s u.",
"f.2XpX1Xa.R.JXGXBXpXnX,X,X6X1XY.MXkX5.t < 6 ,X(...(.6.6.| M &X6X#.R. XC.Z.).yX@XN N 6X9.w J 8.;.8.S   W f.D.H.B.F.F.(.X.5.+._.J M t.G.5.X., i.4X1XD.w.V B.@.|.gXBXBX} : 8 8 |.5.r.|.{ r.^.7 #.Y.(.B.tXMXpXU.Q.M...i T.kXLXuXh...F.M.).R.1Xp i hXy.4 z L.b.u.F./.|.u.y.Q -.i.b.R.u.5.u.u.#.8.F.pXvXtXR c 8 f rX/.F.$.y.D.r.B.#.<.y.S.R.*X;.6..X=Xb.b.O.:.c.3.#.W y.6X|.|.U.M.MXbX>X&XV.r.| 8.C.6X|.Y.,Xc.D...4 8.5.a.2.4XB.Y..XKXSX!.e 7 6 9.<.D.t.F +.O..X,XF.} Q r.| 7.t.< F G.tX}.! u.} H J <.f.,XpX1Xc.R.KXGXBXpXnX<X,X6X1XY.F.5.~ { B. X&X(...^.6.u.| n FXJX=XB.l > 1 ).yX@XN n 6X9.e H 5.=.7.S   W D.D.G.N.D.F./.#.5.#._.J d p.G.5.#.& i.4X1XF.r.V B.#.].fXG.!.b s =X=X|.5.t.|.{ i.^.q vXMX=Xc p h zXU.Q.M.X.s R.kXLXuX8...F.C.Q.R.,X7 i hXy.4 z U.b.v.H.Q.|.r.i.Q -.y.b.).r.3.a.u.#.5.S.] 5.V.X.&X|.rXrX/.A.$.u.F.i.nXvX,X:.p > 6 b.5.C./.u.8.s.8.C.6.x c.#.-.c.=Xv.y.*X.X=XG.u.5.5.Z.{.=XF.Y.=Xb.D.+., -.G.H.!.lXV.b.=XJ.).| G (.}.G.F } C.B.5.G.eXFXBX).j - - V.d.u P G.5X_.~ u.~ J Y 2.",
"f.sX1X6XH.y.ZXFXlXxXCX^._.dXpX<XFXbX#.4 1 7 Y.XX{ /.D.N.~ Y XXeX..D.}.R.6XxXSXc.G s.<X^.r r _.Y.B.J   n +.J.F.5.O.J.b.u.6.t.{.^ Q /.G.R.s.% F.}.=Xa.u.#.3.r.>X>XnXnX| ; p 6 b.N.H.>Xm.C.dXz X.V.J.G.eXvX7Xc.Q.Q.X.e r.Q.zX@Xl.{ ^.|.+X&XeXe 0 hXR.u < H.D.y.Z.%Xb.r.#.@.H.y.8.F.B.u.6XZ.c.%XwXbXvXtXC c 1 0 rXC.D.@.u.y.D.|.#.t.S.M.F..XF...).{.|.b.} 8.5.#.V.#.f.6XdXrX=XC.SXwXR.M.F.-.#.c.B.|.F.U.1X=XD.Y < R.B.G.f.tXs.,X&XJXJX&Xr > 1 c.! u.6.t.2.} J.{..X} :.u.} 9.t.w T H.6X,X9.5.! #.F | f.6X1X6XH.u.CXFXlXvXSX^._.dXdX;X=Xc.F J Z. XH. X} /.B.s.~ Y GXJX=Xr.c 6 8 mXSXc.G u.1X^.r a _.Y.f.J . n +.J.H.5.O.R.N.u.5.p./.~ ~ /.C.R.a.% F.}..Xa.r.#.5.3.>X>Xc.D.x s lX(.v.b.H.>Xm.C.fXx kXbX}.V 0 h >Xm.).Q.X.w w.Q.pX;Xl.{ ^.].%X;XtXg i jXR.i < H.D.y.Z.|.c.u.+.@.G.y.r.F.V.y.6XZ.c.%XeX8.#.C.E /.C.wXtXB.N.$.y.r.N.ZXkX5Xi.p : 6 V.} u.R.J.u.-.3.c.6.j Z.y.3.9.=XF.;.R.F.R.u.y.5.5.B.B.R.M.H.=X=XH.} : y.B./. XlX^.u.=XD.B.5.u.Z.V.D.E O._.}.r.b.|.CXZXY.k : > G.d.r E H.1X.X5.5.~ <.S | ",
"u. XbXgX/.3.dXGXSXHXFX X/.<X&X/.BXBX3.t 5 > C.Z.u. X{.(.n Y dX XF 5.&X X1XgXxXL.x /._.N.G V U./.5.J X a -.H.u.r.D.2XY.5.V.u.,X| F J.y.!.G.3 o.{.tXG.i.7.2.N.>X:XbXNXX.< p 8 -.}.H.5X;XM.eX< x 9.8.5.Q.rX9XY.M.R.9.w %.m.;X;X(.X.G.}.@X=X#Xv 3 hXD.M 3 B.u.:.b.F.8.;...O.H.;.u.D.R.b.|.Y.H.Q.-.CXxX6XE 0 > 8 (.(.H.=Xr.:.a.,Xt.f.{.e.y.F.#.3.R.F.b.-.} n.R.^.H.B.<.6XtX].v.9.SXwX4XJ.F.-.y. X,Xb.x.Z.,Xb.F.F > u.!.B.y.B.<.NX_.NXFX!.e > < B.! N.!.%.` r.B.{.C.} C.5.G !.<X< s f./.R.#.s.u.u.F | 9.XXbXdX).3.fXGXBXHXCX X/.<X&X^.^./.P ~ H.V.Z.Z.u.}.{._.n Y KXSX).} c 7 0 gXxXZ.b /.(.V.G V H./.5.Y X r %.H.y.6.D.,X^.3.N.u.,X| F R.r.!.J.6 Q }.tXJ.u.7.5.b.1X*Xs.!.S M tX&X-.|.G.5X;XM.6X< wXkXC.j 6 0 wXU.M.R.9.w $.b.;X;XW.X.G.}.(.;X+Xb 3 hXD.M < V.c.:.b.H.,.-.....H.;.y.C.R.b.).H.Y.).#.^.-.u.<.y.b.&X).(.G.=Xr.:.b.HXbXtXS.9 - > -.#.b.u.y.8.8...9.u.x Y.Z.^.{./.b.} Y.F./.H.B.#.3.&X=Xb.y.C.&XB.Y.W % #.^.J.5XNX|.F.{.....<.Z.y.V.a.M }  X1XC.c.).FXSX/.V = - |.XX< F f./.^.#.c.u.u.F | ",
"#.(.H.&Xr.#.,XnXFXFXBXeX6XNX).8.MXgX#.j p 8 &X X/.{.XXeXS Y fX).Z |.tX8.,X9X(.7.< t.<.5.| z ] #.~ J X u y./.b.a.G.R.b.| 5.J.tX| M G.f.B.6., I e.J.b.5...+..X>X5XnXkX3.= 0 6 C.Y.B..X>XT.%Xq s #.c.R.).>X*X(.=XZ.Z.r ^ R.6X9X<X7.G.5X&Xb.uX4.= [.D.$.& -.#...c.c.y.v.u.#.c.S.8.8.|.=X@.=XY.Y.R eXbX=Xa 6 * 1 (.G.R.&Xu.O.b.u.5.{./.T.G.>Xr.u.5Xu.c.| :.Z.C. X/.N.X.eX.XQ.b.u.gXgX4X5XF.-.(.tX).F.H.x.C.b.5XU 7 J.F.B.<.8.#.lX!.NXGXG.t 2 1 +.b t.a.| E u..XM.#.c.J.#.E  XdXq ^ f.&XtX&X^.N.^.| ~ <.!.H.&Xy.%.,XlXFXFXBXeX,XNX).y.N.<.F 5.tX,X&X X_.{.XXeXS Y KXZXQ.D.A ; 9 9X(.7.< 6.2.3.{ z ] #.! J + p y./.b.a.G.`.B.} 3.J.dXX.n J.f.a.t.% U w.J.b.3.| +.,X,X5XB.t.G w 6X).B.J.D..X>XQ.).q 5XpXU.A 6 9 ;X).&XM.^.r T J.6X9X<X7.H.5X&XM.uX*.: [.D.$.& -.@.@.c.b.y.u.c.#.b.F.5.r.|.=X@.&XH.R.R V 8.] n X...B.).G.R. Xu.O.b.nXmXkXF.h > 6 8.5.R.C.8.[ 6.8.-.B.G N.a.F.u.|.N.2.R./.R.|.b.#.H.=X}.H.F.b.Y.C.5XQ 2 Z.Y.G.5XlX X/.u.5.<.7.u.B.C.y.n E u.G.O.5.=XZXBX^.R - ; ,X6X< ^ G. X6X&XH.N.!.| ^ ",
"| /.R.R.t.%.!.6XfXSXgX,X XlX/.f.gXtXB.G h t =XR.6X4X X_.b T {.H.E |.dXu.,X1XV.-.& t.G.| a - E b.J | + a f.!.b.5..XD.5.|.^.J.lX| F {.a.+.5.3 w.J./..X_.} T .X|.4XNXkX3., h > c.B.Y r.5X,.M.z i T.(.1X=XiX;Xc.1Xv.9.z F B.iXuX9XX.5.4X).-.>Xl.o T.a.M % E r.8.R.&XC.-.Y.C.8.$.Z F./.Q.] |.c.....pXpX1Xu 6 = 1 nXR.%.!.J.H #.] Q 5.i.M.$.H.B.-.5X=X>...| Z./.8.C.8.P ,X/.R.Q.c.Y.vX4X5X.X-.m.tX).H.y.C. X|.v.M % V.R.#.O.} | G.(.BXBXD.a - ; #.u 1.B.F E B._./.G.N.+.| u.u.f.< f.4X6X/.V.3.Z.,X~ | | _.R./.t.%.!.6XxXBXgX<X,XfX/.B.X.~ 5.^.nXeX&XR.6X4X_._.b ~ FXBX;XF.A ; 8 1XV.-.& d.B.#.s - ` b.J ~ + u f.!.b.5.XXD.2.|.^.J.lX~ F {.u.$.6.4 r.R.|.&X|.} T .X|.4XB.6.! b kXC.c.V.R r.wX>.M.x 5XMX;X] 8 f :Xc.5Xc.9.z Y B.iXeX0X*.5.6X).-.>Xl.o J.a.M @ E 9.r.R.@XC.;.Y.Z.5.=.A F./.].[ |.c.....` ] 5.x #.#.N.nX^.%.^.R.H #.pXjX5X%.h - > F.3.R./.-.#.#.V.r.%.H #.6.B.y.H.2.u.F.>X=X(.b.#.V.=X|.F.8.B.|.|.G.Q % c.Y.B.|.>X5.B.H.9.t.6.P V.Z.G.s J s.3.S E Y.CXMX&XV % : J.G.w f.1X,X/.V.5.C.,X} | ",
"#.!.Z.B.=X2.G.fX6X6X1X3.d. XG.V.SXgX=X=.8 0 5Xb.H.6.XX_.r ~ R.c.-.|.,Xy.1XwX9.7.& f.,XG.P # c.B.| <.@ z 1.J.y.-.,X!.2.,XkX X/.6.i d.N.6.u.& W .XZXgX1X2.t..XF.|.nXvX5., h > v.H.~ B.wX@X%X .w rX9XZ.b.F.C.;.5.H.u.b M J.rX9XW.Z.E >XY.(.R.V.= `.6.W % 6.F.y.u._.).#.V.B.u.&X] b.Y.U.F.y.D.@.c.bXpX=Xz c 6 : 1X XR.(.C.R 6.i.Z #.b.u.-.b.R.u.F.=X;Xc...9.C.5.r.c.8.r.J.XX).u./.gX,X5X=Xc.P.fX|.u.c.G.=X&Xa.M , 7.Y.-.u.F.<.u.G.BXnXc.h $ ; 6.e | u.! ~ Z.&X.X{.2.F V.%.G.1.w Z.,X X.Xu.5.(.9.<.| #.!.Z.B.,X%.H.dX6X6X1X6.d. XG.B./.8./.fX|.6X5Xc.Y.6.XX_.r ~ ZXbX>XF.m : 0 eX9.7.& p.,XG.Y # b.C.| | % z 1.J.y.-.5X!.2.=XkX}./.6.i d.f.5.u.< T .XZXdX1X%.r..XF.].u.u.! n jXm.b.H.~ a.6X%X@X) >XHXuXm > 2 C.-.:.Y.u.b n G.eX9XW.Z.E >XY.)./.V.; `.6.Q % 6.F.y.c._.).#.B.Z.u.*X] b.Y.H.F.y.C.@.c.c.[ O.M _.^.y.1X|.R.(.D.R 6.nXeX1X:.p ; : R.r.c./.R.3.@.V.V.5.F c.8.u.G.B.~ #./.&X|..XU.9.Z.wX,XC.b.F.,X XB.W % :.H.u.(.fX<.u.V.(.G.<.F y.H.f.F +._.Z.S J F.JXCX(.z > % Z.d.w G..X X.Xc.3.(.u.3.| ",
"J D.(.R.F.%./.SXwX1X6X/.!.V.H.R.PXDX1X..> 4 6XV.c.s.<XdXb ~ 4X X:.4X&Xy.,XgXn.| < 2.Z.H.{ . ] X.| J < s r.f.B.5.G.G.%.r.5.H./.G.J 4XG.(.N.e %.H.>XMX6XE 1.J.].M.MXgX5.$ 8 > Y.u.y.] Q.1XL.( w tX7Xv.F.b.y.#.@.Z...r n {.uX9XC.(.#.F.Z.c...<X1 i.=Xf.& { ).c.b.eX1XC.B.V.c.lX XC.N.&XY.).R.` _.BXvX].w 7 1 6  Xb.H.,Xu.3..XB.H 6.B.b.b.=XR.3.|.C.Y.>X-.[ V.<.|.u.} } 2.6X).B.y.uX5X/.Q.H./.1X XC.B.G./.H.(.W @ *./.5.!.H.B.G.XXMXnXV.r - : s.F X./.<.S y.H.H.4XH.Y  X{ N.B.w d.H.J..XV.#.&XY.9.<.J Z.(.R.D.#./.SXwX5X5X^.!.D.H.R.NX.X_.eXB. X6XB.c.s.6X6Xb ~ HXFX>X&Xm : 9 pXV.| < <.Z.G.` . ] X.X.! , i t.C.b.r.G.G.%.y.5.G.(.G.Y 4XZ.(.s.r %.H.>XMX1XW 1.Y.%XM.c.3.! e }.b.J.y.y.} Q.>XU.( 1XHXuXc 6 ; y.-.@.Z.| e M {.yX9XC.(.<.F.Z.u...;X< i.=XD.@ | /.c.c.eX1XC.B.B.c.lX|.V.N.&XY.).R.! |.U.=.H s -.Y._. Xb.H.,Xu.3.=XnXtX1X:.0 : 7 Y.:.F.c.U.U.8.:.b.a.} M.6.u.N.=Xu.6.y.=XH.b.F.G.Y.|.&X^.B.H.R.Y.|.Q % X.Y.u. X6XB.Z.,XH. XD.! y._.D.~ | /.<X<.P |.FXBX.Xu 2 # Z.f.r f.H.H.}.V.<.@X^.6.<.",
"~ 6.Z.G.J.#.,XSXBX=X6XZ.~ f.!.H.IXBX^.` 1 6 ,XZ.^.B.NX(.S | 5X X| &X).F.pXgXZ.#.s ~ d.F.{ . R 3.7.! % 3 .X8.c.8.A.5.H R b.@.5.%.Y G.a.}.H.< r.5XD.lXeX7.O.u.T.B.bXgX9.O 2 6 V.B.t.E |.4Xb.A J 3X).V.u.u.Y.3.y.R. .b Y 4X>X>X;X;XX.H.c.@.+.tX( H R.a.w E =Xb.-.J.u.u.=.9.@XtX=Xc._.wX&X_.F.` X.vXkX%XE e $ 2  XC.-.eX@.9.|.J.! #.^.b.b.).>XY.U.,X/.Q.c.;.Y.8.1X|.} ! b.R.:.F.R.>XrX X|.8./.6X=XY.+.V.H./.H.M + } t.1./.|.#.D.,XBXnXu.9 : 1 9.N :.b.-.T XXZ.F.,X1X^ ^.u.^.t.& t.f.J.&Xu.| dXc.<.4.~ 5.Z.H.H.#.,XFXBX=X6XY.~ d.^.H.SX_.V.,XZ.^.,XH.^.B.NX_.b +.HXFX=XY.l 2 p gXZ.#.s ~ s.B.{ . R 5.5.! & 2 .X8.c.e.b.3.Y I v.@.6.%.Y G.b..XY.< r.5XD.nXdX5.| u.J.B.u.%.| & G./.C.V.u.E %XwXM.K tXGX;Xc ; ; Y.3.y.Q. .b E 4X7X1X&X;XX.G.c.@.+.fX( H R.a.w { =Xb.%.J.u.u.=.9.@XpX=Xc.).eX X XC.] | -.#.W <.u.~ ^._.F.#.tXX.8.{.CXfX>Xb.p > 6 =XU.b.).Y.F.v.u.F.c.8.(.r.8./.=Xy.3.F..X&XH.F.b./.=X&XF.#.B.Y.).Y.U $ ` 6.y.XXZ.6.Z.dX XeXf.| 7.H.f.s E 6.(.B.6.U.BXCX1Xj 1 ; !.d.< 6.G.G. Xu.} fX9.<.4.",
"J !./.XX^.3.N.kXPXpX6XN.#.d.G.6.JXbXC.c 8 1 ,X(.u.d.lXs.F u.H.B.} Y.y.}.gXU.8.7.b 2.t.9.X.X W 8.u.W & $ H.7.c.T.rXy.-.@.|.r.r.~ i t.u.R.Y.< %.R.r.kXY.H.2.2.D.T.vXkX9.@ 8 6 c.b.Z.| %XY.'  .3 Y.;XY.....c.=.T.).9.{ s lXyXuXwXeXV.Y.|.u.r.&X@Xx R.XXd @.&Xv.B.-.5.Y.).^.1XeX>X3.(.vX)..X3X:.N.bXpX6XJ 9 = 1 ).R.c.).c.#.2.R.} u.r.$.=.b.,Xb.R.=XC.c.B.@.F.6.F.u.6.P G.F.b.a.=X5X,X&XR.b.V.dX6X,X+.c.|.1XM.x @ 3.5.6.d.^.#.b.,XCXZX8.t : 4 6.z 1.C.3.M H.XX/. X9.! /.c._.D.w d.!.u.=Xu.#.dX^.d.6.Y !./.,X!.3.N.kXPXpX6Xs.#.f.H.5.tXb.3.Z. XH.,X/.s.d.kXd.F u.ZXNX&Xc.0 7 p U.8.8.S <.t.9.#.o Y 3.9.E & $ H.8.c.R.tXy.-.$.|.r.r.} i t.y.R.Z.< %.R.2.kXY.H.<.2.B.T.6.5.{ < =XY.c.N.D...|.U.'  .=XVX0XC = = v.#.U.).u.{ s kXyXyX0XeXm.Y.|.u.r.&X(.z J.2Xs X.|.b.B.-.-.Y.).^.1XeX=X3.(.vX). X5X:.V.c...y.| 5.| B./.^.c.|.c.-.-.CXpXeX} 9 = > .Xb.C. XF.8.c.@.F.V.#.x.b.../.%Xi.5.R.|.*X|.F.C.B.6X1X X<.b.|.,XC.F % #.B.B.Z.G.5.Z._.1X&Xs.H X.V.R.F Y <._.s.G.C.CXBX(.x 6 ; /.!.w d.!.t.,Xy.#.fX^.9.6.",
"J <X6XXX_.<.B.lXJXJXNXXXZ.t. X!.SXvX7.c t , G.s.3.D.lX(.P 5.Z.5.2.D.y. X5X(.9.Z.X.E V.5.#.# U c.r.! u & r.Z.c.1X5X&XnX+XR.b.R.| n J. XJ.(.w ] F.r..X}.#.t.1.%.|.NXvXu.o 7 1 _.X./.R.R.U.L  .+ '.pXZ.N.%X>X%XL.>XQ.X., }.pXzXyXxXyX1X&Xc.Y.4XxXP -./.s ) F.@.b.r.y.Z.v.R.G./.'.5._.eX5.c.|.:.Y.SXnXgXF : 1 2 &X=X=X.X/.-.#.r.P -.y.,.-.C.Y.` &X|.-...-.#.u.#.C.` -.x 3.F.U.-.wX5X5X=X.X/.|.|.>XB.E 5./.|.H.F X r.G.t.D.XX3.F.1XCXSXy.q < 9 B.M J -.E b t. X_.B.X.E c.y.|.!.w !.!.c.6XH.5.<XZ.!.6.J 4X,X,X{.X.N.lXKXJXNX XD.t.XX!.Y.9.{ N.<XZ.G.s.3.B.lX(.P 5.BXlX1X6.8 8 8 @X8.Z.X.P B.9.X.# E b.y.! u % 5.Z.c.1X8X*XMX_.R.a.H...n J. XJ.(.w Q D.i.2X}.O.t.2.%.*XN.d.<.& |.C._.#.(.H.Y.T.A  .|.ZXvXC > 6 >X*XU.1X/. ., /.pXzXyXzX0X1X&Xc.Y.rXMXK 5.!.s ) U.} c.y.u.F.x.^.G./.'.5. XeX5.c.|.:.W./.u.G.~ S B.R.&X=X=X&X/.-.-.bXtX1X@.8 = 1 U.] )./.-...#.-.B.u.#.@.u.E c.Y.S.-.=X&X,X|.}.).).|.>XF.~ 5.|.{.G.W X 8.G.B.G.!.y.N.|.,X/.!.H L B.D.U U Z.^.5.y.N.SXNXG.j 1 - Q.(.i !.R.u.5XG.3.XX!.!.1.",
"J !.XX(./.X./.gXHXFXfX(.{.!.G.^.NXuX6.j 6 2 !.6.s.XX6X_.F #.<X!.H.R.-.c.^.<XY.*.| s Z.` 7., ] C.r.B.s O b.c.c.%XvXcXFXSXy.H._.Z.u J.6XB.N.a R B.i.D.B.O.2.%.5.J.gXlXZ.% 6 1 %X:.s.v.=X).=.8., }.0X#Xk.%X1XM.*XtX=XC.e wXmXzX+XyXyXxXeXm.(.;XNX7.O.G.i b C.-.-.R.R./.Z.M.dX5X@.%.Z.R.:.Y.C.@.&XSXvX1XD.< 1 0 1XH.V.).U.#.u.D.P 9.).c.u./.dX8.G./.u.c.u...H.5.8.#.` 6.9.y.y.' W.T.,X4XpXR.U.8.B.B.Z u. X/.R.W X Y.^.d.d.D.-.B.tXZXvXc.r 6 6 /.F J #.H F #.Z._.6X X-.c.Y.=X/.w H.,XH.^.u.{ <.^.XX4.J !.XX!._.| _.kXHXFXfX(.(.!.Z.!.Y.{ E 3. XG.!.6.s.XX6X_.G #.GXBXkXa.7 : 6 <XP.<.| u G.( 7., ] C.r.d.i $ b.k.c.@XmXzXSXSXc.H. XZ.u G.eXB.c.j W B.r.a.D...2.%.5.F.<.6.4.r |.C.%X3.f.B.=X).$.7.=XZXxX( ; 9 >XM.%XeX;XC.u rXmXzX:XyXuXvXyXm.(.&XMX7.@.D.i b C.5.:.Y.R./.F.C.dX5X@.%.C.Q.3.Y.b.#.&X).u.5.^.~ Z.6X5XH.B.Q.Y.#.u.BXtX6XA.p ; 6 dX8.B./.u.c.u.-.Y.y.X.6.-.u.c.C.y.` Q.Y.,X5XrXR.W.r.B.B.H y.|.^.R.} @ b.(.!.!.f.s.u.&X.XC.5.J E a.t.i F ^.6.B.-.6.FXGX,Xk 1 > |./.w G.,XH.^.u.{ <.(.<X2.",
"| 1.d.XX!.E f.jXBXMX<Xf.<X!.!.N.NXeX8.b > - G.XXZ./. X^.G 6.(.B.t./.F.,Xf. XC.3.X.b  XP -.< N y.=X Xe X '.lX|.uXDXcXPXAXwX|.&X^., D.b.}.G.x U b.%.D.b.V.t.f.2X/.vXbX^.4 0 1 8.@.,XH.3X1XR.3.4 5X;X+X+Xv.M.F.c.F.C.W.7 S.zXmXL.:XzXzXwXQ.Q.M.U.j.:.$.i N #.#.x._.G.! =XdXV.,XF.V.<XNX(.R.9.7.%XGXnX=XG 1 1 7 b.:.Y.|.b.@.t.J.{ 9.).U.F.H.>XY.b.F.B.H.-.{ c.] R./.] B.:.U.Q.;.C.Y.H.6X5XQ.j.u.H.C...#.XX/.D.Q X 3.<X/.d._.a.J.6XZXZX-.1 6 6 F.J F G.u.H 5.&X X6X,Xj.8.V.!. Xw 2.G.G.{.d.P 9.!./.2.| 1.d.XX!.E f.kXBXNX<Xs.<X!.!.N.Z.E ! C.s.6.!.XXZ.!. X^.Z 6.SXNX5XB.h 9 :  XV.5.X.M _.P -.4 N 3.=X Xr X [.lX&XrXAXAXIXcXzX$X&X^., D.b.}.G.x H b.-.D.b.V.t.f.2X{.3.B.t.T 1Xb.5.#.,XH.5X>XR.7.=XGX0XL 8 > K.C.c.F.C.Y.7 F.cXvXU.;XzXzXwXW.Q.M.T.9.-.$.i S #.-.u.|.H.E .XtXV.=XF.B.,XNX(.R.8.8. X>Xu.O.! { V.,Xb.:.Y.).b...9.ZXpX1XF.h 2 1 ,XR.c.F.B.H.-.' c.} R./.} C.-.U.R.=.C.Y.G.6X5XQ.9.x.H.C...#. X|.D.O.X -.<X X/.!.<.B.dX/.:.8.Y #.B.D.i J 6X/.,XV.^.FXGX,XB > > G.^.r 5.G.G./.d.P u.^.(.1.",
"J d.4.!.B.F i.lXCXJX+XN.(.<X_.(.BXvX8.B 1 , u.6X/./.XX!.H B.r.u.r.G.^. Xt.u.| P ! F )./.-.4 4 y.5XC.H X A.ZXpXjXwXzXDXcXLX9X).s.u J.5X4XC.z w 5.R./.tX(.u.D.lX2XNXnX9.> 0 ; } } B.&X8X*X).^.& J.Y.W.%XQ.C.V.6.C.F.c.r y.zXmX-X>XmXmX+XQ.+XT.=X` :.u.i S 5.#.' r.8.C.B./.R.).kX).6XlX).).).,XtXGXMXeX~ 1 > 7 C.;.C.b.b.c.c.B.| u.{.>XG.C.=X.X5XF.D.B.u.V B.r.|.b.L 6.` C.R.Y.Z.|.{.>XS.y.Y.V. XC.r.-. X{.`.O.X .._./. XNXB.b.,XBXSX9.< 8 7 Z.M J H.Y.} c.tX}.).6X9...1X{./.J B.G.t.p.d.=.6.Z.f.| J d.4.!.B.F r.kXBXJX&XV.(.<X_./.Z.9.` H.B.s.s.6X_.(.,X!.J N.bXnX5Xt.j 7 : s.} P ! F /.(.3.6 3 b.1XC.G X A.CXpXjXqXiXAXcXLXqX(.N.i J.5X5XZ.z e 5.^.{.6X(.u.D.lX,XV.B.<.z 1X9...} B. X3X;X|.^.;XnX+XA 8 5 C.C.8.C.F.c.e y.pXmX;X;XmXmX-XY.+XU.;X` 5.y.i N -.#.` 8.8.Z.B.).R.).lX).6XkX).).(.,XtX,XF.V.2.{ N.|.F.;.F.b.b.b.u.MXgX6XM.B 1 1 =X|.4XF.G.N.u.G N.r.|.b.L 5.` C.Q.Y.H.{.|.2XS.j.Y.C.).F.r.5._.{.J.$.% E  XXX6X<Xu.6.,XF.8.] R | H.Y.F a (.6X/.D. XGXCXdXc ; 8 /.!.E f.G.t.d.B.3.6.Z.B.| ",
"J ^._.s.2.Y #.kXFXJX<X<X<XXX4X1XMXxXc.j 1 1 (.lX X_.{.,Xs a.,Xu.%.!.H.V.6.P ~ N P E ,X_.^.w r c.%Xy.-.. O.4XrXzX:XqXSXLXDXAXgX Xn A.|.Y./.6.n V.|.|.kX_.f.a.4X5XbXgXV.t g = -.5.2.F.3X:X,.X.e R.+XQ.Q.W.x.Y.F.C...-.u %.8XMX+X+XDX;X@XW.;Xj.<XP -.}.F s r.H ..5.^.dX>XF.F.F.,XH. X&XC.1X XH.R.nXbXwXt.1 : 2 1XU.b.C.8.X.c.^.+.u.}.=Xr.&X6X&X>X].b.L Z { c.u./.Q.c...X.9.F.=X|.C.&XR.|.F.b.^.6XC.Q y.^.2X,Xr.O R Z.{.6XNX/.8.=XnXvXC.z 1 1 D.H W <X<X3.V.=XR.R.|.C.Z dXkX/.s | G.1.<.s.-.6.,X^.! J ~._.s.2.Y %.kXFXJX,X<X<XXX,X6XZ.8.X.3.V.s.^.fX_.{._.<Xs a.GXbX,Xa.j 1 ; ! ! V P Y =X_.W.q r c.&Xu.-.. O.4XrXpX|.5XSXLXDXAXcX&Xn A.|.H./.6.b b.|..XkX|.f.f.4X5Xu.=.3.X.pXX.-.5.%.F.5X:Xe.X.1XVX1XA 8 5 8.^.H.C.} -.r :.qXMX+X+XDX;X;XQ.;Xj.1XL -..XF s u.F @.5.^.dX1XF.F.Z.,XY. X&XC.6X XH.R.v.r.c.G.E u./.1XU.b.C.5.X.c.CXkX6XF.m : 8 4X=X>X).a.L Z } b.u.R.).b...#.9.F.&X|.B..XR.).U.c./.6XB.] u.!.,XXXr.$ H G.,X6X6XB.5.H.y.:.} E ` c.^...x Z. XN.B.^.ZXZX1XB * 0 tX!.b #.!.1.<.f.#.6.,X^.! ",
"J l.6.}.2.~ i.mXSXCX<XfXXXZ.!.bXBXbX9.j 6 9 6XBX,XZ._.!.n G.,Xu.B.}.4X/.N.6.X.X.#.3.6Xu.@XG ; :.U.C.H.  $.|.*XQ.M.v.iXHXAXMXBX,Xx R.4Xc.V.<.x .X=X'.lXH.#.1.R.iXMXeXr.7 l ; j.<.1.1XhXQ.v.b + b.wXuX8XwX:XZ.C.U.@.Q.z :.Q.zX;XM.vX9XL.U.Y.m.C...} u.Y S u.E #.5.V.xXBXrXu.-..XV.B.eXY./.8.u.F.gXnXtX} > > 2 eXpX).F.y.6. X}.u.^.|.y.b.u.eX.X-.Y.t.u.L { { #..X_.u.G =.F.Q./.u.|.)./.U.U.b.B.5X|.-.u.{.!..X%.X Y ^. XNXJX,Xc./.fXeXb.c > , b.M E ,X1XF.u._.1X,X=X/.L 5XfX^.r 6.B.! s.B.8.2. Xs.J P N.9.}.2.~ a.vXSXCX<XfXXXZ.!.nXY.c.} 9. X,X6XCX,XD.{.!.n D.GXbXdXG.C 1 1 3.#...#.5.eXc.(.K % :.F.F.Z.  $.{.>X].b.b.rXHXAXcXSX>Xs R.5XV.N.<.n .X*XR.kXY.#.%.J.hXC.R { L SXm.u.-.1.>XtXQ.y.b ).nXpX[ 0 0 :XL.C.L.@.T.b :.].zX;Xn.vX9Xm.U.W.m.C.| ] f.T b u.Q -.3.C.fXBXrXy.-..XV.B.eXY./.7.u.F.] a.F.5.Y u.H.eXiXQ.F.u.9. XFXnXlXG.f > > 6X|.-.R.8.u.H { ` #.&X_.u.V #.H.Q.R.b.).(.R.T.Y.b.B.5X|.-.u./.{..X%.O H ^.,XlXbXD.3.B...3.| } } r./.{ N G.).Y.u.C.GXFX<XZ * 7 6XZ.s 5.N.E f.B.r.%. Xs.J ",
"Y !._._.u.J E /.BXlXH.<XZ.<.t.fXSXNXZ.k 9 7 5XBX|.<XXXs.s XX,Xc.R.4XtX,X XC.).X.J | ,X0XP.K @ u.-.kX+X. Q `.lX5X.X=X>X.XwXeXQ.=Xe }.bXx.6.F u  XB.F.rX8.Y u.R.>XMXpXc.j l ; 3.#.D.>X$XQ.N.6.% a.vX9X&XqX%XQ.).C.9.&XK o.2XvX>X,.8XeXW.M.L.=.Y.3.( ^.$.n B.-.3.Z./.=XbXiX>X=XB.,X^.1XF.5.%.u.R.nXFXgX-., 2 8 rXtX=XR.:.| H./.#.u.b. X=X] /.{.:.i.V.N.V M #.3.=X1XG.E 9.H.=X>Xa.|.5X,XZ.c.<Xc.|..Xi.B.dX>X1Xa.O c._.Y.MXHX1X/.y.kXpXC.k 2 < y.b Y B.G.| %.,X&X,XZ.6X2.H.lX!.w f.H.~ | Z.N.Q t.<.F J !._._.t.J E ).ZXkXH.XXZ.1.s.fX&XY.5.6.,X X1XnX_.1XXXd.s XXGXbXkX}.L 9 8 C.(...H | ,X4XZ.K - 8.;.kX@X  Q J.lX5X|.=X1X|.rXeX|.,Xe .XbXy.6.G u XXV.F.rX8.Y u.R.>XM.] X.6.SXc.5.#.D.=X|.Q.c.5.&XbXAX' 8 0 %XQ.).C.9.&XK O.3XvX;X8.1XwXW.M.Z.*.U.3.` ^.$.s B.%.5.C./.=XbXiX=X,XB.,X^.,XF.6.-.u.R.a. XY.B.Y D. XtXtX=XR.3...J.CXvXeX%.c 9 = R.{.5.r.C.N.N n | 6.=X1XZ.E t.H.=X1Xb._.1X1XZ.c.<Xu.|..Xu.b.dX>X>Xp.$ 5.(.H.kXbX).B.u.F.N.u.<...B.H.F b u.G.f.2.H.FXHX,X} - 2 tX!.r B.R.E { B.N.~ 6.2.F ",
"<.!.fXXX6X{ { lXdXkX^.,X_.s.<. XSXHXk.u t 9 ,XeX&X&X(.6.r G..X).).>X6X1X&XF. XE N | 6XKX^.7., c.Q {.(.  U D.,X{.|.|.pXH.b.b.{.fX3 }.hX).#.#.x J.f.Y.4Xb.t.a.r.C.BXgXu.9 0 > b.5.D.4X;X>X&X_.g r.MXxXU.Q.;XU.U.+XW.,X{ k >XvXwX&X8XL.x.x.k.-.eXk.j.(.t.w X.=.u.&X XH.vX4X#.B.B.B.{.J.a..Xy.Z.T.vXBXkX/.2 : : eX3XF.y...L ~ {.G.+.B.R.{.} H.!.r.#.B.(.u.P /.r.a.%XZ.! u.G.5X5Xu.H.6XtX1XQ.W.6.u.N.V.F.gX=X4XJ.@ u.G.}.pXnX9.N.G.nXgXC.4 > 1 G.i H N.5.n H F.Y.C.&XlX#.G.lX Xu 1.Z.b -. XZ.+.).Z.M +._.dXXX6X{ { lXgXkX^.,X(.d.<. X|.6X..2.6X=X1XdX&X&X(.6.r !.GXSXvX|.B 8 8 H.&XP G | 6XJXW.4., N.E /.(.. W D.=X{..X&XtXY.b.b.R.fX3 }.pXQ.#.X.s !.b.T.4XM.y.u.u.F.R.5.X.Q 5XV.c.-.B.rX>X>X=X_.<XvXAX>.1 6 *XU.U._.Y.=X' x =XvXuX=XwXL.c.j.k.=.rXl.7.).t.w #.#.u.&X XH.vX6X@.B.B.B.{.R.u.=Xy.Z.T.r.F.Y.=X@.6.c.eX1XS.y...J ~ ZXBX=X5.k 6 $ G.R.r.#.V./.c.P /.y.c. XC.! u.Z.3X5Xy.F.eXtX>X/.Y.6.u.b.B.D.pX=X4XR.$ 2.H. X6XeX5.8.F.(.B.t.| -.N.F.s F Z.u.#.#.c.CXBX1X#.- 1 fXXXu 2.F.b <.,XZ.+.{.Z.M ",
"1..X_.6X X{ P  X6X4XtXBX<Xs.#.XXSXbX7.0 7 0 ,XdX1X9.!.1.S d.B.Y.B.1X&X,X^...G.7.V.B.1XAX#XN., #.z <.C.. U f.R.6.} y.>XH.B.y.H.tX4 F.gX/.C.X.< G.T.=XBX1XH.}.6.N.SXgXG.4 l 8 !.-.5.=X>X=X/.Z.z f.xX0Xc.8.Q.T.C.=XC.c...M |.DXvX;XpX<XT.C.7.` pX_.-.B.+.3 X.r.B.).&X/.,Xb.G #.=X3.Y.R.F.B.^.^.nXMXnXvX] 1 $ 2 |.y.b.#.u.G.O.G.f.+.H.r..Xa.r.} t.b.3.&X XP ^.u.y.V.5.{ N.Y.+XQ.y.Y.R.u.>XY.5.p.5.y.Y.F.eX/.}.i.O @.F.N.1XCX<.9.N.SXNXB.< : 5 s.F +.<X^.x x b.fX)._.eX| <.d.H.s B.Z.E 6.c.3.O.&X^.F 1.,X).6X X{ P .X6X<XeXCX<Xs.4.XX).V.{ ! {.6X,XeX1Xu.!.1.S u.nXBXfXQ.v 0 1 ..Z.5.N.N.6XAX#Xl., $.z %.B.X Z D.{.5.] y.=XH.B.c.G.tX3 G.kXR.N.<., J.J.*XZX,XJ.{.6.b._.5.t.F HX_.!.5.5.2X>X*XQ.Z.6XnXmX[ > ; W.Y.C.>XL.c...n |.DXxX;XpX1XT.L.j.` fX@X>.b.+.w X.u.V.).&X/.2Xb.G #.=X7.R.R.F.B.!.^.nXF.B.|.3.] ! /.|.y.b.#.y.G.O.BXbX=Xi.7 7 : y.} r.B.8. X XP R.u.8.C.3.} N.R.|.Q.y.U.R.u.1XU.8.u.6.9.Y.F.6X/.}.y.$ } F.V.5XlX5.N.V._./.5.H #.u.6.F T (.Z.Y Z c.JXSX<X..= - s.G.b B.Z.! 6.c.-...&X^.F ",
"~ sX_.<X XN.H 5.^.6XZXGXG.Z.Z.,XSXgXc.e 2 9 _. X1X!.XX1.F +. XG.6.bX&X3.^.9.(.^.dXdXdX_.l.V.< F J T u.. U .X,XD.@.J.,XD.B.B.B.(.s D.R.H.dXX.- V.R.tXSX|.a.t...).bXvX(.u C 9 Z.Y.%.F.iX).C.V.! Q bX+XL.tX&XF.U.;X1X^.P P *XmXmX).mX0XC.%XW.y.=X7.3.5.T & =.-.9.u.tXR./.D...c.H.c.G.).C.b.G.<.NXKXFXkXN.2 # 8 R.@./.C.H.eXu.#.O.5.f.u.!.Z.y.W 5.^.r.B.}.V R.#.} { <XB.^. XU.Q.8.c.H.-._.>Xu.5.#.V.Z.c.%X,XrX5.% $.V.N.<XkXB.Z.,XBXCX/.9 > 7 B.! ^ W.sX<.G =X,XG.Y.^.2.Y H.f.F B. X} 5. X5...kXdX6.^ 6X(.5X XB.G 6./.eXBXHXZ.V.G.<X(.3.#.` ^.,X_.XX1X^.XX<.S 1.GXBX1XuXl - 4 c.).^.fXdXdX@XN.N.< F H ~ t.. U .X,XB.@.H.,XD.B.B.B./.s D./.G.dX*., f.R.rXSX Xu.t.X.R.c.6.!.+.IX,XG.H.-.F.tX|.M.N.uXtXMX/ 2 0 ;XU.F.;X6X^.E R *XmXxX).xX0XM.%XY.k.=X7.-.,.T & #.#.y.y.dXJ.{.b.@.u.H.c.F.R.D.b.D.<.NXpX}.H./...L .XR.@.(.C.Y.eXu.kXgX1X2.p 2 1 t.Y r.Y.y.V.|.G Y.#.} } <XB.^.|.Y.Q.y.c.H.-.%X>Xa.1.-.C.C.b.&X>X4Xr.: @.C.C.,XdXZ.Z.&XF.,XH.~ 5.Z.5.Y Y Z.,X3.` @XHXBX&XZ : % G.f.F d. X} 6..X8.} jXfXt.",
"1.XX|.B. XXXE 6.5.4XmXkX^. XXX^.FXNXN.x : 7 ^.XX^.&XXXd.^ 1.H.Z.;.xXH.9.^._.Z.P ! s.u.Z.1.6.3 H | n ~ . W }.!.t.a.!.{.u.f.u.5.B.r G.1X_.^.<., t.rXnXtXR.<.E 8.Y.bXbX(.x B 8 8.fXu.b.|.y.Q.7.G W vXm.|.rX5XU.6X&X;XY.X.} R.cXvXU.;X@X;X+Xc.W.<X*.*.).1.& <.V.b.8.rXH..X|.-.V.4X|.=X|.R.B.r.B.=XvXnXgXR.h ; 0 >Xu./.(. XH.u.b..XO.Q %.V.B.D.5.~ G.y.r.,XY B.;.~ | &X6.H.C.c.H.#.} 3.@.=X).B.B.:.9.7.] %X0X5XD.: Z r.V.XXB.6.Z.dXFXJX^.e ; 1 f.s E 6._.Z.<.Y.H.B.^./.s.x Z.(.~ B. XE u.5X3.m =XkXd.1.XX_.B..X.XP 1.5.4XbXkXJ. XXX^._.Z.3.N.u.&X!. XY.&XXXd.^ +.CXNX1XeXj ; 4 &XZ.P ! s.s.Z.#.6.3 H | n ^ . W XXJ.t.t.!.{.a.u.u.5.B.t J.1X X^.X.& 5.rXnXtXR.<.{ y.Y.7.b.B.u.IX_.6.fXu.b.].v.Y.8.eXeXmXv 6 0 9XU.6X&X;XR.X.} R.vXvXW.;X@X&X$Xn.Y.1X) 3.{.+.w *.c.b.8.eXH.=X|.5.V.5X|.=X|./.B.5.B.=Xy.B.U.=XB.<.1X>Xc.)./.&XH.u.nXSX>XZ 7 > 1 D.5.} G.t.r.<XY b.%.~ |  X9.H.Z.u.Z.=.| 3.@.=X).B.B.5.8.7.] %X1X5XB., V r.Z.XXB.6.Z.dX,X6XB.#.7.B.t.s F s.^.G.5.Y.BXNX,XA 1 O Z./.| B. XE y.6X3.M &XdXp.",
"d.H.XXG.4X,X~ 1.f.tXeX=XZ.!.Z.G.bXbX7.k : 7 (./.Y.R./.f.+.^.1X9.X.1X8.B.9.^.9.K S J n S d ^ F H ! F ^ . %.f..Xf.1..X1.5.B.5.y._.x u.lX6Xf.t.< +.tXkXpXu.5.E x.y.vXbXV.c v 7 k._.t.R.&XT.Y.9.4 Q wXU.M.5X;XU.wX+XY./.#.#.b.vXxX>XyX).>X*Xm.U.;X) V.tX}.i | @.v.Y.|.G.F.F.5.B.kXU./.M.H.Z.B.G./.gXMXtXy.p = 6 nXeX5XY.(.&Xb.R.b.] y.5.B.u.D.D.y.G.G.2.t.H B...} 3.Y.9.Z.6.9.#.] u.] V.9Xn.H._.c.n.%Xb.|.&X/.G., ` &X/.!.D.9.Z.(.HXGX!.6 = 1 J.N Y X.XX!.Z.9.H.!._.6XV.N N. X<. X/.M #./.u.x B.XX^ d.!.XXH.6X,X| <.p.dXeX=XV.!.G.Z.s.u.! 7.9._._.{.^././.f.^ /.HXbX>XW.0 > - ^.9.H S H M F F ~ F J T J ! . +.G.XXf.2..Xr.t.B.3.u._.x u.fXeXV.6.< | tXkXpXu.2.E u.y.-.C.3.V.PX@Xk._.6.R.&XY.W.9.>XtXpXC 5 0 ;XU.wX|.Y.(.#.#.b.vXpX>XeX+X>X:XM.Y.;X) N.6X{.i X.#.b.Y.|.C.F.F.:.N.kXR.).b.H.C.B.H.R...b.D.F.B..._.MXwX1XY./.&Xb.ZXnX.X} 7 > : D.F.r.G.G.%.t.U C...{ 3.Y.u.Z.8.u.-.] u.` B.1Xn.Z._.c.n.|.C.+X&X/.G., `  X(.!.D.u.Z.(.<X.XB.E #.u.H.H J | (.!.!.c.BXNX,X] 1 # u. X<. X(.N #./.u.x Z.XX^ ",
"6.XXeXC.8./.B.Z.XXlXBXlXXXt.~.6.bXeX7.t $ 1 !./.&X9XfXd.J C.&X3.H C.*.Y.dXY.^.3.a $ . w 1.F w M Y #.1.X %.p.!.G.O.+.G. X Xu.f.,X< y.1X1XV.6.q ^ `.|.5XV.H.8.c.c.vXpXc.t l 0 3.4.<.b.>XQ.R.7.e W M.*.u.jX>X).Q.Y./.&X| n r.pXxX;X;X%X5X:XL.b.W. .l.<X.Xw { Y.8.Y.r.#.r.Q.F.V.=Xy.Y.F.R.G.H.C.H vXZXpXy.r # 6 =Xv.=X>X/.G.F.U.5.R b./.6.H.D.G.B./.!.r.#.n Y.X.X.Z.M.W 3.u.y.;.Y.Y.b.=X1X).c.c.x.M.b.R.gX/.V.t.: ` Y./.J.B.s.s.(.HXBX&X4 O > D.F J ^._.6.u.5.).XX!.}.^.P c._.6.Z.R.G X.B.R.n ^ 4Xf.<.XXeXF.8.^.N.G.XXlXZXkX Xt.!.6.9.! { X.~ V.!./.&X1XlXd.Y V.FXxX(.8.7 5 t Y.H.3.s $   e | J w d Y <.<.X $.p.!.G.~ #.D. X.Xu.f.,X< u.1X1XG.6.q 1.J./.1XV.H.8.c.M.X.=.3...JXeX7.1.<.c.1XQ.Y.3.>XwXQ.h ; f >X).Q.Y.(.&X} n u.iXxX7X;X&XwX-XC.v.U. .N.<X.Xw { Y.y.Y.y.$.r.'.F.V.=X8.Y.F./.H.G.D.H 8.Y.F.F.B.{ _.=Xc.,X,XR.H.F.ZXvX|.:.l : 2 B.H.B.^.{.r.+.n Y.#.X.C.b.E 3.u.r.-.F.H.N.=X1X).x.c.j.C.c.R.pX/.B.t., ' Y./.!.D.s.N.^.1X/.(.E Y B.B.W F !.(.y.c.5.SXCX XK 6 # c./.6.C.Y.G | B.Y.n +.dXG.",
"F G.dXZ.#.c.9.!.4X3XnXfX<Xd.Z.3.SXlXy.e # 1  X^.;X&XlXXX6.,X_.7.{ ).` R.H.X.S n O     s T F + d ~ ~ s . %.!.t.G.t.~ ,X1XY.#.<.B.q #.,X^.s.! w 1.!.b.F.} #.5.-.8.uXgXc.l l j H.<.~ u.>XM._...r M b...-.vXrXT...9.W.)...F c.bXxX9X%XkXyXoX+XR.@Xk.-.1XhXs ! Y.y.;.@.u.C.}.R./.=XR.=XH.H.O.V.F.m bXBXkX;.l # 1 ZXY.6XkX).y.Y.Z.C.5.b.F.u.D.u./.u./.D.:.r.F C.#.5.Y.c...X.Z.C.F.F./.).H.=XQ.C.b.-.c.-.] R.{.Z.!.e ` &X,X.XD.B.s._.FXNXC.4 * : r.i F _.C.).3.+.XXXX_.}.,X| 8.u.s.u.H.} X.,XC.b 1.lX!.F Z.dXZ.#.b.9.!.4X1XnXgX<Xd.!.4._.7.| ! J H. X^.&X=XfXXX6.,XSXbX%XZ.1 1 1 X.G b O     u J D + F T ~ s . %.!.u.F.t.~ XX,X^.-.#.V.4 #.&X/.u.! w 1.R.b.Y.} #.3.=.8.R 3.*.y.MXNXZ.<.~ u.>XM.%X..1X6XR.0 = h yXT...9.Y.).+.M u.vXxX<X%XxXwXoX+XQ.=Xj.3.0X6Xs ! R.y.;.O.u.C.}.R.^.=X'.=XH.F.| V.F.m 8.U.R.b./.E N.BXH.6XvX).6.W.MXMX5X,.u : , u./.u./.B.2.r.Z F.@.3.Y.a...X.Z.F.U.F.)./.Y.>XQ.F.b.-.v.-.] R.|.Z.!.e E &X=X XD.V.u.|.=XG.u.P ! r.r.s J _.V.(.5.#.FXGXXXR 9 = 8.u.s.u.Y.} #.=XZ.b ^ dX!.",
"s !. X7.N.,XC.s.6XpXjXbX,X^.t.G.FXNXZ.7 $ 1 <X8.|.6XfXd.6.NXNXZ.P ^.3.5.#.3.S r     $ <.~ <.& t.XX_.J X $.2XR.G.a.Q f.XXH.5.H t.4 Z >X6.F._.q %.:.-.C.3.Y } @.3.vXkX@.k B 0 (.3.Y r.U.x.F.Z a m E E a.rXpXM.=.#.c.V.<.r.u.*XuX1XQ.>X=XK.L.*XpXP.u.1XlXF ! R.$.r.$.Q F.[.F.D.}.>X=X&XpXt.5./.R.gXbX%XR L $ = 5X|.Y.=X5X).=XR.R.D.R.R.D.%.!.{.] r.-.t.r.M 5.#.B.eXR.u.<.N.F.Y.y.V.#.H./.>XM.y.#.n.V.b.H.Q.R.G.3 [ 6XdXdX!.| B.dXSXpXH.9 = > D.u J dX,XNXH.D.XXXX!.6X;X` } ! } u.&XJ #.pXR.H 2.nX!.s /.}.5.V.&XB.s.6XiXkXnX<X!.6.G._.Z.6.J E G.1X8._.rXfXd.t.NXPXNX%XV.7 ; - <.S r     % <.^ 1.% t.4X{.J + +.XX`.G.a.O.a..X!.3.R 6.3 Z ,X6.D._.q %.w.:.Z.-.L | } 3.r.>.N a.PXtX^.3.E w.Y.n.F.Z 1X5X,.7 > y hXM.;...c.C.#.r.u.=XpX1XQ.>X=XK.U.:XxXP.k.1XlXF ^ R.$.r.$.Q F.'.D.S.|.>X.X=XtXr.6./.^...r.` #.tX} } >X.XH.=X5X|.&XZXZXpXb.k > ; /.!.] 9.:.r.y.M r.#.V.eXR.y.#.B.Z.Y.y.c.%.F.).>Xb.u.-.x.V.c.U.Q.R.H.3 ] 1XdXdX!.| V.tX|.#.b.] ..s.B.i J 6X=XnXH.B.CXSX X..8 $ } ! ~ u.&XJ #.pXR.H 2.lX!.",
"b {.dXy.G.1XH.<.1XSXVX&XY./.C.N.bXSXY.q O ; ,Xb.|.lXlXF E NXbXN.L } -.#.u.| b ,     9 H.N.! + Y lXZ.i . O.J.=X{.J.r.r.!././.8.a.w Z {.+.f.u., r.] :. X7.H ..B.5.pXvXi.l l 6 &X5.r.v.Q.' R O.r e E +.a.*XrXzX_.C.F.H.#.Q Z =XtXL.j.U.:XT.Q.*XpXoXc.!.4XF ! Q.@.a.r.Q C.R.v.b.F./.R.v.b.5.r.H.&XkXtX;XZ k # > F.y.$.e.u.R._.R.'.5.u.Y.,XJ.G.XX#.B. X8.u.H ] r.f.|.U.-.| u.Y.|.F.u.#.3.Y.&Xv.&XH.c._.F.&XR.8.G.F a  XdXkXG.<.<.<XBXpXy.0 # 1 R.F e {.fXtX^.f.,X4X(.=XwXc.5.2.N.6. X} <.lX5XE Y tX<.n }.dX6.G.1XY.2.1XZXVX|.^.(.s.D.9. XV.! x <.,Xc.).bXlXJ Y nXPXNX_.L 6 = : { S &     9 ^.d.^ + T dX!.r . O.J.=X|.G.t.r.G.{.^.r.a.e V |.| f.u.& r.Q :.|.3.L #.B.:.` x.@.y.GX_.&X7.5.b.Q._ R +.>X;Xr.r 1 8 rXzX+XC.F.Y.#.~ Z =XiXL.j.U.*XY.Q.%XpXoXc.R.4XF ! Y.@.u.r.] M.R.A.B.F.).R.b.b.5.8.H..X@.Y ] ` ).R u.Y.,.@.e.v.R._.ZXZX5X#.j 9 2 G.2X#.B._.6.t.H E y.f.|.U.-...u.Y..XC.c.#.5.Y.|.v.&XH.c.|.F.=XR.5.H.Y u _.fXlXG.2.<.1XG.;.} Q H B.J.H r  XfX6X^.B.GXJXXX` 0 : 3.5.N.8. X| #.lX,XE W tX<.",
"s G.=Xf.6X1XB.+.,XGXVX5XB.Z.t.t.vXNXc.e # - #.@.5X,XdXs M ).eX| ! s.b.B.B.9.b < .   L H.9.3.< ^ XXt.b + +.J.tX4X2XF.O.}.R.b.-.XXN V /.J./.^.< ~ %.u.). .} @.b.-.uXpX9.C g 6 #X6.#.R.>Xn._ r.x 3 2.2.#.}.T.yXQ.;X1XH...M Q .XgXL.L.U.wXQ.%XC.Q.P...|.dXF G ;Xb.B.F.} U.F.J.o.u.|.b.;.i.%.@.M..XvXpX=XH 7 = > Y.7.C.).$.#.3.r.2X;.Z.V.b.G./.{..Xc./.c.F.#.] -.u.^.U.u.#.c.|.1X,.b.y.-..XU.M.Y.C.Y./.b.F._.).5.n e _.fX,XB.2.<.u.vXpX,.2 O > ).#.a 7._.Y.Z.s.XX4X(.H.@X9.#.5.Z.c.dX6.6.lXdXc.F 6X#.i J.,Xf.6X6XB.| ,XGXVX5XC.Z.t.s.u.H.#.! | 3.+.#.1X,X6Xs M |.JXkX X#.t 1 1 y.b <     H H.5.3.< ^ XX1.S + #.!.tX4X=XF.+.}.R.A.-.XXb M ^.J./.^.< ~ %.u.(...{ #.b.:.G *.' T.kX(.&X9.#.J.;XM.R y.wX&Xb.a = 6 R.yXQ.>X>XH.O.b Q |.kXC.L.U.9XOX+XC.Q.L...).dXM G >Xb.B.G.] U.J.J.] y.).b.;.y.%.@.b..X;.] ....5...u.Y.8.C.].@.#.5.bXGX>X6.t > 2 {.{. Xu.R.b.F.-.] -.u.!.R.b.#.c.).1X5.b.u.-.&XU.M.W.C.H.^.b.H._.).5.M 9  XdX,XB.5.-.u.3.@.` Z G c.).#.a 6.(.Y.Z.d.FXJXXXB 8 : #.5.G.c.dXt.t.lXpXu.H 6X#.",
"M f.,X6.6X1X#.^ 5XZXFXlXG.<.t.t.MXBX&Xc < - } c.,X,X6XF F R.u.G ! 3.#./.H Z.x w X , s.B.V.k.& ^ ^ 1.^ % f.!.5XrXY.B.t.`.D..XD. Xs n }.,X,X9.< E /.C.c.N.Z.#.V.V.eXpXx.C 8 6 bXZ.2.=X@XK.;.#.r k ] Y O.i.T.zX8XU.L.V.Q H Q F.wX;XP.L.%XW.m.n.M.j.@.C.lX} D (.u.F.J.R b.R.i.u.M.|.].v.#.D.} } F.bXvXtX] 6 - 7  X=.|.=X}.%.5.b.=XF.H #.u.G.G.C.dXY.).H.b.2.L r.5.G.b.y.8.Z.F.H.y.@.:.b.C.Y.c.F.6.H.u...=.vX6Xu.a t _.dX5XC.Y } 3.kXMX5., O = &X#.z u.G./.5.<._.,XG.H.R.#.F u.(.c.tXy.<.lXlX XN &XG.d a.>Xr.<X1X+.| 5XSXFXbXB.<.t.t.B.^./.V.V.<.} N.5X,X4XF J Y.bXeX&X! 6 6 O H.x w X : u.N.V.l.& ^ ^ 1.^ @ p.`.1XpXT.D.t.`.D.{.G. Xj M  X,X,Xu.< Q /.C.c.V.Z.#.C.N.N ....T.=X_.bXZ.5..X%XC.;.#.1X>Xy.7 $ : T.zX>XU.Z.V.Q J E Y.rX;XL.L.*XW.M.n.M.k...Z.lXO.G _.v.G.H.R M.R.i.i.B.|.[.v.%.F.] ..F.i.:.b.3.@.8.<X X=._.=X}.%.r.nXFXpXm 7 : 2 H.D.kXH._.H.b.3.R r.6.D.B.5.5.Z.F.Y.y.@.-.b.C.U.c.H.5.^.u.O.-.vX1Xu.a r _.dX,XC.Y | :.-.H.{ n F #.&X#.x u.G.^.6.<.FXGX{.B 6 = F 9.).c.eXu.+.lXlX&XN &XZ.",
"F a.}.t..XB.D.+.}.ZXVXpXZ.G.f.D.CXCXeXV : # 6.lXJX/. XD x 6.9.Z.| P H ^.#.V.u.s + i S 6._.4.d 1.d ^ ^ % +.B.O.R.:.R.t.a.J.J.F.s.w s O.D./.^.Y H u.Z.W.C.Y.3.1Xu.eXgXW.L 6 > ).#.M S.;XC.y.R.G , E H #.y.T.mXrXY.j.Y.%.G.@.M.wX9X-XK.Q.L.OXQ.*X@X-.3.6XO.D 6X} U #.O.Y.B.c.r.b.>X].v.;.5.y.:.o.MXvXtX5.p : 0 1Xi.R.{..X X2.<.u.%.;.u.6.y.J.D./.Y.G./.c...H c.#._.C.r.c.1X{.|.R.:.] H.Y.Z.V.Q.u.B.i.c.6.Y.c.i.M 4 G.(.^.D.5.#.8.KXZXR.t O 1 |.J r t.f.4Xu.Y  XlX4XeXc.-.b _.bX_.6X5.+.dXkXeX' ).XXF a.XX6..XV.D.+.{.CXMXpXZ.G.s.f.G.{.,X^.9.G 6.lXJX/.XXD s 3.bXBX;XN ; 6 % V.d.s % i s t.^.7.r 1.b ^ <.+ 1.B...R.:.R.p.t.H.Y.Z.s.4 n O.D././.J H u.Z.W.G.Y.3.1Xu.H %.b._./.V./.#.M A.*XL.y.R.eX|.y.6 = : E.mXwXT.8.P.-.G.@.L.wX;X@XK.W.L.oXQ.*X@X-.5.4XO.D <X} Y +...H.M.v.5.b.3X|.i.;.5.y.;.} F.-.B.B.F.9.6X1Xy./.|..X X2.kXbX>X` 0 : : H.D./.Y.C.{.c.+.H b.#._.C.5.c.1X/.|.R.:.} H.Y.Z.c./.u.B.u.a.6.U.c.y.M 4 G./.!.Z.6.#.9.pX).V...H B.|.J u u.d.5Xu.E FXKXtX..1 ; n _.bX_.6Xr.+.dXkX6X} /. X",
"d `.).%.H.#.<.~ XXCXnXrX,X&X2.s.NXBX&Xt * - s.u.lX/.XX^ ^ s.N._.X.K X.( x 3.(.T + i s d <.P d Z.f.6.1.X ~ ^.#.b.D.J.r.b.F.=XZ.#.3 , O.f.,X6X~ H 5.R.Y.V.u./.,XZ.pXnX(.k ; # B.<.H D.wX).:.u.P x y.#.:.R.v.qXiX9X..Z.#.6.-.%XpX;XP.U.+Xn.n.M.I.;X#.V.1XO.q /.u.Q u.t.] R.v.O.u.|.R.F.a.#.#.y.R mXvXkXV.p ; ;  X{.U././..XG.#.F.u.W D.b.f.V.5X{.^. X}.B.Q Y b.} W.M.;.3.=X/.=XA.b.' 8.y.9.8.Z.R.a.r.6.` W.Y.|.m 7 Z.!.B.Y.5.} C.PXSXF.j $ : B.n n !.G.tX.X#.2XlX1X X&Xy.! ^.lXV.BX5.t.}.5XF.-.B./.n !./.%.H.#.<.~ XXCXnXrX1X&X5.u.Z./.^.{ X.3.u.s.lX!.XX! ^ s.NXFX<Xx 6 # o <.(.! + i s b 4.! D g.s.1.1.X Y ^.$.a.A./.2.A.T.XXG.#.4 , O.f.,X6X^ J 8.Y.Y.V.9.(.,XZ.E B.Z.8.7.H C.2.H F.wX).-.i.pX1XF.0 : 6 v.wXeX9X*.Z.#.y.-.+XpX;XE.U.OXc.M.M.S.:XX.B.2X+.q (.y.Q f.u.} R.b.O.y.|.Q.F.a.#.-.u.R y.y.R./.b.x.8. X|.H.R./.XXD.kXBX4XV h > : B.1X|./. X.Xc.Q Y b.] Y.M.;.3.=X/.=XA.b.' 8.9.y.8.F.J.a.r.5.` W.Y.|.m 9 Y.J.B.H.:.} C.vX&Xr.2.E y.B.x b G.H.rX.X#.HXPXtXR 7 ; ! ^.lXZ.BX1.d..X3XF.-.B.{.",
"s f.4XR.-.Z Y E f.6XtXvX<XR.Z.| BXBX1XK 1 ; #.V O.D.XXJ t.!.^.dX3.G { x S | | ^ & w s S <.z s _.eX#.J & E V.@.a.J.{.#.=XH.=XG.H.z 3 B.'.6X6XS } F.=X).B.r./.(.XXtXZX9Xg = O u.G.5.|.>XR.] u.4... X8.5.3X%X%X1X+X .c.O.X.7.wXpXE.j.T.wXW.j.=.|.P.V._.J.$.q 8.-.+...i.-.tX|.} %.&Xb.;.@.! H.C.#.vXnXvXY.0 : >  X1XA.H.b.b.H.b.D.G.P D.R./.H.|.R.B..XY.&XG.F ;.` R.R.b.8.y.] a.:...u.8.x.y.G.Y.^.D.2.J...@X/.Y.R r ^.(. X_.!.B.C.HXGXY.e $ # #.Y s N.y.F.c.8.|.lXpXrXF.Y.X.u.6X<.6XJ.d.J.gXC.` ../.n f.wXR.%.F J ! f.eXpXlX1X/.B.| G./. X^.V.9.X.Z O.d.XXJ d.!.BXJX1Xx 6 o O X.| ^ & 3 s J <.s s _.6X<.E % Q B...a.R.{.#.&XF.=XG.H.z 3 f.{.eX1XS } H.=X).B.r./.).&XP |.@X7.X.G u.B.5.|.>XQ.] u.xXpX1Xk ; 9 |.&X>X+X{ c...| 8.wXpXW.j.T.wXW.j.=._.P.V._.J.%.q 9.:.+.| u.=.tX|.} #.&Xv.,.#.~ H.C.#.y.c.|..X8.r.F..X3XA.H.b.c.Z.nXnXkXN p 2 6 G.|.R.B. XY.,XD.H -.` Y.Q.b.5.v.Q b.%.@.9.8.u.u.P.Y.^.F.5.H...&X(.Y.Y t ^.(.XX(.G.Z.C.1X6Xb.} E | | Y s s.u.F.c.8.SXKXbX[ 2 1 X.u.eXX.6XG.f.J.kXC.` } {.",
"Y a.1X5XH.H ~ Y +.>X5X6X@X6XdXs.nXBX&Xx 9 5 c G $.i.sX^ ^ 2.V.-.3.E N b J V.<.2.r w | ! <.r ! 1X;Xu.D + W r.D..XF.F.3.=XF.r.r.!.b b r.V.).<XG ` i.nXeX(.B.=X=XV.wXSXuXK - X 5.6.5.|.T.R.i.R.K N Y.6.r.J.=X4X=X@X` C.` ! t.&X9X*.*.F.uX;X$Xx.&Xl.E F.2XT e 3.@.@.P c...4X3X8...U.i.:.} 2.eX Xu.nXbXtX#.9 - 2 R.|.$.u.B.V.B.).R.d.J Z. XF.G.|.R.D.&XC.(.B.J R.C.;X*X&Xc.a.%.a.O.-.C...c.Z.` -./.}.f.H.P.1X(.&X#.6 Z.{. X!.!.B.P.bXGX1Xr # ; b F s 9.u.C.L.F.|.dX6XtX|.Q.E u.eX<. X`.G.4XgX=X{ x G.J f.3X3XJ.G } Y O.2X5X4X&X6XdXs.d.^.Y.V. X_.x H #.B.dX! ^ 5.NXxX1XV ; O # B.4.1.w q | ~ <.r ! 0X;X9.J + W 9.C..XF.F.3.=XF.r.t.!.b n y.b.).,XG ` y.mXeX/.B..X,XV.b _.9X(.3.a r.1.5.).T.Q.u.R.dX1X.Xj : 6 *XwX=X&X' F.W ! t.=X0X&.*.U.uX;XOXv.%Xl.{ C.>XW w 8...@.E u...6X3Xe.@.F.y.:.} #.eX_.u.b.3.B.c.t.:.B.R.}.@.y.C.B.Z.SXCX4XN a 7 1 H.|.R.B..XC./.Z.H Y.F..X;X&Xc.a.%.a.O.;.C.@.c.C.` -./..Xd.H.Z.9X^.&X-.5 Z.(. X/.!.N.Y.c.,X X#.H X.b J s 6.u.m.Z.F.SXKXtX@.6 6 ! u.6X<. X{.f.4XpX>X .n f.",
"} u.D.6XH.5.E Y | &XpX=XG.6XF.#.bXFX=Xj > 1 } P Y y.lX~.^ %.B.G.~ M P { E *.| 1.q r <.^ | s 6.=XC.b.4., N b.F.F.R.r.#.H.-.5.W B.s e 3.9./.(.#.6.Y.).1XN..X&X&XB.dXSX1Xc = o |.f.u.].U.R.eXC.b M =Xr.b.Y.%XvXQ.^.{ |.7.H r.%XpX+X7.9.;XP.M.E.].l.5.c.pX@.<  XD.|.5.V.C.C.|.-.~ b.C.*XC.B.,X1X6.nXpXtX3.c 6 > |.nX>XR.a.5.Y.F.F.+.} C.dX_.!.=XU.R.=X6.)./.z 9XB.).wX1Xr.t.i.!.q.%.Y.=.c.&X..#.Y.c.|.V.9.V.m.(.( , 5X.XH././.f._.HXBX,Xl ; - ! b i s.5.F.=XR.Y.nXjX1XR.R.W s.6X#./.G.G.lXgX,XX.c u.! u.F.rXF.:.E Y | &XpX=XH.6XD.#.y.,X).5.C.Z.} P R r.lX!.^ 1.MXBX&Xj 1 # # X.X.<.w r <.~ { a s.<XB.b.6., n B.H.F.R.r.#.Y.;.:.W D.z w 3.u./.^.#.6.Y.).1XN.}.=X.XN.R =X@XV.X.c ).s.u.'.F.T.eXB.0X5X4Xl : 2 %XvXQ.).` _.7.F u.|.pX+X7.9.:XP.m.T.$Xl.,.c.gX$.< @XB. X5.B.C.F.|.;.~ b.C.&Xb.B.,X,X6.b...B.V.|.Y.c.&XbX3XR.a.:.Y.BXBX=XH h p 6 ^.,XU.^..X5._./.s 0XB.).wX>X5.u.i.!.q.%.U.@.c._.@.-.Y.c.|.C.9.V.m.(.` ; 1X=XH././.f.(.6X|.|.y.#.5.E b i u.3.F.,XR.ZXPXvX' 6 2 W s.6X<./.G.G.bXdX=XX.m u.",
"! _...|.>XF.+.F #.>XvX>X&X=XB.3.BXNXR.p ; = V #.] ;.4X{.+.J.&X.X#.#.5.3.! b b J s q D <.7., 9.(.^.N.<.3 O.6.V.H.R.F.X.,X5.a.#.| z S  XF.|.=X<.y.,XG._.f.4X X/.N.gXMXZ.( 6 O R.t./.|.].&XMX}.K n ,X(..XpXW.pXC.V.-./.H.~ y.k.;X9XV.=.oXP.m.W.U.l.M.c.*XO.< (.b.F./. XR.Y.|.:.#.b.>XT.r.B.B.r.#.ZXvXpX6Xj ; 1 Y.nXwXR.F.B.V.C.C.G.5.G./.).,X1XF.R.B.` Z.&Xm Z.,.F.tXwX:.F.G.(.4X'.#.u.R.).b.` &XW.=XG.C.Y.&XZ.P ; V.&X).R.d.G.^.HXMX&Xj : % s.+.s ~ 8.1X,X&XY.tXU. XrX=XY <. X} 6.XX^. X X1XZ.n G.! _.} |.>XF.<.F X.1XvX>X&X=XV.5.G.H.b.#.#.] V #.] :.4X{.+.G.FXFX=XE 9 - # z b J s < G 6.9.< 6.^./.c.<.4 } 6.V.G.R.G.X.,X6.a.#.| x F  XC.).,X#.u.,XG._.f.6X X(.N.{ F.9.&X(.r /.u.'.|.|.&XMX&XfX1X6XL 7 t W.zXC.V.-.Q.G.} a.x.@X9XV.*.W.E.c.OXU.l.M.c..XO.< W.B.B./. X/.Y.|.;.#.V.3XT.y.D.V.r.@.R.#.G.lXH.5.B.R.nXwXR.F.B.C.MXnXpXQ j 2 7 =X1XU.Y.B.] V.=Xn Y.5.C.rXyX5.D.G.{.rXR.#.v.R._.b.E &XY.,XZ.V.^.&XZ.) % V. X).R.d.D.^.1XF.R.r.B.+.s.<.s ~ 6.>X>X.XBXHX%X_ f 9 Y <. X} 6.XX^..X&X1XH.n D.",
"t.y.! }.tXF.#.Y S /.iX>X&X/.#.} MXBX=X0 # # F 7.E R /.!.1.B.B.^.#.B.6.u.#.P b 6.S M Y 9.<., /.F.G./.! u _.G.^./.F.B.G /.b./.B.<.r 6.1.B.6XH.E t./. X<XH.=X1X/.u.uXSX%X` ; o }.G.D.*XR.*XfXxX4.M 1X<XMXmXzX8X,.Q R a.B.u.).).@X<X7.>.m.l.' C &.k.U.V.2Xp.w /.#.3.R.6XY.Y.iXb.u.Y.tX'.:.5.%.b.r.FXMXkX} B > 1 R.=XM.U.8.(.%.F.J.R.@. X/.H./.1XF.B.-.| X.R.N C.U.b.U.Q.C.Z.).%XrXS.5.c.). XB.#.&XBX_.5.E Y.1XdXX., 3.V.Z.{.f.u.b.HXBX6XV 1 - s.1.S 6.y.B.|.R.u.R.y.c.>X=XF | ,XE <.!.(.B.!.SX1XY {.t.t.E  XpXG.+.Y M /.rX1X&X).#.} N././.@.] ` H 5.E R !.!.%.f.nXCX=X5.e > - P M 6.S b ^ 6.<., ^.F.Z./.~ u _.G.^./.F.V.G /.N.^.D.<.r 1.#.B.4XH.! t./. X<XH.=X5X/.u.P .XU.<Xs.4 {.G.G.&XR.:XpXgXxX1XtX_ j h zX8X-.] R i.b.u.).oX&X<X7.>.l.l. .C *.7.F.V.>Xp.w (.$.6.R.4XR.L.pXb.u.Y.rX].:.1.#.b.r.&XF./.5.=Xc.H.R.*XM.F.r./.5.MXZXjXR m 6 2 /.1XF.B.-.| X.R.c V.T.b.U.E.C.F.{. XrXC.-.c._.&XC.#.=XBX|.5.E Y.1XtX| , 3.V.C.).f.a.N.1X/.,XZ.B.#.d.1.S 6.y.C.|.R.bXMXF.v 0 8 F ^ &XY 5.!.(.f.!.SX,XY {.",
"R.f.%.tX}.#.5.1.F b.=X_.|..X).G.NXCX.Xn = # M #.Z V D.D.2.).c.G...3.6.^.-...G J ! & s u.b r ,XdX&XY.E s s.H.,Xa.6./.5.Q u.F.D. Xq ^ +.|.6XB.J 6./.}.!.H.eX>XH.V.gXBX|._ < X T.5.:.T.Y.=X0XBXV.T kX).8XuXzX8X>.-.a W d.B.;XoX<XE.7.+X+X>.( >.*.) v.#.3XF.< Z.9.#.5.b.V.|.|.c.Y ,XmXy.#.Q a.#.;.FXDXtX` j 6 > (.|.'.T.u.J.B.R.Q.|.#._.c.c./.(.Y.c.b.u.c.J.z Q.C.m.>X$X).c.F.5XwXU.#.V.y.H.Y.O.Y.1X;X5.#._.bX6X..3 C.Y.Z.&XJ.B./.PXZXeXL 1 # | f.J (.F.#.).F.} |.M.B.>X=XQ F ,Xu.u.!.H.#.|.BXpX:.G.R.B.%.dX_.#.2.2.F b.>X_.|..X/.F.B.XXH.d.O.G N <.Z Z G.Z.1./.nXBX;X{ t 1 - ..G J J < s 6.b r ,XtX&XH.! a a.H.=XN.5./.6.E u.G.B._.q ^ 2.|.4XV.Y 6./.}.!.H.eX>XH.V. .Y.Y.&XV.e J.5.:.U.T.=XwXAXMXtXMXA f f zX9X4.#.s R d.B.;X).;XQ.j.@XoXh.( >.*.) v.$.1XG.< V.y.#.3.b.C._.}.c.Y =XvXv.%.Q a.%.-.&X=XV.-.Y.).u./.|.Q./.t.J.f.BXSXbXY c > : /.).Y.u.b.u.c.J.z ).C.M.>X%X_.b.H.1XwXU.#.C.r.H.H...Y.1X;X5.#.).bXeX..3 C.Y.Z..XJ.C./.bXR.,X_.B.} +.d.D /.F.@.|.F.kXSXR.c 8 8 W J ,Xu.s.H.!.#.{.BXpX3.G.",
">XB.2.,XC.} } 2.F #.=X X|./..XdXBXNXG.R e # n ! G Z r.+.t.!.N.H.=.H 3.Y.-.B.9.X.4.+ S _.b b /.lX).N.M s Z .XtXu./.{.F Y y.c.#.N.@ i O.5X=X5.+.H.bX6XY.|.JXCXG.(.tXBX;X' 2 O '.u.U S.R.wXvXGXV.! lX@X|.%X%X0Xl.8.B U d.u.nX&X;X).oX@XP.&.*.&.' ..F.] 5XJ.& k.C.6.r.G.B.(.b.i.5.).qXo.] ~ O.C.@.ZXVX>XE h : # V.|.R.a.G.XXa.B.R.:.{ gXeX_.Y.R.H.b.N.^.Y.=Xx L.(.x.>X>XuX).u.R.E.F.-.V.3.9.|.#.b.&XV.H.Z.tXvXvXa., -.(.6X,XG.H.5XKXMXrXZ - = } 6.D Z.B.F.H.D.+.R.#.t.lX3XW F G.<.u.{.G.O.H.tXrX:.y.,XB.5.,XF...~ 2.S +.=X&X/.)..XtX!.G.t. X6XJ x ! H Z r.| d.H.MXBX>Xn 7 1 ; B.9.X.6.+ S XXb z ^.lX).c.M s F ,XrXy./.{.F Y u.a.#.s.& u O.6X=X5.#.H.bX6XY.|.KXCXZ.^.K /.(.1X^.r {.u.Z S.R.wXvXFXNXdXNXL 6 8 -X8XN.j.B Z d.u.mX%X;XW.W.@XP.&.&.&.' } F.] wXF.& c.C.8.r.G.V./.b.e.8.).5X[ o.~ } F.@.U.U.@.@.H.u.P V..XR.u.J.{.u.MXAX1XG L 0 7 Y./.Y.b.V.Y.Y.=Xc L.).j.>X>XuX).c.R.U.F.-.C.5.9.|.#.c.|.C.F.G.eXkXvXu., -.(.6X,XG.H.1XiXT.>XJ.%.} ..t.F Z.B.B.G.B.kXBXb.j h 9 W F D.#.u.{.G.O.H.uXwX5.y.",
"4XG.@. XY.6XG.U n T ,X).R.D.|.dXGXBXF.H j # x #.] } u.+.!.u.b.&Xb.Y.|.XXY./.Z.X.x , ~ V.s S {.,X).c.b a F }.).6. X!.s ^ 6.b.5.1.d i G.1X X#.U 1XkXCXeXG.=X/.d.4.<XBX1Xj # O b.G.@.].%X8XpXpX4.#.lXN.Y.T.iX9X*.W.y.J.!.5.kXeXxX0X@XP.@X( K C ( ' R.@.Z.b.% >.T.Z.a.H./.D.H.v.u.R.*X] r.O.Y |.R pXbX=XV l ; # G.rXF.H.{..X%.b.c.y.| <Xm.C.V.5X=X6.F. Xu.C.V (.%Xm.|.;X9Xc.#.(.Q.Y.#.-.@.u.C.#.u.M.c.).F.eXuXpXa., ..&X&X_.B.B.|.HXKX=Xy $ $ -.u.S s.B.V./.F.%.Q.r.a.,X4XU M B.r.D./.G.H |.pX>X8.6.4XF.+.}.U.4X!.F M W =X)./.D.|.dX,X^.t.{.lX! x X.] ] u.+.Z.u.MXFXeXN.c 8 1 R.Z.X.x & ! V.z S ).1X).c.b s H {.).6.{.!.s ! 5.b.5.<.s i H.,X_.#.Y >XkXCXeXG.,X/.s.1.r H.&X3.! z D.G.#.|.|.5XpXpXxXgXMXc 2 6 uX9X*.W.y.G.^.5.lXeXxX0X@XV.@X( ( C ( ] R.@.F.A.% <.Y.C.u.H.{.D.G.b.u./.*Xo.r.~ W |.R [ c.#.` /.u.` H.eXF.R.{.XX2.MXnXwXG C > > C.1X=X6.G._.y.F.V (.%Xc.|.;X0Xc.#.Q.W.R.#.5...u.C.#.c.M.c.|.Z.eXiXgXi., @.&X<X(.D.B.}.6XkXR.@.] Y -.s.S N.N.Z./.F.kXBXC.n 8 y U M B.6.D./.G.H |.pX>X6.5.",
">Xr.r.6X6X,X.XG.] H {.6X6X5XR.,XCXMXb.e 0 = V b H R t.t.d.t.-.Y.).1X1X<Xc.Z.Y.<.w & <.3.z J <X_.Y.#.H s x 5.B.R. XH.S ~ -.b.B.6.D r Y. XG.!.E }.kXlXs.2.$.+.6.d.uXMX&Xt # # b.^.F.rX6X>X=XxX@X<.eXy.>XoXPXmXV.0Xc.Y.N.6.4XpXFX@XP.h.oX*.( [ ` V T.b.V.|.& D >XY.B.u.V.2./.=Xr.|.].;.i.#.:.x.8.nXxX>X3.c ; > 1X6XH.F.J.XX.XC.F.,XN.H.=.3.c.6X,Xa. X).Y.).} W.0X|.=XT.1X8.u.Y.Q.U.#.Z.Y F.)...-.V.&XH.` %XnXhXa., 6.H.| H.J.D.#.SXMX).k = $ r.-.! -.c.-.{.B.V.-.-.XX6X>X+.H 5.D.f.u.J.Z F.R.v._.-.>Xr.5.6X6X2X.XG.] H {.4XrX5XR.,X{.G.#.~ <X@.F b F L t.t.d.t.kXBXvX).m 0 > Z.Y.#.w & <.4.s Y ,X|.Y.#.F s n 2.B./. X!.S ~ :.b.B.6.D r Y. XH.H.E }.kXlXN.2.$.+.6.B.P Z.^.X.` Y b.^.F.wXwX>X&XxXFXfXfXk 8 6 LXmXm.1XC.Y.s.6.4XpXFX#XE.7.@X&.( '  .N T.b.V.|.% G ;XY.f.c.V.5./.=X6.].Q.;.u.#.3.y.8.c.....V./.6.V.1X6XU.H.H.XX.XBXBXnX3.h = ; c.wX,Xa.|.).Y._.} W.wX_.&XT.1X8.c.H.Q.U.X.C.E Z.).} -.V.&XH.` %XnXhXf., 5.H.| H.J.D.#.}.R.F.u.+.~ y.<.! -.u.2.|.B.nXgXb.E 0 8 $.Y 5.f.D.c.F.F F.Q.v.).-.",
"5.#.!. X,X{.J..Xy.Y {.kXkX|.{./.bXgX|.c = = H i M @.,Xf.2.F c F.eX=X&X&X8.x.9.{ s r T ! s <._.(.vX/.n M s d.H.1XB._.J F.,XG.u.! D ^ tXc.F.H.E u.=XeXX.Y O.a.6.^.gXbXfXP 1 . G. X,X&XpXfX9XBX(.J ,X|.SXDXLX0XX.&XL.c.9.u.pXgXwXY.9Xk.m.n.*.j.L r x.Z.F.y.+ X.%X3.3.N.H.b.H.).} ,.b.Z #./.Z.8.3.pXnXgX8.p ; - C.4X).r.B.&X6Xc.V. X5.H.c.} 3.,XR.F.H.C.G.6X#.k.Y.Y.U.Q.W.B.Y.Q.1X*X7.8.8.V.B.#.} 6X&XV.A %XAX4XG.% @.N.5.G.a.R...CXDXrXR $ = a.B.5.Y.5.W r.G.Z.c.F.4XkX1XO.F 5.t.+.8.R.F r.tX>X8.=.3.=.!. X,X{.J.=Xu.J {.kXkX|.{./.r.-.H.B.#.@.H s Z #.,Xf.1.H wXMXSX/.m 7 ; n.9.| s e ! ! s <._.).bX).n n b t.H.6XZ. XJ B.,XF.b.! D ^ tXc.F.G.Q u.=XeXX.Y ~ p.6.!.) V.eX XB.3 G. X,X&XpXpXwXAXFXeXeXL l l LXuX*.;XP.c.9.u.pXfXeXL.9Xn.l.m.&.h.L r v.F.C.r.@ 4.@X3.5.V.Z.a.H.|.} ,.v.Z %./.H.,.:.E b.^.C.C.@.5.B.3X).y.B..X6XbXnXbX} j > $ 3.,XY.F.R.V.Z.6X#.k.Q.U.U.R.W.C.Y.R.5X;X7.8.5.V.C.#.O.eX&Xc.H +XZX4XG.: @.N.5.G.f.Y...J.2X>X|.E #.b.B.3.P.8.Y r.H.BXvX|.} h 0 +.Z 5.t.O.r.R.Z u.eX>Xy.#.",
"=Xa.B./.|.Z.8.F.:.Q =XlXwXC.tX4XvXnX5XV ; O a n m W !.G.^ F M X./.,X&X=X9.C.>.D r w ! 3.z M | D.6Xb.G F d p.4X4Xu.(.G t.1X.X1X4.& +.`.B.-.H.8.u.R.,X6.P O.J.Z.6.gXBXvX' ; O J.G.D.%XwX1X1XmXl.S <.dXSXSXAXuXG y.8.!.f.u.4XwXOX9.<XQ.xX@X .[ >.N ,.x.%X5.% G c.9.dXtX X(.3.|.b.H.6X8.b.6XH.u.:.vXCXpXx.j 1 ; F.=XM.@.u.|.&X;.b.Y.2./.U...5.6X5X).H.F.F.|.` -.b.:.b.F.>X-.C.C.|.-.] :.b.Y.6X,.b.9XM.3.x +XMX3XF., p a.r.5XJ.2.r.KXDX3Xk - : F.b.N.9.S Z R.4XR.b.J.fXnXtXQ a {.#.a.R.).! a.nXrXU.w.=Xa.B./.}.Z.8.F.:.Q =XlXeXB.tX4X8.b.=XF.$.Z p n n R /.G.^ G eXkXlX{.m 8 ; V.>.G r w ! 3.z S | B.6XV.F F b f.1X4Xt.(.G r.1X X5X4.& ^ {.b.>.F.9.a.R.,Xu.J O.J.Z.6.~ R.gX,X4.S J.G.F.%XwX1X9XmXMX1Xc.=.l l AXuXH 9.6.Y.d.u.4XwX).8.1XQ.xXoX .[ -.V 8.x.&X2.% G m.9.eXdX X/.:.|.u.Y.6X5.v.6XH.u.:.3./.Z.U.Y.Z.<.G.=Xv.=.y.|.|.vXnXjX{ k 1 = 5.6X5X_.F.H.F.{.E 3.M.w.b.F.>X5.B.C.|.:.] ,.c.Y.6X8.c.6XM.5.z +XnX1XF., r a.r.,XH.2.t.tX5X[.u.%.r.B.F.B.9.V H J.1XCXnX X$.h p ~ a ).#.a.R.).! u.NXrXT.:.",
"rX5XG.B..XH.-.C.{.Q i.pXeXi.4XkXnXnX>XA 0 1 ] E Y R !.^.! <.! C B.,X{.1XC.;XZ.| q w 3.{ r J 1.t.Y.V.J S s %.R.,Xf./.| .X6XF.|.6.q F a./.c./.#./.2X=XX.#.B.G.3.B.bXHXFX .1 O G.G.V.Y.Q.eX1XiX;X3.6.b.zXvXuXxXE <.u.#.6.+.vXxXfX9X<XQ.xXm.P.E.L.} C.U.Y.,Xu ) @X(.NXeX|.Z.Y.D.#.c.6XY.B.>X8.c.[ kXHXeX/.e 1 $ 3.u.' ;.y.=XT.5.c.>Xb.V.&X).N.).=XH.|.|.!.5.a 8.=X} W U.>Xb #.c.b.5.#. ...C..X-.Y.5XC.@.E &XrXR.r.4 r !.{.4XG.r.t.PXSX>XZ = $ R.:.u.u.c.F |.4XJ.-.G.CXvX'.~ Y 6.5.9.>X.XY a.lXkX5XR.rX5XG.B..XY.#.C.|.Q a.pX6Xi.4XkXb.D.|.).,XY.` E Y E /.!.T <.tXeXrX^.c 8 1 ;XV.| q w 3.{ r J 6.t.H.V.H b s 1.H.5XB.(.X. X6XG. X6.q F a./.c./.#.^.=X=XX.+.B.F.3.B.6.eXBX0XN.S G.D.B.R.).eX1XuXFXgXH.l f h zXfXP #.u.-.5.+.lXkXxX9X<X+XxXP.P.E.L.{ M.U.Y.5Xr { @X(.NXeX|.Z.Y.D.#.N.6XY.C.1Xy.c...#.,XC.=Xr.N.| 3.u.] ;.c.=XU.vXnXMX-.g 8 6 c.).=XF.|.|.^.5.a 7.=X} R U.>Xv #.c.v.3.#.{ ..C.&X;.Y.3XL.#.E &XrXR.r.3 p /.{.4XG.r.t.VX=X].Y.%.} R.:.u.u.a.Z |.rXVXpX{.y.h 2 Q Y 5.5.9.=X=XT a.lXkX5XR.",
"|.pX{.}..XF.u.p.b.U ] F..XT.>XrXMXvX,XZ > 2 dXC.-.b.6X6Xd.t.J u.|.,X.X/.9.wX=X7.< w 3.3.D | s.#.B.s.J r 3 ~ G.).B.5. .F.dX&X(.6.< s u.Y./.(.<.u.|.1XZ.G.V.F.X.t.BXKXCX..2 $ F.|.lXQ.R.Y.G.1X;XZ.9.F.mXpX@XP.G E V.@.#.H |.1X@XeXgXyXyXj.L.T.m.X.Y.;XW.}.s b P._.&XC._.R.gX/.! X.&Xc.b.|.$.M.] pXBXpX8.2 7 1 9.|.w.F.B.y.8.@.b.kXD.-.C.&Xc. X XR.F.F.B.B.x *.1XF.v.R.Q.] <.V.c.} { 7.3.5.;.;.y.>XS.u.P H.=Xb.D.s ` 6.{.rX!.!.!.KXZX}.Z $ # #.@.-.9.b.n U. X@.u.H.R.=XR.1.@.Z E G.R.D.+.r.CXrXpX,X|.pX{.}.|.F.t.b.a.U ] S..XT.=XrXF.a. XH.D.C.gXF.3.c.6XsXt.f.dXnXbX|.c 6 ; 0X=X9.q w <.3.G ~ d.#.N.B.J r w ~ J./.V.5.} F.tX&X/.u.& s a.R._./.<.u.|.,XZ.H.V.Z.X.y.H.lXnX6X^.` H.{.kX(.R.Y.H.1XFXmXZ.B h f @XP.G E B.#.#.U |.1X@XeXfXwXyXk.K.E.C.X.Y.;X^.|.s b L. X,XV.)./.fX/.E X.|.c.b.|.@.b.] } U.F.Z...,Xs.9.|.,.F.V.8.y.kXMXGXr.7 > 8 N. X.XR.F.G.C.b.c -.9XF.b.R.).` <.N.b.} { 7.7.6.;.;.y.>XM.i.P H.=XA.D.s ` 6.{.tX!.J.!.dX|.G./.+.R #.@.-.y.b.n J.*XgXlX XA 6 6 2.#.Z E G.R.D.+.t.ZXwXhX2X",
"M.4XY.R.}.R.5.J.{.u.W b.'.2XZX=XZXkX Xm = $ tXb.} x.,X,Xt.u.! dX1X&XF.y...|.1X6.& w 3.N.! Y 5.B.^.<.! u < | u.Y.=X5XX...|././.!.& M !.B.^.,X/.G./.H._.dX@XC.{ y.CXPXbX..6 @ B.{.nXF.W.Y.V. XW.#Xc.R.pXMX7XP.b 7.eXC.W W F.=XQ.eX0XM.;X+XW.>X(.9.Z.c.Y.}.s ..c.u.V.V.C.H._.|.Y Z.T.r.R.i.} =XM.tXvXtXX.6 - - c.|.].e.F.:.G | R.nXu.V.u.F.<.u.5X).c._.[ c.Y ( ;Xb.b.Q.b.! 9.y.F.-.` X.9.N.F.@.,.%Xn.u.k 9.|.A.i.u L y..XdXp.4XJ.GXZXgXR $ = 5.v.C.y.c.M >X|.b.r.B.R.R.}.1.5.Z | u.b.%.Y B.VXvX*XQ.M.eXH.R.}.R.r.J.}.t.W b.'.5XVX=XF.r.H.Z.2.Y tXb.] x.=X,X6.u.fXKXBXH.j : = |.<X6.& w 3.s.^ Y 3.B.(.<.! i , ~ a.J.=X,X#...|././.G.& b !.B.!.,X^.G.).Y.).dX&XC.{ u.!.nXfXdX_.H B.{.nXL.Y.Y.N.@XFXFXY.Z g h #XP.N t.eXC.W Y F.;XQ.eX0XM.:X).W.>XQ.7.Z.b.H.{.s X.c.9.V.V.C.F. X).J ^.R.i.R.y...=Xv.H :.Z.u.#.5.3.c.|.[.y.G.;.G gXAXKX#.p > 1 2.u.1XQ.c.)...y.E K &Xb.b.Q.b.{ 9.y.G.-.` X.6.b.F.@.,.].m.i.z y.|.A.i.9 R y..XpXp.4XJ.1X).4X XQ } 3.v.V.9.v.M >X*XnXlX^.Z 6 6 1.2.H | c.b.;.Y B.ZXvX=XR.",
"u.lXR.,..XT.%.p.}.f.W /.F.pXVX3XGXbX/.c : = -.a O.#.#.!.t.6.t.dXY.).C.V.H ] &X7.< w !.6.S J J 3.H.#.J s q r.^.Y.5XkXZ.r./.G.f.{.w s !.V.} G.(._. Xb.6XnXR.c.N  XFXKXkX..e * c./.BXL.&X1XB.>XW.Y.C.R.>XMX;X@X` $.kXQ.#.r.R.>X:XkX<X;X7XU.@.*X9X3.c.U.C..Xn ^.Y.B.8.,X,Xc.Y.<Xu.XX=X8.R.F.:.:.} pXkXlXP t ; # c.,XlX|.|.).' V.1X1Xr.9.c.&X#.E &X|.Y.kXF.c.#.B eX@X&X*XR.Q 6.F.F.v.3.3.B.F.).F.b.I.U.b.M ).kX3X}.9 @.Y.6XrX2.{.:.HXSXrX` = : XXG.y.v.J.R 5XT.T.u.t.y..XJ.O.J H ~ 6.R.W s 5.VXvXv.] a.kXR.,.%XT.%.p.{.B.W /.F.pXVX5X3XB.B.B.5.#.#.p ..#.#.!.t.6.bXJXgXC.h > O [ =X7.& w Z.6.S J J -.H.#.J s 3 5./.H.5XlXV.u./.G.a._.w M !.B.| G.(._. XB.6XnXR.c.b }. XgXeXdX<X! b.R.MXU.&X1XV.>XBXAX(.V 7 h ;X@X( #.lX/.%.5.R.>X*XxX1X;X7XU.@.&X9X3.c.F.C..XS ^.H.B.6.=X<Xc.Y.,Xu.XX=X8.Y.F.8.,.] P #./.X.N.5.{ u.,XlX|.|.).' NXGXMX@.t : 8 X.E  X|.Y.kXF.c.#.V eX@X&X*XQ.E 5.H.F.x.3.-.N.H.|.F.b.U.U.b.M ).kX5X'.u ..R.6XrX%.{.%.1X|.1X=X$.u.XXF.y.b.Y.R 4XT.ZXvXF.l 6 2 ..H Y } 6./.R s 5.MXcXv.] ",
"6.rXF.C.5X=X%.t.=XG.| y.F.2XkX4XGXnX/.M 1 t b.c n @.N t.t.6.| 6XV.Y.F.*.` #.&X3.< F u.N.<.~ | 7.9.#.~ J F {.,XY.bXlX6.,X1XG.D._.q s {.G.| G.H.V.V.u.jXhXV.Z.| .XnXBXtX..9 * E =XSXW.C.MXZ.eX1X/.U.y.R.pX0XN.( 6.(.Z.2.Q Y.*X%XwX%XuXqXW.F.T.&X! 5.Y.C.XXJ Z.|.|.Z.<XfX XY.1X..V.kXF.u.C.8.i...gXvXgX` t h 1 c.C.S.c.C.6X1XY.|.F.u.8.R.).X.8.C.Q.(.6Xb.y.#.B eX_.%XW.#.y.y.Y.U.C.} ..B.|.@.R.b.M.=Xi.Y H.BXvX}.y #.&X1X6Xt.r.B.JXDXrX] 2 : D.i.;.M.|.} *X|.T.5.b.R.J.|.u.O.u.#.N.R.;.M t.5X|.Q W r.6XG.C.5X>X%.t..XG.} t.F.5XkXrX=XB.G.Z.B.dXV.c n O.N t.t.6.kXHXeXc.h = # #.&X3.< J s.N.<.{ | 8.8.#.| Y S ).1XY.lXnX6..X,XG.G._.< s /.G.| Z.H.C.V.u.hXjXC.C.| .XB.^.1XeX_.| Q =XSXW.C.nXZ.eXHXBX|.l 8 h uXl.P 8.(.C.5.W R.*X%XwX&XiXwXQ.F.U.=X( 7.R.C..XJ Z. X/.Z.<XfX XY.1X..V.kXF.y.C.8.w...#.8.Y.X.V.lXV.c.F.b.b.Z.1X1XBXFXtX@.9 1 6 #.9.C.).(.6Xb.v.@.V eX_.|.R.$.u.i.F.U.C...X.B.|.#.R.v.M.>Xy.E H.BXmX}.y #. X1X4Xu.r.N.wX3X5X5XG.p.B.i.;.b.|.] *X}.VXkXY.Z 6 7 t.O.u.#.u.R.%.M t.5X}.] R ",
"J.F.u.b.5X3Xr.D.,X;.O.u.F.'.jX|.ZXkXF.Z 6 B 6XE V r.t.!.+.! Y ,XM.n.Q.V. .v.1XV.w ~ Z.H.9.s.! N.u.X.2.J Z hXtX9.6X1X! /.eXD.B.!.@ d ,X^._.5X{.^.G.5.kXtXR._.` eXHXnX6X` t 5 R =X<X).F.kX7.<X<X^._.&X|./.0X7.G -.&Xc.6.@.;X=XU.+X;XvXAX).|.M.9XK C.M.F.,XD 6.Y.F.y.3. X,X3.6XF.Z.rX=XZ.] R.w.#.bXMXgX{ j l 2 Y.C.:.M.W.pXFXG.u.R.8.u./.X.6.Y.9._.&X(.F.M.E c 1XU.C.&Xc.c.:.G.R.#...3.C.H./.Q.] c.M.y.y.|.PXBXv.3 H ).,XrX{.{.XXHXGXrX' > $ 1.b...F.|.M J.4X.X:.F.|.a.4XJ.5.8.5.{ r.R.| Q b.i.r.a.J.F.y.b.4X2Xr.G.,X;.O.u.F.'.hX|.R.r.u.R.!.IX6XE Z 5.i.!.1.J dXFXuX:.l 1 = c.<XN.w } Z.Y.9.s.! s.u.X.2.F F tXfX9.6X1X! /.eXG.s.!.@ d ,X/._.5X{.^.G.5.lXtXY._.) eX1XC.,X,X0X^.Y =X1X(.U.kX>.1XGXBX>X_ 6 6 0X<.G #.&Xc.8.#.=X;XU.).=XvXMX+X].M.<XK V.M.Z.,XF 7.R.F.y.3._.,X3.4XH.Z.rX=XZ.} R.w.-.c.b.U.5.^.SXG.Y.V.,.C.Y.pXFXBXbXlX} t 6 = 7.^.r.).&X(.F.b.E c >XY.C.;Xc.b.:.Y.R.#...3.B.Y.R.Q.] v.M.i.y.|.PXBXv.3 H _.,XtX{.{.XXeX>X>X5Xb.+.2.a...F.|.N J.5XSXjX).Z > 0 J.2.y.5.} 5.R.} Q b.i.w.a.",
"D.U.J.r.R.R.O.D.|.-.W t.:.b.lXbXMXgX/.k : p gXR ] R.H.s.| E 3._.9.m.c.L. .} m.8.a 6._.V.3.| P <.5.3.#.F H =XlX^.=XXX~ ,XfX_.fX(.+ J 2XXXtXeX,X,X,X6.4XVX1Xc.) .XBXfX1X' t 6 -.wXfX^.R.pX8.C.k.Z.).6XeX_. Xl.v #.9.A a.#.>X;X1XuX1XtX0Xn.Q.OX;X*.(.y.9.C.w | /.3.3.3.H.H.Q ,X8.u.=Xr.8.H.V.i...vXmX1XX.B t 6 5.C.*XfX).1X).b.,.F.a.5.3.9.X.7.=X XW.c.R.R.y.Z ;Xc.b.,X(.8.@.R.&XR.C.| 6.V.eX5X@.v.K.:.O.U.bXHXb.9 N Z.G.&X/.4X=XFXSX.XA : : %.F.:.{.=XN }.MX>X8.c.D.v.5XG.a.H.G.5.b.R...~ D.hX1X5XD.Y.!.r.'.R.O.B.|.-.W u.:.v.lXbXG.$.D.6.u.kXdXJ ] R.G.s.| E kXFX9X>.t 1 #  .n.8.i 5._.V.3.| ! #.5.5.#.F Z 1XvX^..XXX! 5XdX_.fX_.+ J XX2XtXrXXX<X Xt.4XVX6Xc.{  XH.#. X1X0X~.-.6XfX(.Y.pX9.C.bXMX1X..8 6 ,Xl.v #.8.A a.=.=X>X9XpX1XyX9Xn.Q.+X;X-.).y.u.C.w | R.:.-.5.H.Y.E ,X8.u.=Xr.8.F.B.i.X.#.c.3.u.,XfX X5.C.=XpX).1X).MXvXiX#.9 : : ..9.=X_.W.c.Q.Y.y.C &Xc.B.&X/.8...R.&X/.B.| 5.B.eX5X..M.M.:.} U.bXGXb.0 N Z.D.&X/.4X.X=X=XJ./.6.t.2.F.:.|..XM |.nXHXkXY.m > y G.f.H.C.5.A.R.O.} G.hX1X5X",
"r.5X.Xp.R.J.w.J.b.u.} t.Y.4X3XbXZXkXJ.x : 2 JXu.n ..6.t.G.| C.1X8.C.x.*.C c.E.V.z <.(.@Xu.{ { 5.O.@.(.D M }.vX). Xu.Y !.1X,XdXXX3 T 4XlXnX6XfXdXf.r.4XSXBXk.r e.FXvX5X@.h 8 &X*XZX(.-.ZX/.&XZ.C.|.pXpXrX,XP.G 3.b.P 5.%.;XC.xX9XF.*XzX%XuXpX).*.R.8.P G.s P F.} #.u.&XH.L #.Q c.U.b.r.F.W @.` bXvX1X{ c 8 2 <.Z.vXnXF.&X,.N.i.U.R O.B.^.@.3.^.=XC.c.=X%Xc.u ).M.:.9.8.#.#.R.).|.u.#.N.u.F.rXv.M.>XG.#.9.jXVXp.3 n s.}.5XD.6XlXSXnXR.I 2 2 %.b.A.'.R.Z 2XlX}.$.b.A.w.[.b.J.f.R.a.F.'.r.+.~ 5X2X2X5.5X.Xp.T.J.r.J.b.c.} u.Y.5X3XlXY.r.a.u.%.H.JXu.c @.6.6.G...BXGX1X8.0 = O m.W.V.z #.(.@Xu.{ { 7.} @.R.H M |.vX).|.c.J !.,XXXdXXXw T 6XlXnX6XlXeXf.t.4XZXBXc.r r.&Xy. XfXvX,X*X=XBX(.5.ZX(.#XBXmX=X@.g 0 <XP.N 3.b.P 5.%.&XL.xX1XF.*XgX%XyXpX+X .Y.:.P H.s E F.O.#.b. XH.R #.Q b.U.b.y.F.R @.R c.-.8.3. X&XR.#.Z.vXnXT.|.:.MXnXiXm 2 1 2 @.-.^.&XF.c.=X+Xc.a _.b.3.u.y.#.-.R.).|.u.X.c.u.H.wXv.M.>XD.#.j.kXSXi.3 m d.XX5XB.rXkX|.M.A.|.F.J.%.i.v.'.R.U 2XnXSXpXR.n : 8 A.J.f.R.b.J.R.2.+.Q 4X2X2X",
"i.J.i.r.'.@.W p.5XM.] 5.B.rXb..XMXkXy.k = ; /.,XH a.|.B.!.3.5.Y.{ u.8.H b c.^.c.z 6.1X^.| N.<.} } 5.(.z R ,XBXc.u.5.b B.4X(.<XZ.r +.lXlXCXdX_.6X1.f.4XDXJX(.w p.KXZXeX..g 0 >XtXmXc.H rX|.MX0X(.1XlXrX.X_.-.X.G.9X8.r.B.gX9XpX).b.=XuX:XuXxXW.b b.y.E F.n P F.8.u.Y.Y.:...} W ] [ x.Z.#.y.e.] kXvXtX` l 8 1 ..9.bXMX|.>XR.b.C.E.H 6.|.|...@.B.=X5.|.Y. XU.7 c.).y.v.8.} -.R.V.u.} ] Y.C.Z.>Xb.|.:XF.-.U.SXSXi.9 u | {.J.Q.tXjXZXMXR.R > 6 :.R.F.{.5XZ r.CXkXA.r.D.$.2XQ.{.a.J.A.R.}.%.T W 1X>X2Xi.J.a.r.`.@.T a.4Xb.] :.B.tXb.=XC.2.O.t.y.3./.,XH i. XN.!.<.vXBX;X@.8 # O c.(.k.z 6.,XW.| N.<.| } 8./.z W >XZXc.u.5.b B.rX/.5XZ.u ^ lXlXCXdX_.6X5.f.4XDXJX(.w v.gX(.,XeXfX5X>XpXnXu.Z rX_.MXJXBXtX=.f 8 _.>.X.Z.1Xj.r.B.gX1XxX).b.=XuX>XuXxX(.N B.v.` C.b J Z.8.9.Y.R.-...} W ] ..y.Z.-.r.y.] -.y.C.-./.&XC.| s.nXnX|.>XR.MXMXvXm 9 6 7 ..@.B.=X6.|.Y.%XF.9 c.).8.c.,.] 5.^.B.y.| ] Y.C.C.>Xb.&X:XF.2.U.ZXSXi.9 p | {.J.{.rXjXR.F.A.=Xi.'.5.R.T.}.6XZ i.VXKXnXF.m : 8 '.{.a.J.A.J..X%.~ Y 2X2X1X",
"F.J.$.~ {.o.U {.kXF.' E -.R.].R.BXlXG.k : > M.;.Z b.=X6.6.T J G.#.7.3.G G 9.>.( n #.c.7.H u.! H @.y.,Xx b.lXlX8.V.8.H  XJ.D.!.s.< T 6XdXCXNX,X Xr.a.=XzXSX<Xz A.KXHX1X{ p 7 R.rXAXk.P =XL.GXMX1X6XrXpX>X&Xm.) G.+XC.-.a.kX9XpX).V.>XyXpXHXxX<X) b.:.#.-.| P Y.Q.C.X.6.B.~ U Q #...c./.C.F.S.@.nXpXkX5.l 8 : c.7./.;X|.>X_.Z.x.U.-.2.,XF.r.} C.>X#.F.c.8.,.a F.8.H.c.b.` } -.b.u.<.r.R.Z.Y.kXF.Y.Q.B.Y C.vXVXb.p V u.}.=XtX>XR.VXVXhX_ > > $.J.J.v.rXM r.CXnX,XD.a.O.*X4XA.J.T.a.R.5Xa.1.n v.;.2XG.J.$.} {.o.U {.kXF.] E ;.R.}.R.H.s.p.6.u.C.b.;.M b.=X9.6.! tXBX;X..9 # # 8.7.( b #.c.9.H u.E H #.y.,Xb a.nXlX6.B.7.J }.J.D.!.s.< Y 6XdXCXNX,X Xr.a.=XjXSX<Xz A.tXtX X1XfX&XR.4XAXk.R =XC.HXPXJXkX&.f 9 =XV.E G.+XC.-.b.gX9XuX+XC.>XrXpXHXmX7X` v.,.#.-.| K W.Q.B.#.9.B.~ H Q #...c.).B.U.S.@.b.[ /.V./.&X5.c.7.Q.;X&X>X).BXbXpX` 7 0 1 y...C.=X@.G.c.8.,.a F.8.Y.x.c.` ] -.b.u.-.r.^.G.Y.kXF.Y.Q.B.Y Z.vXVXv.p N u.{.=XrX,XR.J.].4X.XA.S.%.G.F.i.rXM q.CXPXDX'.n $ 8 3Xv.J.T.a.R.2Xa.2.M i.;.,X",
"v.a.p.@.D.Z w.'.rXT.} W D.T.'.}.lXNX XR 6 8 4X8.Z O..XB.d.J #.9...| ' ..C 7.V.b Y 3.Z.3.E 5.G Y b.|._.Y 2XrXwX6.u.Y.x ^.r.D.,XG.< 1.XX6XNXlX6XdXB.2XwXMXJXdXr D.FXSXgX` 1 > G.5XkXc.S F.8.PXmX@X=XpXgXeXgX^.b Z.>.,.-.y.).7XAX#Xc.G.wXzXSX#XP.K b.b.-.5.Y G W.U.F.8.V.H.W H J /.Y.C.Q.|.j.v.e.vXMXSX#.0 8 - #..XC.Q.nXR.-.G.y...R | V.Q.8.` 3.F.c.-.E 8.:.p C.y.-.j.b.] E J.R.5.6.u.G.u./.nXR.R.$XD.@.M.$XMXM.u m ,X4X}..X{.5XGXVXhXI > 2 y.i.T.R.4XM i.2X2XR.T.{.i.p.hX=XF.i.q..X4XJ.~ i b.M.hXv.i.p.#.D.Z q.'.5XT.] E D.J.'.|.3.G.!. XY.=X5Xy.Z $.XXs.d.J kXbX=XH 1 * O 7.V.b H 6.C.-.} 3.F Y b.|.(.P XXrXeX8.a.Y.b !.u.B.=X^.q +.XX4XNXlX6XfXB.,XwXmXJXfXr F.=X|.6X<XN.Z.F.3XvX9.V F.,.PXPXSXwXo.h 0 gXP.S V.8.>.-.y.%X9XAX@Xv.F.wXpXSX@XP.K b.b.-.5.E G Y.U.F.3.B.H.W H H ^.R.V.R.%X8.v.e.,.F.pXu.y.=X:.#.&XB.R.bXR.-.BXvX>XN 1 1 6 6.` 3.F.c.=.E 9.:.p C.y.-.y.b.` E H./.5.6.c.H.u./.nXU.R.].F.@.M.].MXS.u m ,XrX{..X|.5X2X].3X'.A.F.y.a.J.J.4XM i.2XGXZX|.Z > > jX2XA.i.q..XrXR.~ u b.b.hX",
"R.w.+.$.G.:.%.J.}.v.R F O.'.jXwXkXgXJ.W 8 8 .XN n Q u.<.s.^ Z.V.| ;.8.-.G 5.fXP N 9.#.3.V 5.! { 6XtXY.N i.=XpX2.r.CX+.u.{.{.{.!.r T ~.dXGXlX XlXgX5XkXDXGX&Xg @.FXFX=XH ; > |.R.gXV.r pX&XFXgX,X=X6XeX4XMX_.| /.U.(._.%XF.Q.DX7X-.R.>XU._.C.V.b R.6Xb.F.T b b.M.F.5.C.b.+.%.#.C.H.H.|.R.b.F.%XMXCXpXX.t ; : #.dXNX&XgXR.|.F.U.,.@.E Z.&X3.P u.C.V.N.#.Y.r.p c.#.-.c.] L @.|.'.D.c.r.:.9.5X=XA.|.Q.|.#.r.).:Xy.3 p =X=X.X{.G. XCXHXvX@.6 0 :.t.Q v.G.F J.|.3X2XS.|.i.a.CX4Xe.q.D.4XrX}.6.u 6XvXvXR.q.$.+.J.$.%.T.|.i.Y M O.R.hXqX#.$.D..X=X|.*XN n ] c.#.f.^ CXMX&X' 8 ; O 7.fXP N 9.-.X.V 3.E ..5XrXY.F t.>XtX2.r.CX#.t.{.{.!.!.r T !.dXJXdX XlXpX1XkXDXFX,Xr @.&X=X/.(.9.6.|.'.gXV.r gX&XFXHXFX4X[ y 0 MX(.| (.L.).|.&XF.Q.FX7X3.R.:XU.@XV.V.b R.6Xb.F.Y M b.M.U.3.C.b.+.%.#.V.H.H.|.Q.b.F.&XF.R.U.y.c.6.r.#.dXBX&XgXR.|.MXZX3XR 2 1 8 5.P u.C.V.N.-.H.i.u c.#.-.b.] L @.}.'.F.b.r.5.6.1X=XS.).Q.|.#.r.).:Xy.3 p =X=X.X!.G.|.].4XjXtXJ.3X:.i.W b.J.M J.[.HXSX}.I > 1 CX3Xw.w.G.4X4X}.r.a rXbXbX",
"'.Q O.a.R.F.%.i.4Xw.Z W i.b.4XQ.vXlX`.R 8 9 v.m k Y #.| s.f..Xu.{ 8.c.G G 7._.9.|.W.7...H 9.J M |.iX|.~ ] |.5Xu.`.CXr.+.|.J.5X XS ^ G.5XGXfX{.JXnXnXPXPXtX7.r ] HXGX).R 6 1 ).c.eXZ.a rX4XgXW.9.R..X,XwXxXW.r .X>XxXY.Y.W.M.cXwX|.>X*XT.|.C.W.G y.1XY. X1.b u.b.Y.3.u./.@.] ..-.H.c.).|.B.,.].MXVXwX5.8 = > ` b.=Xu./.8.|.w.F.:Xb.Y Z.=X#.#.Z.u.<.V.u.Z.5.s N.| -.u.=Xb.y.|.'.=Xb.r.#.N.5XkXS.-.R.*XF.u.c.Q.v.i u 3.J.=Xf.G.J.nXSXjX$.y y w.r.r.Q r.n G.*X=X}.S.2XG.{.GXkXM.a.{.2X3XF.t.z &XQ.iX'.~ O.a.R.F.%.v.hXw.Z R i.A.wXQ.$.y.a.{..X>Xv.n i R #.^ d.f.FXbX&X..t O O 8._.9. XY.8...G u.J S |.pX XE Q |.5Xu.!.VX6.+.|.Y.5XXXD ^ !.4XGXgX XGXnXVXPXPXpX7.r ] 6X<XH.&X_.V._.c.eXV.a wXwXfXBXmX.XR 0 0 vXW.s }.1XgXY.Y.W.M.cX9X|.>X*XW.@XV.(.G 8.1XY. X<.x c.v.R.5.u.(.@.] ..3.F.u.|.{.B.:.].M.F.i.C.-.#.a.` b.=Xy.).r.|.vXMXnX%.1 1 7 X.#.Z.y.#.V.u.Z.5.a c.O.-.c.=Xv.,.{.'.=Xb.r.#.s.5XjXF.:.R.*XF.c.M.T.v.i u 3.F.=XD.G.!.b.*XrXlX4XlX%.r.r.Q 5.n G.=XGXZX[._ 2 6 GXjXA.i.{.3X5XB.u.z |.[.rX",
"v.Y f.D.b.i.o.J.CXi.n Z $.R.T.v.kXkX5XZ 8 6 %.s e u F ^ 1.G.H.8.8.#.r.] R -.C. .5.C.8.' ..H.! F 4XwX).| B.}.5X X/.6X| T =XpX4X/.D Y XXdXlX6X5XZX|.VXHXDXfXc.4 Z SXMX_.@.t 5 (.;.Q.9.H wXgXgX(.C.5.t.^.).tXV.w H.1X1XY.c.n.&.&X:X>XiX8X%X&XR.Z.G 3.Y.;.C.G.z c.y.#.G.9.N.B./.Y./.F.c./.S.B.u.;.jXvXvX#.h : > ..C.R.b.c.y.5Xr.i.=XG.J 3.u.E ! ^.C.9.5.X.C.5.e Y.y.-.3.&XB.#.b.D.R.y.%.r.u.J.b.e.y.Q.].F.b.v.S.].n 3 Z.R.v.R.b.{.MXGXbX$.8 8 r.p.i.$.e.M q.{.R.J.*XnX,XJ.5XVX=Xi.{.&X'.R.%.n F.T.rXv.Y a.D.a.v.O.J.CXi.n U $.R.R.v.$.r..X'.].'.:.s e u S ^ 1.f.ZXbX1XE 0 = $ #.C. .3.C.8.{ X.H.E S 4XwX/.O.B.|.1X}.{.4X| T ,XtX6X/.D T XXdXlX6X5XCX|.VXLXDXpXc.w Z ).C.H.tXdXZ.(.;.(.9.H rXgXgXFXbXB.k 2 6 tXV.q J.1X1XY.c.n.&.%X;X=XpX9X+X.XY.Z.G 5.R.;.C.G.z N.y.#.H.6.N.C./.H.R.F.b.R.F.b.v.;.[ ;.R.B.B.y.B...C.R.b.u.r.5XvXmXnXt., ; > ! ! ^.C.9.5.X.V.5.t Y.u.#.3.&XB.$.B.D.R.y.2.6.u.J.b.w.y.Q.].F.A.u.F.[.s 3 Z.R.v.R.b.{.Y.3XlXhX}.2Xq.f.i.$.i.M %.{.ZXVX5Xw.y 2 4XSX*Xi.|.|.'.R.%.n F.T.rX",
"v.m D.G.q.J.Q A.4XT.Q M G.{.] A.mXlXwXR 8 6 :.n 7 3 ~ f.d.^ <.C.-.V ` ....E V.{ b ..9.X.#.B.J b Y.Z.H.~ D.J.1X X{.9.S G.lXkXlX~.d 1.6XNX^.Z.6XgX/.5X>X:XeX^.a W JXbXc.` t 1 H.y.1X .4 pXMXgX=Xu.+.a.D.R.1X+Xs D.)._.Y.8.m.;.T.>X=XFXuXU.}.;X9X*.F.R.v.E 3.z V.|.V./...#.b.r./.b./.F.R.b.v.=XM.vXpXtXR p 7 2 L b.|.b.T.Y.4XF.F.>Xr.! H 6.#.{ 5.r.8.u.{ 3.8.r W.H.Y./.R.b.} c.r.C.G.f.| } 5X|.b.5.U.$.b.b.y.e.'.O., G.6XwX'.T.v.nXHXVXw.9 2 i.t.`.'.w.w $.{.{.{.i.2X}.a.R.2XwXi./.|.T.*X:., ;.3XhXv.m F.J.w.J.Q A.4XT.Q m G.{.] f.a.a.2X}..X{.:.n 9 3 ~ G.d.+.kXNX1Xl 1 # = _ V.} b ..9.X.%.c.F F R.Z.G.} D.R.1X.X{.u.F D.lXkXlX!.d 1.,XNX!.Z.6XdX/.5X>X:XeX^.a U dXV.3.=X1X(.F.y.6X{ 3 kXMXxXFXbXu.v 2 2 1X+Xz D._.+XH.7.M.;.T.>X=XFXiXT.|.=X9XX.C.R.v.E 1.z N. XB./...#.b.r./.V.R.H.Y.v.b.=Xb.e...b.#.B. XY.R M.|.b./.Y.4XVXMXMX] 2 O ; #.~ 3.y.9.s.{ -.9.t ^.Z.^./.R.b.] c.r.F.G.B.} ..5X|.b.r.U.$.b.b.y.e.'.$., H.6XrX'.R.v.r.hXlXlX2XG.i.t.'.'.r.3 %.{.SXCXS.W 8 ; T.2X4Xi.R.|.R.=X:., ;.3XpX",
"v.m J.XXr.}.o.a.J.i.O.Z '.A.T.6XHXMX4XI 2 2 F.:.e 9 Q %.!.^ ^ f.B.#.$.:.j.` } H e *.V.P ~ u.S s r.&X1X..:.|.kX{.,X}.5.!.&X1XgXt.F 1.XXdX6XdX<XN.<X4X5XR.=X^.r Z PXMXc.j t 6 R.i./.9., .XpXpXY.H.R.D.B.4X=X_.J /.|.b.r.b.Q.>.,.;X|.=XOX>X1X1X0X` S.T.b.R ~ z 7.,X6X/.{.{.u.$.c.5.F.F.b.D.R.R.&XSXMX5Xv t 6 = ] 8.'.R.M.:.}.F.H.=Xb.#.} ;.@.%.!.-.` r.@...t.t V.B.c.6.|.B.%.b.B.C.H.3.$.r.C..XJ.r.R.e.c.:.-.b.J.O.% a.5XVX2XA.v.pXGXSXe.y y w.i.G.=Xi.u W hXhX.Xw..X4Xa..XiX3X;.b.Q.C.R.Q % i.3X*Xy.m H..Xr.}.O.i.J.y.o.U '.A.`.rX4XG.=X'.R.F.F.:.w 9 Q 2.!.^ pXnXrX` 6 - ; ` } H r -.c.P ] u.b s 5.&X5XO.:.|.kX!.,X X5.!.=X,XdX6.D 1.XXdX6XdX<XV.<X4X5X/.=XH.e G gX(.3.:.tX^.^.r.R.7., }.pXgXBXNX=Xm > 0 =X_.J /.|.M.y.b.Q.;.,.;X|.>XW.>X1X>X0X` S.R.b.R ~ z 7.1X6X/./.{.r.%.y.r.F.F.b.D.R.R.&XQ.b.v.Y c.).} ] y.R.T.b.:.|.BXBXMX:.6 = ; #.-.!.#.` 8.@...u.t N.B.c.8.|.D.%.c.B.C.H.5.@.r.B..XJ.r.R.e.b.:.-.v.J.O.% a.4XnX2XS.v.] 2XVXVXkX.Xi.i.`.2Xe.u W kXHXGXp.R y : =XrX3X:.A.Q.M./.] $ i.:X*X",
"O.W a.J.] 5XF.Q.b.o.F.%.%.b.J.{.ZXvX'._ 6 6 %X-.Z u n O.}.1.~ %./.&XC.R.C.@.5.r 9 x.Z.c.} Z.1.s B.>X1X-.T.R.>X!.d.dXB.t.dXpX1X1.D T XX<XdXfX^.s.J.-.|.6X,XB.z @.JXSX&XB t > 3.y.eX^.< =XMXQ.9.9.J.=X/.rX>X>XP |.T.8.b.Q.wXC.-.&XM.R.Y.*X+Xb.&XL &XI.@.@.t.s k.Z. XD.XX Xr.G.b.8.y.] C.B.F.r.v.SXMXgX-.c 2 : G :.R.w.;.-.6XR.Y.|.R...8.R.y.! u.-.-.5.c.O.+.a | u.y.:.b.~ u.B.R./.V.` #.B.b.=XA.} H.;.$.:.8.H.4XJ.u w..XkXA.i.*XnXSXjX,.h y p.r.J.'.&Xk $.4XhX2X%.'.2XJ.'.*X*X%.S.F.b.:.o.u [.3XS.O.W p.J.] 5XF.Q.b.O.F.$.%.v.T.{.'.i.D.2X}.[.|.-.Z p x O.!.r.kXlXkXY.p 6 > @.3.a 9 n.L.c.| C.6.s B.>X1X-.T.R.>X^.f.6Xf.r.dXkX<X4.d ^ XX6X6XfX^.N.!.-.|.4X,XZ.z #.tX_.^.F.eXZ.3.y.6X(.3 =XMX+XvXlX.X_ 7 t >X>XP ).T.8.b.).wXM.;.&XM.R.T.;X%Xb.@XL %XF.@.@.u.a k.Z._.D.,X&X6.F.b.8.u._ F.B.F.r.M.Q.U.G.c.(.H.3.H -.J.e.;.-.6XSXCXvXb.6 - > y.! u.;.5.5.y.@.+.u X.i.r.5.b.~ u.C.R./.V.Q #.B.a.>XA.O.F.;.$.-.6.H.2X{.u :..XkXS.i.*Xv.*XhXlXkX2Xp.r.F.`.}.k $.4XKXGXb.I 9 2 [.*X*X$.A.F.b.;.@.i {.2XT.",
"i.U r.f.=.|.=Xv.F.i.|.A.w..XD.b.ZXSXrXw.0 8 Q.@.%.6 u T XXt.#.] Y.Y.&X/.M.Y.u.a a U.W.C.c.#.G x R.;X).x.y.F.r.2.#.4Xa.1.XXlX.X4.D <.XX,X6.dXfX(.u.|.hXkXdXZ.r G PXDX&XV 9 2 ] ..eX<X, 3XMXM.u.N.:.1X/.=XiXBX( c.%XQ. X1XvXL.*.L.c.V..XC.x.c.Z.Z wXM.] ;.J.a 7.C.N.Z.&XZ.f.R.#.-.R.y.r.y.1Xc.:.ZXPXvX_ p 2 > ] r.{.F.:.$.eX(.^.=XQ.u.3.Y.;.Y 9.3.] 5.H.B.r.u N.y.c.H.:.s } ).D.F.G.@.y.B.J.GXFXi.U.T.b.5.u.R.2X`.u Z hXjXhX].5XVXHX2X$.h 8 }.r.'.*XhXZ U '.rX'.O.G.*Xw.D.T.S.O.i.U.T.A.A.n p.tX}.y.U r.D.$.|.=Xv.F.i.|.A.q..XD.v.T.|.1XkXwX].]...;.3 u Q XXd.lXjXgXc.B 6 > R.u.r u U.Y.C.V.=.F s R.;X).n.y.F.8.2.1.4Xf.r.XXkX<X4.F <.XX,X6.dXfX^.y.|.jXkXdXZ.q H bX X(.Z.=XH.] @.rX<X: 4XMXM.nXbXb.` 6 8 tXMXP V.%XQ.|.1XxXP.*.Z.c.B.&XC.u.c.Z.Z wXM.] :.!.u 7.Z.V.Z.XXG.B.R.#.-.R.y.y.r.,Xb.;.Y.kX|.@.C.H.C.] r.].F.,.-.6XSXBXnXM.0 ; 6 ;.Y 9.8.` 5.F.D.r.e s.y.N.H.:.s ~ /.F.H.H.@.i.b.Y.HXSXi.U.T.b.5.u.R.=X{.u Z rXjXhX].5XJ.4X}.jXlX2X}.r.`.*XhXU W '.HXVXa.m 9 : A.T.F.o.i.T.T.M.a.M i.rX}.",
"/.M $.%.n %.a.r.R.D.i.o.i..XT.'.GXSXhX@.8 > F.v.G.0 k t.f.d.{./.V.H.&X XZ.;.} z p i.,.C.L.k.H F 1X%XU.C.-.R.-.#.2.{.^.5.2XlX Xs.T <.<XdXeXdXdX<XG.jXGXSXnXV.r N JXFX&Xk : 2 _ ] rXN.@ .XmX(.6.t.B.W.` -.U.1X4.9.*XY..XW.c.@XV.8.u.y.b.Y.C.|.Q.x |.].y.8.5.w 8.u.u.s.,X/./.R.-.5.&X].C.;.r.#.c.vXGXGX..9 > ; } C.R.U.R.c.F.=X^.&X..-.} c.,.H 5.x.E u.F.b.G.e H.C.G./.|.+.+.r.Y.#.} ;.v.v.r.vXPXF.=XS.F.r.-.u.b.a., o.hXhX2X2X3XMXVX'.o.y 8 `.b.{.2XrXT M r.*X'.:.v.|.O.`.F.i.o.w.|.A.[.p.u i.i.q.{.M $.%.x %.u.i.R.D.i.] a..XR.R.*X=X4XhX3XS.S.M.G.p k r.p.d.CXCXtXu.v 8 1 -.} z u x.,.K.Z.u.J F 1X%XL.C.;.R.:.#.2./.!.r.XXlX_.6.^ | 4XgX6XdXfX<XG.hXGXSXnXC.r C tX X^.9.r.F.` ] 6XV.@ }.vXQ.bXkXR.C * = U.9X<.y.&XR.|.R.c.+XC.8.y.u.b.Y.C.|.Q.x Q.[.y.5.5.w 8.y.u.u.,X^.(.Y.:.5.&X].C.;.y.#.u.9.1XkX9.-.F.3...C.R.J.R.u.U.FXBXnXR 7 = : ,.H 3.c.E u.C.B.G.a H.V.F./.}.+.+.y.H.#.] ;.b.y.y.lXKXF.=XS.F.r.;.u.a.a.3 o.hXhX2X2X3Xb.'.A.rXhX2XJ.i.}.*XhXW M r.GXVXA.l 8 $ '.G.v.o.:.].S.}.A.u r.i.w.",
";.n n } u O.p.i.[.|.v.%.O.r.*XhXKXDXhXq.8 6 [.S.S.n n D.f.1.t.G.,.-.:.;...[ #.x u ..@.Y.L.E.X.a =.Q.1XM.L C.F.#.| F.9.5.lXCX<X| s <.bXfXdXlX.XY.R.6XmXjXpXfXr m BXFXeXz $ 7 c.` <X9.3 F.9XM.#.2.}.9X*.Y.B.(.| Z ).R.&XC.Z.L.U.c.c.F.8.&X^._.7XG *XM.v.b.i.w C.Y.t./.,Xu.Y.C.@.` Y.R.&Xv.Z P 8.SXGXuX;.8 > > L #.=X1XQ.5.&X&Xy.|.c.#.<.8.F.Z #.8.$.u.H.c.T.a Y.Y.Y.1XtXb.! f.D.u.#.%.'.b.b.R.i.y.rXF.D.v.#.y.F.@.3 z.hXkXhX[.2XjXnX2X:.6 8 r.D.'.[.`.U s G.'.*X@.R F.O.i.i.e.Q :.|.S.].$.% p.[.J.$.n m } u O.a.i.[.|.v.%.O.y.*XhXhX*XhXlX=X}.[.S.b.n n b.p.1.bXBX1X` 8 = = [ =.c u ..=.W.L.W.*.a =.Q.9XC.R V.G.#.| F.9.5.lXBX,X<.n #.lXgXgXlX X^./.5XmXjXpXdXr m (.,X,X7.} }.c.' ,X9.< D.1XC.gXkX3X' ; 6 b.(.{ J |.Y.%XC.L.P.Y.c.c.H.8. XY._.<XH *XM.v.M.i.w C.H.r.{.,Xu.H.B.$.` U.R.&Xv.Z L u._.1XM.c.X.C.c.L #.=X1X/.5.&XSXbXbX#.4 - : F.Z X.8.@.u.Y.b.R.a W.R.U.1XtXv.E V.G.u.#.%./.A.v.R.e.i.tXF.b.a.#.u.U.@.3 i.hXjXhX*X:X$.G.[.lXR.'.r.D.}.[.R.U s `.DXSXv.9 2 $ i.i.i.Q w.|.F.'.$.% p.[.`.",
"q.k H O.9 U O.w.*XR.a.r.E y.*XnXPXDX2X;.y 9 hXT.=.p a y.4XXXCX.XC.Z.C.M.Q.8.y.a 3 O.U.M.m.L.7.B =XkXpX_.y.b.=.| H C.N.J (.fX^.D e | |.pXnX6X&X_.5XtXvXjXkXeXr u bXFXvXt - 2 H...Z.7.< a.|.c.| 6.1XpXV.b.b.V.K m 4XU.C.).H.W.,.u.9.c.r.Y.V.U.1XP OXF.y.=.%.< V.1X{.`.{.t.(.,X8.} Y.wXrXU.x.] c.HXbXwX..6 # ; G #.}.4Xb.V.tXy.5.F.f.! <.r.).Y 3.)...=.8.L.&Xr c.Q.v.%XpX;.} y.r.).b.y..XR.e.H.o.w.|.{.A.A.i.c.A.] p ,.hXvXlXhXrXmXVX4Xe.6 8 y.a.F.[.i.o.n `.`.3Xv.#.[.q.%.q.$.M $.T.J.'.%., D.[.v.w.k U O.e U O.q.*X'.a.i.W r.%XnXVX*X}.jX3X.XhXT.,.p p i.XXXXPXGXtX9.h > 6 8.9.u 3 } F.M.j.L.7.V =XgXjX).8.V.=...H C.s.H /.lX^.S r | }.fXnX5X X X5XtXvXjXkXeXt u y.1XdXX.2.D.Y...C.9.< b.|.N.gXkXrX*.> > c.V.( n 5XY.C.(.Y.Y.,.u.y.9.8.R.L.L.9XK OXF.e.-.%.< V.1X`.!.{.r.(.>X8.} Y.wXtXU.x.] c.=Xc.,.8.X.H 9.H ...X6Xb.B.tXnXvXdX-.1 - : |.Y 6.Q.[ X.8.L.}.r c.R.c.|.pX:.} r.r.{.b.r..XR.y.F.@.w.|.'.A.D.i.u.S.Q p ,.rXnXkX4XrXi.`..XVX[..Xi.i.A.[.v.O.n D.VXHXT.p 6 % q.w.@.m $.T.J.R.q., p.'.v.",
"i.O.U 2.n Z R u.rX|.q.a.O.@.T.jXKXSXrXo.6 6 3Xx.e.n 4 F.{.XXdXB.8.U.&XwXDX%X#.3 t ..C.n.K.K.k._ T.vXwXwXV.).-.8.r.G.6.E /.gXZ.s s t.1XtXxXdX6X,X1XMXMXxXnX<Xe n SXFXNXz $ $ &XY.R.9.< i.;XZ.3.u.U.|.6.V.y.|.k.H Q.C.Y.>X&XL.m.c.8.x.=.C.=XL.@XP -X>Xv.@.;., k.1X{.t.u.C.9.&Xb.#.U.T.tX>X%Xb.c.bXmX%XN - @ = ` H.(.=XF.5./.C.6.S.a.E y.5.8.H #.V.R _ V.(.>X4 C.W.b.|.|.i.@.D.D.H.b.i.=X).b.R.b.b.S.'.b.{.y.y.w.B 9 ,.*X=X}.*XjXVXVX2Xw.h 0 [.W '..Xi.~ U .Xp..Xo.W *XO.q.2Xv.W @.{.F.i.o.3 q.A.e.i.O.F 2.k F R v.5X|.w.a.} $.U.cXnX2X2X4X'.{.3Xy.,.n 4 F.XXXXGXnX>Xx.v f l +X#.3 u @.F.n.K.L.k.` T.cXwXeXV.).-.8.5.R.9.Q /.lXZ.z s t.1XuXgXdX6X<X1XMXMXgXnX,Xr n >X6XlX9.~ W  XY./.7.< a.>XZ.tXgXQ.H ; 1 y. Xk.H R.C.Y.1X%XZ.m.c.8.x.-.C.=XL.@X! %X5Xv.@.;., u.>X{.a.u.C.9.&XB.#.Y.T.tX>X%Xb.c.Y.M.[ P G P =.` H.^.=XF.r.R.bXkXrX#.1 : - 8.F #.M._ R V.W.1X7 Z.Q.B.%XOXi.@.D.D.F.b.a.=X).b.R.S.A.S.'.a.'.y.c.w.m 9 ,.*X2X.X*XhXT.'..XnXVX2X}.Q '.*Xe.Q U .XhXVXr.8 6 $ q.2Xv.W $.{.G.i.o.3 q.A.e.",
"S.$.$.J.s %.:.R.rX}.i.i.y.,.>XjXVXVX3XI 6 0 &Xo.o.F.s |.dXCX/.B.c.+X%XT.>XU.8.a W x.*XwXOX-Xv =.x.W.yXeXu.;X(.).u./.u.t.lX6XeX5.F /.gXvXfXbXfXeXkXZXFXBXlX6Xz } bXtXeXg $ = /._.|.9.x D.=XY.s.u./.&Xk.P.Y.tX(.=.v.).&X_.W.;X8XV.,.c.c.Y.=X).<XX.Y.Q.M.T.J.c ^.1XpX=X.X(.c.R.v.@.|.Q.wXlXR.U.=X&XvXwXP 1 = - ,.).,XlX6XG.:.r.B.Y. X XN.B.F.$./.).x.C.(.;X;XZ 1XeX,X=XpXR.6.}.{.>X=X}.=XtX3X3XS.}.|.}.G.4Xb.y.S.w.R ;.}.|.S.2XjXtXnX.Xo.f 6 3Xi.2X3XT.b.O..X`.2Xa.S.vX5.i.hX3X$.%.J.}.J.%.s D.F.=XM.$.$.J.n %.:.R.rX}.i.b.r.,.>XjXVXhXkX4X>XkX*X[ @.G.k }.dXNX9XwX).,.h ; 6 U.,.a W y.>X7XOX%Xv @.x.W.yXeXu.&X/.).u./.u.t.fX6XeX6.F !.gXxXfXbXgXtXkXZXDXBXNX<Xl Q dX|.xXZ.2.t.)._.|.u.x D.;XW.&X;XC.B - ; W.eX).;.b.].&X_.W.;X7XC.:.c.n.Y.,X).&X*.W.Q.M.T.R.x ^.1XpX,X.X(.c.R.v.@.|.Q.wXjX].H.=Xy.>X&XN.X.9.c.,._.1XpX5XG.:.|.eX>X:.p - : F.%.^.(.v.Z.(.=X&XZ 1XwX,X&XiXR.6.}.'.>X=X/.1XtX1X3XS.|.|.|.J.5Xb.y.S.w.R ;.|.|.A.3XvX=XhXjXVXnX3X3Xi.2X3X`.f.O.}.4XkXe.p f $ i.hX>X$.$.J.}.J.q.s D.F.*X"
};
