/* XPM */
static char *stone_11752045519[] = {
/* columns rows colors chars-per-pixel */
"480 480 221 2 ",
"   c #2E271C",
".  c #3A3936",
"X  c #36332B",
"o  c #423D30",
"O  c #47443A",
"+  c #4D4936",
"@  c #3E3D41",
"#  c #494846",
"$  c #524D49",
"%  c #58544A",
"&  c #5C5B54",
"*  c #5B5C5B",
"=  c #565554",
"-  c #4F4E4D",
";  c #635C4A",
":  c #615E57",
">  c #5F615C",
",  c #64635D",
"<  c #6A655D",
"1  c #6B6859",
"2  c #736E5C",
"3  c #5C5E62",
"4  c #5E6263",
"5  c #5E6269",
"6  c #5E6470",
"7  c #646564",
"8  c #696664",
"9  c #666865",
"0  c #6B6B65",
"q  c #64666A",
"w  c #69676B",
"e  c #66696C",
"r  c #6C6C6C",
"t  c #716E65",
"y  c #716E6C",
"u  c #6E716D",
"i  c #6F7166",
"p  c #737266",
"a  c #73726D",
"s  c #79756D",
"d  c #7B7A6E",
"f  c #797668",
"g  c #666B73",
"h  c #6C6D72",
"j  c #696C77",
"k  c #716F73",
"l  c #726F78",
"z  c #6E7174",
"x  c #6E727A",
"c  c #677079",
"v  c #747474",
"b  c #797673",
"n  c #767875",
"m  c #7B7A75",
"M  c #74757A",
"N  c #79777A",
"B  c #76797B",
"V  c #7C7C7B",
"C  c #615F62",
"Z  c #827C6D",
"A  c #857969",
"S  c #827D75",
"D  c #817E7B",
"F  c #7E807D",
"G  c #7E8075",
"H  c #7D806F",
"J  c #838276",
"K  c #8A8475",
"L  c #83827D",
"P  c #89857C",
"I  c #86887E",
"U  c #8B897E",
"Y  c #8C8875",
"T  c #918C7D",
"R  c #90877E",
"E  c #878472",
"W  c #747681",
"Q  c #767A82",
"!  c #7C7E82",
"~  c #7B7E89",
"^  c #817F82",
"/  c #7E8183",
"(  c #7E8389",
")  c #7F888D",
"_  c #848483",
"`  c #898683",
"'  c #868885",
"]  c #8B8A85",
"[  c #84868A",
"{  c #89878A",
"}  c #86898B",
"|  c #8C8C8B",
" . c #918D84",
".. c #918E8B",
"X. c #938984",
"o. c #8E9085",
"O. c #8E908C",
"+. c #939186",
"@. c #999385",
"#. c #93938D",
"$. c #99958C",
"%. c #96988D",
"&. c #9B998E",
"*. c #9A9887",
"=. c #838690",
"-. c #868A91",
";. c #8C8E92",
":. c #8B8E99",
">. c #918F91",
",. c #8E9193",
"<. c #8E9399",
"1. c #8F9897",
"2. c #949493",
"3. c #999692",
"4. c #969994",
"5. c #9B9B94",
"6. c #94969A",
"7. c #99979A",
"8. c #96999B",
"9. c #9C9C9B",
"0. c #A19B8D",
"q. c #A3998B",
"w. c #A19D94",
"e. c #A19E9A",
"r. c #A79E95",
"t. c #9EA095",
"y. c #9EA19C",
"u. c #97A09D",
"i. c #A3A196",
"p. c #A9A396",
"a. c #A3A29C",
"s. c #A9A59C",
"d. c #A6A89D",
"f. c #ABA99E",
"g. c #ACA997",
"h. c #B1AC9E",
"j. c #B0A79E",
"k. c #A4A390",
"l. c #9496A1",
"z. c #969BA2",
"x. c #9C9EA2",
"c. c #9B9EA9",
"v. c #8F97A0",
"b. c #A09FA2",
"n. c #9EA1A3",
"m. c #9EA3AA",
"M. c #9EA7A8",
"N. c #9EA4B0",
"B. c #A4A4A3",
"V. c #A9A6A2",
"C. c #A6A8A4",
"Z. c #ABAAA4",
"A. c #A3A6AA",
"S. c #A9A7AA",
"D. c #A6A9AB",
"F. c #ABACAB",
"G. c #B1ADA4",
"H. c #B1AEAA",
"J. c #B8AFA6",
"K. c #AEB0A5",
"L. c #AEB1AC",
"P. c #A7B0AF",
"I. c #B4B1A5",
"U. c #B9B3A5",
"Y. c #B3B2AC",
"T. c #B9B5AC",
"R. c #BBB9AE",
"E. c #B6B8AE",
"W. c #A6ABB1",
"Q. c #ABAEB2",
"!. c #A7AAB5",
"~. c #B1AFB2",
"^. c #B0AFB9",
"/. c #AEB1B3",
"(. c #AEB3B9",
"). c #AFB8BA",
"_. c #B3B4B3",
"`. c #B9B6B3",
"'. c #B6B8B5",
"]. c #BBBAB5",
"[. c #B4B6BA",
"{. c #B9B7B9",
"}. c #B6B9BB",
"|. c #BBBCBB",
" X c #C1BBAE",
".X c #C1BDB4",
"XX c #C1BEBB",
"oX c #BEC0BD",
"OX c #BAC0B8",
"+X c #C3C1B5",
"@X c #C2C2BD",
"#X c #C9C5BD",
"$X c #CAC8BC",
"%X c #B5BBC2",
"&X c #BBBDC2",
"*X c #B7BAC4",
"=X c #AEB4C0",
"-X c #C1BFC2",
";X c #BEC1C3",
":X c #BDC2C9",
">X c #B7C0C4",
",X c #BFC6D0",
"<X c #C3C4C3",
"1X c #C9C6C3",
"2X c #C6C9C4",
"3X c #CACAC5",
"4X c #C3C5C9",
"5X c #C6C9CB",
"6X c #CBCCCB",
"7X c #C9C7CA",
"8X c #D1CDCB",
"9X c #CED0CB",
"0X c #D2D2CD",
"qX c #CBCDD1",
"wX c #C6CAD4",
"eX c #D0CED3",
"rX c #CDD1D4",
"tX c #D3D3D2",
"yX c #DBDADB",
"uX c #D5D6D8",
"iX c #DBDCE2",
/* pixels */
"#.#.a.Z.Z.$.d p ` 0.w.G.U.] f #.r.^ 8 y X.r.e.w.w.$.X.T P J d U $.s.F.V.$.L m ] 9.x.B.6.] 6.4.o.4.5.5.y.9.B.B.9..._ m ` F._.F.a.y.s.5.2.` N y k >.b.e.X.] .._ ] @.` L _ ] [ 8.F.W.D.C./.'.}.{.D.A.x.b.A.n.n.m.A.W._.|.@X].y.%.O.6.B.7.4.a.Z.f.t.f.f.OXR.`.Y.V.a.U.T.U.B.y.4.V h B _ 2.4.4.a.y.y.a.y.i.a.s.T.B.4.B.a.2.] ..5.#.e.Y.J.Y.T.C.a.2.| 2.,.| L L L m v b b s m P m a m m ` 9.5.X.` ` $.$.L ] Z.a.9.s.Z.s.e.e.#.L L ] { X.2.] ....3.b.J.`.@XY.e.b.[.{.A.F._._.F.D.S.B.y.B.7...` [ D ] 4.#.#.d.Z.Z.$.d p U $.5.G.U.U d $.r.D 8 y ..r.b.r.w.$.+.T U J d U &.s.F.V.$.L m ] 7.B.A.2.} 2.4.o.4.5.5.y.9.A.B.7...P m ] F._.F.e.t.s.4.2.` N y k ..V.e.X.] ..P U +.` S L _ _ 2.n.A.9.9.C.'.F.7.[ N / u././.D.y.n.L.Y.C.s.s.V.Z.Z.5.$.2.,./ v N v v N | a.C.y.y.C.D.F.A.c.;.7.B.F.Y.L.Z./.|.;X[.Q.A.n.M.m.Q./.n.O.2.2.4.4.e.5.5.a.Y.T._._.B.a.9.2.4.2.| [ [ L V N m D b m ` m n S V ` 5.3...` ] $.2.L  .f.i.9.s.Z.V.e.e.#.L L ] { ..>.X.....3.b.J.`.@XY.e.B._.[.S.F._._.K.D.C.B.y.B.7...` [ D ] 4.",
"' y.a.K.Z.3.d p P  .T w.I.5.#.5.@.^ D ^ >.b.J.e.w.w.p.w.i.U S ] ] #.i.$.L n v z _ B._.9.] 4.4.] ] 4.a.2.;.A.F.b.9.5.] [ S.<X_.s.I.E.s.4.{ V D D 7.~.{.3.L ] _ P +.%.5.9.B.n.A.W.C.n.B.C./.L.F.C.B.x.x.A.A.A.m.x.z.F.<X].h.K.d.d.C.B.B.Y.oXY.y.%.i.E.I.I.T.U.G.a.Z.J.f.i.] I | ;.{ | A.9.4.| ,.9.5.$.5.s.G.E.a.#.s.9.4.6.` 2.7.w._.H.9.2.| ` m F 8.x.2.[ L ] L V D D L D b s s b m 3.H.H.e.5.$.] ` +.f.I.f.2.4.F.H.s.e.$.L L | ..| X.] >.e.e.q.r.J.-X|.F.F.(.%X[.Q.B.9.9.Z.C.u.B._.9.[ ^ >.3._ s _ y.y.K.Z.3.m p P @.U p.I.5.O.5.$.^ D ^ >.b.H.r.0.w.p.w.i.U m U ] #.i.$.L n v z _ C.Y.9.| 4.4.] ] 4.a.2.2.A.F.b.9.9.] [ S.<X{.s.K.E.s.7.{ S N ^ 7.~.{.3._ ] _ L +.$.5.9.B.x.A.W.9.| #.5.Z.Z.9.2.[ _ u.'.}.D.9.| 2.5.f.V.a.s.s.e.2.2.#.| _ [ _ N r k _ 8.n.M.P.P.C.n.A.A.c.A.F._.Y.C.4.y.B.A.A.z.6.A.W.z.m.n.} B | 4.4.4.#...$.i.Y.Y.Z.9.#.O._ ] 9.n.6.| ] #.` L L D P P m m b v V 3.H.H.e.5.@.] ] +.d.I.C.4.4.F.G.s.w.#.L L ;.......] >.e.e.q.r.J.-X|.F.W.~.&X[.F.A.9.7.F.C.9.B._.9.[ ^ >.3._ d ",
"n _ O.C.t.5.@.$.w.w.w.&.w.Z.a.#.^ $.^ ^ H.H.T..XI.i.f.U.Y.y.O.4.] ' o.L b a v r v 4.F.B.Z.F.#.v a ' 2.4.9.A.A.a.s.a.O.| 9.B.V.V.f.t.#.#.D S ` ^ ..3.9.3.2._ m ` i.s.a.] 6.7.z.b.n.n.B.y.B.A.4.O.2.9.9.7.n.S.A.B.S.Q.|.Y.y.d.Z.K.L.F._.'.].f.o.$.f.I.K.d.5.w.Z.G.J.G.p.i.o.m L [ 2.x.C.9.2.' _ 2.a.B.'.`.]..XU.V.B.5.3.L a ] B.B.Z.B.| V n v u B ;.;._ ,.4.B.B.4.>.` ` P m b y k D 3.B.a.5.a.Z.a.5.s.I.Y.d.5.5.B.Z.Z.w.] X.2.2.[ ^ [ ` ..b.b.j.b..X`.XX|.|._.Q.A.n.b.9.9.M.S.i.7.].|.V.V.9.D 0 r n [ O.C.i.5.@.$.w.w.w.&.w.Z.a.#.X.>.^ ^ G.H.T. XI.i.g.U.Y.y.#.,.] ] O.P b a v r v 7.F.B.C.K.2.v u ` #.4.x.B.B.y.s.y.#.| 9.V.s.B.Z.i.#.#.D S ` ` | 6.9.7.#.` m [ w.B.i._ 2.7.7.8.O.' ' o.#.B.n.9.1.O.| / [ _ F m a ` a.B.a.w.i.e.#.#.2.O.G ' V v r v } 8.| 1.M.P.:.[ 6.l.8.z.z.B.Z.D.B.4.2.2.6.z.D.^.z.[ / / F / 4.9.#._ a _ y.C.K.F.a.2.' F F [ 6.,.] 2.4.B.B.3.#.` ` ] J m s v D 7.B.B.5.a.Z.a.5.s.Y.I.g.5.9.a.Z.Z.w.] ..2.>.[ ^ ^ ` ..b.b.r.V.].`.XX|.|.[.F.A.x.b.9.9.C.S.y.7.].|.Z.V.9.D 0 w ",
"r z n G P $.G.G.p.s..XI.5.i.s.5.3.^ S ^ r.b.G.`.].f.#.7.4.4.4.O.` O.O.m b a y r w _ 7.C.C.B.4.G F #.y.7.a.y.y.a.Z.B.9.a.e.2.| $.+.U +.5.#.#.7.3.#._ m _ #.>.] X.2.e.B.2.7.B.z.9.y.C.B.M.C.L.n.} | y.B.B.B.A.B.B.F.F.F.Z.Z.F.y.O.#.A.L.T.E.4.G ] L.Y.I.K.a.p.s.s.G.V.5.5.@._ [ ] 2.7.4.O.} _ N ' B.Y.R.Z.g.Z.V.Z.5.#.2.$.2.B.{.~.9.| _ _ V n n / ;.} ! | B.Y.F.B.V.e.] L D m b b N ..B.Z.V.a.V.s.w.I.E.E.I.+.` w.G.a.w...6.{ N h N { 2.7.Z. X.X.XR.Z.T.{.Q.F.F.S.F.F.B.x.B.C.y.a.].@X].Z.5._ m v r u n G P $.Z.G.r.s..XI.5.i.s.5.X.^ D ^ e.b.Z.`.].s.#.9.4.4.4.O.' | | m b a y r w F 7.B.Z.y.4.F L 2.9.9.9.a.y.C.C.B.9.y.b.#.| %.+.U +.5...2.5.>.#.P m _ ....] ] 2.i.Z.#.6.x.7.6.,.O.O.] 4._.B.9.y.n.1.1./ z N N V ` t.s.Z.a.a.a.#.4.5.I n ' [ V r n / z c ) 1.) -.<.<.:.<.<.<.2.7.6.;.[ [ ( [ z.z.:.) M c n / _ / _ / v v ] V.Z.s.5.6.6.,.O.| ,.2.;.] ,.B.F.Z.B.B.e...P F m m v B ..e.V.V.a.V.s.5.G.E.E.G.+.] w.G.s.w.>.2.] N h M { 3.7.Z. XXX.X XG.Y.{.F.Q.F.A.F.F.A.x.m.C.y.a.].@X].Z.5._ m v ",
"m z v 5.i.a.i.i.r.s. X.XI.i.a.3.^ D l D 3.G..X].T.V.5._ n v F F B n v 0 p v y 0 w v | F.B.y.B.9.#.2.3.2...#.9.y.y.n.n.K._.a.2.4.#.+.T T $.t.t.%.4.| n p L 2.5.` S { 9.5.4.a.n.n.y.C.C.L.L.'.L.9.| 4.a.B.a.y.y.4.4.4.C.L.L.'.'.y.6.B.|.|.i.] 5.e.K.`.oXT.i.&.p.Z.G.F.s.] I | O.4.6.] F a r v N >.W._.S.w.r.e.&.w.#.] o.5.Z.Z.Y./.4.| 2.6.,.] } 6.z.6.6.n.S.L.]._.y.5.#.` G a v N [ 9.F.F.L.Z.s.B.Z.|.3XT.d.P b X.Z.J.V.3.] M q q v [ 9.e.V.Y.U.].T.G.T.Y.;.| 7.B.Y.S.9.2.8.y.B.Z._.].Y.5.5.4.9.#.m z v 5.i.i.w.p.r.r. X.XJ.i.a.3.^ D A D 3.H.`..X`.V.5._ n v F F B n v 0 p v y 0 w v | _.B.y.C.4.O.2.3.2...2.5.y.y.n.y.K._.a.2.4.#.+.U T @.y.w.%.5.] n a J 2.3.` m X.e.5.3.9.9.8.,.,.O.4.B./.x.b.D.m.8.8.[ _ { V v ] w.a.e.9.a.5.| 4.5.4.| #.B.B.8.6.[ B x <.z.) ) :.:.<.<.<.z.n.,.B z M V M [ } [ <.:.~ x h B ( ! ! B N F [ 5.a.4.2.2.#.4.4.7.A.z.6.z.9.n.S.L.F.y.4.#.' L n v V { 9.F.F.L.Z.a.B.V.@X3XE.a.U b X.G.G.V.3.] M q q v [ 9.e.V.Y.U.].R.G.T._.| | 7.A.Y.S.9.6.4.y.B.Z._.].F.4.3.5.9.2.",
"v r V #.Z.U.j.f.r.s.J.`.r.m a b ^ ^ ^ q.b.G.`.`.s.y.y.,.F z z z / [ v y b b y y r r | Z.B.C.Z.a.2.4.2.2.3.3.4.5.9.y.y.y.a.] _ #.` J I U t.I.V.%.O.P m m ] #.] D N S ` 2.5.9.7.B.B.n.C.B.M./.K.A.4.4.9.8.5.2.%.4.#.4.D.C.y./.'.F.F.F.].#XC...| e.Z.'.I.G.t.@.+.p.J.Y.s.%.o.o.] 2.2.G a 9 w r Q :.x.b.b.e.s.w.5.5.&.#.4.C.Y.C.C.F.a.8.9.n.A.6.[ :.l.A.!.n.D.L._./.F.C.y.y.#._ _ 2.F.|._.F.F.Z.B.s.Z.T.K.V.%.] ` P e.`.Z.#.N r k N z v _ ^ X.a.a.s.f.V.V.Z.9.Z._.~.F.F.Z.8.O.8.9.4.| e.e.2.9.Z.Z.| v r V #.Z.I.h.f.r.s.G.R.w.m a b ^ ^ ^ 7.j.H.Y.`.d.9.y.,.F z z z / } v y b b y y r r | V.B.C.Z.a.4.4.2.2.$.3.4.5.9.y.y.y.a.] P #.U J U U t.I.f.%.| I m m ` | ` S b m _ #.6.5.7.8.,.O.4.L.Z.x.7.n./.M.8.:.B V a v m #.5.e.s.i.i.w.$.4.4.a.a.4.A.Q.Q.M.[ h -.P.v./ Q =.v.1.x.m.M.N.;.h c V v e z j W ~ W B z M / ! _ [ B N _ ' 2.5.i.B.y.2.9.7.a.A.z.6.A.7.9.B.n.B.B.y.5.4.,.[ _ 2.F.{.F.F.C.V.B.s.Z.Y.Z.f.@. .` ` e.`.Z.2.m h k N z v [ D X.a.a.s.f.V.V.C.9.F.'.H.F.F.Z.4.,.4.9.4.#.e.e.3.9.Z.V.| ",
"` ] L $.5.f.I.G.j.f.j.s.w.s 8 y S D X.7.$.$.w.b.9.C.F.y.,.| / u | B.a.] P m a v v n | 7.9.a.i.4.4.9.5...2.#.] 5.y.9.9.O.] G ` #.` J @.+.i.K.Z.&.o.I L ` 2.#.] ` D D #.5.i.9.2.4.u.4.O.| 4.F.L.F.S.9.%.i.a.i.5.y.C.K.}./.D./.S.y.9.B.K._.V.5.#.B.Z.y.f.a.&.&.%.&.e.H.U.B.4.#.| 2.| a 0 9 0 w k N ^ 6.b.F.V.5.5.5.5.t.y.K.OXL.a.C.Z.B.O.7.9.| h z l.[.^.A.n.m.C.B.F.F.L.a.2.] 2.S._.{._.F.9.9.a.B.F.i.2.U L L ` >.V.H.H.3.V h B _ v w r v 2.T._.G.s.s.e.V.F.Y.]._.Z.S.i.n.4.O.' ] ` 3.S.3.#.Z.V.] ` ] P $.t.f.G.G.h.j.j.f.0.b 8 y S D >.3.X.>.e.e.e.S.D.a.,.| / u | B.e.] P m a v v N | 8.9.a.y.4.$.9.5.+.2.#.] 5.y.9.9.O.' G ` #.` L @.+.t.K.Z.5.+.I L U %.#.` ` S b ` | 5.7.;.} ;.} O.9.7.B.W.x.D.z.,.,.[ v v v L S L @.Z.K.B.Z.H.a.2.4.C.B.b.x.A.>.W j -.u.) g x ,.z.M.n.n.z.z.-.M M B x v v M x g x x B / ( ! ! Q Q ^ ] } L | 4.4.4.5.4.6.2.,.:.z.b.l.n.x.9.y.y.a.a.5.2.] 2.B.Q._._.V.9.9.a.B.Z.a.#.P _ L L ..V.H.H.3.V h N ^ v w r v 2.T.`.Z.s.e.s.s.F.Y.'._.Z.B.y.y.8.O.[ ] [ 3.S.3.#.Z.V.] ",
"%.] P  . .0.I.f.p.p.f.s.f.U y s S >.$.X.$.7.3.3.L | y.8.' _ _ v m ] 4.] P V D m | 9.2.] 5.a.2._ #.2.` ] U U $.y.a.9.9.y.O.] | O.5.t.t.a.%.@.p.w.@.] +.$.i.a.$.` ] X.4.V.C.9.2.2.4.O.O.4.a./._.Z.C.u.O.$.w.i.a.f.C.L.OX}./.D.S.8.#.5.4.V.B.#.w.Y.`.Z.f.Z.i.w.w.a.s.e.#.2.4.| ] 2.#.n 0 u r r e e ^ z.b.7.7.B.F.Y.F.L.Z.'.].K.C.C.B.9.7.;.Q h h B 6.!.W.z.C.n.M.B.D.'.Y.B.4.V } L.|.Q.A.7.7.a.C.C.B.` V m m b b ..b.V.B.y.3.] ^ B a w 0 a ` a.U.G.s...X.%.Z.B.'.'.B.B.n.Z.B.| B z [ V._.H.b.Z.a.4.%.` I  . .w.G.f.r.j.f.f.V.U y s S >.X.X.7.r.5.2.L ] y.8.' _ _ n m ] 4.] P V D m ] 9.2.] 5.a.$.L O.6.` ] ` U $.y.n.9.9.y.O.| | O.5.w.t.i.%.%.p.w.@.] o.$.a.r.+.` P ^ O.i.B.x.2.[ } } O.2.9.B.F.x.n.D.D.8.;.B N m m m  . .$.i.V.F.Z.9.#.9.B.9.| -.6.-.N q c / F g x <.1.n.<.n.z.[ -.6.8._ B n v h h M M x x Q M ! B ! } ;.} V n V F _ 2.4._ ] | } >.A.b.6.9.9.A.n.x.C.B.7.2.! ] F.}.F.A.9.6.B.B.Z.B.] V V m N m >.b.V.B.y.3.] ^ B a w 0 a ` a.U.G.s. .X.5.V.C._.'.B.B.a.D.y.O.n v ` B._.F.a.F.a.4.",
"5.P K ] ` w.f.G.s.r.G.U.f.U +. .w.H.e...w.V.e.3._ | 9.5.9.9.2. .L ` w. .$.w.5.#.9.2.D ^ 4.C.9.| ` ^ D S m X.i.9.,.y.A.a.y.' ' ] $.5.5.5.o.#.$.w. .P K @.s.$.` U ` X.V.`.Z.a.,.} | 4.9.S._.'.;X|._.C.a.e.3.i.s.i.a.C.F.y.8.W.L.D.O.n O.5.2.5.V.B.d.Z.E.T.Y.a.e.U.G.5.P v ^ { >.6.{ N b y k v h h h 2.B.| 2.9./._.'.'.C.Z.Y.Z.y.C.b.3.2.^ r z v / :.z.x.6.8.n.x.6.9.A.F.F.9.! ] _.&X_.x.[ | 9.B.F.F.| m m b y r ` 7..._ ` _ V N B v k a m $.y.Z.I.s.w.] ] 5.a.C.L.H.Z.7.9.8.[ N N ;.{.{.V.4.B.Z.s.w.P L X.] w.s.G.s.w.J.I.f.U +. .w.H.e...w.V.e.3._ | 9.9.9.9.#...L ` w. .$.w.3.#.e.2.D _ 6.V.y...` ` ^ S S ] e.a.#.y.B.B.y.] ` | 2.9.5.w.+.#.$.3. .P L ..s.$.` K S S r.`.Z.9.] / ! [ } 9.9.7.x.c.m.M.A.6.[ ^ ^ m _ ] +.3. .#.2.B.Y.5.#.4.V.7.7.| Q B h 5 q B / v B ( O.8.y.8.,.6.x.6.-.! m N B v h j B x Q ! Q B M N _ | ;._ B n m _ | | L ] O.8.A.x.x.9.n.n.x.2.7.n.A.4.2.N ] F.|./.9.[ } 9.B.F.F.| m m s y y ` 7..._ ` _ V N B v k a m #.i.Z.I.s.i.+.` 9.a.s.L.H.Z.7.7.8.[ B N ;.{.{.V.4.B.Z.s.",
"5.+.X.L  .w.r.w.q.f.f.p.i.a.&.5.s.w.r.$.3.w.w.V.i.4.O.4.5.a.s.a.5.a.s.e.a.a.a.e.a.3._ ] 4.i.s.i.X.D ` b s ] 5.#.[ 2._ O.4.` F G _ ..$.] P ] 3.$.+.] S  .s.a.q...` D e.H.F.y.#.| 4.B.D.L.S.B./._.F.B.9.e.V.].'.Z.A.L.D.A.D.}./.C.9.I G [ 2.4.5.a.d.a.5.#.$.3.3.f.e.P s r w V { { ^ D m v v M M M ^ A._.A.9.8.F.|.].D.9.9.C.Z.C.C.e.3.....F | ;.[ 8.W.D.A.8.9.8.| [ z.Z.F.Z.` | Q._.z.7.9.4.y.C.y.e.a._ s 7 w y N ` >.| V V e r / ;.| ` 2.Y.Z.V.T.V.g.+.` y.a.y.9.9.5.6.2.{ N B ^ _ B.|.B.#.4.Z.s.5.+.T L  .w.w.q.q.f.f.p.p.a.%.5.a.r.p.$.3.w.w.V.y.4.O.4.5.a.V.a.5.a.s.e.s.a.a.9.e.3._ ] 4.i.s.y.X.D D b y ] 5...[ 2.' | %.' G V ` | +.] L ] $.3.+.] Z X.s.s.3. .D S w.V.B.7.B ! ,.8.C.L.B.z.A.n.m.D.n.6.2.A.x.>...] 3.Z.a.i.5.5.4.2.3.e.3.9.3.} B h q 3 e z / [ [ O.4.u.9.8.| [ / N v N ! V v v r h x N ( -.B z r a G / O.[ V V N B / ] ' 9.F.x.2.8.A.C.B.n.9.,.| 8.x.e.7._ [ F.F.z.7.9.4.y.C.9.a.a.P v 7 w y N ` >.| F V e r / >.| ] 2.L.F.V.T.V.s. .` t.s.u.y.9.4.6.2.[ N B _ [ B.|.B.#.4.Z.s.",
"w.e.3.$.e.$.+.+.$.G.s.5. .%.i.i.U U w.w.$.3.3.e.9.9.2.5.4.5.5.w.r.G.s.+.`  .e.V.9.a.V.V.Z.#.P $.5.3.w.` D $.5.3.3.4.` #.o._ G / ] [ _ ] ..3.a.3...P s S 3.f.f.Z.V.e.5.5.3.$.B._.F.F.C.F.n.2.] _ _ | #.4.V.s.Z._.}.|._.Q._././.F.y._ a N ^ ] 2.e.Z.f.P d _ #.5.9.$.G a 0 w N ^ ` 7.3.D v _ | -.| ;.7.F.F.n.9.C.F.8.O.4.2.B.H.L.a.w.a.a.B.y.y.4.} -.2.n._.n.n.A.A.b.A.F.F.F.s.b.H.F.x.9.B.C./.C.4.B.y.| m p y v J ..7...B h h B 8.Q.S.9.F.Y.Y.C.w.5.a.%.] +.y.K.y.4.6.6.>.! l v L ] #.3.s.K.5.@.5.5.e.3.%.e.3.+.$.$.G.s.&. .&.i.i.U U w.w.#.3.3.e.9.9.2.5.5.5.5.r.r.Z.s.+.]  .e.B.9.a.B.V.Z.#.P $.5.3.w.` K $.w.2.6.5.` #.] I F F ] _ _ ] ..3.e.5...P s Z $.s.f.G.V.r.>.3...` 9.A.F./.n.F.9.9.A.x.A.D.A.:.} x.x.B.a.9.a.a.Z.F.s.y.s.B.a.$.5.Z.3.N V B M M h z B D _ O.4.O.5.B.#.v e v v V V v r r l k v x / -.Q z e u F O.O.| | [ / _ [ ,.| 4.C.7.| ;.y.C.B.9.9.9.x.b.B.B.e.3.6.V.B.9.9.n.A.L.C.6.n.a.] m p v v V ..7...N h h B 6.Q.S.9.F.Y.Y.f.5.5.a.4.] #.y.Z.u.4.6.6.>.^ M h _ | #.3.s.K.5.$.5.",
"_.H.5.5.5.P P w.s.J.p.$.&.a.f.f.r.s.s.e.3.#...7.9.B.6.#.5.4.5.i.s.b.w.` P  .....3.a.a.Y.3X4.0 ] s.J.`.G.V.w.+.#.5.5.2.$.#.$.] _ | ] V #.e.b.Z.e.` S s s ` w.f.a.V.V.5.5.4.B._._._.L.2.O.` V V V F ] 3.2.` v V | C.'.Q.x.M.D.C.5.#.' m ! { ..3.9.a.f.5.U ` #.2.5.5.m 0 a w N >.7...D D ..2.9.A.n.2.| B.9.O.2.9.9.O.} ,.5.a.a.5.w.w.5.4.y.4.4.4._ [ [ 8.L.F.C.a.B.F._.}.J.V.H.H._.F.D.y.7.y.B.7.B.|.'.Z.%.5.3.2.9.B.B.2.v w M Q :.Q.[.B.4.| ] #.5.$.&.i.a.a.Y.Z.5.9.7.6.{ W ! | 6.a.y.%.V.Z.5.Z.{.T.H.3.5.9.K P w.f.J.a.$.&.a.f.f.r.s.s.e.$.3...5.9.i.4.| 5.5.&.a.r.V.w.` P  . .#.3.a.a.Y.3X%.r ] s.H.`.G.V.w.+.#.5.5.#.3.%.#.] _ | ] D #.e.B.G.e.X.m s t U w.s.a.s.r.3.X.] V.{.[./.D.n.y.8.7.x.A.W.Q.x.x.W.F.A.D.F.Y.H.Y.].Y.y.i.B.9.#...w.V.5._ [ ;.[ M h M v l F [ ' ` _ | ] N k v ^ [ [ _ n M N v B ! } <.} ! z v F | O.| [ B v N _ _ L 4.B.| [ | 4.C.y.4.2.2.7.b.F.V.e.a.B.F.B.A.7.6.y.B.5.B.|.'.F.$.%.3.2.9.B.b.2.v r M W <.Q.[.b.4.| ] #.9.$.&.i.i.a.K.Z.4.7.7.2.[ N ^ -.7.a.t.4.V.Z.5.Z.`.",
"Y.3.^ ..i.#.L ] 5.V.G.Y.f.d.a.d.Z.w.s.G.Z.a.#...7.9.#.#.5.5.5.9.e.V.w.L D X.D S #.9.7.V.@XT.@. .s.T.Z.Z.I.U.F.Y.s.#.#.g.Z.Z.i.4.5.y.| [ ..6.i.5.] D D  .#.4.s.L.H.Z.5.4.a.L.L.F./.B.O.' G v v L ,.5.a.9.#._ L ;.6.6.7.x.4.u.y.O./ V n B ..>.e.B.9.t.s.#.] %.$.$.9.4.#.| #.4.B.Z.5.` ] e.S.b.7.7.4.#.4.] V ` O.#.| | [ ] 7.#.] 4.O.m L ] ' 2.4.[ [ >.7.9.y.d.B.B._.].Y.Z.s.e.Z._.F.F.A.S.C.y.y.y.B._.Y.a.#.O.5.C.F.Z.y./ e e x [ [ ;.;._ _ ..V.Z.3.a.U.F.Y.C.O.| 6.#.[ { ! 6.A.C.F.5.#.$.O.O.H.@X_.3.D | i.#.L ] &.Z.Z.T.f.d.a.f.Z.w.s.G.Z.a.#.>.9.9.#...5.5.4.5.b.Z.e.L S X.S D #.9.4.V.@XT.@.o.s.T.V.Z.I.H.G.Y.s.$.+.s.Z.V.a.%.5.y.| [ ..6.y.w.P S S  .+.$.a.H.`.V.#.P ] Z._.}./.A.n.y.n.9.z.m.D.W.S.(.&XA.6.9.B.Y.F.B.B.s.4.B.4.2.9.w.i.9.4.,.7.9.6.-.6.{ ^ { _ _ n m P 2.4.m r N | ;.7.x.2._ N F ;.8.z.x.;.( Q v v v V B v M z z n _ | 4.5.,.[ | 7.4.2.4.4.5.B.B.B.e.9.3.9.V.B.B.A.A.C.9.y.y.B._.Y.i.@.O.9.C.F.Z.y./ e e c [ =.-.2.L _ ..B.G.3.a.Y.F.Y.C.O.| 6.2.{ { ! 6.B.Z.L.5.#.%.#.O.Y.@X",
"9.N N ` +.] P ] $.5.5.#.5.y.#.] 5.>.5.e.Z.V.9.7.9.9.6.2.9.Z.Z.C.B.S.2.` ] @.S m 5.e.#.i.].R.G.a.5.$.+.@.f.].1XJ.$.@.s.I.g.d.f.C.y.B.7./ V ] | ` L X...@.@.` ` y.F.w.7.4.2.A.C.A.9.#.#.| ' L _ 2.B.B.B.Z.5.4.8.2.>.;.| | F [ 4.C.,.B z N ^ [ >.B.s.B.d.5.t.Z.L.a.Z.U.Y.C.Z.w.3.s.V.3.w.5.V.9.[ ] #.$.#.] J K m m m m v v ] 6.7.+.J m G / / F L v N ! 6.9.] ` | 5.F._.f.f.Z.e.5.a.B.F._.L.C.B.C.C.F.F.y.5.%.5.C.F.B.y.A.4.B B -.} N N [ _ L #.B.V.a.H.H.V.C.O.F } b.x.| _ -.>.2.9.y.' F G s m s.|.9.N N ` o. .P ] $.5.5.#.4.y.#.] 5.>.5.e.G.V.9.3.9.9.2.6.9.C.F.C.B.S.2.P U $.S m 5.e.#.a.`.R.Z.s.w.$. .@.f.XX3XG.$.@.s.I.f.d.Z.d.y.B.7./ D ] ] ` L ] ..+.+.L P 5.Z.3.| P L 4.F.Q.8.8.4.8.O.[ ,.D.W.S././.A.-.} 2.V.B.a.e.e.V.Y.|.Z.6.9.5.B.C.y.n.x.z.8.b.b.V.~.S.5...P #.2.5.y.P V m _ | 8.x.z.-./ F } 1.| 1.1.;.! M M v h g h M c h u G | #.4.7.-.] #.2.' ' ] O.e.b.#.3.i.$.2.5.9.F.L.F.B.a.B.C.F.F.y.5.%.4.Z.F.B.u.C.2.B B =.| N N [ _ L #.a.V.a.G.H.V.d.2.V | x.9.-._ | ;.#.9.y.] L F n m V.].",
"v N D _ m m U ..$.#.2.i.y.5.O.` 5.H.H.`.T.V.5.e.B.9.9.B.C._.}./.S.b.>.+. .$.5.5.a.5.5.i.i.a.f.G.a.w.0.a.f.T.#XG.w.p.p.f.i.d.Z.K.y.9.A.2._ D m m V ] $.4.] L J 2.e.6.3.9.2.9.B.9.y.y.B.y.4.$.2.7.9.a.V.Z.V.Z.S.b.z.6.;./ V v F | / M N N V { 7.e.Z.Y.C.i.5.t.a.i.C.Y._.Z.Y.Z.p.a.G.s.s.5.5.2.#.3.4.t.i.*. .U b s J m s v L 9.a.| G G F v v m _ V N V ..e.] G L P  .$.@.+.$. .] ..9.Z.'.Y.C.a.y.y.L._.Z.%.O.O.9.A.F.D._.L.D.S.n.-._ _ L V ] 5.5.V.e.] ] 9.t.O.V _ 9.A.,.,.w.2.| ] _ a m _ ' 2.4._ v N ^ P m m ` +.3...2.i.9.5.O.` 5.H.H.`.Y.V.9.e.B.7.e.B.B.'.}._.S.b.>.#. .5.$.5.s.3.5.i.a.a.f.I.p.w.w.p.g.T.#XG.5.p.p.f.i.d.Z.K.9.9.A.2._ V m v m ] $.$.` m m O.4.] ] O.D | 3.z.A.A.y.9.y.A./.}.D.A./.D.<.-.<.2.A.a.e.a.U.|.].H.B.9.7.9.B.Z.n.<.<.l.c.6.[ { 7.e.$.%.f.Y.s.9.V.5.$.[ _ [ 8.8.6.8.) n v G O.8.} ~ M z e r g l l x x F u m I O.y.4.-.| | 2.I m m G ` | ] I .. .] | 9.Z._.L.C.B.u.y.L._.F.%.O.O.9.B.F.F._./.D.D.n.-._ _ L V ] 5.9.V.e.] ] 5.5.O.F _ 9.m.,...9.2.| | ` n m _ ' 2.4.[ ",
"m D L V s a L +.] b F ] $.5.#._ _ 7.V.]..XF.B.S.F.9.B.Z.C./._._.S.7.;.] @.i.V.G.V.3.&.s.i.f.K.g.i.&.@.0.s.J..XG.f.h.p.0.i.d.a.d.7.2.x.A.] v v v J J | #.] L V _ 9.x.y.7.4.9.S.A.n.Z.L.Z.y.4.2.i.Z.V.C.Z.F.Q.b.{ { { } V z B 1.} Q Q Q D [ 6.7.9.F._.C.s.t.5.a.C.B.y.i.Z.d.Z.Z.f.f.f.w.e.9.9.b.Y.K.K.i.*.@.T J L  .L V D | 5.9.#.L m n m v v v v N ^ 2.2.O.J J U J J #.V.*.K ] e.V.e.F.H.C.B.L.F.F.C.] V z _ 9.A._._._._.}.F.B.6.;.#.#.e.B.a.5.3.2.3.$.2.` n V _ _ ! B 9.S.e.$.] L n n | 9.n.2.V m V L V s a L +.] b F ] $.t.O._ [ 3.V.]..XF.e.F.F.y.n.F.C./._._.S.7.| ] @.w.V.H.V.3.5.p.i.f.h.g.i.%.@.w.s.J..XG.f.h.p.w.i.g.a.d.9.2.x.B.' N v a L J | O._ G s m 5.7.2.#...#.e.F.F.L.A.y.S./.[.4X>X/.M.<.-.} [ h | A.4.9.~._.Y.B._.{.a.F.F.C.8.z.m.W.x.;.[ ^ ..w. .] +.5.a.d.y.] | ] [ [ A.z.6.z.) x n n V Q N M g e r h h l Q [ | F n m O.5.4.,.:.| [ _ n v n P P D ` $.] ] +.e.V.y.Z.Y.C.a.Y.Z.F.C.] V z _ x.A./._._._.}.F.B.7.| 2.#.e.B.a.4.3.3.3.$.2.' n V _ [ _ B 9.Z.e.2.] F V n O.9.B.2.V ",
"] ] ` D b D ` ] P b D 3.e.Z.$.N N 5.Z.XX@XF.B.F.F./.S.M.y.u.y.n.9.2.O.U q.r.e.w.5.3.P 3.f.G.G.r.+.S J  .&.g.Z.G.a.p.p.$.+.*.5.9.2.;.,.2.| r u m ` O.t.u.| L ] #.B.C.4.1.O.8.B.x.B.a.B.s.e.5.2.9.B.F.C.C.n.C.,.Q } 1./ B B / 8.,.~ / B F O.8.2.9.C.F.V.C.y.i.F.e.t.Z.C.a.d.y.&.] +.] ` 2.9.B.B.F.Y.Z.t.*.@.T K S K ] D ` 5.V.w.>.L d s Z b v a k N ^ 7.r.a.@. .+.] &.a.B.| U @.a.G.a.r.e.s.B._.].Y.a.P h z ! 6.A.{.{.D.9.5.a.9.9.] | 9.5.5.#.2.4.$.7.5.] N v V L V V u P 5.3.] ` V v v F ] 6.a.#.] ] ` D m V P X.L b D #.e.Z.#.N m 9.Z.|.@XY.B.F.F.L.D.A.n.9.y.y.4.2...U &.r.e.e.7.$.P 3.f.G.G.r. .S S  .5.s.Z.G.i.r.p.&.+.@.5.5.2.;.6.>.| r u m P #.4.9.` m L | B.D.O.o.L ` 3.5.B.B.F.Q.[.Q.W.[.>XQ.m.<.c x x v M ^ { ..9.4.9.F.B.9.7.] #.2.,.8.P.n.1.) Q ^ ] ..$.@.+.U +.s.9.J ` 4.;.] 9.A.D.x./ c x z g c h z c n z B z n ( [ } O.O.' 4.C.a.2.-.{ M V ^ D [ ` ` O.%.O.] $.9.s.G.r.w.a.a.B.T.].Y.a._ h h ! 6.A.=X{.F.9.5.a.e.7.] O.9.5.5.#.#.4.#.9.5.| V v V V V V u P w.3.] ] G n v / ] 6.B.#.",
"5.3.9.X.` X...] P D X.e.H.w.3.$.5._.|.3X|.Z.a.S.L.[.L.m.a.9.y.i.a.a.a.w.r.e.w. .` ` D $.w.w.w.0.@.U J +.a.G.G.U.a.r.w.@.S  .a.s.>.6.;.6.2.{ _ #.y.9.a._.H.#.] 4.y.,._ ] ' | 2.8.n.B.9.Z.V.a.4.7.B.B.u.n.D.y.( } n.m.1.~ B B Q [ ( x M | 7.O.| 9.Z.d.V.y.7.9.A.F.B.C.K.d.y.5.%.I d a m #.x.F.F.F./.Z.t.@.@.@.X.P P ..$...w.e.5.X.J d f s p s y k D ^ 6.e.a.s.i.&.t.Z.a.#.] | $.5.r.q. .+.3.a.a.V.Z.4.V v M z _ c.[._.Q.F.V.e.@.| #.2.t.y.t.#.O.] 2.4.2.m v r r m V m 0 0 L [ J D L G V F ' ..2.9.7.3.w.X.] ] ..] P D X.V.H.w.3.3.5._.|.3X].F.a.S.L.[.L.n.y.9.y.a.a.a.a.w.w.r.w. .X.` D $.w.w.w.w.$.U J +.i.I.G.U.s.r.0.@.S #.a.a.2.6.>.6.>.{ ` #.9.9.9.|.Y.O.L 2.5.} a n p p b D 2.9.B.{.Q.A.x.A.}.Q.W.l.[ B g k M V { 3.3.4.C.a.[ ! V v m ] 4.,.,.,.<.-.{ [ V b X.$.+.U w.Z. .J ..4.7.| 2.A.A.z./ u j B q q h z n B B ( / / O.} / | ' O.t.B.7.;.[ [ W W _ { ' ] o.4.#.] 5.5.5.w.r.$. .+.5.a.B.B.Z.4.N v x v ^ A.[._.~.Z.V.w.#.+.] 4.y.y.t.#.O.o.O.4.O.m v r a m G m 0 r P ` L D L L V V ] #.2.9.",
"{.Z.e.w.] ] >.` D ` ] #...b S { 5.e.H.F.L.B.n.B.C._._.F.C.y.B.B.a.a.s.$. .+.5.#.D X.+.` L P $.w.&.U S +.Z.f.$.a.G.f.w.&.w.w.w.9.>.2.7.2.2.2.3.a.F.F.F._.B.D N ` ` } | ' | } } ,.x.S.F.B.Z.F.s.B.B.y.u.y.,.} n n } O.( z x B Q :.-.z M ' 3...4.a.a.2.O.` _ | 9.A.n.Z.C.u.5.4.%.` d u D #.9.S.F._.T.F.f.i.w.@.T P X.%.5.$.$.$.$.+.U P S d s p v k ^ { >.r.U.Y.Z.V.a.y.9.B.u.3.5.f.f.s.$.$.5.a.5.2.2.' m h h M Q 6.A.9.8.s.w.5.5.U @.y.5.5.5.+.] I ..2.] m m y 0 r a V _ L +.` b N V V _ ' _ n L Z.`.H.e.9.o.| #.' D ` { ..] S S ` 5.e.H.S.F.B.B.B.C._./.K.A.y.B.B.a.B.B.$.+.$.5.#.D ` +.] S U $.w.&.] J +.G.f.@.a.Z.f.r.$.w.w.5.9...2.9.2.2.4.4.y.F.Z.H.~.a.m v _ V B V a d i t b ` 2.9.9.9.z.A.A.W.z.1.6.-.[ v v { 7.2.7.2.3.B.O.V _ ^ m L ` 9.8./ / <.z.A.{ y y b S J @.f.a.L 4.3.[ 2.7.;.b.x.,.) W c g 6 5 j e h c M M z M / O.) n G O.Z.F.B.6.| / / B ! [ [ ` O.2.2.7.n.5.i.s.f.a.$.$.3.a.9.2.$.` m z h M B 6.b.x.3.B.e.5.5.U @.y.5.5.5.+.] ` ..5.| V N y 0 r v V [ P | ] N b V ! _ ' / m P B.",
"H.e.` D ` _ _ ] [ ` 3.B.3.......3...w.9.a.y.4.a.Z./.F.B./.'.L.Z.Z.F.B.i.5.3.| J S D X.` m S  .$. .X.] @.r.&.a.T.J.p.f.f.p.w.a.e.] | >...` v v L 2.Y.{.F.e.` D ..2.9.2.F ` O.| ;.2.9.B.F.Y.`._.F.C.y.#._ G z u z [ ' B z x B Q [ ~ c ,.B.e.5.5.e.d.5.I L O.n.m.D.D.C.C.5.t.5.4.#.' G N [ 2.9.B.F.F.F.Z.Y.f.w.@.&.p.w.$.U D P +.r.w.@.P f p a b N ^ 7.b.S.].`.V.B.a.y.y.F.B.5.w.s.f.h.G.w.V.H.B.2.] _ _ [ N k N ;.7.| ] $.w.w.p.$.$.O.#.%.o.L J ] 2.e.e...V u r a r m | $.| #.` _ [ L N V N _ | B.H.e.` D ' _ L ` ` ` 3.V.5...X.>.3...w.e.a.9.4.B.F.L.D.D._.'.L.V.Z.F.s.i.5.$.] L S D X.` b D X.$. .X.U @.w.5.a.R.J.s.f.h.p.w.a.i.| ] ;.{ [ v n G 3._.|.F.9._ m ` | 6.[ 0 u r w b D _ ..2.2.b._.[.A.,.[ [ 2.| N _ V.B.e.2.2.| [ v M ^ ^ ..i.A.B.2.8.A.1.,.6.M r y m S +.t.+.] L $.9.e.Y.Q.F.F.6.6.<./ g Q M h z e e h B ,.u./ / } ] ) ) O.9.9.9.8.;.( ! / | | ] ;.#.#.#.y.B.9.5.a.f.h.G.w.V.H.s.6.' _ _ [ M M N ;.7.>.| $.w.5.p.$.%.#.#.%.o.L J ] $.9.i.| m v r y r m | $.| O.` _ ` ^ m V B _ | B.",
"..7.5.] ] O.2.9.4.7._.Z.7.` ....{ $.s.#.| | #.6.F._.F.B.V.F.{._.H.Y.F.V.Y.a.m n D { ] ` ` #.w.w. . .@.@.p.s.f.J.Z.w.w.p.@.+.$.3...` N ^ L u a a ] F.b.e.V.3.` >.4.9.2._ [ | 2.7.z.9.9.F.F.Y.Y.Z.M.d.t./ z z F ;.m.n.( / V N N Q M ! 7.Z.H.V.w.e.V.d.#.O.y.[.}.(.D.M.C.,.#.9.8.4.y.n.8.6.y.n.n.n.F.F.C.Z.i.i.f.I.G.q.@.K S S T q.s.i.T s s a a y N { [ 2.{.|.F.F.C.n.P.B.7.4.5.a.s.+.U $.G.F.V.B.7.7.6.| 2.;._ ;.2.] ] 3.$.$.r.$.+.] P P +.L U +.2.e.V.9.L b N v a L 2.#.#.4.7.9.] y r N [ 9.7.#...9.7.` ` | 2.9.4.7._.S.9.{ ..X.X.$.b...| | #.6.C._.F.B.Z.F._.T.H.Y.F.V.Y.a.m n D ] | ` ` ..w.w.+. . .@.p.s.s.J.G.w.w.e.$. .$.3...` S ^ J y a v ] F.e.b.b.3.^ { #.7.[ y y w t s b D L ..#.9.F._.F.2./ _ | [ D #.V.e.....9.{ M r w q r ;.9.y.8.8.1.6.2.,.;.V N m P ..@.4.#.#.%.4.9.F.{.;X;X8.e c ( g g Q Q z g r e u / 1.m.,.8.| -.;.[ | #.2.,.2.[ ( ( [ | ,.2.2.4.4.8.6.>.2.$.a.s.@.] $.Z.F.V.e.8.4.2.;.2.>._ ;.6.] ] 5.$.@.r.&.+.] P U  .K P +.2.9.B.5.L N N v a _ 2.#.#.4.4.9.] k r N [ 9.7.#.",
"] 3.w.9.y.Z.u.2.B.A.9.6.3.>...9.` b S s m L $.5.B.Z.Y.F.F.Y.`.Z.B.V.V.F.'.y.n m ] ..] ` 5.V.V.e.w.&.$.*.p.s.r.5.w.3.3.%.` L ] ....X.` b v s m m #.Z.~.H.~.V.3.{ _ ` _ [ _ ] | ;.6.7.7.e.y.a.B.y.u.u.O.B n / O.1.y.n.8.O.| ! M B ! { | 3.w.H.H.H.T.I.5.$.9./.Q.M./.).y.;.O.m.C.8.8./.F.C.d.C.C.C.S.Q.D.B.e.y.s.G.f.$.T R K K R ]  .r.w.P a s v y v b ^ 6.A.~.~.A.D./.L.A.9.7.@.5.@.U P a.H.B.B.F._.H.B.6.x.[.B.A.B.#.] $.$.+.+.r.@.] ] p.i.U J ] #.4.5.4.` [ ] J L | 2._ m ] 2.#.[ v r N _ | | ] ` 5.e.w.y.F.9.2.B.B.9.6.>.>.>.w.` s S b m F $.9.B.Z._.Z.F._.{.F.a.V.Z.H.'.y.n m ] ..` ` 5.V.V.e.w.$.@.q.p.s.p.5.5.$.3.$.] L `  ...X.` b v a m m ..S.Q.H.T.V.$.` v v l y 8 8 8 8 y b D ..#.4.C.Z.B.2.| ] _ ] ..a.G.V.3.7.9.{ W w e q w ] 9.y.4.8.| ! / ,.2.2.3.2.2.2.4.#.5.o.O.,.5.e.V./.'.n./ z B x B B B h g e e z ( ,.,.1.-.( } ( | | ,.O.] [ B F [ O.,.4.8.2.8.C.A.9.2.#.#.$.@.] U a.Y.B.B.F.'.F.B.6.x._.Z.B.a...] $.&.+.@.5.+. .] i.i.] L ] $.4.e.6.` ` ] L V | #._ V ] 2.2.[ v r N _ | | ] ",
"2.b.Z.Z.K.F.9.4.8.,.6.A.S.S.B.Z.3.s y y a n 2.s.9.#.a.F.B.Y._.e.L ..V.F.y.| F ] 4.#.| { 7.7.3.$.$.X. .@.$.h.J.p.w.3.$...L P P ] r.s. .D a a d n D $.F.F.V.e.$...` ^ ^ ` _ ] ;.2.7.x.9.9.a.a.y.u.t.O.G B / B / 1.8.O.1.7.} v h v ^ >.{ L ` 3.b.G.].R.d.4.s.S.9.n.D./.M.,.[ 4.n.m.x.D.A.8.4.C.L.n.n.F.Q.S.Z.B.5.5.w.@. .@.T T T K K 3.V.3.G v b N v h B >.b.A.x.>.8.P.;X_.V.e.5.Z.s.p.s.G.V.9.9.S.F.D.x.;._ y.B.3.| P X.$.@.X.X.X.U @. .J $.+.U L U 5.A.9.| L V v V ] _ v v b V { D r r m ` _ ' | 2.b.Z.S.F.F.9.4.8.,.6.A.S.F.S.Z.3.s y t p m $.a.9.2.a.F.B.Y.'.9._ ..B.F.y.| F ] 4.#.| ] 5.5.3.$.+. . .@.$.G.I.s.r.5.@...K P ` ] e.e...D b p d s S >.S.H.S.r.5.` S y 8 y t 8 8 8 t N ` #.4.2.6.2.2.;.,.| _ D ] e.w.3.e.H.b.[ N q q h v ,.F.9.8.P.8.F [ O.6.9.B.a.t.4.4.4.4.4.y.y.n.a.9.B.M.C.8.} -.:.<.Q B c q q z ( ,.<.x.,.[ -.[ ( ! ! } [ / _ ( F F | 9.8.| | | 4.S.D.b.9.5.f.s.p.s.Z.V.7.9.F.F.F.x.;.[ a.B.6.| P +.@.X.@. . .U @. .L +.#.U D _ 5.B.9.| L m v V ] ` v s v V { D r r V ` _ ' | ",
"Z.T.Y.F.y.4.9.B.8.7.x.S.Q.F.F.B.$.D v s 0 s O.2.] | e.V.B.B.F.e.#.5.B.7.[ _ O.a.L.a.#.9.w.>.3.e.+.K U +.@.h..Xs.w.$.$.] X.` P @.w...+.3.X.b m m m _ 9.3...X.` ^ ` _ { ` L [ 2.2.9.B.F.B.F.V.%.5.d.4.1.;.F c G ( / B ! _ v v v m _ { ` D X.X.V.`.OXY.f.y.a.D.S.m.<.D.C.1.F ! :.z.m.Q.L.n.u.y.u.8.D./.A.9.n.a.4.#.U P T @.q.q. .X. .r.s.e.2.J ` X.S N k ] B.S.9.b.}.oX}./.F.B.V.Z.w.s.I.Y.F._.F.F.A.A.A.| h B v v m s b  .X.$.q.@.+.t.5.$.w.a.4.O.| 3.6.#._ v v a v L V J m N V ] ] N k r _ #.B.V.V.Y.T.G.i.6.y.B.9.8.x.S.F.F.S.b.3.D b b 0 a #.2.] ] y.Z.e.B.F.w...5.B.7.[ _ O.a.L.B.#.7.9.>.3.e.#.K T T @.h. Xs.&.5.2.X.] ` P $.r.@. .w.` m m m S ^ r.7.{ ..X.P N y l w w w y r a b L +.5.$.| | 2.2.8.6.^ ! ` ] ..X.9.~.~.:.l w r h [ n.9.6.D._.D.m.y.4.4.9.4.2.4.8.8.%.%.4.y.y.y.B.F.B.#.| [ 4.6.-.-./ F M e z } z.8.8.n.n.8.8.z.( M M ,.| _ | 2.,.O.4.4.6.| #.u.C.n.C.B.B.V.Z.5.a.I.G.F._.F.S.A.A.A.{ h M v v m a m X.X.$.$.@.+.w.0.#.r.a.5...O.4.3.#._ v v y v D ! J m N V ] ] N y r _ #.B.f.",
"e.e.s.7.7.9.9.9.9.8.6.z.n././.e.>.^ S S v m #.5.3.5.B.Z.9.s.F.Z.H.Z.4._ B B | Z.L.F.i.4.9.2.9.V.$.U @. .@.h.R.G.s.r.5.5.U m m J  .X.K X.$.] P P P ] | X.X.D S ` ` ` { { { | 7.2.4.C.K.L.K.y.5.a.M.4.6.1./ x B [ ( M F / n v m | ` L L _ ` w.S.{.].T.`.d.a.F.S.n.1.8.9.,.V z Q 8.W.!.Q./.D.C.y.y.A.b.z.1.9.B.B.4.K ..s.j.p.q.$.$.w.7.$.w...^ >.S.5.{ { e.B.S.F.F.L.C.y.D.D.x.2.$.3.s.s.F.T.|.Q.Q.~.W.~.x.,.B u n L b m ` q.q.r.V.a.f.f.V.3.e.V.V.7.] V V B n _ _ _ L | 4.#.| ` P ` m N N #.y.y.F.b.e.b.w.5.9.9.9.9.6.1.z.n./.Y.9.2.` m S a m #.2.3.5.V.Z.e.a.H.Z.H.Z.4._ B V | C.L.F.a.4.9.2.e.V.3.U +. .@.h. XG.s.i.w.5.P S m K ..T S X.$.X.P L L ' | ] X.S b D S l S k w w s y a G | #.2.O.| 2.7.:.;.:.z.8.4.s.9.#.9.S.x.[ j e g v 2.m.2.,.8.m.n.y.n.4.5.B.5.2.4.n.y.u.t.1.4.t.4.%.y.y.] _ [ 1.-./ / ) ,.[ h g ) u.n.D.D./.)./.8.Q h ! } | | ' 4.B.4.4.4.9.9.9.5.4.4.9.B.9.3.#.3.a.s.F.`.|.~.Q.~.W.(.x.O.V a v P b b X.X.w.r.Z.i.V.Z.V.5.i.V.B.9.] V V n n _ _ _ L | 4.#.| ` L ` m N m #.9.y.F.",
"3.H.V.5.3.3...[ >.8.;.z.A.F.F.B.e.7.e.e.$.5.V.5.e.V.F.a.V.B.B.Z.V.4.7.V M _ 2.y.a.B.F.C.B.7.3.` P ] @.$.@.&.p.U..XG.t.] J J P  .$.T S U ` ] $.5.O.2.a.>.] b S ` { X.` [ ] 2.2.2.,.2.9.C.a.y.u.4.4.1.z.-.( x / v.m.1.( F v n _ 2.| _ P ` 2.F.F.{.|.<X@XZ.Z.F.F.Q.n.9.n.8.,./ B ,.A.Q./._._.K.a.8.9.b.A.7.x.Q.e.#.` ` 5.J.f.q.@.X.q.3...{ D ^ e.`.V.>.V.Z.V.B.B._.4.r B 8.n.9.7.3.B.J.H.9.Y./.x.Q.|.[.~._.2.[ #.4.5.] S S D D X.7.s.s.3.$.V.a.#.9.| F ] | V n ' 2.6.#.5.a.C.5.O.L ] 2.2.5.5.#.] o.3.J.b.0.3.3...[ ;.z.,.8.A.Q.F.A.9.7.e.e.$.e.Z.7.e.Z.Z.a.V.B.B.F.V.5.7.V M _ 2.y.i.B.F.C.B.7.2.` P ] @.@.@.&.p.I..XG.5.` L S L  .$.R S ` U ] $.5.+.$.e.#.` s b S S S y w w y y y G O.2.2.O./ [ 1.6.;.[ ;.>.] 6.Z.a.#.a.7./ h r c z B 2.,.| ( F B _ ' V _ 4.i.u.4.1.4.1.#.%.4.5.u.O.| 4.C.4.O.| / | [ ( ,.;.F u / 4.P.'./.D.S./.D.1.! ! | _ _ ;.7.4.4.y.4.4.5.B.L.5.m V 2.8.9.9.3.a.J.F.5.L._.x.W.|.[.~._.2.[ O.5.5.] S S D P ..q.s.s.%.$.V.B.#.9.| F } O.F n ` 2.6.#.5.a.C.5.#.L ] 2.2.5.5.2.] | ",
"` V.G.3.{ ` L ! | 8.x.A.A.A.n.x.9.B.S.e.V.V.#.D #.V.H.F.V.Z.a.4._ D _ v V x.F.F.S.F._.'.~.a.| V V P X.*.$.r.w.G.U.w.+.L b L  . . .+.+.` S  .0.%.a.Y.9.X.X.D U ` X...] { | ,.| _ 4.y.C.C.5.O.' _ _ ( =.:.( / ( 1.z.1.,.F / O.O.#.] J ] | O.9.S.Q.'.].V.4.i.F.F.7.x.F.F.9.[ / <.m.n.[.|.D.K.K.C.y.9.c.B.n.x.A.A.9.` ` $.G.w.@.` #.r.e.$.` D S $.H.B.3.9.V.H.V.V.s.o.u m 8.8.>.#.2.H.|._._.S.6.:.m.A.Q.[.F.8.O.4.9.V.3.L S S D X.V.Y.s.i.V.`.B.2.2._ ! 6.1.F F _ V | 5.2.4.4.] _ P 7.Z.B.3.#.5.5.` ` G.Z.3.{ ^ _ ^ | x.x.D.A.A.n.x.9.B.F.a.B.Z.#.J 2.V.F.F.V.V.a.4._ V ` v V n.F.F.S.F._.'.~.a.| V D P X.$.q.0.w.G.E.i.@.L b L  . . . .@.U J  .&.@.s.H.4...` D K J S D S 8 0 r b y n ' 4.4.O.[ -.,.;.;.;.:.=.B | A.S.C.Z.8.) x M M B V _ V V z z z B / v ] a.u.4.2.O.8.| | 2.y.Z.B.O.| 4.a.4.5.,._ ! _ [ } [ / _ 2.u.a.'.'.L.A.x.8.6.[ / ! B N 2.n.y.4.4.4.5.y.s.d.4.G F 1.2.;...2.F.].Y._.A.6.;.A.A.W./.F.8.O.4.y.B.5.L S S S ^ V.H.s.i.Z.H.V.2.2._ V 2.,./ V _ V ..5.$.4.4.] _ P 4.Z.a.4.$.5.5.] ",
"^ ..$...` D D _ / [ 6.x.m.n.x.;.;.b.S._.H.9.D 0 V 3.V.Z.Z.F.3.D b b a v { F.F.B.F._.H.F.F.e.2...3.3.4.@.0.w.p.i.#.` #.] p m ..] ..+.+.X.P D P @.C.s.....a.$.U  .$...` ] | | ' [ 4.B.C.F.Z.O.G B z j Q -.:.~ M ) } ,.8.;.,.y.2.#.| | 5.4.| _ [ 7.A.C.B.#.2.B.F.6.x.'.A.2.B ( A.D.1.9.D.d.C.u.t.4.7.2.6.8.8.Q.'._.a...4.#.{ X.#.3.w.e.3.3.X.S D { 2.9.>.5.e.a.Z.9.F n u B / | 7.6.b.F.'.x.x.A./.D.A.Q._.W.y._ L o.3.w.w.D D X.3.V.V.9.#.a.H.Z.i.| N ] B.| / ' L 8 m ] o._ m s v _ 3.a.3.` O.y.C.5._ X.3.#.` D V _ / [ 6.z.n.n.z.2.;.x.B.Y.H.5.D r D 2.V.Z.Z.F.4.J b b y v [ F.F.B.F._.H.F.F.e.2...2.3.5.@.5.p.i.i.+.U #.] a m ]  . .@...X.L L I %.C.V.....B.@.L U $.^ S y y y y y n | O.O.} | ,.1.6.6.9.z.;.! n ' 6.9.4.} } | [ B z B V B n F M z x v z _ $.#.%.2.,.4.( I 4.C.F.y.7.a.9.5.4.5.5.u._ B B | | O.#.n.i.u.C.B.y.9.4.4.8.;.6.| [ ' O.O.2.4.O.` ` #.a.5.' G n / [ | 3.6.b.F.'.x.x.A.Q.Q.A.Q.[.F.n._ L | 3.w.3.P ^ X.w.V.Z.9.O.s.H.Z.e...V | y.,._ ' F 0 n | | I m a v _ 3.B.3.` O.9.B.5.",
"` ` ..X.2.>._ V ! / [ >.A.n.z.7.7.A._.{.`.H.$.v J #.5.H.]._.a.| ' ' _ 2.9.Z.V.9.S.F.V.i.4.#.9.V.V.a.5.i.s.s.s.w.o.$.e.2.m m D D ` ] $.` ] U ] %.a.C.Z.Z.V.$.] a.s.3.| ] #.| ] | 2.4.y.S.L.y.] n h z Q ( <.[ x Q } M.m.} ) 4.5.u.4.2.5.y.4._ ! [ ;.A.B.B.9.7.A.L.D.L.L.,.u [ F.F.n.5.#.y.5.5.5.9.6.2.#._ | B._.F.6...2.] ` w.e.e.3.$.3.3...D b m [ ..3.e.i.5.5. .n u a Q 6.x.9.9.A.B.W.A.x.S.Q.W.Q.*X[.Q.F.6.9.C.a.e. .D D X.$.b.4.G m %.f.5.@.2.#.4.2.| _ ` ` v v D ] ] N n m V ^ ` ..5.Z.H.B.5.` ` #.X.2...` ! V _ [ ;.A.n.z.7.6.b.~.{.{.H.#.b V #.4.H.]._.i.| ` [ _ 2.9.Z.B.9.S.H.V.e.2.#.9.B.V.i.w.e.s.a.f.w.o.#.y.2.m m D V ` ] $.` ] ] ] %.a.C.F.Z.V.+.` a.f.3.P m m m v a s / I ( [ ,.8.8.z.8.8.8.8.( v / | O.' _ _ F / F M v B N G | [ ) [ n h z n ' t.t.2.6.;.2.4.8.y.n.9.2.` ] a.F.Z.x.6._ ^ ] ,.2.4.y.C.5.#.1.%.4.5.8.x.6.8.4.L v m | 2.#.#.2.| +.5.%.L G N ~ 6.z.9.9.A.A.A.A.z.W.Q.W.Q.|.[.Q.S.4.u.V.s.e.X.D D ^ q.V.%.G m %.s.5.$.+.#.4.6.] _ ` [ a v L } ] V m V V D ..{ 7.Z.F.V.5.",
"D y S 2.7.3.L v V [ B [ 7.A.F.F.W.F.W.H.|.].5.V _ #.4.H.].Y.Z.y.4.$.3.3.V.F.H.F.H.S.9.2.L m 2.Z.Z.7.7.e.a.i.5.%.$.5.e.V.B.>.N a v m ] 5.$.] #.d.].@X@XZ.` ` &.w.5.4.+...#.2.' _ | 2.2.9.a.y.4.F ! } -.:.z.<./ c / z.M.) F | u.m.3.2.B.C.C.O.[ | ;.2.x.B.S.9.m._.Q.F.oX'.O.O.a.8.4.4.5.9.4.t.5.4.#.2.6.[ N V 9.F.2.2.6.6...7.e.Z.e.+.+.%.w.5.` [ { D b.S.a.i.5.#.L z M ( :.-.;.<.;.[ b.^.W.W.!.W.F.~.'._.F.V.K.Z.e.w.` P X.>.3.V.T.C.' @.s.&. .] #.5.2.#.F V m N _ #.7...F V m m S ^ >.e.B.B.5...D y S 2.3.2.D v V [ B [ 7.M.F.W.Q.Q.F.~.].`.5.m P #.4.H.].Y.F.9.4.$.3.3.V.H.H.F.F.F.9.2.L m %.F.Z.9.4.e.a.r.5.%.@.t.i.V.a.2.N a v m ] 5.#.X.O.s.].@X@XZ._ ` @.w.5.3.] I ] ] J 0 u F _ [ O.8.n.9.7.,.,.-.O.;./ _ F } t.5.O.' ' [ / _ { L x ;.y.n.,.M z G L 4.a.y.4.9.7.9.n.7.7.7.[ ! _ _ 9.V.2.| 7.;.V N _ | #.4.4.' G ` O.4.4.5.a.9.6.#.#._ _ O.9.4.C.Z.5.w.5.5.] F V [ -.| -.<.;.| b.^.A.W.W.Q.W.~._._.L.C.K.Z.e.w.X.D ^ q.7.b.E.C.' @.p.5. .] #.4.4.#.^ m m m _ #.4...V m m N N D ..s.V.V.4...",
"` L ..7.2.` m v _ #.| ;.,.A.A.x.b.A.b.9.F.~.F.Z.Z.B.V.H.T.Y.C.i.a.C.5.$.V.`.|.{.B.>.[ #.P n | B.Z.B.B.a.Z.I.5.$.O.] ..3.3.^ y v m N m ` ] 4.Z.oXOXF.L.F.3.V.G.e.w.4.| | #.#._ _ | ;.[ | 2.9.y.' _ ;.1.6.8.) z x x F 1.) / / -.8.7.A._.Z.#.O.| [ -.6.6.b.C.S.D.A.M.D.}.2X'.Z.Z.y.y.5.t.5.$.4.9.$.#.5.5...v n b [ 2.9.F.Q.V.B.V.Z.s.|  .*.5.5.` D { N 3.H.#.#.@.#.V r h M -.6.} [ B M :.A.!.^.W.(.Q././.A.a.y.C.5.P U #.3.w.7.3.B.L.'.d.g.p.r.@.U #.a.d.#.L L | 9.H._.F.B.| _ N N a b D _ ] 3.5.2._ L ..7.2.] m v [ ..| ;.>.A.A.x.A.A.x.9.H.H.F.F.Z.B.Z.F.Y.Y.C.y.a.C.5.3.V.`.{.{.B.>.[ #._ m | s.F.B.B.a.Z.Z.i.$.O.| #.2.3.^ y l m N m ` ] 3.F.oXOXL.L.F.3.B.Z.w.w.$.` ` ] #._ n G } [ _ } 4.u.4.O.O.| O.} ] ' ' ' ] 4.u.t.4.O.F _ 2.8.' F ;.n.8.F r g G %.C.s.y.5.5.9.A.n.;.,.7.2.2...] 2.#._ 9._.S.{ [ | 5.4.4.#.] O.#.t.t.y.4.| ] ] | 5.4.' 2.y.4.Z.Z.5.$.$.#._ n B N -.6.| _ M M :.b.^.!.W.(././._.A.y.y.d.5.P ] $.3.r.w.3.b.Y.'.V.s.p.0.%.T @.a.s.#.L ^ ..e.H.`.F.B.] _ m N b b D _ ] 3.7.2.",
"e.e.e.9.3.[ M N D [ | 7.7.x.x.A.x.;.[ 7.V.Y._.H.H.V.V.H.H.Z.9.4.9.a.2.^ X.Z.~.~.>.! ] #.#.4.a.4.B.B.4.[ 2.Z.L.d.5.L _ 2.] N v v ! ] m a D 9.Y.Z.C.C.B.F.Y._.F.Y.G.] P  .| | o.| | ;.| } ,.9.L.y.2.| ;.} Q M z e g x / ( B / ( ,.x.Q._.s.#.#.,.[ 7.b.x.9.y.A./.m.n.x.C.'.oX].L.5.L G ] U L ] 5.w.9.9.5...J m r N { 2.2.| 9.S.B.B.a.@.5.w.&.w.#.b v r b m V L m m v z h x ( ! M z h l { z.W.A.A.!.A.A.n.9.a.y.5.t.] #.w.V.S.s.3.` #.F.Z.f.*.Y P T %.0.%.#.D s ' V.H.V.a.7.#.[ m N l V V ^ ] ] #.9.9.e.B.7.3.[ M N D [ | 7.3.x.b.A.x.;.[ 7.V._._.H.H.V.V.U.Y.Z.t.5.5.a.2.D X.Z.~._...! ] #.#.4.a.4.b.B.6._ 3.F.Z.V.5.J _ #.| N v v V ] V v S 9.Y.Z.V.C.B.Z.Y.T.Z.Y.Z.L m ` U ] ] m n L _ | 2.u.8.} F / F _ 5.V.9.5.4.2.K.L.C.C.y.4.8.D.C.y.} F 1.1./ z g u O.9.a.C.9.y.F.Q.A.6.,.[ [ 9.9.6.A.B.a.C.A.>.;.] 9.4.$.9.y.%.o.d.C.5.4.4.2.| V _ O.O.O.O.' F ] 2.] o.` _ V n M M ~ ^ B h h M [ c.W.W.D.W.A.S.n.7.B.a.5.5... .r.b.S.b.3.X.#.Z.Z.h.$.Y U U %.w.%.| D k ` V.H.V.e.7.2.[ m N l V V ! ] ] #.9.",
"5.w.2.{ ] } B B | | 3.F._.H.V.F.9.! | B._.`.Y.Z.V.V.3.w.5.a.y.B.5.4.4._ L n.S.F.A.z.9.7.b.b.9.7.,.[ m r D e.G.H.T.Z.3.X.] D v y V ] L u L 4.C.L._.'._.S.'.F.2.` m a ` #.o.2.5.#.#.#._ } 2.M.S.F.L.B.O.' [ _ F B x z Q / -.( / } / [ B.L.a.5.#.1.8.A.M.C.u.4.8.S.D.A.x.B._.G.i.@.O.5.4.@.2.a.V.y.9.B.9.7.L B v B 6.2.v B B 2.9.9.F._.L.Z.5.w.&.L m v w v b m m v a v N v v v r k e h ^ z.c.b.A.W.n.n.M.S.B.5.#.#.4.#.| | _ %.` u m ` 5.Z.f.@.J K T @.+.d s m ] B.e.3.] n n V F B ^ { { { ` 3.3.$.5.w.>.` | } B B | | 4.H.Y.H.V.S.x.! | A._.{._.Z.V.V.q.w.5.a.e.B.5.4.4./ L n.S.F.A.x.7.z.b.B.9.7.>.^ N y V e.H.H.J.G.3.] ..D v v V ] F u P 5.B.F.'.'._.F._.F.#._ s 8 D O.] o.O.I G _ ] 2.2.7.| _ ' O.] $.y.V.Z.a.2.s.L.Y._.a.4.4.2.4.n.2.N N Q | ;.F n r m #.4.B.V.B.A.~.S.2.;.[ ( -.z.9.D./.C.n.5.%.O.O.5.y.5.n.C.y.4.a.a.i.5.5.4.[ } 6.8.$.O.` _ L ` ] P ] _ J m m V N M v h k w l ^ z.b.c.A.N.m.z.A.D.B.5.#.#.4.O.| ] ` #.` a m ` 5.Z.f.@.J Y T @.T d s m ] a.e.5.] n n F F B [ ^ { ..` >.$.#.",
"` b v m B z v n ] 2.9.Z.J.H.J.F.a.2.7.B.'.{._.F.V.e.@...$.5.a.K.9.O.8.4.| 1.9.m.A.F.[.S.9.7.3.] D V V D b { b.H.J.Z.e.....{ D m s v d F o.C._.<X2X|.Z.F.'.'.2.v a m y.C.d.B.C.a.#._ ` | 7.m.n.n.Z.9.] _ [ _ } / v h h M [ :.6.-.B [ 4.s.5.#.| ,.6.x.x.8.u.u.8.S._._.F.V.B.B.9.a.Z.g.g.f.a.Y.].V.| | 4.| ,.] N V [ v k v ! ] 2.8.B.L.].T.s.p.p.5. .` V V b b L S b b b m v k k k k l { ;.;.z.W.!.N.W./.S.S.s.u.] _ G _ ' / ` G d p ` Z.s.p.i.i.@.*.*.+.J S ] e.B.e.5.G i u n M [ :.2.>.{ { X.` ` ` N v N N v v v ] 2.e.Z.Y.J.H.H.i.2.6.Z._.`.Y.F.V.e...X.$.5.a.F.9.O.8.8.O.1.9.n.A.F._.S.9.7.7.] ^ V S D N ] e.U.H.Z.e.....` D m n v d F O.B.'.@X<X|.C.F.}.'.2.u 0 m s.Z.Z.C.C.y.| V ..2...] L _ O.%.4.4.5.#.] $.5.Z.Z.F.Z.5.9.a.y.F./.6.! M h h V [ m a G F V 3.V.e.5.F.n.[ [ [ ;.1.} <.M.D.C.8.4.4.y.t.4.8.4.4.u.4.o.4.C.a.3.4.| B | 8.4.2.2.5.#...` P P P ] ` _ m m m v k k k k l { -.>.z.A.^.W.A./.D.C.B.y.o._ F _ ' _ I G v a _ Z.d.i.p.k.@.@.&.@.J J | 9.V.5.5.G i u n M [ >.>.>.{ ....` ` ",
"^ m V V N a b s L 5.5.+.Z.V.G.T.a.2.a._.|.|.'._.V.e.5...| #.2.7.y.8.8.A.7.,.4.8.n.B.A.B.7.6.#._ D L ` D s S 5.T.J.w.` X...] D N n V O.#.u.L.'.F.A.F._./.OX_.L.8._ #.A.B.C.C.y.$.| ` ' ,.;.v.c.A.F.B.4.,.2.2.1.-.B u h j B Q =.-.-.7.A.B.y.%.] | 6.8.6.8.5.4.8.D./.F.B.V.Z.s.d.Z.Z.K.Z.V.s.V.Z.a.| } O.,.2.9.2./ v r N ] 2.z.x.9.9.S._.H.e.s.I.G.5..._ D V | 5.] m v v V _ ^ N k ^ { 6.>.7.b.Q.[./.D.P.F.a.y.y.o.m v V / ' | ` ] ] | B.Y.Z.s.i.%.&.p.5. ...5.B.i.4.9.| v a u B ;.;.^ ! [ ] ^ D m ^ m m V n a v v P 5.5.+.G.f.H.Y.i.4.y._.|.|.].Y.V.e.7...| #.2.8.y.8.x.C.8.2.8.8.n.n.B.A.6.3.2._ S _ ^ D a D 5.T.U.5.] X.X.{ D v n S O.#.u.L.'.F.A.F._./.].'.L.4.L 2.L.F.L.D.2.L _ ] | | ] | ] _ _ O.4.y.5.] L ..9.Z.Z.B.4.6.9.B.B.D.8.;.M h g r z ! _ V V L D _ ..| { ,.6.| 6.8.[ / [ :.n.n.4.O.4.d.C.y.4.y.9.| ] I ' ` #.%.#.#.{ ! / ( [ _ | 5.#...` [ ' 2.5.$.D b b V _ ^ N y ^ { 6.7.6.b.~.{./.D.Q.F.a.y.i.| m v V / } | ' o.] | b.T.Z.s.w.%.&.p.&.o.| 5.a.y.4.9.#.a u u B ;.-.[ ! { { D D D ",
">.9.4.4.O.V v b U 5.p.$.h.G.G.G.p.5.2.s.Z.Z.K.T.H.e.5.+.D _ } } ,.z.D./.C.4.8.2.,.9.B.L.F.F.a.4.$.] S D S L +.s.G...m ` ` _ _ ` $.9.y.t.5.C.L.F.9.b.F._.'.'.9XoXB.C.F.F.9.y.9.' G L [ ;.[ ;.z.A.n.y.4.4.9.8.4.| Q z k g x ~ [ :.8.x.].'.y.] ' } <.z.m.M.8.9.m.D.}.}.S.B.F.i.t.t.i.I.E.K.a.5.9.B.B.y.4.' F | 2.L m ` 6.8.B.S.A.8.7.A.F.B.e.f.f.%.$.5.] _ m J ` D D _ V V 2.2.] ! { b.~.!.S.Q.Q.Q.P././.L.Z.Z.y.L m n N B | O.` [ } [ _ 2.s.s.w.$.U I X.w.a.B.a.x.#.| #.' F c / | ! k h B | { L L ;.7.7.3.O.m s s ` 5.i.*.Z.Z.G.J.p.5.2.B.Z.Z.F.T.F.e.5.$.G _ } | ,.8.D.Q.A.2.8.2.2.7.A./.F.Z.a.4.#.] S S S S +.f.G.#.b P ` [ _ ` 2.9.i.t.u.a.Q.F.x.b.F.'.'.'.9X2XB.Q.|.'.y.9.4.V a _ | | [ ] } F _ O.y.5.B.B.V.V.9.i.C.V.3.| ` | ,.n.8._ M h h r r V [ V N m D N N m _ ] ] 2.x.8.,.<.1.,.8.8.8.n.C.K.C.4.O.4.O.n v m G ` ' $.2.] { 2.| [ [ | 2.V ` #.] ] ] ] #.] _ _ ^ D 2.6.| D { b.^.S.!.S.Q.Q.W./.F./.Z.Z.y.I m n B N ] O.' _ ` [ _ 2.s.V.w.$.U P ] t.a.s.B.a.#.| O.[ F z ~ | ! k h B { ` _ D ",
"6.S.b.B.a.` L +.&.$.0.r.U.]._.G.a.$.$.a.s.B.s.a.3.#.2..._ ] } | [ :.n.L._.Z.9.2.9.C.L.}.oX_.y.y.5.%.+.] @.&.p.g.Z.5.L v N D ..>.,.7.2.5.y.B.A.b.x.b.F._._.'.OXoX_.S.S.W.A.n.7.' V _ } _ B Q -.z.n.m.y.} _ ' [ G v x M x x W [ ;.z.9.b.7.O.] ' / ! 6.x.n.8.8.n.n.Q.[._.B.Z.Z.s.a.V.s.Z.a.a.#.G 2.C.B.O.V n n m L ' _ ` / | 2.{ } ;.7.A._.V.s.Z.o.` ....m a m _ L L } ' 2.9.3.3.9.V.b.b.~.!.~.Q.F.F.F.C.2.2.5.o.m r k v N [ >...V v V _ ..] L m L m v ` 4.a.9.B.F.2.] | ,.| / :.,.-.! N M ' ' V _ 7.F.x.B.n._ L $.5.@.w.r.U.]._.I.s.5.@.a.B.d.B.a.3.#.4.O._ | } | [ :.n.L._.Z.9.2.8.C.L.OXoX_.a.5.w.$.+.] @.%.p.d.G.5.L s v V ..>.2.7.2.4.u.C.B.B.b.b.W._.'.OXoXoX|.~.^.~.S.A.9./ n _ O.8.| V v _ 2.n.m.C.n.4.6.4.#.#.4.X._ V v B / 2.<.! x h z j B | ! M V B N m a v ' 2.] ,.8.,.1.m.8.8.1.8.n.D.D.S.K.B.4.| L M v V L G _ |  ._ _ ;.>.2.2.7.,.m D ` $.] { ` ] ` _ ] [ 2.9.6.3.7.b.V.S.S.F.~.~.F.L.F.B.6.$.4.| m r k v W [ 2.| V v V _ ..| D m L m v _ 4.e.e.B.S.2.} | ,.| / -.<.[ / B M } ' V _ ",
"7.6.6.7.9.{ ..w.p.G.Z.T.].Y.B.Z.w. .@.e.F.].'.C.#.` #.O.1.4.[ / [ 6.2.7.F.L.C.B.D.K.B.F.].Y.s.5.+.X.@.s.G.h.f.a.i.@.+.` _ ^ [ V | A.C.u.C.A.A.A.7.;._ B.L.L.'.}.{.S.z.6.<.2.6.;.} 1.8./ v M Q <.A.W.D.n.,.| [ B M M x M Q B ! { ;.9.6.2.O.] _ / [ z.m.x.8.n.A.A.x.8.B.B.Z.I.K.Y.F.a.9.5.4.| [ | ,.O.L n m m _ 2.4.O.O.` V n v _ ,.,.2.4.a.B.K.a.%.#.#.#.] ] ] L _ } 2.2.3.6.9.9.e.9.9.9.e.S.~.S.m.9.| v N L m v r z l h M ,.6.L B [ 4.4.$.| m r a D 7.B.B.i.e.9.;.,.8.8.1.<.n.n.6.,.! B _ } O.9.7.2.7.8.8.` ..w.r.j.h.R.`.T.s.Z.r.X.$.i.K.].`.V.#.] O.O.,.4.( F [ 6.2.9.Z.L.Z.B.Z.F.B.Z.].T.C.5.+.U @.s.G.f.f.p.w.@.] ` _ _ [ V ] A.C.u.C.S.B.A.7.{ [ B.L.Y.OX}.&XQ.b.z.6.6.9.9.' ( [ F F [ | 2.A.D.A.m.8.2.4.9.2.] ` D S N y k h M M q 5 h x M Q [ } _ ] ] _ v r m #.2.6.O.2.9.8.7.8.[ [ 8.C.A.8.| | 4.2./ v u r B _ F ] #.2...[ ] :.;.8.8.] [ ` P 4.B.5.#...` _ | 2.2.3.3.9.9.9.7.9.9.9.S.~.S.A.8.| v V L m v h k k h M ;.3._ n [ 4.9.3.] m r v L 3.V.B.e.y.9.| 2.8.8.1.1.n.n.6.,.! M _ } O.9.",
"| _ -.x.A.b.S.r.r.G.a.5.3.B.A.3.` X.3.w.a.F.Y.K.s.u.B.8.' / B z / z.,.[ ` $.C.F.C.C.y.B.L.K.s.a.5.+.5.f.I.f.f.s.5.] ] #.| | | 2.n.Q.C.P.L.L.F.b.6.{ ! 6.y.C._._._.~.x._ M B _ | 8.8.z.,.B B B <.!.!.W.D.n.2.( / B B B M Q B ! F ] 2.#.] #.2.4.;.;.9.W.A.n.n.S.B.9.6.4.Z.Y.C.K.'.T._.F.B.y.2._ | | ' _ F L ` O.#.| #.5.O.V r u V [ ! v B F _ 5.Z.s.s.J.H.V.5.2.#.O.2.6.2._ _ 9.9.6.e.V.V.e.b.V.9.#._ v z { >.N r k M k h v | #.| ] 2.V.Z.Z.L...h k V 2.9.y.6.] F V 6.x.x.8.z.m.n.1.;.' [ } | #.4.[ / | c.A.B.Z.e.r.G.a.3.3.B.B.5.` X.$.e.a.Y.Y.H.B.i.B.4.' / G z ( 9.;._ ` $.C.F.Z.C.y.a.L.K.B.i.3.+.@.f.U.f.V.s.5.] ] O.| ] ;.2.n./.B.L.Q._.Q.b.6.[ D 6.n.C.'.'.[.}.b.^ k h N | ,.' F F n [ 1.8.Q.}.W.1.8.D.n.4.#... .` m v w r r M N h g M ! } -.| ;.7.] ] _ v v _ 2.#.2.| ' 9.S.n.| B ( ,.y.2.| F V V V n z r e z V V ' 4.8.| [ -.| [ ( [ _ } ] ] i.Z.a.4.#...O.4.7.2._ _ 9.e.3.9.V.B.b.B.V.7.O._ v z _ ,.m r k N k k v | 2.| | 2.C.Z.Z.L.O.v v V >.9.b.2.] V ! 2.x.x.8.z.m.n.,.1.' [ ' | 2.2.",
"2.-.} x.S.b.7.>.q.$.#...L N V ` D P 3.w.3.9.y.a.a.C.K.M._ u r u V 2.#.F P 5.5.y.y.s.u.4.C.K.V.H.I.Z.G.w.Z.$.+.a.s.2.2.6.,.;.8.A.D.W.D.S.S./._.B.x.7.2.7.4.8.C.D.~.!.7.! B / B [ ;.| z.y.,.n.1.z.(.W.m.M.D.8.' / F M B M v B V _ O.] U L ] #.9.b.9.x.A.A.8.9.7.6.2.9.a.C.C.d.a.Z.F.a.B.9.x.7.2.#.O._ _ _ ' | #...] ] | ] ] V V O.| N N n V m ` 5.i.V.V.T.R.Z.4.2.8.9.B.2._ ` 9.7.e.S.S.V.9.e.b.w.5.2._ v B m y r 8 k k j n ` O.$.4.| 4.Z.y.V.>.M v r N 6.y.4.L z v ' 6.2.,.;.1.-.| 4.5.' | O.,.| ,.[ [ z.S.A.3.$.3.@...] L N ^ ` D P r.w.5.9.a.a.C.C.K.m._ 0 g u V ;.#.V P 4.5.y.y.d.u.4.C.F.Z.Z.J.G.Z.w.Z.$.#.a.a.2.2.4.;.,.8.m.D.W.D.S.A.~.~.B.x.9.2.4.2.8.D.D._.~.x.! k M v N } F ( | } 8.n.m.m.M.z.;.,.z.8.1.2.6.3.] _ m b w r M W x ! ;.-.-.;.;.| ;.[ | | _ F O.2.4.#.] #.a.D.n.| [ ' 4.y.n.2.| L B M M B z n z z B / ,.O.F V [ [ B M v B V P ..5.H.U.B.4.2.8.n.B.2.L ` 9.9.9.H.F.B.9.e.e.e.5.$._ v B V r r w r k r B ` | $.%.] 4.C.y.Z.,.v k g N 6.a.6.P v v } 6.2.,.;.1.-.| 2.9.' | O.O.| ",
"[ [ Q -.6.;.| X.....X.2.| V A.Y.3.X.$.5.b.b.s.Z.C.y.y.2.` n a L a.V.3.#.] w.2.2.i.a.C.u.9.d.B.Z.f.b.V.V.V.#.D | 9.6.7.8.[ ( ,.1.8.m.1.n.Q.F./.B.8.9.y.8.8.n.A.W.[.m.>.[ n V v B ! / | 1.9.S./.m.N.c.m.m.n.2.[ _ / V N B V V } #.4.5.] _ ` | 4.4.2.8.n.y.6.6.4.O.#.a.a.y.a.4.4.6.9.8.6.7.;.7.x.O.V z v v V V V [ ] ] 2.4.5.#.| #.| ] V n v v ] 3.9.s.a.p.5.] ` O.4.A.S.B.4.%.| J ..b.9.3.$...e.V.V.y.2.{ V m r r r a v k D ..o.#.` L L O.u.y.| z g r k _ 6.5.O.] F _ _ [ ;.| | ! B 3.a.#.| | _ V / / x -.6.| ] ` X.` ` 2..._ A.{.w.X.$.w.V.V.V.Z.Z.y.a.#.L m u F e.a.3...] 5.5.3.y.s.B.t.9.B.V.Z.B.a.V.V.V...m ..9.2.6.6.[ / -.1.8.m.1.x.W.F./.B.8.9.y.8.8.m.D.W.[.A.1.[ v n u n m n F [ O.1.n.1.6.=.[ ;.<.,.4.y.9.F.9.#.` N v v M x M B -.z.,.;.6.;./ [ ] | | ,.2.O.4.%.O.4.5.u.y.,.} _ / ' O.4.4.} I / ( / F B x F c n n ) ;.F _ [ B M z v V L ` O.$.4.5.` _ #.4.A.D.B.4.2.] G ..a.9.3.>...e.V.V.y.2.' V n u i y k v y D ..] #.] _ F O.u.a.o.z r r v _ 6.4.#.] L _ ^ [ | | ;.V V 3.B.| | | _ V ",
"2.| ,.M.x.<.2.7.2.` #.[ m ,.n.e.>.` ` w.e.e.e.Z.C.y.5.y.y.y.5.%.e.5.3.$.+.5.5.s.Z.F.%.` ' $.V.a.e.e.3.#.6.] B _ ;.1.z.x.8.8.6.-.-.,.6.z./._._.C.B.9.8.x.D.Q.[.(.A.2.' v n B n x M M ( 8.n.n.m.n.c.N.D.D.A.2._ _ _ ! ' } ] | 4.5.#.$.+._ _ | #.6.4.O.2.6.5.4.7.4.8.2.4.9.2.] ] | 9.n.9.8.6.8.6.V v v u r r r N _ _ _ [ O.| ] ] ] 4.B.4.` V L | 5.5.a.s.i. .m ] 2.,.;.,.u.a.5.4...] 2.] X.>.w.b.Z.F.s.9.2...2.L 8 a L _ m _ ` V G G L G ] %.,.V v M N N B L J P #.2.| [ | 7.3.2._ [ ] _ ] _ _ m V } | [ m.z.-.| 2...` ] ` v 2.Z.B...] ` e.b.r.b.F.Z.y.y.5.y.5.2.$.9.5.3.@.@.&.5.a.Z.L.2.' ] #.V.a.e.s.$.>.3.[ N ! ;.;.8.x.z.z.8.-.-.,.8.z./.[._.S.B.y.8.9.D./.[.[.A.2._ n z n n v n v n [ 8.8.z.6.l.6.-.<.1.1.4.9.L.'.w.#.V m D | 6.[ N ! ,.8.[ [ -.[ ! [ ;.,.7.B.8.O.2.] ' y.y.C.L.C.4.,.' / F [ } _ / / / / Q Q x c c g e B | / [ -.} B v B } | ] ] $.$.] J ] 4.,.| #.u.y.9.5.O.] 2.] X.$.e.b.G.H.s.9.2.O.%.L 9 a L _ V _ ` m J L J G | ,.#.B v v M N V P F L 2.2.] [ | 4.6.2.[ _ ] _ ] _ _ m F ",
"B.B.| 6.z.8.2.#.9.$.] G V O.O...] ` 3.e.b.e.9.b.B.y.5.9.y.s.a.a.s.p.r.5.] P i.Z.B.3.V m L 6.|.H.e.e.` y b N b M / 6.W.n.M.x.,.1.1.:.M.D.m.8.7.4.$.4.B.n.W.A.Q.Q.1.V n v v B _ _ _ | 4.n.x.1.| 1.z.c.x.m.A.9.| 2.4.#.] | 4.4.4.9.2.+.2.>.| 6.9.9.5.#.4.5.a.4.4.5.| L ] | [ m V ' 2.y.x.2._ _ V h r N B v r w l v v h z n n V ] 2.V.T.a.7.| 2.7.4.i.V.t.o.G m P | } _ ] 6.y.9.y.4...X.` ` ` e.H.V.5...] #.#.i.+.p J 5.e.&.+.` s p v V [ | 4.t.F B / _ _ _ F a s #.5.2.4.#.` _ >.3.#.#.2.] ` | D [ n.8./ | <.;._ ] 5...` m m $.2.#.U S $.w.e.b.e.Z.C.B.u.5.y.a.i.a.s.r.w.w.] L 5.H.d.$.m s L 2.|.H.e.e.D w v v v v ! 6.W.m.M.n.,.1.1.,.m.D.A.8.8.2.2.4.A.m.D.D.!.Q.1.B n v u V ` _ ' ' O.4.9.6.8.9.x.A.x.m.x.8.,.8.Y.B.2.F P 2.6.2.7.;.[ -.8.:.} -.^ ! _ ] ,.2.9.8.,.,.| _ ' 4.y.a.C.C.y.1.;.F B / _ ' ' _ ) ) Q x x / x c g x / | 9.z.} ( F _ #.4.4.5.+.U J m ` O.| _ | 4.y.5.9.3.| X.] [ P 5.H.b.5...] O.#.a.o.p L 5.w.3.#.` s u a V [ | 4.8.F B ! _ [ _ G a v #.5.2.5.2.[ P 2.3.#.#.5.` ` ] ^ [ ",
"2.;.} 6.8.2.2.| 4.Y.9.#.9.9.y.2.] P ..9.w.7.7.9.B.B.a.B.d.Z.f.d.s.s.*.P P #.w.3.] J m s s D 5.V.e.$._ L m v M N ! 8.x.A.x.x.8.1.,.8.8.n.n.6.8.5.4.9.x.1.,.l.n.D.,.v v V m _ O.O.,.1.2.4.2.1.[ [ 1.x.8.7.u.8.9.B.a.6.#.#.7.y.9.s.a.9.e.e.Y.F.i.%.+.o.o.4.7.O.| [ V v m | _ v / | 2.6.2.] / v r v m _ ,.N w e y k r r e r r v ! ] ..2.5.2...} >.9.a.5.@.L m m F | 9.9.a.Z.B.y.%.] P V D ` X.#.3.w...m ` i.t.t.*.+.i.a.p.Z.a.$.m r r n [ 9.n.M.} [ ] ] #.5.| D V O.#.#.e.3._ L ..3.#.2.a.Z.3.2.] V _ | ( ( | [ _ V 3.G.e. .4.Z.Z.5.] m ` 3.r.7.3.7.a.C.C.Z.V.K.G.s.s.s.+.Z S  .&.#.P m a r y m 5.V.7.3.D S N h v k ~ 6.x.A.n.x.8.1.,.8.8.n.n.2.5.5.$.9.9.2.:.6.m.D.,.u n n G ` 4.4.4.4.%.2.O.6.n.D.B.F.W.F.m.,.F V _ G J _ O.9.B.6.{ ! _ 9.B.,.| O._ } | 4.#.8.9.,.<.6.1.;.O.O.M.u.8.y.M.8.4.;.F G _ [ / / / / / x x F x h z G B ( 6.6.| ] _ F ` 4.9.%.] H m m G ,.9.9.y.C.B.i.5.| P D L P X.#.3.5.X.m P y.i.t.%.+.i.p.w.Z.i.$.J 0 r M ' 9.n.C.} } | ] #.5.| V D X.$.#.9.$._ _ X.2.#.2.a.Z.3.2.] V ",
",.| ,.| | } O.,.9.L.V.5.a.e.i.5.$.O.4.y.9.9.7.6.9.B.B.Z.s.a.r.5.5.$. .S ] 5.w.+.+...` S b S S ` ^ D ] ..` B M N | A.m.x.8.8.8.n.4.,.| ( | _ ` | 2.n.B.8.6.x.z.z.| v n F ] 6.9.4.5.2.} / [ ,.} [ 2.4.7.9.s.y.B.C.B.e.2.6.9.e.a.a.C.i.$.C.Z.Y.C.] P | F / { [ ! Q v v / | ] ! [ ` | #.,.O.' m a V ] ,.2.L w 7 h M h q e g r k m D P ] #.L ^ | 9.V.C.t.+.J m P #.x.S.H.|.|._.F.4.D N S | 5.......X.D a _ #.t.%.+.&.g.f.f.f.f.i.` s y v ^ c.L.C./ n | 4.4.6...D ` { ` ] ] ....$.3.#.#.3.B.F.B.9.b.2.[ _ [ B v M F G #.U.Z.5.f.Z.I.s.+.P ..9.e.4.| 2.8.A.Y.F.Z.s.5.$.w.0.] f P $.w.+.] ` D b s a m J L G ` #.` N v M { b.A.x.8.8.9.9.8.,.| ( [ [ ' O.2.b.A.8.6.x.8.8.| z v G O.9.B.5.9.9.4.' ` 9.a.a.9.9.a.C.n.8.F z r B F F _ _ 9.S.B.z.{ >.4.[ V F G ' O.4.O.5.9.1.8.l.<.<.;.,.1.| ' 1.u.y.u.O.[ ) / [ ' [ F F F x x x x c j z v V _ [ } | _ _ 2.y.B.5.o.I m ` ..9.A.F.|.XX_.F.4.L v D ..3.+.......V y _ $.&.%.+.&.f.g.h.Z.s.i.` n y v ! x./.B./ n | 4.4.5.X.` ` ` ` ] ] .. .3.$.#.#.3.a.F.V.9.b.2.",
"9.9.7.| | 1.6.4.7.9.V.C.i.a.B.B.a.F.Z.Z.~.F.a.2.2.7.B.B.C.e.2.$.@.@.%.5.$...5.a.5.$.D S b m L L S b ` w.#.V k N 6.S.n.,.| ,.,.,.2.O.| ,.B v N 7.C.A.A.Q./.W.x.,.} B a v L ] O.O.4.4.2.| } } } ' } | O.7.9.4.2.#.5.B.s.5.9.V.Z.G.Z.a.5.t.d.Y.d.4.4.O.n v B ! B N v V [ | ,.| | _ ' O.' F V n z G y.C.5.L N _ | | N q g k h v V D | 4.] V ` ] >.V.Z.d.I.d.@.4.4.6.>.9._.1X@X_.9.m a ] w.$._ X.$.^ s m ` #.t.t.%.*.i.h.I.f.f.&.J s v N [ A.M.A.4.` ] ] #.#.] D ` X.` X.] ] ..3.5.$.....3.e.B.B.x.| } 2.| z e x F ,.B.F.G.Z.a.G.I.G.s.V.B.Y.'.F.9.2.4.B.{.].H.4. .#.@.$.@.+.#.` $.w.+.] s s t s m m n p U w.#.m y N 6.A.x.;.[ ;.1.O.2.O.} O.B z m 6.S.A.A.Q./.W.x.1.[ n u v J | #.O.4.C.Z.a.5.C.i.4.$.$.9.7.y.5.1.8.9.D.y.m.A.6.A._.F.7._ [ | | m V F ] O.4.y.y.7.n.m.z.-.=.) ,.O.[ / O.y.d.u.,.] ' } ,.;._ ( ) ( / x B / B z h v B B ! ^ ] 2.4.7.B.C.s.Z.a.%.3.7.2.2.9._.3XXXY.4.m a ] w.3._ X.$.D s b _ #.t.t.*.*.i.h.I.g.V.&.L p b M [ A.A.B.4.' ' | #.....D ` ..` X.] X...3.5.3.....2.e.A.B.9.;.",
"6.9.A.B.6.8.9.n.b.e.a.Z._.Z.s.L.C.F._.'.'./.B.2.2.2.9.B.F.Z.9.9.$.#.5.9.a.5.a.a.s.a.+.` ` +.5.5.I J &.a.+.S v { x.b.6.8.B.C.4.' [ | 4.8.,.| ^ | 9.B.A.A.D.D.n.8.,./ n B V F _ ` #.5.4.2.O.,.} _ _ | 9.9.2.2.4.a.a.y.5.e.V.H.Z.F.B.V.Z.d.t.y.a.d.s.4._ k M W [ | [ [ 8.8.4.2.2.4.u.t.#.] F G G O.i.a.#.O.4.Y.|._.>.k w j h l m _ 3.a.4.P D ] 3.F.`.E.R.E.a.V.H.H.V.e.a.Z.Z.i.#.D D 3.B.5.5...P b v D ] 2.4.&.*.*.p.f.h.h.Z.&.L m D _ 9.W.x.A./.C.#.] D ` ` D ` X.] X. ...$.3.5.4.e.a.3.4.B.Q.A.;.( ,.6.[ v N V ;.9.B.V.Y.H.G.Z.G.a.Z.Y.|.&X].F.B.B.A._.|.].a.2.+.U U +. .5.3.w.e.e.$.D Z S X.5.@.J H %.a. .b v [ x.A.2.4.n.A.2.' _ | 8.9.O.| _ | 9.b.A.A.W.D.n.8.,.V n v v V P [ #.a.Y.Y.y.t.5.5.$. .#.a.B.9.8.S./.[./.}.W.D./.D.b.7.;.>.a.B.O._ ,.5.4.%.t.y.a.L.D.c.:.-.} <.z.-.} O.8.y.y.u.,.,.8.n.,.} O.1.) F B B Q B N V B V V [ | #.3.6.7.B.L.K.Y.K.a.s.F.F.V.e.e.F.F.y.#.D L 3.V.5.5.3.D b v D ` 6.t.%.+.*.p.h.K.I.h.0.J m D _ 8.W.x.S./.B.#.] J _ ^ D ` X.] X. ...#.5.5.4.e.a.3.4.B.Q.A.;.",
",.2.F.B.7.x.9.9.V.9.2.2.9.V.Z.F.F.'.L.D.D.D.2.8.A.8.2.8.B.B.i.a.9.s.a.B.B.s.B.B.Y.s.$.3.r.w.p.Z.i.t.i.t.] P _ ..2.| | 8.S.D.9.V V ,.4.y.C.F.b.x.8.x.z.,.1.9.8.9.4._ O.' ' | [ ] 2.7.9.9.2.O.o._ ] 9.F.Q.A.8.8.n.n.5.s.G.H.Y.Z.B.C.Z.K.K.d.t.t.4.] ` V N M ^ [ ;.,.2.A.B.2.| _ G O.u.K.C.y.4.d.L.B.5.4.s.Y.|.|.|.Q.;.! ! Q b [ 9.F.V.5.L a m 4._.Y.f.I.I.a.Z.H._.H.e.9.2.#.,.` ] +. .3.V.s.3.S y a ` O.%.4.4.+.&.i.g.K.I.h.g.@.#.| ` B.Q.n.Q.'.y.L ..5.X.` ^ D ` X.` ..$.$.2.3.#.3.4.2.;.9.~.}.Q.8.| ,.[ ! _ B _ 2.2._ X.s.V.U.H.Z.F.V.F.'.F.B.F._.F.A.F.B.3.#.$.&.0.$.3.5.s.B.Z.J.5.R U w.r.p.Z.i.%.i.5. .P D ] 2.| } 8.S.Z.8.V n 2.2.y.C.S.A.9.8.x.8.2.<.8.8.9.4._ O.' ] | } ] #.u.C.Z.#.] +.+. .@.5.9.9.n.n.y.M.L.P.M.8.8.6.7.F.A.7.B.F.B.y.2.4.9.%._ ' t.L./.W.m.l.x.l.z.8.[ O.4.1.O.] O.4.u.u.n.1.} 2.8.,.) ( / Q B V _ _ [ ` #.4...` ] 6.C.C.t.f.f.a.B.F._.Z.e.e.3...#._ ] .. .$.V.a.3.S y y ` ..+.4.4.+.k.&.f.h.h.h.s.%.+.| ` A.Q.n.Q.{.y.J ..4...` D D ` ` ` ..3.$.3.$.#.3.4.2.;.9.~.}.Q.",
"2.B.Y.Z.B.e.Z.B.B.V.B.2.;.9.C.S.n.n./.D.m.4.} 8.m.:.-.;.2.2.O.2.B.Z.s.5.2.O.y.L.{.G.+.3.a.a.a.U.I.Z.f.5.o.L _ _ V / 6.x.9.8.;.[ 6.c.z.8.A././.n.6.x.z.| ,.9.n.n.4.| 2...3.3.2.,.2.2.5.4.4.#.O...9.F.Y./.M.P.P.A.u.7.B.F.G.a.B.B.C.S.C.K.D.y.u.4.] / F M v Q [ -.,.2.7.7.] _ V | A.F._._._.'.].Y.C.5.F.@X_.<X<XY.F.F.A.2._ v m 4.V.V.B.L d d | T.`.G.G.G.f.G.f.s.a.2.3.5.$.@.] 5.p.+.w.s.a.3.#.D S X.3.+.5.%.+.+.&.t.d.K.h.g.a.t.2.#.F._.Q.{.|.a.L | V.Z.#.` ^ ^ X.#.5.w.w.5.i.2.O.6.6.2.6.D.%X|.S.9.B.O.` ..] | B.V.4.| 3.3.4.Z.9.;.A.~.H.9.7.F.Q.x.9.9.9.#.] w.Z.i.o.' _ _ 5.Z.Y.B.] ] i.s.s.`.Z.f.s.%.o.J L _ N F :.b.9.7.;.[ 6.c.z.8.A./.Q.A.,.x.x.| ,.9.n.A.8.| O.| 5.5.3.6.2.2.5.5...P P K U $.$.P n ' 2.,.A./.Q.D.8.| | ,.| ] 4.a.C.C.5.7.F.S.8.} B ' 4.9.8.y.Z.[.S.F.7.[ 7.y.,.} ! | 4.n.A.A.4.4.C.F.9.4.8.2.,.[ B { 2.| 2.9.a.$.` _ ..V.Y.s.Z.Z.s.f.f.s.a.3.3.5.$.+.` 5.a. .w.g.s.3.+.D S X.3.$.&.&.o.%.&.t.g.K.f.f.a.i.2.#.F._.Q.{.|.e.L ..V.Z.2.` ^ ^ ] 3.w.9.w.5.9.$.| 6.6.2.1.D.&X&X",
"2.9.a.Y.C.i.L.a.7.V.F.A.2.z.n.A.D.u.8.D.m.u.x.W.l.[ >.6.;.] ] | y.d.B.y.O.P O.C.|._.V.a.J.Z.e.V.s.B.d.i.#.' ` F r M >.A.A.x.A.z.:.-.[ -.8.z.m.D.n.z.;.[ 6.y.9.y.7.#.6.| | ,.4.y.4.6.4.5.4.7.B.a.a.B.L.L.C./.'./.F.B.B.B.a.5.5.B.C.m.A.L.P.C.C.a.4.' B F ! -.[ _ 2.n.e.9.#.| | 8.F./.'._.B.t.Y._.F.Z._.2X@X|.|._.F.F.{.a.] N N ] 9.a.i.i.U ` s.@X#X.XJ.Z.I.I.5.i.F.9...4.5.5.@.$.f.f.p.G.h.r.+.D D ..w.5.%.%.%.%.t.t.t.i.d.I.G.K.s.9.'.4X4X<X@XF.a.9.3.3.B.s.w.3.X.#.Z.Z.S.B.a.9.4.4.B.8.2.n.Q._.A.,.' F | #.#.3.e.i.s.i.5.O._ _ >.;.[ z.Q.W.Q._.A.7.7.| V _ 5.B.V.5.' F 9 7 F C.@XT.V.e.H.B.5.B.e.a.a.i.#._ _ V r v >.A.A.x.m.z.-.-.=.-.8.z.m.W.n.z.;.[ 6.y.9.y.4.O.2.| ] ] 4.a.6.' | 5.5.3.X.J S q.r.%._ L 4.B.A.F.m.D.n.} ] 2.[ _ 5.Z.y.y.y.F.Y.F.2._ | } B V O.u.F._.A.V.8.] 2.;.-.[ ;.,.9.B.y.y.y.B.C.C.u.#.;.} [ [ / ;.[ ^ | 8.9.5.+.] 5.Y.`.T.G.f.J.G.&.i.F.9...4.9.5.$.$.f.f.p.G.h.w.$.J S ..5.5.%.%.%.%.&.t.t.i.g.K.I.Z.s.9.'.4X<X4X@XY.B.4.3.3.a.a.w.3.X.+.V.V.F.B.a.y.4.4.B.8.<.n.Q._.",
"V.e.2.i.F.5.#.#.2.B.F.F.n.9.9.z.n.A.D.A.m.n.m.D.S.n.A.B.9.} } | 5.Z.C.u.%.4.%.B.].`.F.B.9.7.9.b.a.B.t.i.5.P ! [ V B -.2.b.x.6.2.;.;.~ M :.9.7.9.9.4.] _ O.A.C.9.4.8.,.2.9.B.y.1.6.9.8.7.B.n.A.x.B.C.y.y.t.C././._./._.V.i.5.5.4.C.D.D./.'.'.K.y.1.} / F ( ;.[ } ;.x.B.2.6.y.7.7.9.n.n._._.K._.F.B.9.9.B.{.<X4X;X|._.'.L.a.4...] 3.s.B.5.5.s.Z..X1X#XU.I.I.Z.&.$.i.5...9.i.3.y.s.Z.s.G.T.f.r.w. .+.&.a.a.i.i.t.5.t.t.t.i.G.R.T.Z.e.V.].4X6X7X#XI.Z.i.5.5.V.Z.V.Z.e.9.Z.V.e.Z.s.9.y.B.S.D.W./.Q.F.D.4._ | 5.#.] +.$.5.s.B.a.` ! B N 6.z.b.~.~.Q.F.A.n.6._ v v ] 4.5.5._ v u p N B.4X|.~.b.7.| 2.w.9.a.5.i.$._ V [ Q M | :.A.z.2.,.:.;.! M ;.z.7.9.y.6.[ _ | B.F.9.4.6.| ] 2.9.9.2.O.,.O.4.5... . .X.@.X.] v V 4.L.F.A._.~.S.O._ _ V _ 4.7.O.5.5.5.C._.2.<.M.6.-.>.,.| y.L.S.F.6.-.c.l.<.6.x.8.8.m.K.d.y.5.5.y.4.` V N v M B ] ] _ ` $.5.5.5.y.i.Y.XX@XU.U.J.V.$.3.i.9.#.5.i.2.i.V.f.s.Z.T.f.r.w.+.+.$.a.i.y.i.i.5.t.t.t.i.J.R.I.Z.e.V.{.2X6X7X#XI.Z.a.5.5.V.Z.B.Z.e.5.Z.V.e.Z.s.7.e.A.A.A.F.Q.Q.F.",
"B.B.B.e.a.2._ _ | F._.Q.A.z.x.n.A.x.A._._.A.n.F.D.y.F.B.9.] | 7.n.F.K.a.5.5.s.Z._.].`.~.2.>.B.B.a.a.5.]  .2.6.2.2.;._ ;.8.2.! ! | { ;.2.2.z.6.;.2.4.$.6.a.C.L.S.8.,.} 2.a.B.4.,.6.B.n.B.F./.~.Q.L.L.y.o.[ O.B._.'.}.L.Z.B.5.5.a.S.F.L.[.[./.M.y.t.%.] ) } 6.<.2.;.>.9.| #.y.n.y.8.B.B./.|.oX'.9.#.2.7.B.A._.<X&XY.B.C.C.Z.B.5.+.+.5.w.5.s.T.].XX1X#X.XZ.@.5.s.3.#.#...| #.2.9.5.s.Z.I.Z.G.f.I.p.w.&.w.s.d.t.5.5.&.%.%.%.w.&.5.5.5._.Y.Y.1X3X'.5.a.f.Z.f.5.| #.a.B.5.5.] | e.9.9.B.'.'./.{.W.7.A.S.B.a.$.3.4.5.5.B.`.oXZ.2.D [ ^ ^ c.F.S.~.W.F.A.#.4.n.' L v _ 5.5.2.I F a n 2.Q._.Q.^.~.x.;.3.3.3.5.@.` ] 2.6.2.,.;._ ;.2.,.V ! { { >.2.2.z.7.| 2.4.%.4.a.C.L.C.6.} _ } 7.9.] D | 8.4.4.#.#.9.i.@.U T S d o.5.Z._.F.}.}._.A.O./ D D ] $.#.2.G ' 9.C.x.9.D.x.x.W.B.2.8.Z.{.{.z.:.A.c.;.n._.S.4.B.P.d.#.] o.#.%.` L V n v M V D v m #.5.5.t.Z.Y.`.@X#X.XV.$.5.s.3...#.| ] #.3.5.w.f.Z.J.G.G.f.I.i.w.&.i.s.d.i.%.5.t.%.%.%.5.%.5.e.5.Y.Y.Y.3X3X_.5.i.f.f.V.9.] $.s.s.9.7.] X.e.9.9.B._.'.(.{.W.7.A.",
"a.e.Z.B.b.7.} / 8.Q.'.}./.A.m.A.A.6.2.F._.F.y.2.O.t.K.C.y.m.W.b.A.F.a.y.d.d.Z.L._.|.B.V.9.5.B.e.e.$.] ] 3.3.;._ ;.,.,.} -.{ N v N s ] 2.| 2.O.` O.4.5.a.a.9.A.C.9.;.} | 8.O.} O.4.u.d.K.'.}.|.;XE.Z.u.} F [ ;.n.Q._.Q.L.C.4.5.a.C.Z.F.W.D.n.m.D.u.%.F ' 4.y.C.n.6.2.2.2.#.6.9.A.n.M.D._./.'._.B.2.| n.{.{._.Q.B.5.4.#.t.a.i.i.i.w.&.5.9.#.y.T.`.T.T.a.X.^ q.S.r.3.#.` [ ] [ | B.'.Z.$.s.R.R.f.+. .@.w.s.s.9...` G S ] 3.5.X...e.Z.{.H.s.E.oXZ.5.%.t.5.5.#._ ] 2.3.3.6.] ' 9.B.O.2.F.F./.Q.~.F.F.A.a.y.4.$.a.C.C.Y.E.I._.B.6.2.7.b.W.S.c.Q.D.S.B.| O.4.] L O.4.C.a.L N V [ 9.F.[._.~.b.S.b.7.7.$.3.+.K L #.6.| _ | 1.,.} { [ N v v v { 2.| 2.| ] #.4.5.a.a.u.B.S.4.} / / ,.[ n / ,.O.| O.O.#.9.i.+.+.5.G.K.I.F.T.|.|.[.~.A.A.7.;._ V | #.#.| V L 2.4.2.8.x.8.7.8.n.C.Z.4.4.{.Q.l.Q.W.6.D./.8.O.4.O.' ' ] +.O.#.] I V v n V L J V S +.$.3.O.5.K.T.T.U.f.X.` 3.G.r.3.#.` [ | [ | B.`.G.$.a.T.T.h.o. .@.w.s.s.5...` V D ] 3.5.X...i.Z.{.H.B.R.oXG.5.%.t.i.4.#._ ] 2.6.2.$.| ' 9.y.| #.F.F././.Q.F.Q.",
"XXF.Z.3.[ x.m.:.8.F.D./.|.[.F.A.x...] 5.B.a.4.#.#.u.M.C.C.}.[.8.A.Y.y.i.a.Z.L.V.V.Y.F.H.Y.B.Z.J.H.w.$.5.2.7.2._ [ -./ M ! V v v r y N ] #.] _ ` 4.5.B.i.5.2.9.B.x.;./ _ ;.| } O.4.4.4.y.'.;XOXY.C.a.4.[ / [ <.8.A.~.'._.C.5.9.5.y.B.n.S.M.8.C.K.M.] n B ' 8.Z.9.2.s.a.2.O.2.x.S.D.D.D././.L.L.S.7.| 9.{.;X'.e.2.%.] I ] t.t.&.&.i.p.f.s.2.] s.T.s.r...X.w.S.H.b.e.5.` ] 6._ 2.~.].V.$.$..X$XOX@.L @.f.f.#.m t a v v S 5.p.5.$.Y.].Y._.Z.Z.V.5.#.o.+.] ] | P _ | #.2.4.5.O.] 2.7.O.2.B.W.F._.Q.F.B.9.] L P 4.5.s.Z.Z.V.`.XXa.2.9.b.S.Q.S.D.F._.Y.4.| #.2.O.5.5.4.6.` ' 9.A.|.|._.&X[.S.S.H.Z.B.Z.Z.@.] 2.#.4.,._ [ -.~ M ! V v v r t b ` | ] _ P $.5.s.a.5.#.4.B.8.( z u B F / 8.n.8.O.2.2.O.$.2.2.i.G.5.%.%.5.B._.|.[.F.6.7.9.2.[ _ | _ / L _ _ 4.9.2.4.7.8.| B / 9.F.n.Z._.[._./.n.x.}.K.4.u.8.| _ F P ] o...| L m v p m ] U L U +.5.4.#.` y.Y.s.a.#.X.5.V.H.b.e.5.` ` 2.[ >.~.{.V.#.$.].3X+X@.L $.f.Z.#.m r a s v S w.p.5.3.H..XY._.Z.Z.B.5.#.o.O.] ` | P L | #.2.4.4.| | 2.4.O.,.B.F.F._./.V.",
"2X<XT.4.5._.L.C.n.C.C.P._._.F.B.B.2.]  .5.a.a.C.y.4.y.D.Q.>X/.2.y.L.C.Z.Z.Z.a.V.H.Y.Z.Z.F.Z.].XXU.w.$.3.#.2.] V M v M M V L D N s a m ` ` #.5.5.5.2.4.9.4.#.2.B.A.1.} [ ( [ } [ [ 2.2.5.L.].].F.,.4.S.C.,.8.(.Q.Q.Q.F._.L.C.C.d.a.y.5.D.M.9.8.D.u.F u u x [ n.9.4.Z.u.$.4.4.y.D./.D.D.oXOX/.y.6.2.6.x.B.e.6.#.#.O.o.G G &.t.+.o.&.i.f.Z.B.%.a.Y.w.X.X.$.S.T..XXXXX@XH.9.6.-.e.|.0X0X].`.].Z.f.5.+.0.a.5...v , 0 V P ..H.J.r.a.`.|.Z.F.7.9.7.] 2.2.] N V _ _ / F _ ,.9.2.,.4.y.7.2.| B.F.F.Q.F.F.C.i.' L O.i.y.a.a.a.B.Z.Y.H.B.b.B.B.S.F._.|.].Y.B.5.%.s.s.5.5.#.y.C.F._.Q.~.F.~.|._.S.V.Y.Z.`..Xf.@.X.#.#.| ] V v z z M V L V b v a m U ` #.5.5.5.2.5.9.4.| #.y.B.O.F u u x F O.7.2.V 2.9.4.3.2.4.t.i.m U ....5.Y.{.{._.B.x.n.8.2.O.} _ _ ` ] O.C.F.B.a.B.F.y._ | F._.L.Y.'.'.}.)./.}./.8.;.,.| 4.u.O.[ #.....#.] F n v m ` L J P T 5.B.y.#.y.I.w. .#...Z.`.XXXX@X@XY.9.2.| e.|.0X0X|.`.].K.f.&.+.t.i.5...v , 0 m _ ..H.G.e.s.`.].Z.F.7.9.7.| 2.#.| m V _ _ V F _ O.9.,.O.4.y.8.O.| n.F.F./.S.Z.",
"<X3XXXY.E.K.8.O.u.n.C.C.C.C.B.e.i.e.2.@.@.$.#.i.C.Z.L.[.'.}.|.F.B.4.K.E.Y.s.y.Z.Y.H._.Y.Y.T.].T.a.5.e.5.#.` ^ v r M / ! } 6._ b V J ]  . .$.w.5.t.s.Z.s.O.| | 2.y.n.4.[ } -.-.z.m.D.m.8.y.C._.Y.4.y.L.K.4./.;X}.^.F.F._._.Y.Z.a.y.9.d.P.D.D.n.M.8.B n c u F ,.n.B.F.y.O.O.2.8.W./.C.m.D.D.| V M [ 8.x..._ ..5.2.#.%.] o.t.i.f.a.&.5.9.s._.oXf.a.r.D D ^ e.S.`.XX1X#XB.2._ ] A.<XyXuXyX0X#Xa.a.V.a.a.&.f.Y.3.m _ 2.4.e.H.F.3.e.s.i.V.B.,.] _ ! { ] -.] ! v v | 7.7.9.,.V } 9.y.a.C.8.9.A.|.|._.H.a.C.Z.a.d.F.Z.s.4.] V #.H.B.3.2.| 7.B.V.V._.Z.a.f.Z.h.J.Z.f.i.C.Y.Z.L.'.H.2.6.4.y.Z._.Y.Z.Y.].G.$...5.$...` V v g v ! ! [ 6._ N m S ]  .#.@.r.w.i.V.G.Z.#.` [ ] 8.4.) G u u H / 2.8.2.` 2.6.9.9.4.2.` D w.w.a.B.B.Q.{.W.~.A.S.Q.A.7.| G ` 4.9.a.a.B.C.9.9.F._.F._.:X}.'.L.P.'./._.}.oXP.( ;.2.8.n.n.m.A.x.6.9.7.2.' n m G L ] +. .+.i.y.F.Y.s.a.5.P L ` e.S.{.XX3X#XB.2._ [ F.<XyXtXyXtX@Xa.a.V.i.a.&.s.Y.5.b ` 2.3.e.H.Z.w.e.a.a.V.a.,.} _ V { | ;.} V v v ;.6.7.9.,.N [ 5.y.y.A.4.9.S.&X|._.Z.",
"].oXd.B.5._ F ' 4.C.a.i.C.d.Z.d.r.w.$...X.P P 9.y.y.|.}.OX2XoXY.4.9.'.'.F.a.9.Z.Y.Z.E.'.Y._.].Y.Z.b.V.V.3...2.2.} B M M | ' F n m m ]  .&.p.+.r.a.a.e.#.' ] | 2.9.4.2.4.8.8.M.(./.D.2.,.8.B.'.].T.K.C.2.O.B.}.;X_.F.'.K.C.Z.d.O.2.y.B.C.m.C.L.C.9.2.[ O.] ;.2.B.B.B.n.4.O.} _ 8.n.8.8.8.,.[ [ | x.[.Q.9.2.7.w.2.2.2.5.9.y.9.Z.F.Z.B.B.V.F.F.f.i.5.5.5.w.b.T.{.XX].].B.2.O.y._.2X5X7X6XtX6X_.F.Z.d.Y.L.R.T.5.` 2.5.4.a.a.V.r.s.e.%.$.| N h k M ! z.x.6.] V m O.n.n.A.' F 4.K.y.4.C.8.| 9.B.C.'.F.i.2.5.2.4.a.V.a.5.` m +.Z.5.$.| ..w.F.Z.V.+.X.i.I.T.Z.f.i.i.f.Z.a.C.@X].a.t.2.5.C.Y.].Y.Y._.`.`.b.e.e.r.$...2...[ v v z ;.[ B n n m  .+.&.p.+.a.s.s.s.5.] ] _ ' O.[ m _ / o.u.u.4.4.#.| >.>.2.2.O.[ a S i.a.5.#.9.B.Q.Q.(.Q.D.D.A.x.;.F V 5.a.d.t.a.a.y.a._.Q.Q.|.:X/.L.D.L.L./.S.D./.D.A.W.n.z.4.,.,.C.B.9.4.4.' B F _ L L #.4.5.9.e.a.B.Z.C.i.5.r.5.e.b.Y.{.XX`.].a.O.2.9.'.4X2X7X6XtX6X'.V.Z.C.K.Y.R.T.5.] 2.5.4.a.a.s.s.e.r.3.$.| N h v M ! z.x.2.] V B ,.y.n.B.[ F ,.D.y.4.B.4.| 8.B.C._.F.",
"d.g.5.a.C.O.2.B.K.D.9.2.C.K.K.d.s.e.5.X.` L ` 5.9.y.'.oXL.OXoXa.F.2X|.F.Y._.oX@X'.L.L.Y.F.Z.Z.V.e.e.w.e.e.5.a.V.2.a u v B / F B v n J ] ] ` D  . .` $.| D L | 2.2.1.1.8.u.n.D.Q.D.n.| 8.C.F.A.a.a.y.u.9.1.m.oX|.}.A.C.f.C.C.a.4.y.m.9.B.C.P.L.C.C.4.4.u.9.B.F.L._.C.K.F.8.O.' O.1.2.z.9.y.y.y.C.S.S.B.~.F.F.b.7.7.7.7.a.B.y.B.F.F.F.|.|.F.a.9.5.%.a.H.J.B.S.`.-X`.V.e.4.C.'.;X;X'.'.{.'.{.'.].`.'.`.V.i.i.5.` L ] 5.5...` $.w.3.5.a.#.v r h k ! 6.>._ _ / [ 8.B.y.2.} 4.S.8.O./ 2.B.} _ V _ 4.B.C.2.P P 2.a.9.2.] _ V | 5.4.3.] ] e.G.Z.%.` %.G.I.h.I.p.i.a.s.f.d.a.Z.F.'.L.C.a.F.'._.'.F.F.S.F.e...>.3.w.3.e.B.2.r r z n F F n u d V ] +.] J  ... .w.@.P L ` ' L n n F ] 4.%.y.B.9.3.2.>...>.` V N 9 s X.$..._ ] 7.Q._.P.D.n.z.x.x.7.] ] | #.5.t.C.L.Z./.}.W.Q./.D.D.C.D.M.M.n.8.n.A.M.!.(.A.x.u.O.' 4.2.8.4.8.,._ _ / / ' 2.a.e.e.Z.H.V.9.5.5.3.e.H.H.V.S.`.@X`.V.y.5.B.'.@X;X{.'.{.'.{._.{.`.`.].V.t.a.5._ G ] 5.5...` #.w.5.5.i.#.z e h h ^ 7.;.[ _ F [ 5.a.y.2.} 4.C.5.O.L 2.B.[ _ N _ 6.B.",
"f.Z.Z.'.<X'.9.4.D.8.[ 9.F.Y.Z.Z.S.Z.b.3.| D N | 9.C.oX2XOXK.K.%.B.&X|.{._.}.'.L.L./.C.C.y.9.2.6.7.e.b.e.e.r.3.P a 0 v n B _ F B a s m D J D L ` ] $.f.%.` ` 6.4.,.2.8.8.n.D.W.Q.D.n.u.8.OX|.2.7.D.Q.D.[././.:X/._.L.Z.Z.d.Z.K.C.F.D.C.S._.'.L.C.K.C.#.O.4.a.B.L.'.C.P./.C.8.4.8.9.x.C.n.8.4.4.4.9.x.S.H._.F.L.F.B.4.O.A.L.S.C.L.F.V.{.@X_.Z.B.5.4.a.V.F.e.9.4.9.3.#...4.s._.@X|.|.&X;X|.|.}.|.2X@X'.Z.a.C.V.4.O.#.#.#.D S ..s.a.Z.K.` u q N [ | 7.2.[ V V ] i.C.a.4.a._.C.2.4.} 2.V.9.` V V | F.F.$.V V ] 2.] m V V v ] 9.4.#...$.s.s.V.s.s.I.I.f.f.I.U.w.@.w.B.Z.].2X@X_.F.F.D./.[.z.2.2.;.{ { ^ $.3.w.w.w.$.L y 8 u a n / V n u r b V L L K X. .0.G.5.` I ' ` F n B n _ O.O.#.B.V.9.2...^ N V _ [ a y Z L ] ....6.S.[.D.n.8.8.8.,.| ' +.P ] +.t.V.K.C.F.D.m././.D.z.1.z.8.n.u.2.n.A.n.W.!.c.6.8.1.O.,.8.u.5.8.8.O.( _ _ | 2.9.9.5.Z._.F.a.a.5.3.a.Z.H.b.e.8.9.7.....$.a.'.oX;X|.&X-X}.|.{.|.2X@X'.Z.a.f.V.5.O.#.2.#.L S ..s.e.Z.K.` z w N [ -.7.>.[ V G | y.C.y.4.a._.C.2.4.' 2.A.7.[ n V ] Z.",
"R.@X+X'.'.E.I v O.' | F._.T.Y.Y.~.~.^.B.>.` V a _ C.oX'.E.d.a.4.a.{.-X_.Y.F.A.9.F.L.n.S.C.A.4.4.e.e.e.w.w.3.L m a a G N V } ' L V v v v r v ` 5.e.s.V.a.5.4.6.| [ ] 1.8.n.W.D.F.m.n.4.y.}.Y.x.W.!.[.&X%X[.}.|.'.L.'.L.Z.Z.I._.L.F.D.D.F.'.}.P.u.y.C.o.G o.C.B.F./.P.C.D.n.1.4.y.C.C.y.2.9.9.O.' 2.B.V.F.Z.B._.Y.2.} 2.F./.F.S.'.{.Z.F._.T.C.y.4.3.9.4.7.2.` _ F [ | ] #.9.F.'.|.|.}.'.&X;XQ.A.L._.Y.Z.L.I.%.G ' 9.9.` a ` 5.e.H.d.5.L u r [ #.7.9.2.F L ] %.t.B.Z.C.Z.B.4.y.4.O.B.9.2.[ ] 9.V.F.i.#.L P #.6.| _ L m V D ..2.a.G.V.s.s.Z.T.T.I.Y.G.U.U.Z.t.5.5.#.4.Z.F.V.F._.Q.F.{.c.N j ! _ B m ^ ....w.3.X.J m a 8 m v B _ _ B a 0 a a y a ` w.a.g.f.I.d.i.$.] F n a B / O.#.O.$.#.| #.` y t D D m D S S L L ` ] } } 8.m.z.;.} [ V _ [ | [ | 2.4.B.C.C.A.C.D./.(.Q.z.x.8.8.u.n.n.y.n.m.A.n.6.8.[ [ } } ,.y.M.1.O.} _ / [ } 2.B.F.a.B.Z.F.a.9.4.3.4.3.5.>.` J V _ ..` O.t.Z._.|.&X|._.4X<XW.A._.Y.Y.Z.L.I.%.G ' 9.5.` a ` w.e.H.d.5.L u y [ #.3.9.2.F L ] 4.y.a.K.C.Z.B.8.y.4.O.a.x..._ } 7.B.F.",
"I.R.$X].E.K.$.L _ $.V.T.Y.I.T.'.L.B.n.4.[ v V N _ x._.~.F.a.B.Z.C.B.C.D.A.Q.F.Q.}./.D.C.y.y.9.2.e.a.V.5.O.] V D _ J D V m O.6.L m V G v v k ] 9.9.3.a.V.b.8.| [ _ 1.1.,.O.P.L.M.,.[ _ y.D.x.<./.&X4X4X:X{.*X;XoXE.R.f.a.d.Z.I.L.K.F./.L.'.'.C.%.y.K.t.I 2.B.F.{./.(.).D.n.O.4.m.D.n.9.4.4.4.4.O._ 6.B.9.i.5.9.F.F.D.D./._./.'.oX|.Y.C.s.y.y.y.A.B.9.8.O._ _ ] N V ] ` O.9.L._.F.Q.F.S.Q.{.(.D.L.'.'.a.4.%.m u F 2.#.V D P ` ..V.s.2.L [ _ v V | >.>.#.4.4.i.Z.Z.i.2.] | F | 9.B.B.6.] D >.~.].Z.y.Z.y.9.y.5.O.O._ N V ] @.4.F..XT.V.f.T.G.Z.Y.Y.I.F.s.a...] #.^ y D { x.{.&X&X&X[.<.x N V N v m ..>.0.>.| P m J L m b v v | 2.N r u a r r y ` 3.@. .q.G.U.K.5.o./ B V | ,.4.,.O.' ] 4.2.J v D D D D D S S $.$.| L z 9 V | [ O.8.8.2.[ L | 3.9.B.9.8.9.A.x.S./.(.P.P.N.N.1.n.1.M.D.C.n.n.A.7.;.[ Q ( Q B F ,.8.4.2.;.[ -.O.,.9.Z.K.C.5.t.y.9.y.a.b.9.7.O.L _ ] m m ] ` | 9.L.Y.L.F.W.Q.Q.}./.D.L.'.'.y.5.#.m u F 2.#.V D ` ` ..V.s.4.F ' _ v V | ....2.3.%.a.Z.Z.i.2.] | F | 9.B.B.2.` V >.Y.|.V.",
"i.&.d.f.R.R.F.d.5.Z.K.I.I.I.I.E.E.y.2.O._ _ V ! 2.2.9.F.F.B._.|.'.4.A.'.'.|.}.[._.D.P.n.2.2.u.A.S.S.Z.B.4.O.] L ` | ] ..2.5.2._ m V / [ _ ^ >.3.3.6.9.S.A.9.2.;.1.8.8.| ) D.A.,.( v [ y.n.n.m.OX5XwXwXqX&X;X2X_.V.Z.I.f.i.i.h.Y.K.L.'.'.L.d.t.%.o.4.y.y.a.4.B.Q./.(.).P.,.| 8.n.n.y.P.a.5.#.%.[ G _ | 5.5.9.s./._./.D./.'./.|.'.K.Z.t.y.y.B.C.C.9.| _ ] 4.#.L J L m _ i.a.F.Q._.F.A.A.W._.(.D.L.].oXY.5.G r p F ] 9.9.3.2.P _ 5.y.a.Y.K.C.#.$.2.>.3.9.5.5.s.Z.d.#.5.9.] O.C.F.Z.a.e.9.7.S.'.Y.B.Z.Y.a.4.a.a.y.B.9.2.| e.F.a.a.T..XY.G.s.$.B.Y.F.F.C.F.C.2.V v r h v l { {.4X&X^.x.-.Q ! V N v ` 3.w.e.q.' P m J ] ] L _ O.4.#.v 0 a s m a b P ] ] P U i.h.Z.y.#.o.O.8.2.2.7.4.2.O.4.B.a.5.$.$.+.P D T U  .&.5.$.` L V _ O.1.n.C.F.L.i.| 2.9.B.S.9.;.7.b.D.Q.Q.(.W.W.N.N.z.m.m.m.D.D.n.n.B.,.O./ [ [ -.Q _ } ] ,.;.| ;.<.2.6.n.a.y.u.t.y.y.y.a.B.9.] L _ #.] V m _ m _ a.B.C.F./.F.A.b.A./.(.D.L.|.oXY.5.G i a F ] 9.9.7.2.D P w.9.s.L.K.Z.#.2.2.2.6.5.5.5.a.I.s.2.5.7.] O.B.F.Z.b.e.e.9.S.{._.V.",
"f.t.+.0.h.U.V.G.G.V.i.s.K.I.K.K._._.F.9.x.9.| x.F.| B.|.|.-XqXrXoXF.'.L.}.[._./.D.P.D.y.n.n.n.F.L.B.9.7.4.O.O.2.5.5.$.5.V.5.| #.| ] _ [ { >.6.2.2.2.7.A.A.A.x.,.} 6.n.O.| 8.;.( 1.,.4.K.C.C.).5XqX5X5X4X_.;X2X_.Y.F.Z.f.&.&.K.E.K.K.K.E.OXi.O.' G 4.t.F.T.F.F.S.W.D.M.n.} -.y.n.8.9.F.B.5.y.d.t.| _ ] 9.C.F.F.A./././.;X}.L.F.F.V.d.a.t.y.i.8.8.2.} ] 7.5.5.| _ 3.7.| 2.5.F.'._.S.S.S.A.Q./._.}.OXoX].Z.o.d r n | 2.| 9.| ` ..3.4.a.f.u.y.t.O.L ] 3.| ] e.G.F.a.3.9.2.L L 9.B.B.B.B.b.9.V.S.B.F.Y.a.4.#.y.C.a.5.9.9.7.9.F.e.9.Z.H.s.G.B.2.5.V.a.9.A.A.| B h w k h w k N { 6.!.x./ / x n _ } | 5.B.9.{ ..' I J  .+.+...5.Z.w.| _ L V a 0 y D ` S L _ J +.5.5.5.$.O.o.4.Q.x.,.;.} ,.u.a.s.5.%.w.$.R X.&.$.@.$.$.w.5.4.4.4.4.4.y.9.a.Y.B.B.x.b.e.A.F.B.A.F.(.^.W.W././.N.N.N.N.N.N.W.W.x.9.B.2.8.8.;./ | ;.,./ ! } } | | 6.8.2.4.9.4.t.t.y.t.5.2.2.,.` _ 5.5.#.` ^ 9.9.] 2.9.F.|._.F.A.D.D./././.}.OXoX].C.o.d r n | 2.| 7.] ] ..2.4.a.f.u.y.t.O.J ] 3.| | e.F.F.w.5.9.2.L P 9.C.B.B.B.B.9.V.S.V.F.",
"d.d.%.k.g.$.w.G.f.w.w.i.g.I.Z.C.K.C.n.A.F._._.A.| L e.'.&X4X5X6X}._./.'.'.F./.F.D.P.n.8.n.m.9.n._.Y.B.u.4.4.4.a.a.9.2.$.5.$.] ` ..5.5.6.8.7.6.n.9.B.B.A.W.A.A.n.D.8.1.| F [ z.x.A.D.n.y.C.n.E.:XqX2X}._.L.|.].|.].Z.s.s.@.&.a.I.E.R.OXE.K.4.G F ` y.s.V.F.F.C.D.m.m.M.u.1.1.M.u.2.8.y.y.y.K.a.5.5.| 4.7.7.y.7.,.9.m.Q.*X>X&X&XF.C.C.C.a.y.u.O.| | -.9.9.y.9.%.#.3.9.2.5.9.Z.'.{.Q.A.F.W.W./.}.[.}.'.a.%.O.$.O.y.F.2.] | ] ] #...] 5.C.a.t.y.2.` [ _ ` ] 2.9.a.3.| >.,.V _ B.F.Z.B.V.e.e.e.B.Z.Z.a.o.#.5.5.a.B.8.9.Z.V.S.H.F.Z.w.3.#.e.2.] ` A.e.2.9.2.B h w q k j w g l M [ 6.6./ F F F ' 2.2.9.V.e.3...` O.2.5.5.5...3.e.+.L m V X.` D b D D ` +.X.X.+.5.+.#.5.5.y.C./.D.<.} -.| ,.#.y.5.%.%.+.+.3.&.@.+.$.&.Z.s.y.9.2.} O.4.9.y.F.F.B.F.F.F._.Q.~.Q.^.(.(.W.Q.(.P.P.(.N.=XN.N.(.M.z.n.9.4.2.,.| } 2.,.V B V B ! [ =.1.x.m.n.y.5.t.y.t.4.4._ V _ _ 6.9.9.#.| ] 3.e.3.9.e.F.'.|.Q.A.D.Q.Q./.[.'.}.'.a.%.#.4.] 9.F.4.] | ] ] #...] 5.C.a.t.y.2.` [ _ ` ] $.9.a.6.#.| 2.B _ n.F.Z.B.B.e.e.e.B.F.Z.",
"t.4.%.+.t.i.o.#.X.K ] $.j.i.i.Z.L.n.7.B.b.B.e.{ D N ` C.L./._.}.'.'.|.{._./.{.W.m.b.b.c.n.n.8.D.Y.OXL.5.u.4.9.y.9.2.' _ P J m L %.s.a.C.y.A.'.'.L.L.F.F.F.C.F./.L.B.5.| _ 2.D.B.2.a.y.%.5.y.L.2X:XOX}./.M.L.Y.E.L.5.%.$. . .i.I.f.d.K.C.4.;.n u / 4.D.F.y.y.m.C.M.M.M.n.m.m.n.z.1.,.2.u.K.Z.s.4.6.w.F.F.B.4.} ( [ ;.z.!.:X}.M.M.y.P.C.d.u.9.7.6.| :.8.6.A.y.$.4.C.'.}.Y.d.9.C._.F.n.D./.Q._.{.S.D.D.2.#.t.F.Y.'.|.H.| #.2.5.+.%.t.5.i.t.#.%.4.O.m 0 0 r v _ | ] 8.A.,.! [ A.[.[._.Q.Y.F.i.a.V.s.#.` 4.4.>.9.b.6.7.F.S.5.w.V.H.Z.3.] | _ B ^ >.7.7.^ ^ S k 7 q e l j M v N | 9.z.,./ B _ 6.4.4.a.L.I.a.@.@.#.4.5.4.#.V F _ m s p P @.] ] L ] Z.G.w.$.$.+. .L  .a.B.L.L.C.7.;.1.<.<.2.D ` | 4.y.2.$.V.$...$.w.V.V.w.#.| _ n v _ y.C.a.B.y.B.Y.}.|.|.'._.F.F.C.D.D.'.}.}.'./.[.(.W.P.u.F O.4.9.;.} ,.;.;.} M n z z z B ( 8.A.z.1.,.7.C.u.t.5.4.| } [ } 7.x.S.3.] 6.F.|.|._.B.a.F._.S.n.D./.F._.[.C.B.S.2.#.t.L.L.'.|.Y.| | 3.5.+.%.t.5.a.t.O.%.4.O.V 0 w r v _ | | 7.A.,.! ^ W.^._._.~.Y.Z.a.i.V.C.",
"L.d.t.t.d.t.I d b S S $.@.J o.Z._.F.Q.Q.F.Q.9.] D m _ 7.4.| 1.'.oX6XyX7X|.|.&X[.Q.W.!.b.A.A.S.L._.Y.Z.y.t.9.y.a.5.6.| [ m v V ' 4.s.Z.L.C.C.C.C._.}.OX|.L.S.D.C./.'.x.2.x.y.O.6.V.B.%.%.o.%.y.'.;X>X_.D.C.d.4.t.d.y.5.3.%.5.t.d.t.%.5.9.y.,.B c / 4.C.a.7.y.y.M.N.P.M.n.n.M.m.z.l.8.4.8.D.B.C.a.#.2.Z.L.F.8.' / ~ =.:.W.*X(./._.Y.C.y.o.O.8.9.z.8.:.^ 6.B.B.9.B.B.F.].L.B.u.9.S.F.n.n.C./._./.F.C.y.2.t.Z.'.|._.2.`  .2.$.#.] +.t.s.a.C.4.&.5.#.L u r 0 9 r m | 7.z.1.[ >.A.[.}.'.F.B.i.$.4.H.G.4.2.y.#...3.b.9.9.B.5.D ` 5.H.H.B.7.7.D b l l S A < < A 8 7 7 q h k z n ` 4.9.8.n.x.2.6.n.n.9.Z.Y.Z.a.9.t.5.y.9.9.2.V a a v m v L  .+.3. .] U ] $.p.f.f.w...$.9.a.Z.y.#.] :.1.z.l.6.;.` #.a.d.5.#.2.5.3.w.V.V.V.e.6.] _ B z V | O.' | #.a.C.L.|.|._.B.y.y.4.y.d.K.'.oX'././.A.D.n./ G z _ 7.2.8.,.B N B F x z e u c Q <.x.m.n.n.C.y.t.O.$.8.6.6.;.[ -.9.F.9...3.Z.{.2X'.Z.B.n.C.S.n.n.C./._./.F.B.y.2.i.Z.|.;XY.#._ ] #.2.+.o.+.5.s.d.d.&.5.5.#.J r r 0 0 r B ] 7.z.6.[ >.A.[.&X[.F.B.a.2.5.K.Z.",
"Z.a.y.K.d.4.n a N D ] w.#.m  .Z.Y._.L._.Q.Q.6.{ V N h ~ 8.D./.;XF.|.6X2X<X<X<X&X*X{.!.!././.L.'.'.K.u.y.y.9.y.B.C.y.5.9.| n G ' ] 9.'.oX'.5.n.L._.|.|.&X[.D.m.D.S.9.2.,.n.F.y.2.a.4.$.] o.o.u.P./._.C.u.O.4.t.t.C.s.5.5.y.t.4.8.5.4.4.C.P./.8.B ] a.t.t.#.4.n.8.M.N.P.M.M.M.n.m.c.x.8.n.y.u.u.4.>.2.B.L.C.O.F B ! ;.l.m.).}.OX;X_.1.O.[ } 8.x.m.c.6.6.9.A.B.B.B.9.a.C.D.n.y.8.n.C.D.C.A.n.C.F.B.y.2.O.%.Z._.&X'.2._ #.2.] O.+.%.i.t.K.a.%.4.y.5._ v r r m N V F _ ,.8.;.>.8.F.~.F.B.B.e.4.a._.S.9.S._.5.X.S Z R @.r.@.X.3.7.V.H._.a.V a b b D R < ; : < 8 4 4 e C y _ ] 2.y.A.m.F.W.A.A.C.F.Z.Y.U.5.%.a.a.B.i.y.i.9.o.L v G ` a 8 L Z.I.h.@.S X.r.s.J.G.w.+.$.w.5.2.` ` | ,.u.M.<.8.9.2.] B.L.B.O._ 5.w.5.V.G.V.b.3.#._ V V ! / / ~ [ 2.y.F.F.9.7.B.t.y.d.y.a.4.t.Y.Y.'.|.[./.m.[ M F F 4.5.2.| [ =.-.Q B n u e z M [ -.x.W./.'.C.O.O.F _ | 6.9.;.[ ;.;.9.9.7.y.B._.|.'.F.C.B.m.D.S.D.A.A.A.F.A.n.2.| 4.C._.&X|.O.V O.#.] ] #.%.i.t.K.a.4.2.a.5.[ a r r v V V V [ ,.8.| :.8.W._.F.a.V.i.9.s.T.F.",
"a.Z.d.4.B.B.N r N N ` 9.e.5.C.F.P.C.A.Q.^.^.6.M N W M x W.4X>XS.O.y.`.|.;X5X7X4X&X&X}.^./.D.S.D.D.y.9.4.y.B.n.a.B.y.Z.B.2._ [ ' O.B.C.K.E.C.F._.F.A.A.W.[.D.L.F.y.,.! _ x.S.y.} B v _ | O.,.n.D.n.4.1./ F o.t.4.%.#.5.C.y.5.2.4.| | B.F.K.}.M.' u.y.%.%.#.` [ ( m.P.D.M.M.m.m.M.m.x.9.B.8.,.2.4.7.9.y.L.d.] F B ! =.<.n./.).'.}.P.4.8.| | ,.z.n.7.:.x.Q.B.7.4.y.B.C.S.C.4.,.4.8.n.n.m.n.9.B.a.4.7.9.n.y.B.B.F.'.y.] | 7.2.O.#.t.Z.O.` O.L G | | V m b m ] O.| / V / [ | :.7.6.9.Y._.|.H.].@X`.w...B._.s.X.Z A A A S Z D ] 9.F.~.a.2.L m ] ..D Z A ; ; A _ ! | / 0 D #.7.B./.Q.C.A.x.x.B.F.F.B.y.B.9.w.5.9.B.y.5.2.5.9.5._ ` 7.] G $.+.+.h.*.K T  .r.r.w.$.P m ] %.] o.4.%.[ 1.u.<.b.A.5.4.d.C.4._ _ ] #...3.e.7...2.#.| _ / V ( / ! } ,.9.F._.A.n.B.B.C.d.] G G ' C.OX'.L.L.}.F.,.} 2.9.y.4.y.m.x.A.M.[ c x n x n Q / [ x.D.D./.C.1.y.O.[ } ;.;.[ ! { 9.2.] | 9.B.F._.Y.n.9.y.n.C.n.A.y.9.B.y.7.6.9.i.9.B.n._.].y._ | 7.6.#.#.a.K.] ` O.L G O.O.F m s m ] | ] _ V / [ | 2.7.2.8.~._.|.H.`.XX].4.",
"a.V.e...y.8.V ^ ^ N ] 7.9.9.C.C.K./.P.P.%X:XW.~ W W g W Q.uXrXF.4.7.F.'.[.;X5XqX-X-X>X}._.S.S.C.S.B.y.8.8.n.8.,.9.S.F.n.9.| [ | } 2.t.u.Y.E.'.L.C.n.D.F./.(.P.C.D.n.8.D.u.n.C.} / ! ( ;.} ;.M.m.1.;.8.y.4.O.#.2.4.O.O.4.C.C.K._.L.A.B.C.C./.n.y.d.t.%.*.i.4.B B :.M.n.M.M.M.n.M.D.A.A.C.9.;.| 7.b.9.e.C.Y.a.4.4.:.2.z.z.n.P./.D.C.z.2.8.8.4.6.9.;.| 9.F.D.4.%.t.4.B.Y.S.2.[ O.8.8.8.8.9.x.9.6.| 5.Z.F._.F.A./.}.S.,.O.F.S.,.#.5.u.#.L | _ ! F m a m ] O.O.#.#.' _ V M ! { 2.{ | 9.V.B.H.H.G.3.^ ^ { { X.s A A A A A R ] ` | A.B.7.#.] V D 3.X.R A ; < X.5.7.y.F 7 _ 8.n.A././.Q.A.A.A.S.B.B.B.9.e.7.7.9.x.4.] F G ] 2.6.O.| 7.x.a.B.5.T T T T *.r.f.r.X. .J p m U o.t.4.o.) ) ) z.A.b.7.5.9.y.2.F L _ ..5.$.4.5.2.3.{ [ V V | 8.8.} | O.4.B.H.7.] | 2.| m v i a ' M.'.d.C.C.'./.8.9.A.B.9.9.n.n.z.<.,.~ z Q V / ! ! M N | z.b.x.n.8.7.8.,.| | ! z z F 8.7._ _ 2.7.B.'.L.8.;.2.x.8.8.9.8.x.x.2.] 4.V.Z.F.Q.S.[.;XF.O.O./.F.2.4.5.t.O.F ' G V L N v m ] O.O.O.O.[ F B M V [ 2.| ] 9.B.B.H.G.G.3.D ",
"h.e.e.3.,.4.[ V ! | 7.| 2.9.C.B.C./.OXOXOX:X(.l.l.l.-.l./.5X2X5.L G | D.'.;X5X5X4X:X;X;X/.F./.F.n.4.8.6.4.8.2.,.y.A.B.n.-.;.{ / F [ O.%.t.C._.oX2XOX_./././.D.S.A.;.8.D.n.C.D.M.(.n.<.z.u.M.M.,.-.8.M.K.Y.C.9.4.%.O.I 1.4.C.OXoXoX_.Z.d.C.K.y.4.O.#.+.%.i.9.| ;.M./.D.m.M.u.M.E.S.9.n.8.8.;.} 8.F.V.B.Z.L.Z.a.5.9.A.b.z.8.n.D.D.M.D.n.n.n.4.,.8.6.| 8.9.8.#.#.4.5.Z.F.C.4.| } 2.,.;.2.6.| | ] O.a._.F.C.F.F./.}.L.2.] A._.[.D.} ' %.O.] ' ] ] F m _ | $.4.4.O._ _ [ V W M M Q _ | a.V.5...X.D b D ` ..` P r.j.q.X.Y Y _ ^ { ,.2.] m 0 1 s #.3.w.r.A A X.D N F n } 7.9.n.A.Q.(./.F.W.Q.F.7.9.Z.V.2.] ] | 7.6.] ` O.#.2.2._ [ 6.9.4.O.@.@.Y Y K k. Xh.T  .` ] L J I U o.o.u.,./ ,.M.F.F.B.C.u.O.| | } ] 9.V.w.5.5.5.3.{ _ M ! O.| 2.] ' | ,.i.B._ _ ] 7.] a u u m ] 4.y.4.B.'.oX/.M.D.S.n.B.D.n.8.8.n.z.-./ B / ( | -.! M ! | 2.-.| [ [ } / _ } [ M z n ' ] _ ' 6.9.B.F.A.4._ [ 6.6.6.8.9.>.] ] ] a._.F.F././.}.oX/.O._ D.&X;XL.] F O.O._ [ ] ] F n G ] 2.4.%.O.L _ } Q N M N ! _ | a.V.5.....D b ",
"s.s.e.V.B.9.` D ` #.#.#.#.4.n.n.m.8.8.C.P./.P.M.c.N.m.n.D.Y.OXa.' G ` C.;XrX5X}.{.|.;XoX'.'.L.F.C.n.2.8.4.,.1.n.D.A.A.6.;.{ _ B n B [ ] o.y.d.L.oXL.L.P.y.D.D.D./.1.9.D.;.( ,.M.*X(.W.*X).(./.<.<.1.4.y.9.9.9.#.#.#.' ' ,.D.'.K.E.2XE.t.d.Y.'.B.4.#.` %.s.B.4.9.}.oX/.C.u.t.K.M.t.4.4.4.2.2.8.B.F._.F.F.i.u.%.O.C.F.B.x.m.9.9.D.A.x.m.n.n.m.8.4.4.4.#.O.' %.4.#.9.F.B.d.5.4.4.b.9.6.8.b.9.4.#.#.9.Z.Z._./._.Q.L.C.O.2.A.[.}.B.o.4.y.4.| } ] | O.#.] _ 4.5.4.] _ _ [ N M N l M [ 2.B.e.r. .R K P X.9.a.#.3.F.].R. XG.5.I n G _ F m v J P D ` ..{ D D ^ ^ y v G F B./.8.2.A.(././.[.~._.F.Z.B.B.9.7.#.| 2.2.' ] 6.5.8.x.>.{ -.>.8._ m J E E T T p.h.h.q.L S  .%.%.U a 0 F 1.1.1.z.n.8.2.A.S.D.n.8.O.} ] 4.e.9.e.4.2.>.] | _ ! _ B F F G | 9.9.] L 9.7.7.[ B z z | [ ! 1.9.y.E.oXY.L._.n.A.S.D.K.M.m.M.z.<.-./ ( } ,.;.[ V ! N ^ ;.:._ ! B ~ | 2.[ B N ' _ _ | #.| 2.A.B.C.4.' ,.9.9.8.9.A.x.2...| 5.F.F./.[.}.}._.F.] ..W.|.:XB._ %.u.#.' F / [ ] O._ L 4.5.%.| _ / _ W M M x M ^ 2.V.e.w.X.R D P ",
"r.w.5.5.9.3.2.| P #.%.5.2.5.9.n.m.1.[ M.P.1.u.M.b.!._._.L.C.Y.y.F ' #.P.;XrXrX6X:X}.[.}.D.D.C.A.B.A.8.8.1.;.,.9.D.S.x.;.[ [ [ ! B F B F ' O.' a.L.%.u.t.4.y.K.L.[.D.D.8.u.u.C.).=X!.=X>X=X(.=Xm.1.1.8.m.#.| 2.#.4.t.4.O.O.K.'.y.Z.#X'.a.t.C.C.C.C.O.P _ #.F.L.L.K.E.D.y.u.1.o.O.o.4.%.} ;.,.7.A./.'.]._.'.Z.a.5.i.B.4.9.C.A.z.n.D.M.D.D.P.L.m.4.,.L / G _ %.4.] | 9.C.a.5.5.9.b.x.9.x.9.y.7.#.2.y.Z.L._.}./.F.B.8.,.A.}.}.}.F.4.#.9.i.9.| ] L L ] ] | #.%.4.9.O.B h M x M v v [ a.V.V.f.3.@.@.X.+.e.a.B.9.B.Y.|..XXXZ.L e n _ m y V B.5...{ [ v w S 7.3.3.5.2.2.9.A.A.z.D.[.&X&X|._.Q.H.Z.B.3.7.e.6.| 2.2.} } 2.8.2.-.^ N ! 6.z.#.#.L E Y T &.&.q.U.s.$. .T $.5.%.I ` 4.:.M.z.<.-.| 6.B.C.C.D.m.8.4.9.y.5.e.a.5.3.3.2.>.6.6.} ! F m n O.i.2.6.6.S.A.2.B z M n / } -.;.8.4.y.K.C.B.B.| x.m.L.P.M.L.D.D.n.6.,.-.-.2.| ! ! V B N [ ,.[ Q ! / [ ;.} O.O.O.' _ O.4.| } 9.B.y.O.] 4.9.x.x.n.9.B.5...| 5.F.L._.|.&X[.F.y.| S.4X4X|.A.#.O.5.t.4.} ` m m ` ' o.#.$.5.4.O.B z M h M h M [ b.V.s.f.0.@.$.X.",
"p.r.3.#.#.e.5.] L U ] %.$.y.B.4.9.7.B.'.B.9.y.5.9.{.@X6X'.9.| N m G ,.C.>XrX5X5X5X}.}._.B.9.n.x.A.A.z.7.9.6.2.x.m.A.A.2.[ ^ ~ V V _ / v V ` ] 4.4.] u.d.n.u.C.'.|.'.C.n.;X;X/.>X=X=X*X*X=X!.W.N.8.-.O.u.O.o.#.+.4.%.#.O.4.y.y.%.#.5.4.] V 2.V.C.y.7.4.L L a.Z.s.#.y.4.n.n.,.4.t.o.1.%.F / ) ( ,.y._.].K.B.L.Y.Y.u.` [ 8.A.F.F.F._.Q.D.Q.F./.A.B.5.F F F V L ` | O.8.V.F.i.4.y.9.b.B.e.9.B.e.9.i.a.Z.H.{._._.Q.y.O.O.y.F.%X|._.9.#.$.a.L.5.| F | %.5.5.5.$.4.4.F v W x k M B / 8.B.a.f.f.g.r.q.$.w.&.9.F.D.Q./._.&XXX~.#.D m a 0 8 s _ #.4.#._ u D #.B.a.a.4.a.B.a.B.8.8.D.)./.}./.9.F.V.9.9.3.9.x.7.| { ] ` { 9.9.7.[ M h M V | 6.2.P n H @.%.@.t.f.g.g.U P &.5.a.K.F.9.n.<.) :.<.<.n.A.n.M.D.D.D.8.#.u.%.5.a.i.a.5.+._ 9.F.| B F V v ! 7.9.7.x.A.8.-.x ! [ B z ) ,.) o.O.1.%.1.y.8._ | m.C.K.P./.D.D.u.n.8.1.u.n.} V _ ! _ { :.>.{ { [ ;.;.| 9.y.O.2.2.] | #.| ` 2.x.B.5.2.9.b.B.B.n.B.B.i.4.5.e.B.F.'.{.<X}.B.6.| 4.F.-X&X~.9.O.O.a.L.4._ n L O.5.4.5.#.#.4.V h Q h h M B / 8.B.a.f.f.p.r.q.$.",
"w.q.q.e.3.3.X.J d S L +.] #.4.9.9.9.b._._.K.4.U +.a.I._.|.H.| _ v n / | D.>X:X4X;X5X6X4X|./.b.Q.F.[.Q.A.A.F.Q.A.D.Q.Q.2._ [ ! [ 6.n.,./ V [ ! ! } 2.4.u.O._ ' y.'.|.P.L.P.'.}.:X:X:X>X=X=X(.).).u./ / ] } G _ O.%.I I 8.y.4.I L ] I G V / 4.y.A.A.n.8.2.#.C.Z.K.u.y.D.C.M.L.P.o.F F n x / F W [ 4.F.T.V.i.Z.E.].Z.4.4.D.B.n.L.Y.F.n.y.C.F.Q.n.9.u.o.I ' [ ' [ 2.2.{ >.9.2._ [ 9.A.B.x.B.H._.F.s.V.H.b.F.F.F.A.2.[ O.8.F.Q._.].Z.i.5.B.C.4.| | 4.5.u.5.4.2.| L v k B k h r v V 2.Z.I.G.f.h.p.@.q.&.5.H.'._._._._./.F.F.e.#.m 0 b m a P 7.O.G G H m [ ] 2._ 5.V.a.a.s.4.O.y.L.[.|./.A.Q.V.e.4.9.F.B.x.7.| ;.7.7.7.6.8.,.v z V / | 7.9.| F #.y.i.&.g.h.&.*.T &.J.Z.T.'.F.x.n.c.z.<.:.1.z.A.F.Q.(.[.D.4.[ O.%.#.#.%.#.] ] | 6.2.M M B ! L ` 9.F.A.A.-.Q B x c z z x B B / F F O.u.K.S.n.,.O.u.t.y.M.M.C.C.u.u.8.n.n.u.,./ / ^ -.7.8.:.-.-.6.,.,.2.4.| L O.t.#.2.2.2.| [ >.4.#._ } b.B.A.B.B.Y._.F.a.a.e.3.S.'.'.S.B.3.] ] B.Q.S.F.F.5.5.y.y.| F G O.4.5.4.%.#.] V u k M h h r z V 2.Z.I.I.g.I.p.@.q.",
"r.r.r.V.i.4.] O.` m V J v m | 3.2.%.5._.'.V.U J  .@.t.s.H.7XA.N B [ 2.8._.4X5X6X4X4X&X{.'.Q.n.D.[.[.A.b.B.Q._._.Q._.{./.9.>.| ..2.b.B.] B [ ! [ 7.x.} / [ { 2.2.#.u.y.5.u.L.).OX>X:X*X).%X).N.M.m.,.| ,._ F ` ! F G F ] O.O.] _ | ] | 2.6.n.u.u.z.x.A.2.u.K.K.d.%.u.oX8.M.P.4.n G G e g F Q ( l.Q.'.|.H.C.Y.I.E.'.K.K.L.9.2.7.C.C.8.| | 7.B.y.5.5.%.@.4.$.y.5.9.4.| x.B.| ;.7.x.A.Q._./._.F.F.F.F.V.B.B.B.B.x.7.O.4.K.'._.Y.`.Z.w.9.9.5.O.| ] 4.y.B.a.%.#.4.' v B M k M v n V ] a.g.f.U.h.g.p.h.f.V.Y.J.F.Z.H.H.B.9.V._.J.` s S S a u #.4.G I F v m | 9.5.i.B.s.Y.T.Y.5.O.9.F.F.~.[._.Z.B.7.7.B.B.b.6.{ >.e.9.>.| 7.9.#.` 2.y.9.2.7.A.B.y.t.d.f.K.g.*.+.+.i.T.H.Y.Y.L.Q.N.M.v.:.<.z.M.F.[.[.(.W./.C.4.9.2.#.4._ ^ | >.b.9.;._ _ V V ! 9._.|._.m.-.B Q x M c c z c c F c G } C.OXK.C.} G | #.u.y.1.t.n.8.n.8.u.8.8.,._ _ [ | ;.;.{ _ [ [ [ 7.2.| ` ] O.O.#.a.B.y.4.2.y.y.O.| 2.A.F.Q._.Q._.F.C.B.V.9.2.2.7.7.9.B.B.B.C.F.F.A.F.Z.9.5.4.O.L V V ] 4.y.5.o.o.#._ M M k h v z v V ] i.f.f.U.J.p.p.h.",
"G.V.s.H.U.V.$.$.] m V _ v v D ` U +.%.a.H.a.] P P @.i.%.H.~.6.! Q 1.n.A.<X9X|./.<X4X|.'.|.|.F.D.!.F.c.z.9.S.Q.Q.F.Q.F.{.F.b.9.9.2.2.2.| ] 7.-.! [ :.! v | z.a.e.a.a.C.t.d.E.OX2X5X=X!./.P.).)././.y.y.F.y.;.| | / B B F F _ | ,.2.2.x.c.A.D.y.m.n.F.Q.W.C.K.K.d.o.B } O.' } F u z M M B c ( ) !.}._.].B.a.K.E.R.E.C.C.d.9.2.9.F.9.G a n V O.y.i.t.%.%.5.4.y.9.i.Z.Z._.F.A.A.A.2.A.[.{.{.~.Y.F.V.F.B.B.9.b.9.2.2.,.O.C.F.F.H.F.Z.w.9.5.4.O.' ,.a.F.Z.C.4.4.5.| V V N N v n n G $.i.&.p.U.h.j.h.j.s.G.F.V.a.s.e.e.5.w.s.G.w.` ] X.%.t.U #.U d T o.#.9.9.F.L.B.Z.].`.G.Z.y.| | 8.9.A._._.H.B.B.B.n.A.8.{ ` [ | 3.7.2.2.9.w.t.y.y.a.9.x._.|.y.@.4.K.E.k.0.&.+.U #.w.9.5._.|.M.<.v.z.n.8.A.F././.Q.W./.P.n.F.B.6.6.6.] ;.>.>.2.9.9.n.4.' 2.B.L.].{.B.[ x Q / Q x c c x W W c x G ) t.u.M./ n F n H 1.d.M.4.8.4.,.8.9.t.O.' } | ! ! } { [ / _ _ 7.C.B.t.t.4.5.#.7.B.Z.F.Z.L.C.B.A.n.8.A.[.{.[.F.F.C.a.B.9.2.{ _ _ ,.n.Z.Z.B.e.V.S.F.V.y.5.2.| V n F ,.y.a.y.o.] 2.] V N M v v u a G $.t.w.p.h.h.p.h.f.",
".XV.5.I.Z.C..._ ^ [ { ! l N N S ` I T %.C.C.5.#.#.r.f.s.r.w.>.{ [ :.6.S.|.2XQ.e.|.;X|.'.oX}._.Q.{.A.n.A.7.B.F.e.B._.Z.F.H.V.e.5.....,.| 9.Y.C._ k M M ^ z.7.2.9.f.C.f.a.u.d.K.OX:XP.OXP.M.M.P._./.2.u.C.y.4.,.| ] [ ! _ _ F / | ;.6.n.M.W.W.n.n.F.(././._.OXE.d.O.n c / ( / F x M M B c ~ l.l.x.n.8.y.C.`.K.Y.f.k.OXK.L.T.y.a.L.a._ N v v V #.i.t.%.$.5.9.2.4.y.u.a.C.Y.|.'.x.9./.}.&X{./.]._.Z.B.4.9.F.S.D.n.;.} [ ,.e.s.a.a.Z.a.9.a.7.6.2.2.9.F.L.Z.a.$.4.#.P D [ [ L N m _ 5.i.&.*.p.g.r.i.$.e.a.e.s.r.r.q.@.$.q.r.s.3.$.5.e.Z.0.&.0.U J %.i._.&X{.B.9.i.a.a.9.5.9.9.| ` 2.7.F._.F.F.B.B.B.A.A.7.-.>.^ ^ ..#.3.e.w.w.a.a.9.B.Z.S.Y.H.p.a.w.f.f.i.g.w.U S P 5.e.#.B.Q.| ~ ,.n.P.M.P.P.D.n.D././.y.y.y.y.n.B.B.A._.B.b.B.A.B.B.a.#.&.a.K.`.K.8.-./ c x W c W c 6 W W W c x / F _ } _ O.[ M V 6.n.y.4.4.y.n.9.O.O.o.o.O.] F V / | O.F F _ 4.B.Z.w.5.a.H.B.9.i.B.V.Z.C.Y.'./.x.8.Q.[.{.[.F._.Z.y.9.2.| 2.| 2.9.y.B.y.2.6.a.B.B.C.a.B.9.2.} / / ] i.C.B.4.` 4.O.G N ! ! F B v _ 5.p.%.q.k.g.r.q.q.",
"Z.3.5.y.5.5.| | | | -.^ W ! N ^ O.] I ] o.t.a.t.t.a.s.s.3.X.^ N / B 8.|.]._.V.V.|.].|.|._.'./.}.:X%XQ.F.B.'._.9.9.~.|.F.9...#...` ` @.] ] 2.4.} ! [ [ 9.b.9.#.9.a.f.f.5.o.t.t.M.P.P.).P./.y.1.y.C.9.y.4.4.9.y.#.] [ [ _ F B [ A.7.O.8.n.D.A.1.u.P.(.(.W./.'.'.C.y.' z / ;.1.) Q Q x x ~ :.A.x.} ` 4.d.K.T.L.K.t.%.t.K.OXY.C.s.5.O.` L N B N [ 4.5.4.5.C.@XL.$.] ` 4.d.C.'.|.F.[.}.[.}.[.}.].C.9.9.] ] B.F./.Q.n.| _ 2.B.B.4.4.e.4.4.V.A.9.b.A.9.B.Z.Z.B.2.#.4.%.] ] 3.;.[ ] #.3.a.g.g.h.g.q.@.K X...` r.r.q.X.#.@.q.G.T.V.V.G.s.p.@.U Y E d Z  .6.| >.| ] 4.Z.B.B.e.B.Z.5.#.9.V._._.F.B.9.9.9.A.S.x.2.` D ` ` D $.V.e.e.s.Z.a.3.e.9.4.w.&.q.p.h.&.*.+.+.K D ` 4.F.B.F.Z.1.} ;.1.y.M.C.P.P.n.8.m.D.n.y.,.#.4.a.a.Z.'.|.{.-X'.B.4.5.%.t.f.d.I.T.B.-.x c x W c W 6 6 6 6 6 c 6 c x V B O.4.} V 8.x.2.#.5.C.y.n.y.4.| G ` 2.| / F } 6.5.2.2.4.7.s.Z.i.5.a.F.'.F.e.9.4.a.Z.Z.Y.'.F./.~.^./.F.L.Z.9.O.| { ] 2.7.A.B.B.B.9.B.F.~.V.y.a.9.B.A.9.2.;.| ;.7.9.i.5.#.4.5.%.P ] 6.;._ | #.5.i.g.p.h.j.q.@.J ",
"G.&.%.] 2.5.y.|.}.A.A.c.7.<.;.:.4.2.O.' I &.i.t.5.w.r.w.P ` P ` 9.;X5X2XXX_.F._.3X6X6X<XoX<X}._._.&X/._._._._.Y.F.F.{.H.2.] s.V.5.3. .` I ] #.#.| 4.9.B.Z.4.] P +.@.+.o.o.t.%.t.t./ F 1.4.4.u.n.C.F.C.8.1.y./.F.9.7.9.6.,.( G } ,.8.n.O.1.m.n.M.D.P.).).)./.P.u.1.4.O.1.n.n.,.) B B W ~ =.l.z.;._ %.t.y.d.y.o.I G G ' ] %.a.i.] ' O.[ v N ^ ] 2...$.s.|.<XF.C.i.#.4.4.%.d.E.Y.F.D.K.K.L.s.u.a.2.| ] >.7.m.L._.(.M.8.B.F.a.6.2...2.8.y.B.a.B._.'.F.a.C.Z.s.O.P 5.] L 9.A.B.S.B.e.5.a.h.U.h.h.g.T U ..3.s.r.e.3.0.$.q.h.].I.a.r.a.k.k.T q.@.Y f 1 : r W _ _ ] F.|.{.|._.Y.K.C.Z.'._.F.Q.B.B.B.B.n.A.x.;.^ S L ` P `  .@.7.w.e.2.D | #.U @.q.q.j.g.@. .$.q.` D D L 5.V.C.C.C.C.8.1.u.,.| 4.4.4.8.y.y.D.y.| | 4._._.K.V.F.]._.B.,.O.Z.Z.d.s.i.Y.OX_.1./ W ( ( W 6 c c W c W W c c x / Q F | O.| 7.9.2.y.Z.a.C.A.m.y.O.V F 2.| [ _ O.O.4.4.O.O.$.e.B.a.a.Z._._.B.V.Z.y.t.y.5.C.L.C.C.B.C.B.C.u.5.4.` D ! ] O.2.8.9.n.y.9.C._._.Z.B.y.7.9.z.n.6.2.A.F.8.] 6.9.s.#.G #.` V 4.B.x.S.B.9.5.i.g.U.h.g.p.T ",
"5.L I %.6.5.V.2X<XF.A.W.!.^.!.S.A.n.O.#.%.t.t.i.i.5...R D D S ` 6.L.]._.T.Y._.<X2X5X|.'.2X5XoX2X}._.D.B.H._.Y.F.H.U.].].G.Z.T.I.J.G.@.D L G G L D #.V.Z.B.w.#.P L ] ] | t.%.1.1./ u G F / _ 2.C.D.'.D.8.,.n.F.F.F.F.Q.F.O.) } ( | 1.u.8.8.L.P.M.N.(.%X)._._.Y.u.H G / ,.M.8.,./ c Q W Q W -.1.4._ ' t.k.t.G H H z u n n G ] +.O.o.,.2.[ | | 2.6.#...V.Y.F.F.L.5.o.#.O.O.C.L.L.Z.K.Z.C.Z.Z.i.L.a.| | 2.9.C.[.%X|.(.Q.F.9.6.2.#.` O.9.2.7.F.B.B.F.A.y.F.F.B.2._ 2.B.Z.H.~.Q.Q.~.F.a.w.g.f.h.U.U.h.w.J J ..>.e.q.q.r.s.f.a.t.U +.w.*.q.g.k.q.T Z m < = C v #.C.T.Y._.|.|.T.Z.a.C.F.V.S.V.A.F.F.B.F.9.2.^ a b S b S ` K D ^ S D ..] #.@.*.p.w.*.r.p.r.q.$.$.P P ..] 4.s.C.C.C.P.y.O.O./ F | O./ ,.8.9.F.y.| ' 8.Z.K.Z.V.V.H.|.6XT.y.F.s.i.5.y.i.4.7.) Q c W ) ( / W c W ( ( ( <.) Q Q / G F n F 2.A.y.8.4.8.y.D.C.7.} F V G ' | / F } 8.4.2.$.| $.a.s.a.V.Z.F.F.Z.a.4.%.%.4.a.C.C.y.y.B.s.C.a.5.5.| V ! | ,.#.2.8.4.4.B.C.F.B.9.y.9.9.z.>.:.8.z.A.n.6.] 4.s.B.5.d | Z.F.H.~.Q.~.'.Y.B.i.f.h.U.U.U.I.",
"G m O.C.Z.Z.@X+XZ.Z.B./.[.[.(.Q.Q.x.| 2.] L #.%.o.%.L V L B B V L #.'.]._._.|.|.4X4X9.B.2X6XoXoXoX'.D.C.K.C.K.K.E.a.@.%.*.g.p.g.G.G.5.D L D m J P 5.Z.Z.H.T.H.3...{ ` V.F.7.Q Q ( / / ) / F 2.D.'.L.M.8.1.1.u.8.C.P.L.d.4.] ) 1.6.| 4.9.y.n.u.n.N.=XP.P.M.K.K.M./ 6 z B :.:.=.W c ) :.Q Q ) :.:.-.-.9.Y.y.G n z z x M / _ ' O.] _ 2.7.b.a.#.9.9.2.y.L.Z.F.C.$.L L ' #.y.F.Y.F.C.B.Z.y.a.5.s.F.#.| 9.9.L._.].|././._.F.y.2.$.$.#.4.9.A.S.Q.W.A.B.S.L./.n.9.u.4.V.Y._._.~.~.[.{.'._.V.V.Y.V.s.Z.U.f.%.%.r.....$.3.e.Z.G.V.+.X.%.i.$.X.q.w.w.*. .d & # $ < ] B.H.F.n.F.|.|.F.9.4.9.S._.8.5._.'.C.C.B.4.| L d d H d J 1 & : < b ` ` J P &.r.$.q.w.f.p.0.$.0. .3.V.V.V.a.V.H.F.9.,.} [ } ) | [ F O.n./.P.y.,.} } 4.O.4.C.E.'.].|.Y.V.a.o.o.t.%.u.t.4.-.} :._ -.-.) :.) ( <.<.M.W.,./ F G / | 7.9.x.'.K.u.a.y.9.A.D.n.6.| F m L | _ ' 2.4.' ] $...$.i.i.B.V.d.Z.Y.a.2.' O.O.9.C.C.A.9.5.y.u.t.5.e.e.` _ ] O.4.4.9.5.2.2.e.a.B.e...2.9.A.A.A.F.A.W.Q.z.1.n.B.2.a.a.#.C.].]._.F.Q.}.{.|.{.F.V.U.V.s.G.U.",
"` L 5.Y.|.|.U.Z.G.I.L.Y./.(.(.}.Q.x.>.>.m v ] 4.t.y.O._ V _ ;.e.e.5.{.@X_.F./.|.:X<X|.|.9X9X3XoX'.|.F.K.d.%.%.i.g.@.m H Y k.k.g.h.G.$.] L _ D y t ` $.Z.`.H.Z.a.a.e.2.&X4XQ.~ Q c.) Q x z v 7./.P.M.z.z.:.<.z.C._.L.K.y.t.1.' O.1.1.z.n.n.8.,.D.>XOXOXM.u.u.u.C.) n x B ^ :.~ j c -.( c W m.!.=XQ.n.Q.'.a.} ' F / B Q ) ,.2.#._ L | B.`.s.5.5.9.B.B.B.Z.a.s.$._ G m _ 2.C.L.L.L.Z.C.C.d.+.P $.4.e.B.Y._.L.Z._._._.Y.F.w.#.#.2.5.V.B.9.A.Q.{.[.{./.S.D.u.,.5.L.}._.H.Z._.}.[.[.{._.H.F.H.Z.B.s.i.5.%.w.Z.V.3.X.3.3.s.G.V.3.` ] @.$.$.w.p.f.p.S , & % = % r #.B._._./.[.{._.A.3.A./._.K.C.'.'.Y.C.Z.F.5.$.U f H E m ; + O % s I ` L _ ] #.f.f.w.r.*.@.w.5...e.F.V.B.5.2.Y.|.F.,.} n.:./ M z z ,.C.C.M.y.n.) } 1.y.n.Y.'.Y.F.a.#.O.I v H o.t.y.Y.y./ 2.S.,.[ [ } =.( ~ ~ / } -.} O.( _ x.n.B.n.A.A.K.L.y.M.n.M.n.D.8.' ' ' O.O.L ' 4.O.` | ..3.7.5.w.5.a.V.B.H.B.O.` _ ' 4.B.C.C.C.a.B.s.a.#.] #...] O.9.8.9.y.5.4.$.3.5.e.B.x.9.x.c.A.Q././.Q.[.A.8.8.y.O.4.y.V._.T.L.s./.^.[.~.|.{.~.F.H.Z.V.s.e.",
"4.y.2.] 4.y.5.5.H.`.y.u./.[.W./._.W.b.;.V m P 5.y.y.B.O.! { 9.b.4.] 9.Z.B.B.L.'.Q._.|.oX<X2XOX'.L.C.C.B.4.o.F ' i.5.d d T %.t.g.i.U a ] >.L y r m _ #.F.H.a.a.V.e.B.V.S.}.*X:.:.N.) ( Q x _ A./.D.8.n.n.<.1.1.m.P.d.t.u.%.o.O.4.9.7.6.9.y.u.) M.).).E.M.O.n n _ F n x h W l.:.=.W ~ W W z.:X:X:X4X@X3XoX#.O.1./ v c x Q } u.Z.4.{ ..Z.b.#.O.| 2.a.8.#.O.o.o.] #.| m V 2.B.L._.L././.L.Y.V.5.5.Z.Z.9.a.Q.y.6.S.|.oXY.C.%.#.O.o.| 2.4.b.n._.&X|.&X|.}.[.D.u.C.'.Y.Z.Z.F.~.}.[./.}._.~.Y.F.Z.B.a.%.` ` 5.Z.{.V.] L ` 3.s.w.$...P ] 3.3.7.0.5.w.@.S p < t t y L 4.~.{.F.Z.C.F.A.B.F.F.F.L./.'.'.Z.C.a.9.4.2.O.J s f d t % % : d T @.+.` ` %.e.3. .P  .%.&.X. .e.Z.J.Z.$...3.{.{.x.z.M.-.~ B B _ y.D.M.4.8.M.;.( / ( 4.Y.`.Y.B.#.D B V z z O.%.8.9.2.] 5.d.a.C.C.8.,./ Q Q ( } V B B -.8.D.S.S.A.B.D.D.M.y.D.D.D.N.z.:.v B L ] ] _ L ` } _ _ 6.5.y.a.y.3.%.5.a.a.a.y.4.} } ,.y.B.S.C.S.Z.C.C.a.5.5.e.9.2.O.,.O.8.4.O.#.3.] ..2.2.2.z.A.A.x.W.W.W.Q.%X[.!.B.9.o.5.Z.d.4.F.F.|.&X|._.}.`.'._.F.Z.a.y.$.",
"L.2._ m O.] P ` 5.L.B.y.D././.}.[./.~.b.} V ] 9.t.i._.B.^ { x.9.4.2.a.K.Y.F.S./.}.|.oX|.'.Z.9.K.'.Y.C.u.O.} G n ` 4.o.o.%.&.d.f.5.m r ] 6.! h N 2.3.e.H.{.V.5.4.V.{.Y.~.~.A.8.l.v.:.N.:.B _ 8.S.M.1.1.M.z.<.<.n.C.t.o.%.o.I ' } ,.6.n.9.9.8.,.m.P.).P.u.) 9 e n B g e c ~ z.z.z.:.-.~ ( l.!.5X5X9X9X].d.y.'.4./ M x c M ( B.L.C.e.B.V.3.` n v } O.2.4.i.5.] ' 4.4.y.n.F.F.Q.{.[.L./.'.]._.a.5.e.3.3.Z._.[.F.L.'.oXE.V.5.I L m G ` 2.7.e.Q.|.7X5X4X4X}.D.9.F.'._.Z.B.H.~.S.S./.|.2X&X'./.Z.5.#.| ' $.i._.~.3.D m P r.s.q.$.$.X.+.3...{ q.5.w.f.w. .s S P ` $.V.Z.B.Z.F.Z._.Z.a.F./.F.L.L.L.C.9.a.B.s.a.O.| G 0 a f d p 1 2 Z +.@.U n m ` ` ] ] L ] 3.#...5.H.H.Z.V.e.a.Z.H.F.x.6.1.1.x.,.! ( 4.m.y.) :.P.u.} G G %.Z.L.L.F.x._ ! ( u B B ` y.O.D O.+.5.t.a.#.| 7.| ~ ( _ ( x x c / 8././._._.C.P.y.4.C.M.M.z.M.M.-.e v O.O.2.5.2.O.#.4.#.B.e.6.7.4.5.i.B.C.y.a.Z.n.n.y.a.n.B.S.M.n.S.F.L.Z.a.e.B.4.5.| | ;.4.O.F ] | ` m k v v } x.x.z.:.8.c.!.~.&X&X/.8.' 4.C.a.9.s._.}.[.|.&X4X5X-X{._.C.9.#.] ",
"#.n u v _ L m V ] B.Y.C.Q./.}.%X(.W.^.b.| D L _ 5.T.`.Y.5...7.3.5.V.T.'.L.Y.].9X|.6.C.}.OXa.O.y.Y.2X'.O.} F h n B o.y.%.#.%.5.2.4.2.} | | [ | | 2.x.S.~.~.7.` D 5.Y.T.F.XX{.A.l.l.z.N.6.( N ! [ ;.) n./.m.6.8.n.C.y.y.i.4.5.O._ _ :.A.B.4.4.y.n.M.M.n.) B m v / B e q g l =.{ 6.6.l.-.A.l.9.{.&X@X'.Z.u.M.OXu.F B B W Q -.8.y.B.Z.F.C.a.O.G | 9.x.F.L.F.L.%.] %.#.u.L.L._./.}.}./.D.[.}.S.4.{ ` _ O.F.[._.L.L./.'.d.4.O._ ! V ^ { 7.A.F.~.`.<X3X2X|.B.O.4.F.'./.F.B.F.F.9.A.S.D./._.Q.{.L.4._ G ' +.O.4.2.| J L $.@.@.R f t Z P D S N $.s.r.w.3.+.]  ...$.f.]..X'._.T.T.Z.L.Y.|._.#.9._.'.B.4.5.C.'.Z./ B z 7 e n G P H E U o.] G v a M N ` 4.5.#.3.5.5.w.e.w.+.3.J._.Y.{._.A.7.7.x.A.8._ M B B / ) m.%XM.[ x V 4.a.Z.u.i.Q.A.2._ v M Q V | ] D v m I o.%.O.` | 4.-.Q c n c F ) ) m.}.D._./.'.K.u.D.M.8.M.M.M.M.<.;.-.} ] ] 7.$.4.K.E._.L.9.2.9.B.B.V.F.Z.5.u.C.n.y.D.B.9.9.A.C.n.y.F.Q.B.B.9.e.5.9.6.2.,.} _ _ _ _ ] _ v v v ! ,.A.m.8.x.S.^.*X&X}.F.7.2.y.C.B.9.4._.{.A.[.[./.)._._.}./.4.` G ",
"n n v a v D L m P 9.Z./.|.|.(.Q.W.S.S.b.3.[ L m ] Y.`.F.H.9.e.B.B.i.a.Z.Y.2X9XuX|.' | Z.'.L.y.t.y.Z.y._ ( / c B F ' %.y.5.5.5.9.y.A.x.B.7.x.A.6.,.A.Q.Q.A.{ B v ] s.F.@X{.Q.x.6.6.l.6.9.,._ } ,.8.8.M./.A.8.1.4.y.C.d.y.y.a.t.4.7.z.S.F.u.y.M.y.1./ F ( B M M ! / c j j j w W >.x.x.;.D.&XL._.|.E.C.d.K.E.C.o.n M g B ) z.9.B.C.y.#.O.a.y.4.4.C./.}.oX'.L.Z.5.o.G m ] %.a.'.oX}.}./.[.A.9.6.2.>.[ [ 7.Q.Q.F.Y.Y.K.d.u.%.| [ ^ 6.!.^.Q.F.S.F.~._._.B.} O.O.4.L.Y.a.B.S.Q.Q./.D.D.n.z.D./.C.8.2.4.5.%.V F 9.a.2.@. .K A f % % t a y 8 w D 3.3.$.#.$.$.w.$.s..X.X`.U.C.d.L.Z.I.`.2X_.2.2.F.'.C.u.%.5.d.4.B V M 4 r G I L o.T ] +.$.] G N B V ..9.4.2.e.B.e.3.` ^ D ..Z.U.`.H.F.n.>.6.l.6.z.,.Q ! / ,.n./.%XW.-.! Q ' | 2.#.Z.F.C.A.| B M M h h V N r v G o.%.y.B.B.M.u.} / x ( 1.1.z.%X).}.F.C._.F.C.P.n.m.M.P.P.M.M.D.1.z v | #.#.a.Z.L.Z.B.Z.4.9.9.a.L.L.C.t.y.4.O.,.1.1.4.n.D.P.D.M.A.x.x.e.9.x.B.x.n.n.2.-.,.,.| F L v V [ / B } n.A.A.W.S.^.&X&XQ.A.9.4.C.'._._._.|.*X;X:X;X/.M.z.M._.L.8.2.9.",
"n n a v y m _ v _ F.|.|.}.[.W.A.A.A.Q.!.A.>.^ V ] y.7.#.S.H.`.F.V.Z.'.U.T.`.3X3X'.Y.L.P./.K.y.5.5.5.#._ / / B F ' #.t.t.9.y.b.Q.F.A.B.F.~.[.~.W.A.^.Q.b.z.[ M v n ' 4.Z.{.XXF.z.=.=.:.6.;.| ,.6.8./.oX/.m.O._ ' 4.C.d.a.&.%.+.%.y.u.8.4.u.OXM.t.' z G / V M ^ Q ( W ~ ~ =.:.>.^ 9.A.n._.}.Y.T.d.t.E.Y.OXE.P.1.z e x / :.n.D.D.a.5._ L 2.B.n.y.F.Y.C.F.Y.C.s.i.9.O.I #.o.] C.OX'./.D.M.m.z.x.W.Q.x.;.A.{.}./.L.D.Y.D.3.6.7.9.z.Q.&X*X~.F.Z.Z.H.F.i.#.| ,.} } 9.B.9.9.9.Z.'._././.m.,.n.D.8.2.9.V.a.4.G ] Z.F.i.i.f.q.@.Y 2 2 A S b t 8 t D #.w.w.3.w.r.w.e.I.Z.w.5.$.i.i.d.V.T.].'._.L.K.K.C.u.5.5.#.` n z M z v ' O.O.O.O.%.4.9.,.[ _ _ O.8.9.3.9.B.b.b.7.V N s D +.a.H.H.H.B.7.-.-.>.9.;.[ [ } 1.W.*X*XW.=.B B ( 4.y.Y.'.C.9.4.| } ! M W ^ W j r r v d O.d.i.4.O.F F F ) ) ) ) ) 8.).'.n.B.F.D.D.,./ 1.M.P./.D.M.m.M.x.9.9.5.y.d.d.d.t.y.d.5.4.9.y.a.C.C.A.y.n.8.4.9.1.,.y.P.C.n.8.1.8.z.x.A.F.A.;.| | [ } ,.O.2.| F V _ ,.8.2.8.8.8.S.F.Q.~.{._.W.Q.F.y.n.F.B._.'.Q.|.5X4X:X%XD.1.n.P.n.2.y.C.",
"F [ V n _ m _ $.B.<X<X/././.D.n.z.A.[.Q.A.x.7.3.9.Z.V.H.Y.H.Z.e.5.9.2.%.i.5.f.OX|._.L.D.C.E.|.F.V.e.G z B ) ( ( _ F G O.9.Z.A.Q.Q.Q.Q.A.F.[.}.*X^.^.!.^.x.} } ] n n #.a.#X<X|.[.l.8.D.m./ [ ,.8.8.y./.C.9.' a a G 4.9.%.%.%.o.%.t.4.4.` o.u.t.u.) F / ) :.;.6.-.) l.N.N.^.^.A.x.7.7.Y.}.Z.K.4.] t.'.oXE.E.L.y.F c Q ( -.[ M.'.C.5.4.4.C.B.a.F.L.Z.C.C.T.a.y.a.s.d.y.t.Z.t.d.'.}.P.z.8.x.Q.Q.[.*XQ.;.x.Q.Q.Q.'.Y.L.Z.7.;.A./.[.%X_.{._.].@XY.$...6.4.4.} ,.y.B.n.9.2.e.B.L.'.}.M.8.n.m.8.8.2.y.a.y.5.| 5.L.T.'.R.f.p.@.X.Z Z K K K S 8 8 b q.w.$.5.f.s.5.$.5.&.$.+.#.$.5.%.%.a.Y.E.L.C.C.y.V.T.V.i...u 9 h v z F _ L L o.$.u.7.B.9.6.] O.4.7.9.B.S.S.b.7.{ V [ ` m S e.V.`._.{.'.9.x.W.A.( _ } ;.;.8.}.=XN.=.Q B F y.L._._.s.7.2.;.} | ;.6.6.{ ! M u u n I o.o.O.) H u ) ) O.} ) ) 8./.m.n./.L./.P.D.1.) u.).P.D.M.A.M.A.F.y.t.s.d.a.u.t.y.t.a.a.d.V.a.y.9.D.D.C.D.C.A.C.y.n.D.C.8.| -.<.7.7.9.S.A._ _ ~ ;.9.9.2.B.7.] [ / _ C.'.M.4.C.F.b.A._._.S.F.F.F./._.7.;.x.A._.%X5X5X5XD.<.8.m.y.8.4.y.B.",
"B 4.| 2.9.6.#.9.F.'.}.F.S.n.A.D.D.(.Q.W.A._ | B.s.Y.XX+X.XJ.B.$.] +.L s S ] a.L.Y.C.L.|.C.F.`.H.Z.5.J z / } ~ / G a %.E.Y.Z.F.8.6.Q.C.y.C.L./.F.A.W.Q.%XQ.c.x.;.m _ %.Z.@XE./.D.n.}.;Xx.! _ ,.9.y.C.9.8.4.| B z n 1.y.%.F ' %.t.y.%.] H F } 1.1.} ) ' / } 8.8.:.<.W.*X).D.8.t.4.] n O./.S.Z.K.8.F.'.}.D.n.K.M.' c Q -.=.-.C.P.C.y.y.y.9.5.y.K.Z.K.L.Y.Z.B.e.b.s.t.t.i.OXK.d.L././.D.8.W.[.[.&X&X[.z.b.^.Q.F.'.Y.L.n.8.A._.[.Q.~._.H.B.T.R.e.L V P ] 7.9.9.D._.B.2.>.b.Z.Z.{.|.|._.W.A.D.C.n.B.e.V.Z.i.Y.'.`.`._.U.f.0.P  .+.@.P E I 1 & 0 D D m y.s.#.%.5.&.%.+.` o.] U U o.t.Z.K.C.Z.'.y.Z._.Z.a.| m w v V M V V m ] y.e.7.7.;.3.B.B.y.y.y.5.4.2.2.6.8.,.| ;.] G _ 4.C.Y.Z.Y.D.x.|.4Xx.! ! { ;.7.x.6.l.c.c.8.B ' y.L.L.K.a.4.,.} B V O.m.4.[ } [ v 9 r 9 r n c g g B ~ ,.n.u.1.u._.5X/.[.^.~.W.(.).W.8.m.P.M.C.D.m.W.W.x.} 2.y.t.u.O.[ ' O.#.a.Z.d.5.n.8.,.8.A.D.P.C.P.C.C.C.C.8.6.;.8.7.9.B.B.7.>.] _ | ;.2.6.7.5.2.| [ ` 9.5.' o.a.Z.a.V.Y.F.S.C.C.B.C.F.L.1.-.6.W.{.&X5XrX4X/.D.A.D.D.y.B.a.",
"z / { | >.b.B.9._.OX'.F.y.A.Q./.Q.Q.[._.A.| ] +.y.i.r.e.G.G.Z.2.#.#.I m s @.K.Y.K.Y.'.Y.y.V.F.B.5.` L V _ ] V m L U L %.Z.Y.'.F.F.F.B.a.C.a.B.D.x.z.x.W.!.W.9.6.| } 4.d.L.oX].C.A._.Q.;.B | ,.6.B.n.8.2.;.1.-.B B ,.4.1.F ' 4.u.u.4./ F x n G F } -.F B ! 8.A.-.:.(.:XOXC.y.C.#.G a n | B.L.'.'.F.F.}././._.C.1.} ( ) -.z.D.D.C.D.4.| L ' t.5.5.y.Z.C.y.2.3.9.w.*.%.0.f.L.K.K.L./.W.n.m.^.[.{.&X[.Q.}.Q.K.Y._._.K.D.F.}.*XA.~.-X<X|.D.s.Z.V.X.L L | x.n.m.S.F.C.7.2.9.e.Z.~.|.|._.W.F.S.y.7.a.9.a.Z.F.Y.K.Y.`.'.Y.L.a.5.+. .@.@.T U U p % - , s #.%.$.%.%.%.%.o.] o.o.U L #.d.C.d.Z.L.K.y.C.Z.9.#.V V a N _ N m G G n P 3.9.9.9.B.F.Z.K.F.a.9.2.2.6.,.2.9.9.,.| } ] %.a.f.OX].y.B._.Q.2.B [ -.;.9.6.:.;.[ c.8./ F 4.K.OXn.] _ ' ` _ ' u.C.4.' } F n h q h g / [ :.=.~ =.1.P.P.M.1.C.;X}.[.}._.^.}.}.(.(.D.D.C.M.M.D.W.W.A.2.4.8.4.;.' G F ` 4.5.a.4.B.y.9.n.9.A.K.P.C.C.C.P.F.F.M.x.6.x.A.A.e.9.2.O.| V B _ 2.3.] | 9.3...[ 6.B.O.G O.C.a.d.Z.Z.s.5.2.4.4.8.n.1.;.6.n.F._.&X5X4X}.D.S.B.a.9.B.a.",
"n ;.| _ 9.<X7X<XtXrX;X_.B./.}.D.Q./.(.[.{.|.Q.6.2.5.9.V.e.H.@Xa.#.3.4.o.L 4.Y.Z.Y.K.Z._.@X_.F.V.4.` L V 2.6.D [ ] o.U P o.4.e.e.V.F.Z.Y.K.a.B.Y.F.A.A.W.[.{.A.S.C.,.4.a.E.OXZ.L./.A.9.! Q 9.B.2.| | [ [ [ ,.8.O./ ] ) F H n V / o.( ( B x x c c c Q W W B [ 2.2.8./.'./.8.C.'.u./ v u r _ _ O.C.4.u.P.C._.OX/.M.,.V c ) <.m.P.P.n.4.A.7.| 5.4.o.I O.t.#.| 3.3.X.] +.I %.y.n.C.D.M.(././.Q.Q.L._.|.XXF.5.a.L.B.Y.Z.B.A.|.qXeXtXrX3X|.].].U.F.5.] V ] 9.F.L.S.B.n.B.e.9.9.3.b.H.Q.F.F.B.4._ L #. .` X.V.F.D.K.F._.].Q.e.9.2.5.#.I H L U J : & a | %.#.%.%.+.#.t.%.+.#.4.#.#.t.K.s.Z.C.Z.F.oX_.Z.y.O.L G v ....m L I J m m J | ..#.s.F.L.L.Y.V.B.F.B.B.9.x.B.F.9.B.B.#.4.t.K.oXZ.L.F.A.B.( W 6.A.:.:.:.) Q ~ ( ! V G 1.C.d.y.5.t.#.| O.4.D./.D.z.1.) ~ ) l.( Q 1.m.W.x.:.[ } ,.y.t.y.P.2X5X|.{.W.Q.Q.(.}.[.}.(.).).D.A.(./.A.B.A.9.} / ;.' } O.y.A.2.' B.2.O.4.y.m.C.C.d.u.C.D.P.C.C.A.x.9.x.3.2.B.9.2.] V v V ] ] r 8 V #.9.6.2.s.y.#.5.t.5.%.#.O.] | | O.4.y.n.8.,.,.,.-.;.A.{._.F.F.A...D D #...",
"2.] [ O.~.<XF.F.oX2XtX2XS.F.L.S.D.(.%X%X{.{.{.B.B.T.Z.r.X. .a.$.2.Z.Z.2.` ] 5.i.I.F.L.oX3X<XXX_.B.B.Z.O.e.V.#.` +.] ` ] G _ _ | F._.F.I.d.4.a.'._.A.F._.{.[.F.F.'.5.4.C.d.d.#.4.F.S.;.B N 8.A.[ v M N -.,.-.,.} ' F O.G i x B ! ,.,./ B n z z c c W Q Q ~ ! _ 8.y.C._.'.P.C.K.y.4.L n v v z F 5.4.t.y.M.'.oXOXOXC.} / / z.D._./.D.C.'.|.n.| O.I I ] %.y.B.F.3.` o.%.' _ o.' ,.1.,.M./.Q._._.'.@X2X@XZ.#.%.s.y.e.F.B.>.B.3XyX6X#X].L.T.U.G.V.&._ m 2.C._._.Z.n.9.B.F.~.e.....b.B.a.B.4.2.` m m m D | F.L.L.'.F.A.A.n.7.x.B.9.u.$.+.t.#.m 8 0 S O.o.] o.%.+.o.+.O.#.t.5.#.+.2.5.9.V.C.F.].@X@X].F.4.7.a.| 6.b.] _ ` U J m m V D | C.'.K.V.C.i.C.'._.B.A.F./.F.B.F._.7.%.a.a.d.$.9.F.D.;.! M l.^.^ M W j ) W.<.Q z H t.'.L.d.L.'.C.%.#.%.C.P.}.Q.m.-.) l.l.-.=.6.W./.P.1.,.B / ,.1.%.L.2X<X*X[.W.Q.D.W.D./.}.}.[.).D.m.W.P.F.A.B.F.M.1.,.5.y.u.9.A.8.;.,.,.' [ O.4.u.M.y.1.4.4.8.u.8.n.n.B.B.9.e.B.4.] N v v m D m a 8 y [ b.9.` _ #.C.K.i.5.o.L m n n G ' 2.8.C.n.,.6.x.>.! { a.B.y.9.#.| D m m m ",
"[ D { ] #.` [ F.}.}.|.oX|._.D.C.A.D.[./._.L./.Z.B.J.f.%.@.U  . .P 4.5.` J ] O.$.%.Z.3X`.V.~.F.F.Q.{._.9.5.w...` ` ` P ] ] | #.4.K.`.F.Z.s.$.4.F.Y.F.a.C.|.'._.Y.].B.4.t.$.#.9.F.b.8.b.c.:.A.Q.[ B M M =.1.,.4.u.} F / G c B } 8.6.;.;.x.<.( x Q W Q ~ ) M e z [ ,.#.4.u.y.%.%.Z._.a.#.[ F _ [ 2.8.y.K._.OXOXL.OXP.8.;.,.n.M.D.M.M.).oXOXC.' G F / ,.4.C.V.y.i.9.u.O.G ` / n G ) ( 2.n.y.y.V.'.].T.].Z.5.3.#.` ..9.| _ 5.].@XOXR.R.U.h.G.R.a.$...2.Z.Q._.{./.L.S.Z.V.Z.V.3.3.9.B.6.#.3. .` L m S X.#.a.F.B.Q.'.Q.M.m.M.W./.B.n.a.a.9.#.m t d o.t.@.o.o.%.%.o.T +.#.5.%.] ] #.O.O.O.i.].Y.B.F.A.B.F.L.F.3.6.3.] K U P D L P ] #.4.Z.'.F.Z.Z.i.B.Y._.Z.a.C.Y.L.F.Y.`.C.4.5.$.#.a.F.b.l.N.N.:.!.(.^ W W j :.*X>Xn.1.M.'.'.K.a.d.4.] #.%.o.4.E.K.D.8.N [ z.<.:.;.,.n.1.O.O.[ z F _ n F L.OXoX@X'./.[.[.).P.M.Q.(.W.M.P.P.C.L.Z.C.d.L.}._.B.t.t.9.y.A.x./ / [ [ / ' O.#.,.1.%.O.| ,.4.,.2.x.y.4.#.5.9.#.] m u s n n n v 0 9 N ;.2.,.C.L.E.`.@XY.4._ m u a n L 4.4.t.u.n.n.8.1.,.;.7.9.#.] +.P K D S b ",
"B ! D D N v F 7.A.'.}.'.|.L.B.B.M.W.>X;X'.L._.Y.5.w.a.r.5.%.s.I.9.9.' V } 5.5.U m %.E.Y.V.H.B.W.{._.9.#.a.5...] P ^ ` X.2.$.5.y.d.Z.V.Z.L.i.5.5.C.Z.y.Z._.T._._.L.Z.3.] ] 9.a.B.Q.A.[.*X*X:X%X6.W M W ~ z.u.M.u.1.o.G c B ( z.x.;.-.<.8.z.,.) ) ) W W W W B h h n n u L O.4.u.K.].Y.i.a.4.] ;.9.C.C./.}./.u.d.P.'.K.n.8.n.n.D.'.P.OX<X|.y.G n B v 8.K.P.C.$.O.O.] / F ' L B / ' / [ 4.4.5.y.a.g.w.5.5.$.] m m m D m ` $.s.f.i.g.p.i.k.a.U.i.%.] #.B.'.|.&X|.oX`.G.a.a.a.4.e.B.a.$.] ] +.+.+. .U 5.e.V.F.4.6.b.A.m.M././.S.m.8.y.B.s.$.J d I +.&.&.%.+.%.%.+.%.t.@.4.] V _ | O.P m #.Y.Z.a.V.y.S.F.F.6.;.w.$. .] P P ` ` ..3.5.a.C.K.Z.Y.Y.V.i.B.Z.F.a.C.L.Y.Y.Y.I.Z.5.....5.a.B.~.S.=XwXwXwX*Xc.W j j :././.1.1.n./._.4.] | O.L m n G G G o.4.| ;.W.W.2.| ,.8.O.F B G z v [ _ v 1.OXOX$XoXK.B.'.;X;X}.D.D.W.m.W.).L.E.I.f.f.d.a.y.C.F.C.4.2.4.8.[ / ( B F ) / F F / o.,.} } O.2.O.,.8.9.2...$.] _ ` _ F v s n m v h v M _ 2.A.F.F.L.Y.L.V.i...L a a m V B G 4.M.A.4.6.6.8.8.9.y.$.] ]  . .+.X.U ",
"m { ^ b v v v v ( C./.oXT.B.u.B.M.D.).'._.}.@X].e.$.Z.U.h.Z.V.V.B.Z.8.O.9.5.i.] L ]  .#.e.A._._._.[.A.6.B.i. .U S S _ { 2.#.] 4.B.C.6.G.].F.i.t.a.K.Z.`.R.C.a.V.e.F.e.m D ..5.B.~.S.[.:XwX*X=XW.<.) [ ,.x.[.).y.u.F z z 8.A.S._.F.4.4.4.x.n.z.<.-.~ c c ~ ~ ~ / ' _ d n | y.5.9.Y.T.h.g.5.L | S.L.9.%.u.1.#.t.d.E.'.P.D./.P.P._./.OX;XE.4.` _ :.1./.OXOXC.%.I F / | | [ _ ' | ' G z F ] %.i.i.] L P X.` ` m V ] D ` s.&.*.p.k.p.i.K S @.*.] %.$.#.a._.|.&X|._.F.C.a.a.$.#.a.Z.9.O.U P o.$.w.w.&.f.V.V.Y.L.a.4.1.8.n.P.M.n.u.8.9.L._.y.J J T T %.*.*.T o.+.%.&.4.$.4.#.| O.] %.] J ` X.+.w.B.F.F.Q._.A.2.b.5...U m D P ` 2.2.] 3.C.C.y.F.'.H.B.i.V.F.Z.Y.Y.a.a.V.e.Z.5.D D 2.9.V.{.S.*XwXwXwXwX*Xz.) ~ ,.S.C.4.] n ,.D.5.2.[ _ ! v n n d s a m B.|.[.F.n.,.,.} z M B z N } 9.,.;.A.oX'.E.I.C.t.F.'.P.D.C.C.M.D.W.P.t.%.k.k.g.g.d.a.d.s.A.n.2.[ | [ z.8.( Q ( ) / } ,.8.} _ ' } O.O.O.4.d.5.+. .D P O.] m u v ] O.] [ ! _ ;.A.'._.L.L.Z._.{.'.B.] F _ F F F F I | O.[ } n.D._.F.9.#. .U  .@.i.p.5.",
"D [ D v V N ! M _ } / | s.C.4.n.L.D.L.}.@X|.Y.F.a.s.T.$XR.R.].E.s.7.9.S.Y.a.a.5.+.+.] #.2.B.F.8.Q.%XA.2.6.| s m b y b V { 2.` G O.a.a.Z.U.B.i.s.g.K.Y.K.I.5.3.e.a.J.a.] { ] 3._.{.W.:XwX:X:X[.Q.m.6.z.8.n.D.OXd.o.) G n V 8.C.B.t.#.L ] 8.n.8.-.) ) W W -.-.<.1.} } L n V ] | #.a.f.I.I.5.D [ A.n.u.#.) O.,.O.%.d.L.u.6.n.L.P.F ) y.M.#._ ' 8.z.8.D.).d.t.u.%.] F -.;.] #.2.O.| ' n n G ` %.w.X.S L ] ] _ L ]  . .p.I.s.0.@.T @.U J m s d L .._ v L 6.F._.].Z.a.a.e.5.5.4.9.a.B.5.O.$.@.] @.a.a.V.V.V.Z._.F.A.n.n.M.M.M.D.m.n.8.C.|.Y.U U @.+.*.%.%.%.&.t.5.i.a.5.4.2.9.a.4.t.%.+. .] ..#.b.S.7.Q.}.n.2.2.| s m v a N D | 3.] _ $.a.d.Z.H.V.a.V.f.K.Y.I.K.5.%.w.a.H.s.] X.` 5._.}.S.*XiXwXwXwX,X%XA.z.9.O.O.y.,.G O.9.A.x./ B _ B N u e n v a 9.F.F.u.O.4.4./ / B x B ! ;.2.A.D.L.C.a.'.OXK.y.K.n.C.8.1.1.y.m.8.1.o.H 2 H E +.i.i.a.9.y.6.| ,.7.9.x.A.z.8.1.1.,.( :.,.;.,.2.O.O.O.] O.5.2.#.#...#.4.#.O.I F #.y.B.n.2.6.A.F./.}.'./.F._.|.<X{.F.C.9.| _ ' %.' F ] O.O.D.[._.Z.B.w.5.0.%.] @.s.s.",
"V ^ ^ { _ 8.4.B ;.;.B _ | Y.Y./._.H._._.I.R.I.f.p.f.G.0.f.G.'.a.| G _ %.5.#.#.%.o.%.a.Z.Z._.'.Q.}.[.A.O.F u v m V _ v N [ #.` n J U o.t.a.V.Y.`.H.s.r.3.5.e.a.Z.H.Z.e.] [ 2.A.2X;X/.;X5X5X;X}._.L.B.9.;.>.b.F.F.n.O.} n n 2.B.i.O.d n [ 4.n.A./ / <.<.-.) [ ,.,.8.7.9.O.] _ _ | 3.V.I.f.O.V 7._.z.7.A.W.}.F.2.%.t.5._ M [ 8.>.! F [ ,.| O.u./ z n B ,.4.4.2._ B ! B -.;.{ >...2.#.] _ D D X.5.a.3...| { [ ` ] | $.5.w.r.@.T R D S m m a y v V B v M | A.L.L.Z.g.&.3.e.2.#.| 4.a.9.y.a.y.O.] a.9.4.#.e.F.B.a.n.n.A.Q.!.m.z.<.<.8.8.L.C.L L ` #.] #.s.t.$.9.4.3...| ] _ ' o.] o.#.O.$.5.B.B.Y.'.Q.}.[.M.O.F a v m m ^ v N ` 2.] S I o.#.9.B.V.`.`.H.s.i.5.5.y.a.Z.Z.H.e...{ 2.B.2X;X}.5X6XqXqXqX<XoXF.3.] J P 4.Z.B.| ;.7.;.Q W -.-.N x e r w v ] y.u._ G 1.,./.M.1.<.;.,.6.l.c.n.u.u.%.d.Y.Z.f.K.a.4.} ) [ ( u 4 9 u - $ % > i G 5.9.y.9.9.4.4.7.4.4.x.x.y.n.8.<.,.:.,.1.8.9.y.y.9.$.| 6.3.6.V.V.a.9.2.4.#.4.u.C.F.F.x.x.D.C.Z.C.y.x.Q.}.&X|.|.F.A.A.9.2.6.2.m k G ..n.A.F.F./.C.9.d.C.5.#.#.s.a.",
"^ { >.3.} [ B / b.9.{ { | B.C.Y._.H.e.e.5.f..XJ.s.G.f.p.$.+.+.#.m v n m n d d n H ] 5.Z._.2X<X|.;X}.D.[ u z v n m V V M N [ N s d a H 4.B.Z.].T.J.J.e.3.$.4.F.H.4.2.9...3.B./.4XoX>X;X;X}.Y.F.Y._.V.e.b.B.F._.[.P.8.4.O._ u.C.t.+.V G O.n.M.M.-.Q ( z.<.Q / 8.y.7.a.a.V.s.8.| [ 7.F.Y.%.` ] n.oXF.;.A.|.5X2X_.Z.d.4.V h h M B L V B F [ } F 9 r x n ' t.4.L v r x M ^ <.x.7.9.V.e.#.5.w.$.$.r.H.`.~.F.V.2.B.F.s.s.s.+.T T X.R P D ^ V v r k B Q M ^ -.8.C.C.s.f. .U #.] ` [ 2.A.F.B.C.y.Z.C.B.a.e.5.s.F.Z.B.9.A.W.(.!.(.m.-.;.:.4.1._ u v m L ] t.Z.4.2.2.| ] [ V B a a d d m G J o.5.s.H.oX-X}.|.[.M.} u a v v N V N b V [ V v m n G 2.b.Z.`.`.H.T.a.5.$.9.S.F.5.2.3.;.7.B.L.4X;X>X:X5X>X_.Y._.|.3.] K U $.f.]._.4.2.8.-.! x ~ [ Q ! M r 9 n n ` | O.O.B B 8.n.D.M.x.m.z.A.W.D.u.u.t.t.d.d.d.&.o.' F F 6 3 = # - = * * > v m n } 1.2.8.7.2.7.4.4.2.9.8.8.n.z.1.<.<.<.l.n.n.n.C.y.2.#.| ] | 9.B.V.9.4.5.u.t.d.D.C.x.z.x.y.y.a.5.,.7.A._.[.[.Q.m.9.7.2.[ _ L L V V ] B.x.B.B.K.'.L.d.C.a.Y.F.A.B.",
"` ..9.9.O.] L ] ` L #.3.B.oX'.|.<X.XH.a.i.Z.`.Z.$.+.p.e.3.3.a.2.n r n n v v v a a ` 5.y.a.F.}.-X;X;X).4.u g z a k l k N N k k k v v B ' B.Z.U.Y.H.H.Z.Z.Z.B.S.C.2.[ | O.| 7.x.9.C.2X;X;X;XF.5.9.S.e.b.~.}.{./.[./.C.n.#.O.e.9.2.L V | ;.,.1.1.z.z.<.<.z.;.,.n.C.y.a.B.9.5.3.....3.e.i.i.5.Z.{.`.H.~.&X-X<X;XoX].I.a._ _ [ ;.;.2.] B z / ' n r z B [ 8.n.a.4.z.{ j l ;.W.[.S.F.Y.Z.a.V.s.e.r.f.e.e.b.B.H.Z.a.a.s.f.i.w.r.q.X.D S D D N k v [ } [ [ 8.9.2.5.&.&.&.@. .` L V _ ` a.T.'.|.'.F.a.#.2.9.s.i...d.Y.B.B.A.(.[.F.M.z.1.1.M.1.F v r a G ] 5.B.a.2.] | [ _ v r a v a v n n n ' 4.5.9.C.'.|.;X&X_.1.r r v k l v k N V k v v v v V | B.Z.Y.Y.G.S.Z.Z.C.A.C.C.>.{ | | ] 6.x.8.D.5X5X5X9XK.O.5.H.3...3.X...V.Z.5.` #.} _ ;.[ B B N B v q 5 e r n F } / z n B ( m.Q.[.|.}.>X(.z.;.O.4.5.a.C.d.t.4.1./ x q 3 = * e B V B ' 6.n.2._ [ 8.n.7.[ ,.A.A.A.S.m.8.z.M.n.,.<.z.A.D.S.n.B.y.5.#.` _ ] >.6.9.b.e.B.C.Z.a.5.4.2.6.9.B.4.5.C.e.x.W.Q.Q.[.Q.b.z.8.6.| ' [ 2.9.2.5.B.B.9.6.9.Y.oXoX@X].F.y.O.4.",
"` V X.2.2.#.U ] L J ] 2.6.C.|.@X|.].XXZ.4.V.V.3.` P 5.a.w.B.F.V.] N B v z M V v v _ 2.y.C.a.V.{.oXoXD.[ x F / V b b M V l l k l l h ' u.B.a.9.V.H.`.`.~.'.|.:X&XB.7.6.7._ [ A.A.,.M.L.].|.i.$.w.9.3.V.{.-X|._._.[.L.a.#.#.5.V.Z.2.| ,./ B ( v.W.m.m.m.(.[.).C.C.a.C.C.5.$...$.5.3.w.a.p.s.w.Y.+X|.{.}.}.'.'.OX'.Y.5.n M ;.S.F.Y.B.1._ ,.,.F n n ] x.9.y.6.9.7.! M :.!.{.[.[._.F.Z.V.r.s.s.r.w.X.9.V.F.V.s.a.e.e.H.G.r.$.$.K S P ` N v B _ ' ] } { c.9.u.a.i.%.5.5.+.P N D ` ] 2.C.Y.L.Z.4.4.#.| #.Z.V.#.2.s.B.a.n.L./.m.1.1.8.,.,.F n u 9 i v V [ ` ` [ _ [ { } / B M v v v B v n ` 2.9.s.a.B.'.|.OXD.[ x ! ! N b b N ! v M l l N v ] 9.B.a.5.B.H.`._.Y.'.|.;X&XB.7.2.9.[ ] A.A.O.B._.|.OXu.] 5.e.r.f.e.{ ` ..] L m _ F ! 1.;.N c M c h M z e v ! / B Q M u c ;.A.&X:Xx.n.D.y.[ H F 4.O.I O.d.C.y.1.;.:.W g 3 h z / 2.4.6.8.n.9.y.A.n.m.9.} [ ;.8.8.n.1.1.8.n.v.1.x.W./.F.n.a.a.s.a.#._ ` { ] 3.A.x.7.;.L.'.B.5.] _ 9.Z.Z.4.%.C.3.:.b.A.W.W.A.c.x.2.;.;.O.] 4.B.9.4.9.9.7.9.B.L.E.E.L.C.o.O.O.] ",
"| ` 5.3.2.| ` D J L ` P J a.2XoXV.2.H.|.H.~.V.e.e.r.b.S.J.{.`.B.4.3.9.W.c.l.:.~ ! / / 9.C.B.C.L.L.C.u.O.7.9.| ^ N N ! ^ ^ ~ W l e M ! ] a._.L.'.+XR.OX_.|.2X5X2X;X:X[.B.[ 2.'.oXC.C.Z.Z.Z.i.5.e.e.e.4.e.~.{.|.'.].|._.i.2.$.Z..XK.a.#.Q c ) m.N.v.c.(.).%X%X).}.K.C.Z.y.$.w.i.@.r.s.e.5.5.f.I.+XJ._.|.|.|.|.|.'.Z.#.v v ^ 2.2.C.F.A.A.Q.C.4.;.] x.b.] [ 2.| ;.c.N.!.:X[.A.(.}._.F.s.&.0.r.r.q.3.s.V.V.w.3.w.9.e.`..Xw.$.w.*.$.&. .K _ 2.2./ _ 2.x.A.6.#.] @.5.@.X.X.{ D X.2.3.7.s.Z.Z.C.a.5.4.5.a.L.L.s.O.o.a.C.B.b.x.[ Q -.,.} } / x c n _ V n L _ [ [ ^ [ | [ _ _ } 6.l.6.-.~ Q ! _ 9.C.n.C.K.L.K.8.,.6.9.| ! N N W ^ ^ W ~ l h M ^ ' d.'.K.E.XXR..X_.].2X2X2X&X&X_.A.[ >.{.;XF.C.Z.Z.V.4.X.w.s.e.w.>.{ { ] ^ J _ _ L _ F F M v z h [ 8.} x ~ z.z.l.n.;./ 1.}.%X&X}.8.4.} ( F u a m V z / C.L.y.y.B.9.D.8.N j v #.i.a.i.u.i.y.K.P.u.C.n.8.,.4.4.1.1.,.1.8.1.z.m.m./.W.A.B.S.F.F.s.] D m N L 3.7.2.| 6.F.D.4.O._ ' 7.n.C.F.B.7.V k B 2.A.W.x.9.z.] / [ ] O.7.y.4.O.2.6.B.L.L.F.L.Z.Z.C.5.4.#.4.",
"5.` L _ _ { D S P ` ` ..] ' a.Y._.V.a.V.{.-X~.H.~.~..X{.{.`.|.B.9.6.x.!.*X*X*Xc.[ / } 4.C.L.E.y.F F o.u.6.9.2.2.{ ! { A.:.^ ^ ~ ! [ ] _ u.T.K.].OXa.Z.E.].oX;X;X5X5X[.6._ | 9.y.L.'.V.2.#.y.5.a.V.V.5.e.B.Z.Y.L._.|.].Z.5.3.a.s.a.Z.#.! -.c.v.z.m.N.P.N.W./.OX;X'.L.y.5.e.Z.a.@.5.a.a.p.@.&.&.i.f.`.@X{._.{.'._.Z.| h v | 7.9.a.9.A._.|./.B.9.9.A.>.N [ b.9.z.!.[.:X!.(.W.(.&X|.].f.&.w.r.X.X...s.V.G.B.e.5.5.s.Z.f.w.q.p.w.q.$.$.$.a.V.y.' O.n.F.S.s.2.| 3.#.` N D ....9.e.e.9.y.V.B.4.4.| L | a.Z.F.i.#.] 3.9.6.7.9.| ! ! h g / [ / ' O.| F V _ 2.2.[ _ [ >.| / ! } z.W.!.[.l.[ ! _ 2.B.K._.9.F G 1.4.4.y.2.2.{ ! >.S.;.=.^ ~ ~ [ | _ t.Y.K.]..Xa.Z.T.'.oX;X;X5X5X[.6._ ] 4.9.Y.oXZ.#.` $...r.e.3.X.....X...D V _ ] [ _ v n z V / B ,.8.[ Q :.=X(.W.x.-.x.[.2X;X%X%XA.M.} z z r w e z x | M.C.%.4.7.Q.Q.-.~ ^ 2.9.4.4.#.2.5.u.t.u.K.C.2.O.,.u.x.2.,.;.8.z.<.n.m.m.A.D.D.S.F.Z.Z.e.P D N a ` 4.4.4.9.x.,.2.4.| [ O.[ ;.B.}.'.S.` v v } b.A.x.A.9.! r n [ 6.4.4.4.| ' ,.A._._.F.C.V.Z.5.4.L F ] ",
"o.J J L m S ^ ^ ' ` | 5.5.4.O.S.<X{.z.2.B.XX@XH.b.S.V.b.b.H._.H.4.$.4.Q.(.(.:X}.A.8.8.m.A.D./.y.[ B _ #.%.Z.Z.I.e.>.S.{.b.7.6.>.-.6.>.V U K.E.K.Z.V._.oX_._.oX;X;X}./.7.2.2.2.5.5.t.i.V.5.a. .>.9.a.a.Z.H.G.F.B.C.'.oXY.Z.Z.B.%.5.a.,.=.c.W.z.m.N.W.(./.P./.[.}.OXP.u.t.d.I.Z.a.9.%.5.a.p.+.+.@.0.V.U.Z.n.'.;X@X|.n.V ! 7.B.B.C.Z.[.&X;XL.4.9.F.F.6._ >.|.F.F./.(.!.m.!./.(.{.&X].Z.&.q.q.R Z X.p.f.Z.r.5.w.s.s.s.s.0.s.p.q.@.T @.&.g.5.L n / [ _ O.B.d.#.9.7.V N ] $.b.S.Z.i.9.2.4.5.9.4.' _ | a.d.d.5.| m m V ` 6.9.| B z e q c B ( O.' m v n V [ L B N [ ;.;._ _ | n.A.W.[.Q.D.8.8.n.n.C./.9.} B _ #.&.Z.Z.J.e.>.b.*Xb.6.6.1.-.6.2.G ] K._.K.Z.B.'.|._._.|.;X&X|./.4.2.2.2.5.5.i.s.s.$.e.D D X.X.^ ` 2...>.[ V _ _ | _ n n u G O.O.8.8.6.<.W.*X%X!.6.2.D./.'._.[.Q.N.!.l.x e w l g W ( ,.M.8.O.4.C.W.x.W l =.x.9.] | ' 6.n.8.n.n.y.C.| _ / O.,.1.} n 8.n.n.M.m.8.z.A.D.A.n.9.9.2._ m V ` 7.a.C.i.5.5.4.#.2.O.] 8.9.x.S.F.F.s._ f d } b.S.A.>.! h z N / #.O.,.2.| ] 9.F._.Y.B.4.7.a.y.O.V m o.",
"V s m _ 2.^ b N 2.3.6.i.Z.L.B.F.&X-X&XZ.V.`.@X2XXXH..XXX{.XX_.Z.e.9.8.M.(.Q.:X4X:X/.A.D.Q.Q.(.n.8./ / #.a.i.&.a.e.T.XX|.^.*X!.x.W N l a I Z.Y.a.y.B._.'./.K.L.}.[._.F.B.4.#.t.t.+.] 5.i.+.$.] #.2.3.4.5.Z.Z.Y.L._.<X<XoX].@XI.Z.Z.y.7.x.W.z.m.N.M.N.W.).(.P.OX>X}.P./.C.t.i.t.a.F.s.$.#.$.+.%.*.$.f.H.Z.C.oX5X'.L.9.G [ 9.y.d.K.H._.F.S.Z.i.B.F._.b.] 7.Q.A.{.:X(.z.m.M.m.Q.%X&XT.Z.w.X.q.q.$.X.@.s..X+XR.I.I.f.G.I.G.h.0.@.@. .@.t.i.J n n M Q _ %.y.O.` { { ! N D ` >.e.e.5.9.#.| #.4.| _ J ] y.a.a.t.J v d L ` #.] V v w r g e q M _ ' F G F V V N _ | | >.| _ } } 8.n.n.(.&X}.D.m.D./.W.(.n.1./ / #.i.a.5.r.V.H.XXXX(.{.Q.9.N M M v I Z.Y.a.y.B._.'./.K.L.}.[._.L.n.5.#.5.w. . .5.&.X...` D ^ D b ` 3...3.X.V ! ;.2.V n n n V F ' 2.y.(.%X[.:X*XQ.Q././.C.L.F./.A.<.l.:.W h x h M :.m.m.8.O.O.y.K.F.A.:.{ b.[./.B.8.x.A.A.x.D.D.D.F.t.[ / / | 8.} F | ;.1.n.8.,.8.A.n.4.4.2.2.#.L D ..B.a.#.i.d.t.C.V.y.i.u.y.L.S.Q.S.A.B.3.+.] I %.S.S.7._ N M n v n / _ V B n M 2.Q./.~.F.O.' 2.2.] n m O.",
"D s S ^ ..` m L b.H.V.Z.H.].Y.x.Q.:XrX<XY.].].`.2X'.6XtX<X|.}.n.#.8.6.W.%X=X(.*X:XW.W./.D.Q.W.W.D.6.( 2.9.` ] s.E.R.@XOXK.Y.y./ v M v V 6.7.6.B.5.L L 5.L.K.C././._.F.B.#.2.5.t.5.#.$. .P P X.3.2.2.5.9.B.~._.Q._.}.5X0X2X].L.'.~.S.x.z.(.!./.(.M.M.N./.M.M.P.).OX}./.y.4.1.F F 8.C.4.F ] 5.a.i.i.s.Z.oXOXL.'.Y.y.2.| V | y.t.a.Y._.F.Y._.`.T.Y.`._.y.O.2.F._.5X4X/.m.W.P.P.)./.B.a.g.f.j.j.r.$.@.Z.R.U.k.h.U.g.g.G.I.p.q.0.w.$.%.s.w.L n v z Q ^ 2.@.` n B ^ ;.^ N [ >.4.| | | ' } | ] D m m ` 9.B.C.@.d d L m T +.J a 0 0 u e 7 z _ 2.] O.` L { ^ { 6.,.2.8.;._ } [ 8.W.W.W.(.%XD.D.Q.A.W.Q.D.D.1._ 2.9.] ] a.I.].@XOXZ.'.y.F N M v L 2.7.4.B.4.L _ 5.L.Z.C.L././.Q.B.2.#.4.t.t.+.%. .P P ....D N N ` ] $.3.3.[ D 2.| ] V v L V N V | C.|.5X>X*X4XQ.,.u.C.C.C.].|.;Xn.) <.<.-.{ M :.W.m.N.z.} ' $.Z.a.9.n.y._.&X&XF.C.C.x.C.D.D.A.D.m.8.8.,.,.1.1.} F F / | 4.8.1.4.8.8.O.O.O.] ] ] ] 5.C.t.5.s.Z.Z.d.Z.F.Y.{.{.Q.z.c.~.Q.B.9.4.i.a.d.B.4.F v v v v n u V / B w u V | x.8.;.| { ;.] B r v m ] ",
"S y b S X.3.5.5.Z.`._.Z.V.XXXX~.'.5X5X2XOX'.L.F.@X2X2X2X;X;X'.1._ 6.W.).:X).(.:X4X[./.}./././././.x.[ 2.O.#.3.B.d.I.K.y.O.O._ G F J [ 2.s.V.9.Z.B.` ` | Z.L.a.L._.}.}.C.4.O.4.L.U.w.#. .` ` [ >.7.2.2.9.e.Q._.D.[.oX2X3X@XL.9.y.[.5X(.x.>X:X(.W.W.M.M.M.z.v.n.n.D.W.D./.u.F a u F 8.4.4.y.a.a.t.i.y.s.T.'.y.y.n.B.,._ B ] #.%.&.a.F.&X@XOX`.].|.@X|.Y.L 2.OX/.D./.Q.n./.P././.8.y.a.h.T.r.s.s.@.U 5.g.&.k.h.g.h.h.G.f.w.p.G.w.3.a.4.| ^ F B N Q ! ^ / G G v M [ >...V ` F m / ' _ } ] } _ _ L 3.Z.Z.i.@.*.0.p.@.5.p.U i d v u r r V u.Z.5.O.| ] ] ^ ` | ;.2.,./ B | z.D.(./.P.%X>X[.D.(./././.Q./.x.[ ;.O.2.4.s.C.I.K.a.o.o.F F V D [ #.B.V.x.V.B.] _ o.Z.Y.a.L._.}.}.C.4.o.4.K.Y.i.$. .` X.X.9.>.V ` 4.$...6.9.2.| 2.| [ V v V V V _ ] u./.}._.[.&XF.,.O.y.d.K.L.F.'.).D.(.%XQ.9.>.Q.^.z.<.8.O.#.5.B.F.F.Z.a.F.`.B.n.4.C.'.oX'.S.A.z.x.n.8.x.n.8.8.1.[ / | [ } O.| O.8.4.8.4.' ` #.#.#.#.7.F.].H.F.L.B.B._.|.|.F.B.b.x.W.Q.A.| O.t.d.i.] L n v u s V L G V v B v u v V _ B h M ^ ^ B V V | ..i.",
"b b S ^ 3.S.V.t.3.5.5.+.Z.XXXXoXOX@X0X9XoX'.oX@X|.<X2X5X6X;X).n.,.,.-.n.(./.(.*X%X(.)./././.W.A.A.x.} 6.A.A.B.V.9.%.O.P L _ _ ] _ m G ] a.Z.6.3.y.O.#.2.5.5.5.Y.'.'.K.4.] F O.I.s.4.$. .P D N b ^ :.3.9.9.F.&X/.8./.;XtX9X].4.C.}.:X/.W.&X*X/.M.D./.(.D.1.) 1.M.n.N.P.).z.F n e g / ;.1.4.4.t.%.d.Z.C.Z.d.4.a.s.5.] O.y.O.o.%.%.5.F._.OXT.I.V.V.Y.T.Y.4.5.<X'.C.L./.M.D.D./.}.P.C.a.a.%.w.s.w.3.&.0.g.g.g.k.k.k.i.%.i.0.p.f.5.r.Z.w.>.>.[ W ! N k N v M V _ ] ' P L m d n n / [ _ ( [ [ ] 2.$.5.s.V.Z.s.I.E.G.g.s.s. .s a m m u 0 N 3.F.y.2.O._ D [ ] >.7.2.,.[ ! _ ( 8.Q.W./.%X)./.[./.(.Q.W.A.A.x.-.6.A.V.B.V.9.$.| _ ` _ I ' L m G ] a.Z.3.4.y.O.,.$.5.&.5.Y.'.'.F.5.o.V #.L.s.w.w...` D b N ^ ^ ` 2.#._ ` 3.9.3.L ` L V _ / j k M _ y.Y.|./._.}.oXK.d.K.'.E.C.y.S.L.'.OX_.K._._.F.n.1.n.4.4.d.Z.Y.L.9.5.V.E.s.2.8.8.L.L.F.D.D.M.A.A.m.l.A.m.A.W.W.m.-.} -.} | | | 2.y.M.t.O.o.o.%.#.3.4.x.B.9.b.A.b.A.|.|.F.F.B.5.K.~.`.a.2.O.+.%.5.I J V G V P O.4.#._ v v V / L / B z h h M k N V 2.Z.Z.V.",
"s b b ` w.V.f.a. .m d P 5.e.Y.9X9XOX$X;X].oXoX_.L.|.rXrX6X/././.<.[ [ n.W.M./.(.(.[.&X(./.W.D.D.A.A.6.8.F.F.F.B.V.4.] 9.u.} V _ F m m S ` #...2.] _ O.i.%.+.t.K.K.K.1.[ | n n O.$.2.#.` D L _ V >.9.7.4.F.2X_.Q.1.} |.5X9XOX5.}.}.(.}.W.[.[.P.D.W.M.M.M.1.-.:.z.m.m.(.W./.D.} g x c B / ( | #.o.i.Y.Z.C.i.y.C.K.5.' #.2.4.%.t.t.t.Y.@XE.E.E.K.C.V.Y.].oXZ.].'.d.C.L.D.D.P.D.'.OXL.a.9.P D s.V.G.G.s.+.+.*.o.T *.g.+.U ] U U X.5.G._.9.{ { [ ;.| ;.>.B v B ] ] | O.V m m n n B | } _ F m V ] 2.3.2.$.5.f.I.I.G.G.G.G.5.n a L #.G 0 r [ 9.y.7.| _ _ ] 2.9.z.,.8.8.[ / [ n.D.A.W././.[.}.(./.D.S.D.D.A.2.7.F.Q.F.B.V.4.| 9.9.} F _ F V V m ` #.#.2.' _ #.y.%.#.t.K.Y.C.%.' } m n o.#.#.$.] D ` ` V { 9.{ ] $.9...9.e.[ L [ #.] ] N k W ! [ O.C._.y.B./.L.'.E.'.Y.Z.Z.C.n.K.K._./.L.V.F._./.n.4.' I y.L.L.y.2.$.a.C.9.2.O.S.F.C.5.n.n.A.(.n.8.z.n.D./.D.M.M.n.1.1.| [ :.1.4.C.d.y.t.#.o.#.O...;.{ >.8.>.2.x.9.F.F.A.C.a.y.5.a.Z.F.Z.d.a.C.V.5.O.o.$.] _ ' 4.9.2._ D L N v z q r h M M h v y _ 9.Z.V.",
"y D ^ q.i.g.Y.K.%.d m P ] ..S.H.F.L.L.a.L.@X@X|.'.'.2XtX5XC.u.D.:.! 6.c.(.!.Q.[.&X4X*X/.Q.D.D.L.L.B.4.K.E.OXL.O.7.A.7.z.x./ B ! / _ ^ D S b _ ] V m G L I o.%.a.V.#.u / | / z n ] #.5.4.| #.| >.x.7...9.Z.].{.Q./._.}.oX2XK.5.C.A.C.F.D.W.(./././.D.m.u.n.u.1.m.N.m.N.W.M.M.( g x B :.;.;.O.' I ' 5.B.a.d.Z.Y.L.4.L ` O.5.5.%.t.d._.].E.E.].'.T.Y.I.E.].Y.].].K.C.L._.K.D._.E.M.u.4.C.2.m +.a.G.J.s.X.` I P P | 5.#.S S S s b ` 5.B.5.,._.Q.2.| 7.F.7.[ _ ] _ #.t._ G F n m F _ ;.| N N m D X.#...X.X.5.V.J.T.H.Y.V.] m a F ] ^ N ^ >.7.2...| 2.2.] 4.x.y.,.| 8.-.! ,.m.Q.W.W.^.%X>X}./.D.D.D.L.L.A.4.C.Y.].L.#.7.A.8.x.z./ B ! ^ ^ ^ D S m _ ] V m V G U U %.a.d.O.u / O./ u n [ #.5.i.#...] | 7.>.^ ` e.F.F.9.v u d F O.G B z w W { S n V v V 2.Z._.Z.C.F.a.4.4.4.9.4.%.C.C.O.O.' | /.P.4.%.] i.OXOX'.y.4.y.y.n.4.y.C.m.n.9.y.P.A.| 1.n./.P.D.M.8.n.n.z.n.z.;.;.| ;.8.B.B.4.4.4.5.7.#.} ! _ 8.6.[ 6.2.>.b.F.~.Q.Z.C.u.4.5.C.A.9.B.L.B.Z.9.] ] ] _ | a.a.9.#.$.2.L V n n B x h M k k N L ..e.V.",
"D X.r.b.a.Z.K.t.o.m m ] 9.e.|.|.'.'.C.u.S.|.|.].Y.Y.OX2X@XL.y._.A.| 6.Q.}.}.[.*X:X;X}.P.A.A.D.F.A.9.4.5.t.y.O.] ] 9.Q.S.A.-.-.-.[ _ ^ V N k a v v n v v n p V o.6.V z h c z z v F [ 5.a.i.9.B.A.7.{ [ ..e.B.F.Q.{.:X4X2X@XZ.t.C.e.B.x.D.D.W.W./.(.P.P.D.m.M.P./.W.N./.M.M.n.<.v.!.(.}.D.1.' F m L %.i.a.g.Z.R.Y.d.I G ] #.5.%.%.f.Y.Z.Z.K.'.Y.'.Y.Z.C.Z.Z.'.@XE.L.Y.L.C.C.L.y.F B ,.m.O.V ' a.f.Z.V.H.e.%.5.4.] L m m S S s y S L ] 9.y.|.|.4.` #._._.7.| _ G ` ] L L G G L ] ] 6.2._ v m m L ] ]  .3.p.s.V.B.e.C.$.V V O.2.[ V ^ { 9.{ ^ _ [ 4.#.] 3.a.B.4.O.n.7.^ >.A.^.[./.|.;X:X[.D.M.D.D.S.A.y.4.t.y.t.O.O.] 7.F.D.A.:.[ -.{ ^ ^ S m a z v M M v s n s m | 4.F z j c g c M G [ 9.C.s.x.9.e.>.N b D ] F.F.6.V u z ' ` u v n j l W k 7 a r a | C.y.] ] 9.2.( [ / O.2.#.4.,.[ ' z n y.4.4.#.5.f.E.Y.R.Z.2.G 9.L.K.y.O.| O.,.2.y.C.2.y.C.C./.L.9.z.8.1.,.8.9.8.1.4.,.2.9.9.O.O.5.y.y.{ V v [ [ 2.m.A.6.2.:.8.c.S.D.C.V.y.5.y.y.4.6.4.f.Y.i.#.O.#.3.V.F.9.5.4.#.#.O.] _ } ,.! N ! ! M y v P #.$.",
"D U @.3.@.O.` L ' F N 2.V.e.H.XX].'._.O.9.L.L.F.C.Y.'.2XOXY.L.Y.2.L 7.{.'.'.'.4X4X4X%X[.D.n.S.F.A.9.8.,.n n v v m ' ;.x.C.8.9.n.7.^ N N N ^ Q Q ( B l g r v N _ :.Q c g 5 g B | 6.2.2.y.B.9.B.B.4.O.| ` ] >.8.Q.|.:X<X2X].Z.a.D.A.z.6.Q.(.W.).}./.P.P.M.n.M./.W.P.!.W.M.M.D.:XiXiXrX%Xy.n z n G U &.&.a.s.i.d.d.f.%.m v %.C.t.t.i.d.C.K.d.L.'.`.Z.V.Z.].|.|.OXZ.t.C.C.y.a.4.o.n n ;.:.( _ 2.T.L.V.Z.T.{.H.F.Z.#._ y a S D s b b m D 8.y.y.t.5.o.] 6.;._ B ^ ] | ' L n m J P ] 4.4.#.] [ ] ] ....]  .5.&.$.5.5.a.5.L a m _ _ S ] ....| _ ! [ O.4.#.#.4.B.y.9.9.9.' V 6.F._._._.;X<X;X|.[.D.x.A.F.B.8.4.,.M v a n B ' O.n.A.7.9.n.6.^ V N M ! Q ! ~ M x e r z N [ :.Q j j q r B [ 2.2.4.y.A.y.B.A.2...>.L ..2.>.W.F.-.[ | ` u r u Q ! h k r r v ` y.9.#.| 2.A.2.[ O.[ V ] O.6.;.[ ,.' / / u ` #.d.5.4.C.C.C.#.m u.L.L.4.%.' ,.y.9.} ' t.M.C.C.L.P.u.n.8.x.y.4.8.8.2.2.| O.6.,.' [ 2.n.8.-.^ [ ;.{ 8._.y.5.2.;.c.A.n.n.a.y.y.#.] 6.9.$.6.V.F.B.s.e.....9.B.9.9.3.V H I _ ' O.O.[ [ _ v k v D X.&.&.",
"S b ^ S ` | F / [ | 9.H._.e.a.XXL.C.'.S.i.L.K.s.a.d.d.t.y.] n n m ..y.5.C._.Y.}.oX2X9X<X'.m.C.S.y.B.n.6.[ V n r z v B 2././.A.4.{ ^ ..] { x.6.v.W.:.W W x ^ M / W.x.Q M c B ( 8.m.C.y.C.B.B.i.B.B.B.a.5.[ [ 8._.4X|.}.'.'.d.d.F.(.[.^.(.:X>X}.>XoX}./.n.8.m.M.(.).P.P.M.C.W.%XwXrXwX(.2.F B | u.t.&.%.i.a.f.5.o.&.y.O._ #.y.t.&.d.f.Z.a.f.Y.`.Y.a.d.I.@X#X3XI.[ n G ' #.5.4._ F } O.1.1.x.9.2.s.V.G.H.H.H.H.e.B...S y S D b m y y M n I ' o.L G D m v v h ^ >.{ L / L m a m F O.| #.2.3.9.5.5.5. . . . .#.5.5.y.2.G m V D D ` 3.5.5.b.9.[ ] #.2.] O.#.] O.G v a v ] 3.4.9.L.L._.|.5X5X;X'.B.C.F.n.B.m.8.[ V n e u v B 2._./.A.7.{ ^ ..| { 9.6.l.!.:.W M M _ M / W.x.Q x c B [ 8.A.S.u.C.B.i.9.Z.V.a._.B._ V >._._.7./ / F z z v ^ { V v k 0 L 9.V.y.2.9.7.6.6.2.;.[ x v V ( ~ } :.) / } V , L o.o.%.5.a.Z.a.y.| O.m m o.5.K.F.O.G _ y.C.n.y.P.D.n.y.C.S.y.t.u.4.O.] } | 2.9.,.| 1.8.8.2.6.x.B.6.9.B.9.7.2.] 9.A.8.x.C.C.B.B.B.B.B.O.` 5.i.4.5.9.#.| ..3.#.] L m v a F n F F v v h k N ` ..3.a.p.",
"y v M ! 2.O.V n m ` y.Z.].|.i.Y.F.@X@X].s.#.O.5.2._ N n v z v m L _ o.#.a.C.d.y.5.C.Y.C.t.4.y.B.Y.Y.H.A.9.;.W v z v | Q././.y.8.2.4.e.7...2.9.Q.*XS.:.~ ~ ^ ! [ ~.b.Q ! } | 8.n.F.'.L.Z.C.i.Z.F.9.7.7.9.8.9.n.L.|.}._.'._.i.t.E.&X_.[.&X:X}.D.D.M.C.M.8.n.M.[.:X;X>XP.1.1.x.=XrXrXrX@Xf.2.O.$.y.t.i.&.t.a.B.5.%.o.a.L.L m ] #.] +.*.p.i.i.I.U.Z.f.5.9.Y.F.|.'.] u z _ ` O.9.| } 2.1.O.4.F.5.m P 5.p.I.a.>.q.>.r.>.^ ^ S ^ ^ ^ A r r h M n n v v v v h k v ^ x.7.2.6.O.N 8 8 b D ` ` #.s.a.9.i.t.] ]  .#.4.2...$.4._ G V _ 5.9.w.9.V.Z.a.] G G | L F n v z r v v F L ` O.t.C.B.y.u.a.Y.C.9.4.i.B.Y.Y.F.B.9.;.Q v h v -.F._./.n.9.2.9.b.7.X.2.9.Q.*XS.:.~ ^ { ~ [ _.A.Q / [ | 2.B.F.'.L.L.s.a.H.`.a.4.5.3.3.2.V.<X3XS._ M M h M W ;.>.! [ ! ! ^ >.7.{ b.S.9.2.6.x.;.M z z Q ) 8.8.! M M -.-.v m 6.5.n.9.L._.A.n.x.} , & d i.V.4.4.2.2.m.D.4.4.D./.L.F.C.C.y.5.C.%.' ' O._ / } | } ,.2.z.b.A.V.n.4.B.4.[ #.5.#.O.9.S.A.S.D.A.Q._.[.F.4.#.5.w.5.$.4.5.....>.] | #.] V m m I [ m r 0 u m _ #.$.3.s.G.",
"v Q | ;.m.7.V V V n G G y.'.Z.].@X3X@X].L.o.F 2.] / | V B v N [ ] G L d.L.y.O.F m L O.4.5.a.i.i.I.].@X'.A.2._ M r v 8.Q././.A.A.9.7.7.[ #.B.V.V.b.l.:.^ W ^ ^ V ^ ! h V | 6.4.y.4.4.L.L.y.9.C.B.a.a.C.A.n.A.S.F.P.L.|.<XY.t.&.L.[.F.W.[.{./.n.,./ ,.n.8.<.W.:X:X:X,XE.' / c.:XiXyXuX0XOX%.4.a.K.d.t.t.i.Z.s.o.L I %.O._ ' 4.V.5.T  .i.a.s.G.Z.V.s.i.] y.H.Q.}.F./ n F B n n V 8./.A.2.7.Z.a.V m U f.J.w.q.^ ^ 3.7.r.r.^ ^ ^ A ^ v r w r e z / [ v r k W Q ^ :.>.7.8.} n v y v M V L 5.s.&.@.5.4.` | 9.2.4..._ 5.9._ a s ] 5.9.d.V.d.a.5.#.F V | | _ [ n v M V _ ' G L a.K.a.] L m L O.2.5.a.a.i.Y..X@X].A.2.[ v r M 9.F././.A.A.7.3.3.` 2.B.V.A.B.l.:.~ W ^ ! N _ B h ! | 1.4.y.4.4.Y.Y.9.4.s.V.r.i.G.B.9.b.<XtX<XB.7.>.N N ! ^ ;.;.6.b.6.:.;.>.!.{.XX_.S.y.A.A.l.B c h ! n.}.8.M c / 6.z.| [ n.F.L.F.'.L.8.;.;.] m d J &.+.o.O.#.u.C.L.P./._.'./.Z.a.u.y.a.4.4.O.` F V n v B / } [ >.3.4.2.L F ,.4.9.B.C.5.O.2.x.A.m.A.A.Q.Q.F.F.B.5.d.s.2.5.Z.9.X.>.2.>.{ O.| I I #._.a.[ V v v G 3.V.Z.Z.Z.f.",
"D V | 7.a.F.#.V F m n N #.Z.F.@X3X3X$X_.y.` L #.] _ 2.;.M _ ;.} | O.4.L.F.4.' _ L [ 6.A.L.].Y.B.Z.Z.`.Y.L.a.>.N z V n./.}.;X}./.x.7.b.{ 7._.H.a.>.^ N ~ W l W N ! W v a I C.2.B V V | a.y.B.T.H.s.L.Z.B.x.x.M.C.C.C.].oXE.t.o.t.F.Q.W.A./._.P.y.} ;.1.8.l.z.Q.%X;XOX).y.O.[ F.yXyXtX9XK.@.t.i.t.&.*.#.%.4...m s L #.O.` $.a.Z.a.$.@.w.Z.Y.Z.s.J.H.B.9.6.9.Q.&X4XP.;.) n 0 > 9 _ x.A.Q._._.y.D L 3.Z.S.9.7.S.^.{.J.J.j.r.q.D ^ A a u e z B V / ;.N 8 k v N B [ | 6.,.F v v v v b D ` &.w.%.@.+.#.| X.3.5.5.2...] ] ` J V O.t.i.s.f.d.V.i.4.] _ | } } 2.| N _ ;.{ ' #.4.Y.K.4.] [ L ' 4.B.L.`.Y.B.V.F._.Y.L.a.#.N h B A./.[.;X[./.b.z.c.` 7.~.H.i.>.! W W l j N W Q N v u / C.2.V n V ..a.y.a.Y.U.f.U.G.F.9.#.B.|.XXF.9.{ [ >.A.7.-.;.n.Q.x.6.7.z.c.F.~.'.L.B.n.D.Q.x.[ r / 8.8.} B Q 6.n.x.| L ] y.d.F._.A.A.6.V u p J @.*.U *.%.%.a.K.'.}.oXOX'./.Z.C.5.y.C.4.5.u.O.` F v r z N _ | 4.` ] 2.4.| L 2.F._.Z.9.5.2.7.y.x.n.B.D.4.} ] 2.5.V.Z.V.a.H.3.` [ 2.>.2.2.] #.%.s.Y.y.F v n n G o.y.f.e.$.$.",
"N _ 9.8.#.2.] V m a n ] 4.9.2.5.I.i.$.4.` O.2.| ] } } M / 6.2.[ [ 7.5.4.y.y.5.4.| 2.V.Y.Y.Z.a.y.4.| a.].Y.5.#._ V ' S.'.oX:X;X;XQ.A.b.S.V.H.F.9.{ ~ ^ W ~ ^ ~ N N W N N n _ a e v v V >.O.2.4.4.6.a.y.m.A.M.C.B.5.B.'.OXE.d.%.t.B._.^.|.OX/.L.P.n.4.8.8.6.m.W.Q.OX;XE.d.u.' 8.2X9X@XK.i.i.f.f.i.d.%.I m V ` ] _ | $.O.| C._.e.] L ..e.B.B.H.F.F.B.F.L.7.6.A.&X:X%XP.;.F u r z / 8.b.B.B.F.T.w._ b.^.W.^.-X-X-X-X-XS.r.r.T A D ^ V n v B [ } } ] v r h v N ! ` ! _ _ v h M k l V { ] 5.i.t.5.#.P _ ] 4.9.4.#.| L _ ` ' | #.4.$.4.i.5.#.2.2.4.2.] | | | V [ ;.| _ [ 4.5.4.u.y.4.2.| 6.Z.Y.'.Z.a.i.6.] a.].Y.9.#.L V ] B.}.;X5X;X|.Q.A.b.A.V.H.F.y.>.^ ^ l ~ { ! N N ! B n n _ a w v a B | O.| 3.5.5.Z.e.e.B.B.B.C.~._.V.A.9.x.Q.A.] ;.W.D.A.A.b.S.B.S.F._.F.y.a.n.A.x./ z G 4.y.n.8.8.6.;.Q r r | 5.%.V.oX_.Q.F.>.a p T *.&.i.i.t.f.d.y.L./.L.Y.L.K.Z.C.C.4.5.y.Z.F.y.' F m n V _ ] O.#.] P O.s.B.9.9.F.V.Z.i.5.#.O.2.7.4.O.} B u B ` $.F.].H.V.Z.3.L m ] 4.9.#.| 9.i.Z.D.,.u 0 p a d I %.@.$.+. .",
"` D 2.F.y.| ] L a a a L F _ ' ` ..m G $.O.2.4.} V V [ V -.b.x.2.,.C.K.9.5.a.y.#.2.B.F.L.L.a.s.L.5.V 3.F.F.a.5._ ] 7.C./.OX;X;X}./.n.2.B.B.Z.Z.B.b.x.^.N.b.N.:.[ M a h v V V e q h l { { { ;._ 2.4.7.9.A.W.Q.[.'.C.d.C.E.K.d.d.C.'.'.'.;XOXP.C.C.C.M./.D.:.-.M.[.}._.).d.u.4.S._./.E.K.d.K.d.K.K.E.i.o.m d #.F.a.a.a.5.' $.5._ G V ` 3.b.9./.].Z.a.9.C.F.x.m.).>X&X[.u./ a z F | b.G.S.G.XX|.V.2.[.}.-X4X-XuXqX-X2X{.V.V.r.@.D D v u u M B 2.n.| V _ L ] ] ] _ v v v v M M M ! ^ { ..s.Z.5.%.@.| ] ] 2.B.e.#.2..._ ] ' ] ] O.O.O.+._ ` #.2.2.2.' _ _ | ! -.x.9.;.,.C.Z.5.y.a.y.#.2.B.H.F.L.a.a.L.5.S 3.F.Z.a.3.[ | 9.C.L.}.>X;XOX/.n.6.B.B.Z.Z.B.b.c.^.N.N.A.:.{ M v r v V N e q r x [ [ [ | D { $.5.e.B.S.F.F.L.D.L._./.x.8.6.A./.D.D.P.A.W.x.6.6.b.y.8.C.y.4.y.S.n.| V } 4.A.n.m.c.z.! e N 6.B.Z.a.d.C.B.5.y.B.` U %.i.p.h.s.Z.d.a.a.L.E.C.Z.C.y.d.C.d.y.a.B.B.a.7.] _ G V | 9.7.4.%.5.%.] $.F.`.~.S.V.V.a.$. .[ ] $.2.] ` L V ` o.o.4.B.B.y.i.%. .] 4.i.9.#.2.$.] 4.a.O.n F O.I I o.g.5.%.+.` ",
"i.2.9.F.y.B.4.L m v m m L _ F L #.[ | 9.4.] ] / v N ! / [ F.Q.A.F.L.C.y.#.O.| O.8.B.Z.Y.C.y.Z.L. .b ] e.C.V.5.V #.L._._.oX}.).L./.b.;.2.3.B.a.9.b.Q.&X*X=XQ.7.[ M h k w B N v h W ^ ^ W ! { _ ;.6.8.9.D.A.A./.}.'.D.n.C.K.Y.E.T.'.'.OXE._.P.u.%.} O.n./.Q.n.D.'.OXK.y.u.y.8.;.O.4.y.a.L.@XK.Z.K.L.i.o.#.m P i.9.C.L.L.%.V ` ` m | 2.7.F.B.F.'.L.A.4.A.F.A.[.}.[.}.[._.y.F v F O.2.b.S.~.Z.a.V.'.-X&X:X&X*XwXuXyX-X9.V.H.j.r.X.X._ z h x -.6.6.} _ | 4.7.6.[ m N a r v ! l k l ^ [ 3.Z.J.g.d.s.i.e.4.e.B.B.V.9...] O.] ` ` O.O.] | _ ] 2.O._ _ V v B V ( [ b.F.9.F.L.C.a.#.O.O.O.4.B.F.Y.d.y.L.Z.] v ] y.V.Z.3.D #.F.L./.oX}././.Q.n.,.2.4.B.a.9.b.S.*X-X=X!.l.{ N h h r N V l k N ! ! M N { ^ | >.2.9.W.x.7.n.D.F.F.S./.F.Q./.[.'./._./.A.m.6.[ N ^ [ 4.Z.E.C.O.] | | ] 4.2.2.6.6.n./.6.| B.~.B.d.d.t.4.4.4.4.] ` 5.0.*.i.Z.Z.e.m m 4.B.'.K.d.5.@.5.4.4.4.n.9.] | #.6.] L _ ..4.#.#.%.5.&.#.5.Z.`.H.J.H.V.e...] ] ] G _ O.5.4.3.O.+.] O.i.a.4.#.] ] $.4.y.V.C.i.` V O.y.4.O.t.u.&.#.&.d.g.d.t.%.",
"B.#.` >.2...D m d i m L _ F n B / _ 7.9.O.F O.O.F / | x.9.b.A.A.D.B.d.5.O.O.#.4.8.y.C.Z.#.O.5.] _ #.9.s.V.Z.a.w.a.F._.oXOX)././.F.9.| _ ] 4.a.x.B._.-X-X^.!.A.7.[ B v h M b V | ....] _ [ { } | 2.x.n.A.D.M.F._.'./.P.'.L.d.Z.OXOXf.d.u.d.C.y.O.4.y.A.A.9.9.[.'.L.C.' o.9.4.;.2.6.2.9.5.].'.C.d.t.%.&.#.G V #.5.C.C.L.4.B ' O.z [ S.&XF.2.2.M.y.C.D.n.D.D.m.D./.}.oXL.C.o.I 2.9.4.&.r.e.` ] e.A.[.&X<X|.^.}.qXiXqX_._.{.F.V.2.2.7.B g B ,.[ V / | 6.i.#..._ y b V V v M M M _ | 2.a.Z.H.K.f.C.a.e.| ] 6.7.6...] ] _ O.O.[ L F V _ ' 2.2.' V _ _ V V [ 8.7.x.A.A.S.a.C.4.O.O.2.4.8.9.B.Z.2.| 4.| ` #.5.s.V.V.a.5.a.F._.oXOX)././.F.9.O._ ` 5.y.x.A._.-X-X{.!.b.x.{ W v g b l D { | ..` ^ _ _ ^ [ | z.b.b.n.x.8.n.C.D././.'.D.D./.}.'./.Q.W.A.m.1.[ [ O.| 4.C.y.4.y.5.| 4.2.y.B.F.B./.{._.OX_.C.d.a.t.d.4.O.4.L s J 5.r.s.a.s.w.{ r _ 9.a.K.L.s.5.5.y.i.y.#.O.| ,.4.5.2...] >.3.6.O.O.4.5.+.@.p.s.V.J.J.G.r.w.$. .` G u a ,.C.a.4.#.O.#.O.4.5.3.4.%.4.%.%.a.a.y.B.y.` L #.#.| o.#.%.5.f.E.`.Y.a.O.",
"V.#.` 9.4.L D a 8 d n F #.O.u w z m 2.4.2.O.] 4.B.x._.4X7X&XA.4.C.Z.4.4.4.2.,.y.9.4.4.' v F } n 9.<XY.H.`.Z.w.V.V.B.}.|.OX}.OXL.6.V n / ] B.|._.Q.Q.[.-X~.b.S.b.;.^ l l ^ ^ >.9.9.9.4.#.#.| ] ' 2.x.A.n.n.y.8.8.y.C.D._./.C.y.Y.E.K.t.t.u.d.d.1.n.A.8.| ;.:.B.y.t.t.F I 2.8.4.B._.F.A.y.'.<XY.y.] I o.O.] | 5.L.'.Z.C.4.F F B n v -.F.Q.6.} ,.n.A.L.D.D.A.C.L./.OX/.K.d.Z.C.a.w.$.] X.D v v V | V.B.F.L.S._.<XeXtXtX6X_.{._.7.{ { W ) ;.} _ ' _ ' O.] _ ] 6.m N | A.| ! :.x.W.Q.~.V.e.5.a.f.a.s.a.#.] 9.a.#.] _ V ] ] | O.' u e M ! | 2.| ] _ | 4.4.F.|.<X{.A.2.C.C.4.4.4.2.$.u.y.2.9.' n F ' m 9.<XY.L.].G.w.Z.Z.B.|.OXOX}.oXP.1.V n F ` C.{.[.~.Q.[.&XS.b.S.b.-.! l M ^ ^ >.9.9.9.5...| ] _ m | 8.b.A.x.8.z.9.y.m.D./.D.D.m./.}.(.'.%X(.W.W.x.,.A.A.} V ` %.%.%.4.4.n.D.B.8.C.oX'._.oX'.V.5.4.4.i.y.] m n a ' 4.w.V.5.D ] 9.| ..x.Z.y.C.Z.y.a.B.i.B.n.4.} ] ;.O.7.7.>.9.e.3.9.2.O.#.4.5.5.5.s.J.J.f.w.%.&.*.5.` V L ,.y.C.9.2.] I ] | ] _ +.5.i.5.o.%.a.B.4.P ` ` m | $.$.%.+.U ] &.5.d.5.] I ",
"2.2.Z.`.a.] G a 0 a N ] A.A.[ z r V 4.4.5.5.y.F.a.#._.5X9XrX}.y.y.a.4.' 1.n.A.D.z.;.Q v u u u r ] S.F.Y.R.U.f.I.OXY._.|.}.'./.m.[ ^ _ B 2._.|.&X&XQ.F.Q.B.b.[.&Xc.W ^ ;.{ [ 7.9.3.3.3.4.a.9.] | 7.9.x.6.8.9.O.[ ' O.u.D./.L.L._.OXK.y.%.t.C.u.5.y.n.} M ;.| | ,.%.' d F 4.4.2.4.1.C.L./.|.oXE.y.o.L +.2.4.y._.L.C.#.) u.) G g c z ) M.D.P./.>X;XW./.F.D./././.Q.D.F.B.w.a.a.i.a.$.L V V v M V 5.B.G 4.B.n./.'.oX6X2X$X'.L.C.#.7.-.M :.x.b.x.6.#._ G V V { 7.{ ^ 9.b.{ >.A.B.F.F.Y.B.] ] #.i.C.a.+.2.Z.Y.s.#.] _ V P [ | 7.7.V h r V 2.#.2.#.2.s.4.O.F.;X2X6X'.9.u.a.4.' ,.n.M.D.x.;.B x z u r r | A.L.I.R.T.V.T.].Y._.|.|.}./.n.[ ^ ^ m 2._.|.|.&XQ.F.Q.S.b._.&Xx.W ^ >.{ [ 7.w.5.3.5.5.e.e._ [ 6.7.6.;.6.1.,.8.1.n.D.(.[././.[.}.[.}.%X/.P.D.8.-.M.S.7.} #.4.] ' ] 2.2.4.4.2.9._.Y.F.L.Z.y.y.O.O.5.9.N * 7 a L y.U.a.] b ] Z.V.V.F.B.] V ..6.5.3.#.4.9.6.[ v k } $.] } O.#.2.4.2._ ] 7.s.Z.g.p.G.j.q.T T +.*.#.` V N | A.S.b.4.] I ] | L L O.a.p.+.U %.t.a.2._ m m m J ] w.+.U ` ` X.] | ] [ m ",
"m L e.5.t.@.L s 0 y V 9./.9.N r v _ 4.a.L.C.C.d.4.y.y.F.2X<XL.C.9.u.K.8.D./././.A.-./ | } N / ,.9.A.a.t.&.Z.T.R.T.Y.Y.Y._.oX[.8.-.9.7.2.B.'.].F.F.{.[.{.~.b.Q.^.~.x.z.A.A.B.H.XXB.w.2.3.7.a.2.7.x.9.6.2.,.O.O.O.4.8.8.C.;X;X/.Z.a.%.4.%.5.4.O.#.y.D.2.} } | ' O.O.I n F } ' O./ F [ y.2X_.y.C.d.y.' L 2.Z.D.C.K.u.F G ( F ) ) F x ;.C.'.%X}.[.L.D./.W.W.D.W./.S.S.L.B.F.e.#.t.C.9.[ / | ! v [ 3.#.` ..O.` d.'.'.Y.].OX'.E.Y.F.A.6.>.S.^.S.9.2.4.] V m ` { { 6.9.x.7.>.{ | [ 2.V.|.L.5.#.5.C.Z.$.V _ 9.i.t.5.] G N V [ 7.A.>.v e z _ 2.4.B.9.t.u.O.4.5.Z.4X;XL.Z.5.y.K.8.P./.(./.D.-./ [ } B / 2.9.A.y.t.&.f.T.T.U.Y.Y.Y.Y.;X'.8.;.z.7.2.Z._.{.F.Q.{.{.[.F.A.W.[.^.b.z.n.A.B.~.|.b.w.2.#.3.a.3.9.B.x.;.2.-./ ,.x.9.n.S./.}.5X}.P./.S./.}.(.W.m.z.8./.[.F.C.C.y.#.O.| O.2./ | D._.'.n.O.8.9.4.9.' ' #.#.V 7 0 L | a.Z.a.9.5.e.B.H._.F.2.[ _ ] ] ] 2.2.2.6.;.~ h r V _ [ ] | ` ] ' ] | 4.4.t.f.5.@.r.q.*.T U U o.$.#.^ M N 6.A.A.2.O.$.5.y.4.O.@.9.%.] U #.5.9.O.L n u v m d U ] L P X...$.w.w.e.3.",
"m L 4.2.4.a.%.v a V ^ x.n.! z v / 7.a.7.a.t.9.C.4.#.O.4.C.D.Z.V.o.] C./.M.4.} n.>X/.<.[ O.n.3XyX'.Z.B.5.+.w.s.G.Y.T.L.Z.F._.B.] 7.F.b.B.B.L.{.Q.L._._.&X!.x.c.A.<.} e.~.{.H.B.6.b._.e.| >.S.F.B.B.A.C.F.n.4.y.C.K.Z.8.5.K._.L.4.O.4.4.4.2.` ] O.4.Q.S.,./ ( [ ' F n z B -.n.8.4.1.F O.m.,.n _ y.u.J B } D.F.2.y.C.F G / ~ 1.M.-.n ) n.D.D.D.L.D.8.8.n.D./.D.F.D.n.K.E.y.X.` ] B ^ ;.6.;.[ N | ;.L _ L v o.F.'.'.L.d.d.OXY.Y.XX].Y.V._._.Y.Z.7.$.L L | 3...{ >.b.x.6.7.>.| 2.9.B.F.Z.Z.Z.L.Z.C.] V ` 4.5.4.y.#.m m _ _ 8.7.B z z V 2.9.7.y.4.5.y.#.2.O.2.C.C.C.B.O.] C.L.A.1.| x.>X/.8._ O.n.6XuX{.B.C.5.@.i.V.Z.H.Y.F.F.D._.A.| 7.H.b.e.B.~.|.F._._.[.-XW.x.b.A.2.} x.Y.{.~.B.3.b.`.b.{ >.S.H.B.b.S.F.^.x.;.x.F.D.C./.;X|.4X>XQ.F.A./.[./.W.D.Q.Q./.Q.Q.F.y.2.4.' F _ | 8.S.4X4X(.x.[ x./.S.4._ L ` #.| o.%.i.t.Z.Y.V.5.5.3.5.9.#.D m [ 8.8.| ] 2.7.9.6.6.=.x z _ ,.7.5.5.5.5._ ] #.3.2.5.w.&.5.i.&.i.q.*.+.#.2...M g j W [ ] ] ] 5.i.s.Z.V.a.i.%.o.I ' #.#.O.' N y a 0 0 L o.` D ^ ..3.5.5.s.s.",
"] 2.2.B.9.a.a.P N ] | | [ M h z / 9.O.` m L 5.V.O.P O.O.| ' 9.9.n n 9.K.1./ n ;.4X5XD.O.O.F.9X9X_.Z.F.5.` ` ] e.V.Z.F._.'._.F._.B.2.e.B.7.V.|._.L.F.'.{.}.Q.A.z.} [ 2.B.'.{.A.] { S.e.b.B.V.9.7.9.B._.F.D.S.C.Z.L.L.4.[ ,.4.B.y.9.9.t.4.] m N m / 7.9.n.,.O.' / G x z x ~ x.8.1.#.F } u./ n n [ } } ! v } C.B.4.%.G x F / 1.1.) / ) | O.4.y.n.1.' F 8.C./._.].F.y.C.y.5._ m M _ -.8.;.^ B _ 6.9.| 2.9.O.4.K.d.C.L.y.o.o.%.G.].G.a.a.V.B.F.Z.y.4.O.] 7.B.3.{ >.6.b.b.e.6.} 2.7.F.Y.F.Y.|.]._.C.| | 2.2.y.9.i.y.` V ] ..] _ B h v ! 7.#.] m L #.a.O.L | O.| ' 9.5.m n t.F.4.( n -.;X5XF.O.O.K.9X9XY.F.Z.t.` I X.e.V.F.H._.'.Y.L.L.e.2.B.B.7.V.|._.F.F.'.{.}.^.A.l.[ [ 2.A.{._.S.{ { S.e.9.B.S.e.6.7.F.}.|.&X_.'.oXoX'.|._.|.<X:X{./.'.[.L./.L.M.D.W.[.%XQ.n.| } 4.] v v ' 2.9.:X}.(.W.c.m.D.W.n.V V 4.4.O.5.d.i.d.I.`.B.w.6.2.#.4.2.[ ! -.9.7.2.2.4.9.,.:.l.6.[ ( _ 7.B.Z.a.t.5.] #.9.#.+.5.s.f.w.&.i.g.i.%.$.#.3.;.v w w g h _ [ L _ P | i.s.a.p.%.@.o.o.#.#.| | _ v v F I 4.9.5.e.w.3.@.$.3.s.f.",
"F.S.4.B.Z.y.4.I D #.5._ v z x z B [ _ V L | a.9.O.#.P | y.7.9.Z.5.4.C.y.4.' V ' L.9XoXa.a.Y.T.f.5.p.s.` m m V ..2.4.V._.Y.L.F.V.#.` $.b.x.x.~._.L.L.L.E.'.;X4X*Xm.8.x.D.Z.L.V.e.9.XX`.3.5.X.` e.V.s.F._.Y.H.Z.K.K.C.#.[ | 4.y.4.| ' 2...L m v v v [ 2.S.8.[ B n ! ! e j ~ c.z.( F ) 1.<./ e B _ 2.8.-.[ 2.A.x._ V z e M -.z.( B [ [ F | ] ' } ' F n L 4.F.F.9.9.5.%.] ' V B ] /.}.Q.9.N l ^ -.b.~.S.B.9.a.L.Z.u.O.2.6.V ] 4.#. .@.&.w.i.5.4.3.5.4.] O.9.2.2.B.V.Y.V.2.] ,.n.x.B.C./.].}.|./.C.9.F.S.4.B.Z.y.4.` F #.7.] B n B v B | [ D _ | t.8.O.O.L ] a.7.9.C.4.%.C.y.4._ n | Y.6X@Xa.B.I.E.f.5.a.s.` m V V ..2.3.Z._.Y.Y.K.B.>.` 3.b.x.z.Q._.L.L.L.T.}.<X4X%Xm.8.x.F.V.F.F.9.9.XX`.w.3.X.P 9.V.a.F.XX|.{.T.'.Y.Y.Y.F.A.F._.F.F.{.}.'.]./.B.A.W.4X&XA.7._ B } _ N v V | P.oX'././.[./.L.P.M.) n 4.4.#.+.%.&.K.I.Y.B.V.A.B.x.A.A.x.=.:.z.2.6.A.8.O.;.:.8.z.6.-.[ ,.9.a.y.d.a.2.9.Y.V.5.a.s. .L +.a.5.5.$.2.] ` _ k r q q x / _ v t y P $.w.e.5.%.$.#.#.#.' _ F m M [ ,.2.n.B.2.e.e.U P P +.s.Z.",
"x.9.,.4.y.2._ V n P D [ _ / / V -.] | 6.B.e.i.9.5.%.V L 4.y.4.Y.].y.a.4.#.` m n #.@X3X3XOXZ.f.f.$.@.$.| D ! N V V _ ..a.a.B.a.] 3.s.e.A.Q.b.b.S.L.L.y.d._.|.&X5X&XW.8.B.oX'.B.B.4.J.`.5...3.s.H.F.9.e.3.a._.Y.Z.f.n.8.7.7.y.4.O.2.| | #.` _ ^ ^ ! } 6.n.M.} g q e h W -.z.c.D.y.8.,.} / B n ( 9.S.A.[ 2.S.9.| V / M q M / ( M x _ [ ,.#.o.a n G n B G / | ..L m ' o.m a N 2.F.&XXX_.7._ ;.6.{ 8.Q.B.7.e.S.y.C.u./ _ / [ 2.] v ] 3.&.i.Z.Z.s.9.3.#._ | a.A.9.B.B.B.2._ ! | 8.7.B.y.A.B.L.}.F.6.| 9.9.#.6.y.O.` V N ' I ' } [ [ / -.} | 6.s.i.9.5.%.2.m _ 4.9.6.Y.|.a.a.4.O.I G n 2.@X3X3XOXf.f.s.$.*.$.| V V N m m [ ..a.y.C.i.] w.e.r.B.F.A.A.F.Y.L.y.C.'.&X-XwX:XD.8.n.oX].B.B.4.H.`.3.#.3.e.H.Z.5.5.#.i.].|.Y.d.L.].].F.V.B.A./._._.Y.L._.{.|.|.&X_.z.7.#._ V v N _ | n.F.m.[.>X/./.P.%XD.O.;.' 4.2.` p d +.g.f.a.F._.Q.A.x.D.Q.A.:.l.-.! | 8.,.,.,.6.z.c.8.| | 8.8.2.O.9.Z.B.4.V.U.a.Z.U.#.b _ ..2.| 9.B.6.[ m a u e v M V J s a D  .5.a.i.@.+.+.#.#.' F v v w v _ 2.A.D.B.4.5.$. . .+.@.5.p.",
"D.D.F.y.o.` ` G v v v B [ ,.6.;.7.7.B._.s.2.5.B.4.] ] _ _ B.C.B.t.O.Z.C.#.L F _ 5.Y.Z.s.f.5.p.Z.w.0.r.F.#._ V m N v m 2.B.B.s.a.V.Z.T.H.F.F.b.:.2.2.9.B._.F./.4X:X/.n.}.4X<X&XF.e.e.a.s.e.e.w.$.V.Y._.5.9.Z.Z.s.t.y.y.A._.C.O.` 4.y.Z.a.3.] >.9.7.,.} <.2.B e x ( / -.v.n.8.D.M.1.;.,.1.1.| B n _ B.>.[ 6.>.[ [ [ Q M W ! Q / / ! _ ] #.O.V v u v [ F z V ! M n V m n n B O.a.Z.G.Y.Z.V.b.S.b.b.A.x.x.Q.[.F.n.} Q 8.[ [ x.6.[ 3.e.b.H.F.Z.V.H.V.a.9.C.Z.L.a.y.i.C.a.a.A.A.m.D.&X{.A.x.|.}./.8.8.D.D.D.a.O.I ` V m V N ! } ,.8.;.2.2.B.~.a.2.4.a.4.] ' _ _ a.C.d.5.#.L.s.#._ F _ 4.H.V.s.f.w.a.G.r.$.p.Z.#._ J m N v m >.a.B.B.B.V.V.`.~.F.W.x.;.,.4.t.y._.Q./.4X:XQ.m.{.wX-X|.F.a.e.e.s.w.e.w...Z._._.3.2.a.s.C.Z.K.Y.Y.`.{.V.9.F.F.Z.5.y.T.|.|.-X&X}.S.9.6...[ _ _ ;.z.A.[ B 1.m.m.m.(.>X/.-./ 1.;.! C - & a ] y.y.Q./.b.z.x.Q.*X&XW.z.:.[ ~ 8.8.8.n.m.m.m.l.-.,.,.[ } ,.A._.Y.s.V.a.G.Z.V.#.m N V ^ B ;.A.F.7.] J v z h u v V m S ..$.$.5.$.X. . .#.#.L r r v v h v ~ 6.8.| 7.s.w.*.k.g.g.t.%.",
"/.D.'.y.' F n a v v M B B B Q [ z.F._.Y.9.#.#.i.4.5.u.%.5.Z.oXF.| 4.a.a.u./ n _ O.O.| #.$.&.J.T.r.` +.V.B.9.] m p v D B._._.H.B.w.V.-XXX~.W.[.x.} 7.C.}.'./._.:X{.[.&X4X5X5XqX7X|.H.V.5.5.5.7.b.{._.~.XXa.a.Y.f.%.,.9._.F.y.2.` 2.a.i.B.7.2.b.~.F.B.;.| ( Q M B <.<.} -.,.M.M.| } 8.z.m.W.<.O.L n ] ] ` _ ! V [ 8.n.8.[ { ] A.x.! N _ _ n B V v n M x z M B B N _ m B x G ' %.I.w.e.H.e.S.^.~.A.A.m.F.|.>X_.y.) / 8.8.>.{ ^ { { 2.V.B.Z.V.Z.]._.Z.s.B.F.F.B.L.K.K.f.F.[.{.{.[.|.-X_._.Q._./.M.D./.D.'.y.| G n v v v B ! ! Q / } x.F.Y.F.4.#.$.5.4.4.5.4.4.C.oXL.| 4.a.y.8._ n / 2.| ..#.$.%.J.T.r.R #.V.B.9.] N a a D B.'._.L.s.w.Z.XXXX~.F.[.x.} 8.D.|.'.Q._.<X}.[.|.5X7X5X6X6X].H.V.5.7.5.5.b.{.{.{.@X5.$.B.d.C.s.Z.@X].~.F.B.y.C.a.5.B.'._.'.<X{.~.W.2.[ D | B.5.] n.M.8.,.[ 8.,.| n.(.Q.:./ 6.) x w 3 8 r #.'.|.{.[.x.!.&X&XW.W.M.x.A.W.2.6.8.8.n.A.m.m.<.:.,.| | ,.n.F._.].F.V.a.w.Z.s.9.] v ! V v M [ 8.7.6.] G v e u F ] ] 2.B.e.w.w.w.$. .P P ' G u e r r r v h M [ A.V.Z.G.f.f.s.f.Z.Z.",
"B.B.B.9.#.v v v v M M Q } B z V 8.oXoX/.9.#.5.5.4.5.5.5.%.5.a.a.i.B.y.m./.,.V N B F ] 5.e.Y.XX#XG.P #.y.9.3.^ b v m #.Y.@XoX].L.d.@X3X6X4X[.}.(.!.%X4X-X&X[._.'.'.'.L.'.3X0X-X<X7X|.B.b.7.7.S.-XL.B.C.Y.9.9.Z.V.3.>.A._.S.b.6.2.4.5.#...6.| 4.9.L.L.4.} [ ( ~ ~ [ ( } 1.m.L.K.1.( z.M.m.a.S.y.9.9.#.| #.4.3.2.B.B.b.C.A.7._ V ] [ ^ 6.2.` V M N Q Q Q Q Q M v V ! _ N N N ] 4.5.s.Y._.V.H.~.Z.n.9.8.} ' [ | #.,./ x ( 6.;.:.| >.B.F.a.Z.F._.-X7.[ 7.6.a.a.9.Z.Z.Y.I.L.L.}._.D.D.L.OXoX/.P.F.M.A.B.B.y.9...v v n v M N ! { ! v ! 8.oX|.F.9.#.4.5.%.5.%.5.%.5.a.a.9.B.n.A./.O.B B N D ] 3.i.H.XX@XH.K ..b.9.6.D b m m .._.@X@X].L.V.@X3X6X4X{.|.%XQ.%X:X<X&X{.{._.'.|.E.E.2X9X4X<X4X|.A.b.7.2.S.-X_.B.Z.F.2.#.B.F.B.y._.6X6X|.H.S.n.B.F.F.H.H.'.<X2X}.'.D.#.` ` 3.7.$.o.o.n.'.'.D.oXD.,.1./.D.,.F [ ;.Q z v v n ] d.P.OX:X5X%X>X).n.n.D.m.8.n.4.| u.m.C.m.x.z.:.,.O._ ] } | B.F.B.V.V.w.$.$.@.w.5._ m V a r N [ 6.u.O.` a r a D 2.e.7.w.2.2.3.V.V.i.5.o.L m u 8 , 8 0 r w w N 6.e.b.[.<XH.e.e.V.n.",
"n.B.4.7._ v N { ;.V M ! [ B v B #._.|.K.a.4.5.5.%.U J J L #.+.2.B.F.F./.D.D.D.,.F V L 9.F.5.e.Y.H.5.5.a.B.B.9.3.` L 3.9.K.].].Y.Z.`.3X<X6X5X:X;X*X-X%X^.[.}.{.'.OXOXI.U.@X6X&X_.{.&X{.Q.~.A.~.&X'.C.F.D.F.'.oX|.V.7.9.F.~.A.9.B.9.3.6._ m [ 2.2.u.C.d.O.( ~ ) <.z.1.[ ;.8.u.8.Q W -.m.n.F ,.C.C.C.5.+.2.3.e.a.Z.Z.a.5.a.y.2.] / V | 5.5.] V B ~ ( ( ~ [ ! Q B N B N M v b _ 5.5.V.1XXXZ.a.e.C.B.O.V n u m V _ 4.,.( [ ;.z.S.S.S.F._.V...| ..2.2.B.F.Z.B.C.s.Z.f.g.Z.Y.L._./.y.u.M./.}./.m.D.C.8.n.y.4.2.[ v B [ ;.V M ^ [ V v V 2.Y.'.K.a.4.4.t.%.I L J L O.@.4.s.F.F.L.D.D.C.,.D D _ 9.F.9.i.T.Y.5.9.a.B.B.9.2._ L 3.7.F.`.].Y.F.].2X@X6X4X:X:X:XwX&X^.}.}.{.{.].`.I.E.$X3X|./.{.;X'.F.~.A.^.-X{.S.F.S.S.{.<XoXQ.9.e.{.XX{.Q.~.L.F._.Y.Z.F.Y.|.oX'.L.K.7.e.e.3.] o.o.#.y.C.'.'./.L.n.u.y.m.) F ;.n.;.! ! / } _ o.u._.rX6X;X;X'.D.D.F.,.[ 2.,./ O.m.C.A.A.n.| | O.[ ! ! _ 9.B.e.i.V.f.w.5.$.&.5.5.] m m n V [ 2.4.,.O.F m m V _ >.$...` N D 5.a.s.i.%.L f a s r r a 0 y y v ! [ { | ;.2.>.{ _ V ",
"B.n.2.2./ h ! :.>.Q B [ ;.! V ] B.].E.a.4.t.a.B.#.m m S ] a.V.Z.].].Y.y.y.D.V.| L G L 2.Y.V.7.3.a.V.f.Z.B.a.s.e.3.#.a.Z.Z.Y.U.Y.T.U.].$X5X4X4X;X&X%X[.^.&X{._.T.T.Z.Z.E.@X#X'.&X<X4X6X6X<X~.S.Q._.'._.F._.|.2XXX{.F.V.B.B.e.y.a.a.V.5.V v | C.9.4.%.O.,.1.n.D.m.D.m.1.1.1.( B Q :.v.z.x./ 1.Z.y.5.%.5.3...] $.4.7.5.y.C.Z.Z.B.6.O.7.4.#.L v B / -.( ~ ;.6.:.[ [ _ N M v N [ w.V.F.].].a.V.Z.a.#.%.o.v u k v ! { 4.n.z.=.x.W.A.Q._.|.T.9.P u L 4.S._.Q._.L.Z.s.t.t.I.R.L./.P.n.4.8.y.A.Q.y.n.C.y.B.n.,.2.^ g W 6.;.Q B [ | / V | B.'.E.a.%.5.a.a.O.V m G ] s.V.Z.].].Y.B.n.K.C.| ^ D ^ r.T.V.5.%.a.f.V.Z.s.a.b.r.3.#.s.Z.Z.E.U.I.U.U..X1X5X4X4X:X*X*X%X[.&X|._.`.`.K.Z.T.#X@X|.&X4X4X6X6X<X^.S.Q.[.[._.W.[.4XqX6X&XS.9.Q.}._.H.|.oXD.B.C.7.7.L.C.4.5.y.B.3.y.i...G G ` 4.,.4.D.K.n.m.n.y.y.4.B F 8.n.8.2.6.6.,./ } y.2XOXoXOXL.L.D.m.8._ | B.u.o.%.y.C.M.D.n.;.6.1.} _ _ | 8.B.B.Z.F.Z.a.Z.G.a.t.i.#.L V V V V [ 2.#.] 2.] o.+.5.e...D a b +.Z.Z.a.d.d.+.#.4.B.b.V i p y b ^ | ` S N b m V a a m ",
"y.] B Q [ ! [ W h k N _ ' V F 5.'.Y.d.t.%.a.s.#.| P m L ] a.Z.H.|.@X'.E.L.y...] B.y.] ` #.5.| X.y.5.4.5.t.$.X.#.5.s.I.Z.f.Y.R.U.U.E.@X@XoX;X4X>X:X4X*X|.|.{.{.Y.f.d.f.Z.T.2X2X<X}.|.|.-X-X&X}.|.{.Q.C.D.S./.|.|.XXY.F.B.Z.F.C.a.a.a.4.[ _ 2.8.,.2.4./ n B 8.(.W.A.D.n.D.x.;.B ) l.c.z.W.y.8.y.a.&.o.$.$.#.2.2.2.4.5.C.Z._.H.Y.T.T.L.s.%._ L _ [ { W M ) :.:.[ { B k M B _ >.e.S.Z.V.U.I.U.`.K.i.d.+.u u M M N ^ _ -.6.6.b.}.&X-X|._.C.i.4.#.y.A.Q._.Q.F.F.Z.y.#.5.I.E.Y./._.C.8.,.2.A.D.n.C.P.S.y.} B ! ^ ^ [ Q v h B [ } V F 4.E._.d.t.%.a.a.#.] P m L ] e.Z.Y.|.@X].L.K.y.O.} S.b.X.^ 2.2.] | y.5.%.5.e.3.X.$.5.s.G.G.V.I.E.E.I.T.XXXX<X4X;X;X5X4X{.*X|.|.{._.Z.a.f.Z.`.2X3X&X}.oX|.<X<X|.*X{.}.L.C.D.W.{.4X4X5X{.Q._.4X<X@X2X'.a.2.` m $.Z.i.$.O.#.2.2.e.F.4.V V 4.4.8.C./.A.8.n.,.;.8.8.;./ 1.O.| e.B.x.6.;.u.1.u.o.%.u.u.y.8.;.[ V ' a.t.#.4.4.8.8.9.8.;.2.| [ [ | 2.x.C./.F.Z.s.Z.|.|.Z.C.5.#.#.| | 2.| ..4.4.$.2.$.%.t.I.Z.w.$.] ` e.Y.Z.a.g.i.f.F.'.&X&X#.9 s s a S X...^ S L S D m m m ",
"8.[ [ ! ^ =.^ M _ M h M N V ] 5.a.%.5.t.5.d.y.] _ ^ v m _ 2.e.Z.`.].Y.Y.V.3.` N ] $.^ >.....^ e.Z.4.O.,.>.D S #.s.Z.j.G.f.T.@XT.Z.U.`.{._._.[./.}.;X}.}.F._.].I.a.&.&.i.d.@X9X@X_.Y.L.'.].].].|.B.9.B.C.B.B.Z.T.XXE.s.a.Z.K.K.F.e.3.9.a.u.O./ n | 8.O./ u B n.D.L.}.|.[.'.F.8.m.W.!.!.*X}.A.2.y.u.+.#.2.7.B.H.b.a.Z.Z.Y.].V.a.Z.L.V.i.O.L ` _ / ! V Q ~ ~ [ :.^ M M ! V ` 9.B.i.t.w.i.I.I.G.Y.I.d.' v N ! ^ l.b.;.^ [ z.b.{.4X-X|.F.F.R.Z.F.Y._.H.B.'.'.'.d.@.] +.5.'.Y.K./.F.m.8.7.A.Q.Q.K.L.F.7.] [ ! ! { ! M ! M v M N V ] 5.i.4.5.t.5.f.e.] _ _ b V ^ 3.e.Z.].].Y.Y.C.4.] N ^ q.^ ^ ..{ ` e.Z.4.#.2.| m D $.s.V.s.I.f.T.@XT.G.J.`.{.'.}.}.}.&X;X;X}.L._.|.U.s.&.&.0.f.@X9X@XT.L.L.R.|.].].|.B.4.B.C.C.Z.L.{.@X|./.K._.'.<X2XL.8.' _ | t.`.Z.Y.Y.5.#.4.e.B.7.#.4._.9.S.D._./.F.S.2.F _ y.a.5.4.t.y.E.y.u.Z.2./ ! v z n o.O.4.#.' ` n n ' %.#.+.4.%.4.y.x.2.;.| | ,.8.n.C.S.C.F.F.F.F._.F.C.C.5.] I | #.2.#.2.4.2...2.5.i.g.f.h.G.U.V.T +.s.f.i.i.i.o.L [ 7.S.B.G s m m L ] 2.....+...K m V V ",
"#.2.6.| ^ -.^ W ~ v r r N _ #.4.o.J #.f.d.t.%.#.#.2.>.2.2.a.B.H.oX'.L.Y.V.7.9..._ ^ D >.>.>.` ^ ] } | ..X.^ ` >.3.r.j.s.f.R.3X#X@X3X1X{.F.B./.D.n.D.oX|.F.5.3.3.] U T %.4.s.].2X].Z.Y.+X'.].@X'.a.4.Z.y.5.9.9.Z.T._.L.C.y.#.9.n.7.| | y.M.O.| ( -.1.O._ n B 1.y.P.P.C._.4XoX/.W.=X(.*X%X}.n.! 2.F.5...>.2.7.B.F.A.B.a.B.s.B.Z.Z.i.+.] L n _ [ _ F V B ! =.;.6.>.V N v F 2.s.d.i.5.0.@.+.@.@.5.s.t.] v M ^ -.S.&Xc.! N >.b.*X-X|.3XE.Z.B.B.V.e.6.B.Y.'.oX].a.#.] F _ Z.V.C.K./.F.A.A.Q.{.n.y.5.7.,.2.6.-.{ { ^ M ! M q y m _ $.4.#.G +.f.d.5.3.#...2.>.>.3.b.B.Z.OX'.F.Y.C.4.5...^ ^ ^ 3.>.>.` ^ } ' ;.....^ ^ $.3.r.h.s.g.`.3X#XXX8X7X.XF.D./.D.n./.;XoXF.4.$.5. .U U %.4.a.].2X].Z.Y.oXR.].|.'.a.4.Z.A.n.y.9.Z.].oX'.K.s.Z._.].y.F F O.i.9.G.G.Z.f.5.i.i.9.y.8.9.B.Q._.S.9.B.}.'.n.2.O.' 4.y.Y.K.K.E.d.&.#.4.O.8.8.[ B N [ z u / O.F n F ] %.%.%.%.O.4.n.x.8.8.7.6.8.7.C.F.L.D.S.F./.S.n.n.y.C.a.| V V L _ ] ....] X.2.%.i.a.i.Z.G.r.%.U +.i.a.i.i.i.t.` [ >.2.7.P m m v m | 9.9.2.| X.] L L L ",
"2.2.] ! M M Q k g v k N ] 2.5.B.i.U t.f.V.@.` 3.B.^.~.b.F._._._._.C.4.C.~.J.j.S.S.b.>.X...>.| ^ _ ,.9.7.3...3.r.q.$.r.G.+X$X$X.X X#X1XXX|.}./.P.n.C.P.}.'.a.a.s.+.X. .+.] %.I.OXoX].OXE.5.f.].T.C.B.Z.S.Q.~.F.H._.`.L.a.n.8.9.9.| | 9.y.4.,.6.v.<.n.C.O.O.4.4.t.F.C.u.C.;X;XW.m.M.W./.}.}.D.2.n.Z.9.] | ;.;.x._.C.y.9.] ` y.E.T.i._ m G n [ 2.O.O.2._ ~ :.z.b.b.9.6.#.O.y.u.#.#.%.&.&.@.o. .e.r.9...r w W :.!.^.-X[.9.W.&X4X4X&X2X|.B.a.B.F.'.F.A.s.4.a.t.C.C.u.F V e.F.F.F.F.A.B.Q.{.F.4.O.5.5.$.2.] ! W M W x h k h B ] #.4.B.i.P &.K.f.@.] 2.B.~.~.b.S._._._.'.B.7.A._.F.Z.Z.S.r.>.X.>.....^ _ ;.9.4.3...5.r.q.$.p.G.+X$X$X.XR.#X1X<X;X|.[.D.8.M./.}._.i.a.a.+.T  . .] 4.Y.OXoXOXoXT.5.f.].T.B.C.Z.F._.[.~.~.'.|.E.9.y.C.Z.B.%.' 2.5.a.K.V.j.I.w.G.a.9.y.F.9.[ ] 3.x.8.9.9.8.2.4.Z.F.d.5.y.].Y.i.t.5.&.5.#.%.K.L.9./ M Q ! ! z M z v ( O.#.2.%.] O.| 2.9.A.D.S.A.B.A.D.m.n.n.y.B.M.C.y.u.n.9.,.` N v v V P _ L [ 6.9.a.t.g.Z.K.d.$.#.+.%.5.a.s.Z.C.Z.5.| ] } _ m v v m L | O.' ' $.O.] ] ] 2.",
"4.#.[ ! M B B k h q v _ ] ..3.B.V.] &.t.@.] #.5.b.H.B.F._.Y.F.C.9.4.| O.b.b.~.b.j. XH.J.J.V.b.B.>.| 9.4.r.b.H.T.s.$.$.h.R.I.w.%.s..XXXXX<X/././._.%X_.'.{.|.<XH.w.s.p.5.C.s.L.E.Y.s.Y.i.H ` C.T.T._.F.Q.S.W.S.F._.].L.9.y.y.S.D.9.9.C.C.1.[ B Q <.D.}.D.C.u.2.5.Z.u.,.S.[./.n.M.m./.P./.M.| C.'.B.6.^ [ >.;.z.~.{.'.L.y.9.B.B.y.5._ V ' ' O.9.#.O.4.} } l.Q.!.b.9.e.i.y.4.$.G n J U ] *.%.@.p.3.$.$._ N ^ { ^ :.-X4XW.~.{.&X6X2X<X@XL._.F.S.F.F.4.2.y.y.#.Z.L.5.^ 2.F.Y.Y.C.y.a.B.n.,.| V F 9.9.4.#.[ ! x N B k h e v _ ] | 5.V.f.] 5.t.%.' ..9.B.H.B.F.{.H.F.V.9.4.] 2.9.V.F.V.S. XJ.~.J.b.V.b.2.] 9.6.9.s.Z.T.j.$.$.f.R.U.0.$.s..X.XXX<X_././.).}.}.OX].|.2XZ.$.s.p.5.C.s.Z.R.Y.d.Y.t.H ` V.Y._.Y.F.Q.W.Q.S.~.'.|.S.O.a.5.O.#.O.4.y.C.C.B.3.$.f. Xh.r.s.9.a.9.| [ [ ! B _ O.O.o.C.C.K.C.4.t.C.f.&.t.t.o.L L _ F.oX9.v k k Q [ M e z z F ' | #.O.#.2.4.9.n.S.S.F.D.D.S.D.C.4.O.,.4.u.M.M.y.8.7._ N N v r v _ | [ _ ;.s.'.Y.Y.E.d.5.i.i.d.a.Z.Z.S.F.Y.L.'.L.a.' r r w a _ | | F p n P | 5.5.y.a.",
" .$.#.| [ [ ! h h r { 2.2...] ` ] P ` +.m #.3.a.Z.B.B.{.T.B.6.a.Q.Q.[.A./ | 9.e.s.T.T. X.X.XH.].V.] 2.9.a.e.w.5.$.D X.f.5.X.] @.r.Z.H.S.V.~.[._.;X;X;XoX'.'.H.B.a.V.H.H.~._.A.b.B.4.a.$.` ] 6.F._.Q.A.A.b.b.S.~.'.<XL.4.y.7.4.y.S.C.a.#./ ) B x =.z.m.n.C.C.u.C.Z.t.9.A.W.M.x.A.W.D.D.D.u.u.Y.K.4.` v / x.W././._.[.F.m.2.9.F.S.2.| 8.6.2.7.A.6.,.4.2.| 8.{.[.C.i.a.4.2.,.9.O.L J ] %.@. . .$. .S S L [ [ | B [ A.F.S./././.'.<X2X@X_.].2XC.;.B.8.S._.9.F ` 9.9.6.B._.Y.Z.y.5.%.9.5.' L V 2.4.#.| $.$.| { [ ^ h k h [ 2.2...] ` ] L ` ..m #.3.e.F.a.C.`._.a.6.n.F.W._.A._ | 9.e.s.U.R. X.X.XH.`.V.] 6.e.b.e.w.w...D  .f.5. .] @.e.G.H.S.S.{.[._.oX;X;X;X_._.H.e.e.V.Z.H._._.B.B.a.4.a.$.` ` 3.F.~.Q.S.A.b.b.A.Q._.;XB.| 4.O.F n _ 5.F.C.B.a.q.r.J.J.J.e.V.a.B.Q.7._ N z z n O.4.4.O.o.5.K.Z.y.i.i.f.Z.C.9.D V ;.S.[.6.^ M k k k w w r M V B } 2.4.5.4.9.C.F.F.F.D.L.D.A.n.n.9.1.8.m.D.P.P.C.8.,./ v v v r q N [ | ;.9.F.|.'.].].a.4.a.E.E.C.Y.|.[./.n.y._.oX_.O.a r 9 e B / / F e 9 F #.4.5.6.4.",
"O.#.$.2.| _ V M v m 2.Z.e.| ] ] #._ #.9.5.3.a.5.9.a.a.Z.T._.B.9.&X4X[.A.! ] 9.i.I.R.h.U.J.h.s.s.e.B.S.V.V.e.V.3.D @.w.&.5.&.#.e.Z.V.H.b.S.{.[.[.;X>X/.P._.B.x.F.`._.^.{.{.-X_.6...9.6.2.2.3.X.F.|.|._.S.A.B.V.F.F.'.Y.F.Z.u.4.t.y.y.d.O.F F ~ ) ) :.1.n.D.D.y.B.C.B.B.D././.A.W.(.W.D.n.M./.L.Z.y.L / 7.A.}.}.(.(._.|.B.2.9./.(.A.x.A.9.z.x.n.7.y.9.4.n.m./.L.y.9.a.2._ 6.9.#.#.] ` $.$. .X. .P m m b L { V n V | B.B.A.Q.F.B.B.].@XZ.L.].].'.'.n.F.A.8.} 2.D.C.a.B.a.B.Z.4.I ` y.y.] L #.9.a.3.O.#.$.2.{ _ N v v N 2.F.9.#.` | ..` $.e.5.$.a.w.9.a.a.V.T.'.B.9.&X5X{.A.! ] e.i.I.R.G.G.J.G.f.s.e.V.V.B.V.w.b.5.P X.w.$.&.5.@.e.V.s.H.e.S.{.{./.OX}.D.F.H.A.9.H.|.`.`.{.[.<X[.2.;.7.4.6.2.3.X.F.{.|.~.A.b.b.B.F.S.'.'.C.9.G n a a 3.H.3.| e.b.G.j.J.s.s.5.B.V.9.2.;.m v n L %.4.%.o.o.a.d.9.s.F.d.Z.Z.s.F.F.F.Q.b.8.:.{ h k k w r a v c / ( | 4.4.4.4.5.5.B.y.9.9.A.9.6.x.x.8.z.n.M.P.D.D.P.A.2./ v u r r q h W -.8.A.7.y.a.'.}.K.a.t.t.d.L.}.|./.8.,.} u.L.'./.' r u v } 6.,.( [ | ,.6.y.B.7.A.",
"@.#.4.#.{ _ v N v V | 4.7.| ] _ m m #.e...] #.5.I.L.Z.Y.`.oX]./.<X*X&XA.;.7.Y._.G.f.f.p. XJ.s.a.e.H.{.{.Q.S.e.>...V.e.+.+.] ] Z.1X-X.X^.[.[.Q.Q./.D././.F.C.Q.&X|.~.^.}.}.&X{.B.9.7.{ 2.G.F.a.Y.3X4X|.Z.B.e.B.V.C.y.L.F.K.n.4.4.t.C.C.u.B M ( <.m.M.M.M.y.u.y.C.y.B.F./.].[.D./.)./.P.D.D./.F.y.t.O.y./.D.W.D./././.;X>XD.M.D.Q.m.W././.A.Q.S.9.a.u.B.F.[.{.'.E.C.a.4.4.S.C.9.5.] ` 3.J.G.5.] L S D V ` .._ m F O.B.| 9.B.A.C.F.'.oXV.2.L.<X0X_.B.'.}._.|.OX'.C.B.4.[ ..s.y.%.%.&.%.' O.9.Z.F.9.#.#.5...] _ v m v V ] 7.9.] ] _ N m 2.w.| ] ..5.G.I.K.Y.].oX]./.:X&X%XA.-.9.H.Y.G.f.f.p.R.U.f.a.e._.{.{.Q.V.a...$.V.e...#.+.| Z.7X-X`._.}.{.Q.Q./.D.Q._.F.A.Q.&X{.~.^.{.}.&X}.C.9.4.] 2.H.Z.a.Y.1X7X].F.A.b.B.F.y.8.L.P.C.,.v u k 5.b...m b ..J.r.r.w.e.V.F.e.>.] _ M v n G 4.5.y.a.%.y.a.#.#.3.o.#.t.#.` 4.B.e.x.7.[ W M j h w z r / | ,.[ [ } O.O.4.4.4.9.y.5.u.9.4.8.n.x.z.x.n.m.W.(.D.m.8.' n u 0 v N j g W <.8.8.n.n.D.<X5X|.F.4.4.9.W.|.}.1.F F [ 4./.W.z./ r u ) 8.z.( c ~ -.} ;.2.x.9.8.",
"_ G _ P m m D _ a v | e.F.9...D w V ] D y D D $.I.K.Z.K.Y.3X9X[.}.&XQ.(.;X5X2X|.`.U.f.Z.G.J.Z.T.<X6XXX7X{.V.V.H.e.w.5.e.V.t.5.T.1X-XS.~.-X&XQ.{././.D.Q.x.x./.{.[.&X{.&X&X[._.L.9.2.9.e.H.J.T.`.Y.a.2.2.2.#.8.9.4.| 8.B.D.B.u.5.4.d.C.C.O.-.W.=X=X(.>X/.M.u.u.8.8.S.Y.L.P._.[.[.%X)././.W.D.D.a.4.$.B././././._././.[.;X[.[.[.Q.W././.[.W.W.S.A.A.a.F._.|.|.L.K.Z.4.4.9.y.y.a.y.e.a.V.Z.`.e.` ` ....#.4.2._ m m ' 2.| 9.9.B.F.F.V.C.5.$.4.Y.|.@X{.2X4XtX5XoX_.4.| 7...2.2.| $.&.%.5.t.a.s._.V.] L J _ _ m M D [ y a | e.F.9...V r m { D p L D $.Y.K.Z.K.Y.3X9X[.|.*XQ.^.&XqX2X|.`.J.f.G.Z.J.G.Y.XX6X|.7X|.S.B.H.e.w.3.p.V.5.4.Y.3XXX~./.-X*X~.[.(.W.Q.F.9.z./.{.{.*X{.*X>X[./.L.9.6.7.e.H.Y.T.T.Y.a.2.2.2.>.7.b.2.! ,.y.M.4.F V ^ b.r...` ` e.Z.e.w.w.w.Z.9.{ >./ r B z z F O.%.&.d.d.Z.F.a.5._ m L L I L ] 3.e.7.>.6.6.-.W W h w V 4.9.| _ ( _ ' O.O.#.y.i.y.y.i.#.2.9.n.9.9.x.m.D././.A.n.9.O.n p d n m v g N 9.m.,.4.n.D.C.9.C.D.5.O.9.F.Q.W.,./ } ,.1./.(.n.| n n 1.6.( h e B ! Q B M -.2.{ ",
"m N y b v N L ` v N #.9.F.9.] m v ..7.b D ` P ..s.C.5.%.d.3X6X}.!.[.^.&X&X4XtX<X{.XX3XXX`.].|.3XeX0X2X2X`.i.B.Z.e.V.V.Z.R.Y.T.].`.R.F.'.&X_.[.{./.}.}./.A.x.m.(.%X).!.).%X}.D.n.a.9.B.{._.U.g.i.%.V.F.9.9.8.7.8.,.-.,.A.S.n.8.7.6.#.2.7.| <.Q.(.=X>X>XP.OXOXM.-.( C.P.K.K.P./.>X*X}./.(./.(./._.K.,.A././.F._.}./.L._.}.;X;X}././.P.M.D.A.n.D.F.F.C.C.Z.L.y.o.u.i.O._ ' 4.y.C.s.H.B.X...e.2._ ] 6.6.5.3.5.] G _ ' V _ | 2.A.{.Y.L.f.y.#.4.9.2.i._.<XoX2X9XoXOX|._.F.y.6.` y b ` t.C.y.d.Z.'.$.m G m a v b m _ ` v m O.y.Z.9.` N r #.7.v D ` L #.s.f.5.%.d.3X9X[.Q.[.^.&X&X7XtX<X].|.1XXX`..X|.3XeX8X1X1X].y.d.Z.r.V.V.Z.E.T.Y.'.R.R.F._.;X_.[.}.[.}.OXQ.A.8.x.Q.^.{.(.).%X).D.n.B.9.B.Y.`.J.f.w.5.V.F.9.x.8.z.6.;.~ ;.A.S.,.! V D ^ D D D X.$.Z.H.J.e.V.`.b.>.^ ~ h M ! h v ] 7.y.K.K.'.|.9.9.V.O.d a #.V.V.4.] m v [ n.A.6.[ -.6.7.| } / / / / ) ' ' ' #.#.O.#.5.| | O.4.8.y.z.n.m.S.D.S.A.a.2.m u p m r r r h ;.7._ ,.4.8.8.9.C.F.a.5.B.B.9.W./.C.8.4.8.A.W.M.8.' ' ;.[ u 5 g n c n v V | | _ ",
"m D N l N m _ _ G [ 9.6._ _ _ O.] ....P  .` L  .f.Z.g.t.Z.2X6X4X_.^.&X&X-X<XqX6X-XXX|.{.XXXX|.eXuXuX3X].I.a.5.+.X.#.Z.G.y.L.].I.I.T.Y.Y.<X&X|.&X}.}._.[./.W.Q.>X%X=X).).|.[.C.C.Q.Q.B.H.s.w.&.&.w.f.B.F.^.S.b.z.x.x.m.n.D.8.2.2.3...3.7.} 6.%X!.!.(.).P.%X:XP.n.;.n.u.1.u.] ,.W.(.P./.D.(.%X[./.L.A.A._.].|.2X2XZ.B.B.C.|.oX}./._.P.M.S.A.m.W./.S.C.y.C.y.%.%.o.4.O.m a o.a.5.` ` L N b ` ..| } ] | 7.9.4.4.6.| [ B M M / 9.C.s.a.i.t.%.s.i.2.] Z._.Y.|.K.a.C.F.C.9.] [ { m b _ t.C.%.5.K.Z.] m V V N v N N L _ V ] 9.2._ _ [ | ] #.#.P  .` L  .s.Z.d.t.K.@X6X5X(.^.&X&X&X-XqX7X-X|.|.{.XX|.XXeXyXuX3X].Y.i.5.+.] #.Z.H.i.L.].Y.U.T.Y.Y.4X|.;X;XoX[.(.[.(.D.!.%X%X=X=X=X>X}.C.M./.Q.B.H.s.e.0.&.0.s.B.Q.{.W.b.c.c.c.c.A./.8.! M D D ^ S D S ` $.e.3.w.b.~.b.6.^ N ! W ! [ -.>.5.C.OX2XOX'.B.9.8.' _ _ 4.F._.Z.L y v u _ -.x.c.7.;.[ Q B Q / / F G F G _ ' #.O.o.#.| _ / 4.n.8.,.-.,.9.A.D.a.9.9.%.J p u y r r v _ ! } 7.,._ ' O.7.y.B.Z._.F.x.A.W.D.C.M.m.M.8.} -.O.4.,.[ z 9 u z z n V ] | ] L ",
"..{ ^ D ^ [ D _ | $.9.O.a r v L [ ` 5.#. .` ` $.Z.I.].C.C.OX2X&X{.[.Q.~.|._.XX1X-X_.~.{.|.|.Y.F.|.yX9X@XY.Y.a.X.P D a.Z.i.Z.`.Z.f.V.a.T.'.}.;X2X}./.}.%X}.}.%X%X(.(.>X>X).N.W./.W.F.F.7.` ] 5.w.@.2.9.`.|.'.S.A.n.x.n.S.S.8.2.7.9.e.V.B.A.S.(.=X(.M.).P.).>X).N.u.n.) F F M B <.D.D.P.D./.Q./.B.S.{.}._.C.B.T.oXF.9.y.L.oX'.L.C.P.L.C.C./.D./.D.C.y.4._ F ' o.O.%.2.O.O.O.] F v v y y v N 2.9.$.L L | a.4.9.4._ B B N M v [ 2.] #.i.g.g.a.f.] V [ 9.|._.F.O.G ] 5.O.G _ 7.>.] | 4.Z.a.t.i.#.L _ >.{ D V ` ^ D _ | 2.9.| p u s L [ ` 5.+...` P $.V.I.].V.s.|.2X;X[.[.Q.~.|._.XX3X<X_.~.{.|.|.~.Z.|.yX0X@XH.H.e.X.P D a.Z.i.Z.E.Z.f.V.i._.|._.oX6X}.Q.&X&X{.[.*X>X=X=X,X,X%XN.P./.F.F.F.7.` X.w.w.@.#.9.].XX|.F.A.x.c.c.W.~.A.| { X.` 3.r.X.X.w.r.V.5.5.e.>.e.x.{ ( ^ -.!.*X&XS.B.C.'.oXoX|./.9.,.6.y.a.F.Z.S.B.| h h v B 2.7.4.x.2.Q / / ( ( / / / F / H H / _ ' O.O.| ;.1.8.,.O.| ;.,.2.O.O.2.i.t.] v 0 a r s ] 2.[ 9.n.2.V m | y.9.2.9.a.7.b.A.D./.L.P.B.C.u.| | | 4.4.) F u x n ! m N L ] #.| ",
"7.b.b.e.#.| 2.#.[ F ] O.` a 0 a n V ..$.` P ` 5.5.5.5.5.i.`.3X2X>X[._.|.`.S.H.~.[.{.&X|.&X&X{./.'.@X_.#.a.Y.e.5...` 3.V.Y.i.i.Y.T.T._._.L.'.}.}.[.{.|.|.;X*X).P.(.=X=X%X/.n.M.W.F.^.B.b.>...X.&...$.9.V.`.@X|.&X'.F./././.9.| 9.F.V.S.F.S.W.[.%X%X).>X>XM.M.(.).W.1.) u h M ) | ,.1.1.1.-.1.M.F.Q.Q.&XXXC.4.4.y.4.` O.Z.'.Y.Y.C.C.y.y.y.D.Q.S.n.A.8.G u n F ' %.,.F } 2.#.9.| _ D ^ _ k N 3.Z.C.O.V G [ 4.B.n.B.A.] _ } ^ [ 2.] ] 5.a.i.Z.f.G r m 2.}.oXL.O.F O.Z.d.] | e.9.9.9.9.5.4.5.5.y.#.` 3.b.b.9.>...2.#.[ L ] ,.` v r a m V ..$.` P ] 5.5.5.4.t.y.'.3X2X>X{._.|.{.F.H.~._.|.&X&X&X&X{._._.<X_.#.B.H.e.w.#.` 3.V.Y.i.i.T.Y.T._._./._.}.|.}.'.:X|.&X>X}.).*X:X,X>X).m.M.W.Q.Q.A.x.>...] $.#.$.e.V.`.<X<X<X|.W._.[.[.A.;.b.S.7.X.X.R q.@.G.].Z.b.{ ^ b.S.z.A.W.^.*X-X*X!.Q.K./._.'.'.{.Q.C.L.Z.a.5.F.|.F.6.! ! Q B ,.] 4._.S.7.8.;.[ / ~ / } ( x z n / [ O.O.[ | | ;.x.8.2.,.2.4.2.' o.%.5. .] P G d s m | 4.| 2.7.| P | 2.5.O.] #.4.V.b.x.Q.D.n.8.n.y.| [ -./ / 1.t.#.F ( _ / / V V [ | 8.",
"^ >.9.2.] _ m N b v V | ..^ a k b N ] ] ] L L ] 2.] | ..| i._.2X4X4X|.~.F.{.{.}.&X-X&X&X*X-X4XqX4XF.4.t.K.'.a.e.5...r.>.y.s.4.B.C.F.<X_.].[.OX4X|.[.}.;X5X;X'./.(.).}.%XW.x.n.D.W.A.n.A.n.2.| ..$.5.p.Z.T.].XX{.H.Z.F.`.Y.x.4.b.Z.H._.F.9.B.F.(.%X;X%X).m.c.=X:X/.u.( F F } 2.,.;.I / V B ~ x./.F./.;X2XT.L.9.| 4...] w.Y.G.f.a.s.9.$.6.9.F.Y.F.4.| G F F / ;./ n a v V ^ 7.9.6.>.>.{ N ;.F.|.'._ B V F O.9.s.y.y.9.] } _ _ { ! ^ | 4.i.5.o.v r v 9.}._._.2.v _ 2.B.B.B.3.4.#.5.5.5.6.w.$.$.3.2.^ >.9.2.] _ m m N v m | ..! v y v B ] | ` L L ] 2.] ] >.| 9.T.<X4X4X&XQ.S.[.{.{.*X-X-X&X%X&X4X5X<XF.u.t.K.OXi.i.3...r.3.e.V.4.V.V.F.<X{.|.[.}.;X;XOX>XqXwX:X[.(.(.%X%X*X!.m.n.W.W.A.m.A.b.6.] #.$.5.p.G.`..X1XXX`.Z.F.{._.B.A.e.e.e.q.q.X.S R p..XT.b...V.V.a.C.|.>X*XW.c.=X*X}.(././.[.&X[._._.B.a.9.4.B.C.9.9.2.[ ^ V V >.A.~.D.m.M.n.z.v.:.<.~ M z B / [ ,.} / _ _ V _ 7.x.9.8.;.;.2.2.5.t.#.o.] #.#.I H U %.t.%.2.$.#._ L ] F n _ 2.B.~.~.F.B.S.4.1.8.m.2.;.6.| | 7.8.;.[ 1.6.1.| [ G F ] #.",
"| ;...` m b b a b v N ] >.! v v V V v v F V ` _ m ` 3.2.G #.Z.|.<X|.[._.{.}.[.~.[.&X5X4X^.{.&X-X%X}.;X2X$X$XY.Z.S.Z.G.Z.T.`.Z.a.B.~.{._././.}.;X;X}.|.4X;X>X[././.(.(.W.W.m.M.W.x.l.A.Q.D.9.| 2.5.@.p.f.G.T.`.T.Z.V.a.F.Y.B.e.7.V.Z.V.Z.B.V.Q.~.[.%X(.).).[.:X:X%XL.4.4.4.9.n.4.[ / n B Q =.W.Q.Q._.|.B.'.<XF.#.| 3.| e.T.Z.@.%.a.e.| ] | 9.Z.B.#.] O.| F / } ] _ _ V a V { B.A.S.S.>.7.[.|.@X'.#.[ 2.7.7.#.L | 4.O./ V V h h ! { B N ] _ m u r / B.|.|.F.| L N m 7.B.a.9.y.4.2.y.5.H.H.>...>...| ;...` m v b a b v N | 2.V v v V / v v L V ` [ m ` 4.#.J #.Z.|.-X|._.'.|.}.{.^.[.&X4X4X[.{.-X:X}.}.;X3X$XoXY.Z.V.V.S.S.~.T.Z.e.B.~.{.'._._.}.5X:X;X5XrXrX:X>X(.(.).(.W.(.W.m.W.x.8.A./.S.z.;.$.3.$.r.f.G.`.`.`.G.b.a.F.H.B.b.2.9.p.r.r.@.X.R #.s.G.S.H.H.V.i.Z._.&X*X(.=X:X:X=X=X(.(.(.}.[./._.F.B.B.9.9.9.O.| | 7.x.>.[ 7.F.Q.W./.L.m.W.N.l.l.Q z ( F V } O.| } } [ F L ,.x.n.x.7.| 6.4.#.%.%.L L t.&.@.&.k.t.i.d.y.2.] _ ] 2.2.V L | 2.7.4.2.4.n.8.4.1.| O.-.[ ! ! B ( 8.6.1.8.8.2.O._ I ] | ",
"9.2.2.D a a y 8 N ] >.2._ N N / ! [ m N v v N v S #.Z.s.U f.@X].{.F.V.H.Z.Z.`.~.-XeX6XqX&X%X4X4X}.D.}.2XOX'.Y.Z.`. X`.~.{.].@XY.H.Y.Y.F.Z.'.}.'.|.;X5X}././././._.[.W.W.!.W.n.z.8.n.Q.(.S.n.2.5.a.w.r.w.V.`.T.I.Z.V.5.b.S.A.F.F.L.B.i.Z.F._.|.W.M././.).%X%X*X%X%X'.t.O.5.4.y.D.8.,.B B ( :.l.m.D.y.,.V 4.Z.y.2.2.B.F.s.Z.d.$.#.#.3.7.] _ F L #.s.5.4.,.[ / ( 8.B.B.7.] V { 8.,.b.Q.S.[.}.-X;X7.4.D.8.n.4.5.` L O.G u M N z v ,.7.^ [ ] F v v u ! b./._.A.V V 2.| 2.7.B.H.B.a.9.9.y.Z.Z.e.5.3.5.9.2.2.D a a y 8 N ` 2.6.[ v N / V _ N N v m N a m $.Z.s.U s.@X.X`.H.B.H.Z.S.Y.`.-XeX6XqX&X&X4X5X}.W.}.@X@X`._.F.{.`.T._.`.XXXXY.H._.`.F.F.].|.[.;X:XrX5XoX/././.(.%XW.!.).!.m.<.z.x.D./.D.x.2.4.a.w.p.w.Z..X].T.Z.Z.3.e.S.b.S.~.`.r.q.f.r.q.X.S D 7.`.XX|.H.Z.~.|.;X;X;X<X*X>X%X}.(.P.(././._.Q.Y.H.V.4.] | _ ^ { x.S.9._.&X{.^.}.).n.6.z.W.l.( ! } 2.| ' } ' 1.9.9.4.#.F | 2.,.8.8.,.2.4.y.C.y.#.] %.#.t.i.&.&.%.i.f.y.2.9.F.C.y.2.6.6.} _ F n L | 4.2.[ N ! [ V v n V F u.n.4.4.8.9.4.o.#.4.t.",
"Z.Z.6.V v r y y m ] 4.9.` v r / | [ B N v V v y m ..e.3.&.U.$X+X#X`._.J.F.w.s.{.-X<X-X7X4X5X|.*X[.1.L.oXC.C.@X@X-XXXXX-X.X@X@X].].].XX@XD.L.'.Y.'.;XOXK.F.P./.L.Q.}.[.[.%XN.1.<.n.A.(.A.m.m.B.F.J.G.f.3.Z.].Y.V.V.F.V.B.F.Q.~.}.|.I.L.I.e.9.{.%XW./.(.).).{.%X|.>X}.u._ 2.4.4.C./.M.:.-.:.l.c.W.m.} / ` 2.B.C.A.B.F.{.Z.&.5.a.Z.w.+.9.B.| V _ 2.9.2.6.a.a.1._ O.a.C.Z.e...{ F [ { >.S.|.{.&X;XC.D.}.B.9.3.y.2.' ' _ n n F ! | 9.9.9.b.B.O.V v z _ x.Q._.F./ N 4.x.9.B.9.V.F.F.F.a.C.a.e.r.e.B.y.Z.Z.6.V v t r y m ] 3.7.` v r _ | [ V M v N v r m ..e.3.5.U.$X+X#X`.`.J.G.e.b.`.XX<X<X4X4X4X}.%X[.1./.oXC.V.@XXXXXXXXX1X.XXX2X].].XX1X3XL./.'./._.oX2X;X>X}./.D.Q.%X(.(.%XN.1.8.n.A./.D.m.m.C.Z.U.Z.s.3.G.|.Y.Z.Z.H.S.S.~.Q.~.-X`.3.$.s.w.$.` S b X.b.`.|.XXXX<X6X2X;X5X2X|.OXOXP./.}./.F./._._.H.F.F.9.P _ ` ` ] e.F.|.4X/.8.8.D.(.D.8.m.Q.l.~ V O.8.8.8.8.| | 8.y.y.5.O._ [ ' -.] | 7.S.L.L.d.y.d.9.%.t.Z.t.+.U %.d.y.a.F.Y.B.9.C.y.| / -.2.%.' / _ ' m m m V V _ _ V F 4.y.8.8.C.C.5.%.5.a.a.",
"..] ` S V v b m a V 3.B.a.] v ! ^ M v V ` N k s y D &.I.h.h.U.I.G.I.]..X`.H.Z.`.{.{.{.4X5X4X:X/.(.>X:X].B.w.H.0X1XH..XH.H.{.`.F._.R.{.XX{.Y.F.V.Y.].L.y.L.}._._._.[././.n.8.z.M.D.m.D.D.D.M.F.F.5.X.] 5.Z.].`.Y.Y.H.Y._.{.&X&X-X_.f.a.a.9.7.W.%X}.%X}.;X}.}.(.%X5X2XS.4.4.%.%.u.y.C./.P.D.W././.'.(.}.D.4.n._.S.A.S.C.B.` ' 5.V.w.3.a.V.F.B.i.B.Z.B.2.9.F.L.8._ | 5.y.d.u.d.C.n.9.7.8.Q.oX}.oX;X/.C.A.B.9.2.2.9.a.4.' V _ [ [ ;.b.a.B.D.F.9.[ Q ! 7.W.Z.4.` _ y.H.~.F.9.] 2.>.7.a.5.$.5.f.f.a.$...] { m D v N m a D 3.V.a.] M ! ^ v v V ` N y b y D &.I.h.h.I.I.J.I.].R.{.J.G.{.{.].'.4XqX4X:X/.(.>X;X{.s.5.H.tX1XJ.].H.Y.].'.L.`.].|.6XoX_.C.C._.oX|.'.5X5XoX[.[./.W.Q.n.1.v.M.M.D.D.M.M.D./.F.5.X.] 3.Z.].].I.Y._.].XX4X-X-X-X`.&.+.*.i.$.V [ X.#.t.E.OX3X3X<X<X{.Y.Z.'.P.K.C.m.C.D.D.[._./.'.F.B._.H.w.3.$.#.#.B._.6X<XF.n.D.P.(._.D._.{.x.{ | 8.9.9.y.B.4.} O.4.9.u.5.5.u.u.,.O.| n.'.F.C.F.C.C.5.$.4.i.t.+.L %.Z.C.a.C.Y.B.9.A.2.[ [ 8.C.M.O.L _ m n ] _ v N ' O.I L ..4.4.4.5.a.4.i.i.5.#.",
"v m _ [ N N ` N b ..4.Z.@XB.[ B B Q Q M ^ ^ v v y D 5.g.p.f.U.a.w.I.J.`.`.J.H.`.{.{.~.4XtXqX*X/.[.}.|.}.V.Z.Y.#X1X.XH.`.|.|.Y.2.| 9.2.B.|._.9.4.y.C.C.F.'._.B.y.L.Q.D.m.,.1.D.S.D.P.M.n.m.6.A.C.] L ] a.V.H._.Y.Y.'.@X:X&X*X{.-X|.Z.i.5.B.F.~.%X%X>X>X:X>X(.(./.[.'.C.9.t.%.o.] 4.C.L.D.m./.}./.OX;X;X|.C.C.}._././.A.y.O.o.4.5.9.a._.|.&XA.9.9.C.L.B.B.B.y./ u N 4.y.y.u.#.#.4.2.;.9.B.'.<XoX}./.}.'.C.3...2.i.Z.y.| _ ! _ V 2.Q.x.b.[.[.Q.A.F.x.8.7.6.4.B.V.V.Z.F.a.| ` 2.2...4.7.5.#.%.f.f.I s N _ [ N N ` N N ..4.Z.XXB._ B N Q ! M ^ ! b v y D &.f.i.g.U.s.w.G.U.`.T.Y.S.`.{.{.~.4XqXqX&X_.[.}.|.}.B.V.T.#X1X].H.].].|._.2.O.e.4.Z.<X'.2.O.4.F.|.2X5XoXD.S.W.A.x.n.;.,.M.D.W.W.D.n.m.1.m.C.] L ] a.F.U.'.Y.T.].5XqXqX4X*X4X|.V.0.w.d.5.L 2.8.y.K.L._.oX-XXXH.V.t.C.L.n.u.M.m.D.M./.}.&X|.{._._.`.`.Z.Z.V.B.y.Z.Y.].&X}.}./.n.x.m.9.S.Q.F.b.9.8.y.y.9.4.O._ ` 2.4.4.4.4.,.} _ ( } } 1.n.A.A.B.5.9.V.Z.s.%.5.%.&.Z.C.O.O.6.9.9.2._ } -.[ ( ( ' ] 4.` J ' m m P ' ` L #.9.B.B.B.a.y.5.2.a.i.] ",
"J F | 6._ ..9.] 4.a.5.s.Z.6.[ N N ( { ! [ >.V v m 3.Z.f.T.I.f.i.w.G.U._.H.V.b.`.`.F._.}.<X5X:XQ.Q.}.[.S.e.V.Z.Y.V.G.J.1X6XqX7XA.O.2.| 9.F.B.#.o.o.| $.9.A.Z.a.y.S.L._.L.D.B.A.C.M.y.m.D.,.B B / V | s.y.i.C.L.Z.C.F.Q._.&X-X&X7XoXZ.i.#.O.8.A.%X[.[.}.W.Q.(.).(.D./.Y.9.O.o.t.t.O.#.u.4.O.M./.K.P.}.:X|.4X;X}.[.}.[.D.D.4.6.4.4.a.V.H.XX&X'./.F.B.Z.B.y.4.O._ ' | u.C.y.' G G _ } _ ;.7.K.'.L.F./.'.Y.2.L ] #.2.y.2.L } ] -.8.Q.|./._._.Q.S.F.[.A.9.n.8.B.'.oXOXL.s.5.#.4.e.H.A.B.s.4. .P #.5.$.F F | 2.L >.7.] 3.a.5.a.Z.2.[ V W ( { ! [ >.B v S 2.Z.h.R.U.f.a.r.G.T.H.H.V.V.`.{.F._.}.<XqX>X/./.}._.C.a.V.Z.J.Z.G.Y.6X9XtX5XS.O.2.] b._.9._ N m F n.L._.P.B.A.F.A.F.W.S.m.m.C.n.n.n.M.-.B M / V | s.a.9.C.Y.F.Z.L._.%X4XwXwXeX<XH.i.i.d.5.[ 9.2.1.C.L.E.oX|.F.a.+.] y.D.D.n.n.m.D.W.W.[.&X&X]._.|.H.V.e.e.r.V.C.Z.u.y.L.F.n.4.O.| 2.2.y.y.b.B.8.| 4.5.4.] ' ' O.y.B.u.O./ G ) / V V / _ 2.9.9.B.e.4.i.Z.Z.s.9.Z.Y.K.E.i.O.V ] 7.;.B ! / B u n L #.9.5.5.5...] 2.9.a.C.Z.F.F./.F.F.C.t.$.%.&.O.",
"N V V | 9.V.2.{ 5.#.4.w.5.7.| L [ =.^ _ { { V V L +.@.Z.U.f.f.U.G.T..XZ.w.S.XX1X@XH.XX<X|.2X4XH./.|.y.e.F.V.d.i.@.e.{.6XtXuX5X&XF.n.n.6.9.3.| ` ] ' _ 6.9.C.a.u.d.D.Y.Z.C.y.e.a.F.F.C.,.Q M B n D #.2.$.#.y.i.B.C.L.F./.[.*X&X}._.Z.t.,.| 2.6.W.W./././.D.D.W./._._.Z.8.u.y.t.O.] B M n / 4.M.y.y.D.;X4XL._.D.P.).}.%X;XF.9.7.4.V.F.~._.Q._.'.Y.Z.B.7.9.,.9.C.y.u.C.n.y.u.n u / ! Q | a.C.L.L._.'.C.5.L n ] 4.5.4.N u N ;.9._.'.L.Y._.~.~.A.A.W.A.F.|.oXOX].'.L.5.a.Z.Z.Z.Z._.Y.F.Z.B.5.U I +.| m V ! | e.B.3.] 4.#.4.e.5.7...! [ [ ^ [ { { V D L +.@.Z.I.f.f.I.G.T.XXZ.w.Z.|.3X-XH.XX-X|.2X<XL./.|.n.a.F.V.B.w.+.w.`.6XqXuXqX*XS.A.B.2.6.] v n B M ' n.9.C.F./.F.B.F.B.y.y.t.y.Z.F.D.,./ x F n D #.2.$.#.y.i.y.C.Y.Q.[.*X-XeX-X'.Y.s.a.V.4.( [ B n ] u.C.oX}.F.y.o._ ,.M.M.z.z.m.W.A.W.&X&X<X|.H.H.F.].b.^ b D 5.Z.4.` ].'.a.B.T._._.B.4.9.B.B.B.2.| ` ' O.u.4.5.y.y.9.4.G u / V B ! _ } O.| 2.4.9.2.#.y.9.5.C.I.Z.V.a.2.V M [ | V N B B h e u m _ #.i.f.s.d.B.a.B.L._.L.Y.F.Y.L.L.F.f.5.#.%.O.",
"N ! ^ ;.9.7.` ` ` ` D ..#.B.B.S.A.x.:.7.z.| } L m u m ] s.Z.2.X.5.V.H.V.a.a.@X3X2X@X'.Y.@XOXOX`.F.|.Z.Y.C.a.Y.+.%.Y.9XuXiX;X>XwX&XQ.6._ { ` _ _ _ ] ;.7.A.a.4.7.B.C.s.y.a.p.w.a.K.y.' n B M n B ' #.O.4.i.5.4.Y.|.}.}.>X|.S.,.8.9.7.5.#.,.,.<.l.W.=X%X/././.(.;X:X}.F.S.F.Z.2.B N Q ! ! [ <.4.4.t.m.S.A.n.n.8.M.;X;X}././.M.O.O.9.C.Z./._.}.}.|.|.Y.B.i.C.L.Y.B.5.5.C.4.1.F u n h l 7.B.i.B.Y.Y.`.a.m p a | 4.i.F.| O.,.z.B.A.F.Z.S.L.F.A.7.8.z.b._.~.'.].'.d.t.a.L.Y.t.%.Z.@XT.F.Z.H.s.O.O.2.L N ! [ >.9.7.` ` ] ` L X.#.a.B.F.A.x.6.7.l.| ] / m a m ] a.F.2.X.5.V.H.V.B.a.@X3X2X@X].Y.@XOXoX`.F.|.Z.Y.V.a.Y.#.%.Y.9XuXiX;X;XuX;X/.7.V ^ V N ^ ~ N ;.S.x.9.9.F.F.C.9.5.i.w.w.a.Z.y._ n M x n n ' #.O.%.y.5.9.Y.oX|.%X4X:X/.8.S.F.9.w.b.V.7.{ ~ Q ( ( } 8.A.A./.S.O.F ,.z.8.z.m.x.A.W.~.&X&X|._.T.K.E.'.2.v u v O.u.] u.d.5.O.a.Y.`.5. .V.Y.F.B.B.9.] ' #.y.y.9.5.8.u.2.O.F u B z n ' | ] | 2.| #.#.2.#.#.a.Z.y.u.y.a.2._ v M ] #.[ V n v a r a m ` %.a.p.i.a.9.y.C.L.F.D.'.|._._.Y._.F.i.5.4._ ",
"{ ^ W ^ >.>.......X.S b D m ..B.F.F.A.S.S.-.B m n a a L 2...` >.5.V.~.a.F.oX@XY.L.a.t.'.].].].Y.s.Z.T.L.Y.u.5.5.5.K.2XtXtXqXrXqX:X[.A.;.2.3..._ [ | >.7.9.7.y.2.7.9.#.$.+.#.0.a.5.o._ [ [ V c z [ O.o.o.#.] 2.A./._.Q./.%Xn.,.8.2.7.6.7.A.A.c.^.(.).OX>X>X4X5X5X2X;X6X<X_.K.y.} ;.6.[ -.z.n.u.u.u.8.9.A.C.D.y.8./.}././.(.m.[ V u.P.F._.&X|.[.}.'.'./.L.L.Z.C.C.#.,.n.8.u.t.;.B M ! ;.6.s.Z.'.T.T.g.J s J i.F.5.| 9.C.9.B.A.b.F.F.C.B.D.A.>.{ 6.W.{.F.F.'.E.Z.f.K.I.C.#.] 4.Y.].V.5.B.i.Z.F.#.[ { ! M ! ;.>.......] S b D V | B.S.F.A.A.A.;.n B n a a L 2...` >.w.b.H.b.Z.XX@XY.L.y.y.'.R.].].I.a.K.Y.Y._.9.5.t.5.Z.2XtXrX5XrXrX5X*XQ.} | >.{ N ! ^ :.b.6.[ 6.9.5.%.J ] ] U $.e.5.| L [ | B z n [ O.O.O.#.] #.F._.(./.[.;XD.u.B.6.;.>.b.~.b.7.7.6.=._ <.8.8.B.oXL.,.8.W.x.z.z.<.x.(.Q.*X'.F.Y.Z.s.K.G.7._ v v a B $.y.t.I o.&.O.a.Z.3.] V.H.5.e.9.O.[ O.4.u.a.a.4.#.9.6.1.#.[ B N / } | 2...| ..2.@.] ] ..a.i.#.5.a.5._ v k v [ 4.6._ m z a v V ` #.5.5.%.5.y.5.y.D.F.C.n.A./.{.Q.C.F.C.F.F.>.[ ",
"{ M h B [ | 4.B.3.#.` s S L [ 3._.Q.F.[._.x.#.| a 9 v m v [ S.7.>.V._.F.|.|.H.B.Z.5.5.s.a.s.i.a.a. .v 2.2...[ _ O.L.@X0X9XrXuX5X<XQ.x.2.| 6.7.7._.B.^ >.4.2.V.4.L ] ..3. .T +.3.#.o.' } -.) x z B O.y.t.#._ O.B.B.W.A.W.D.u.8.9.Q.~.A.A.{.^.m.[.:X4X;X2X5X5X4X;X:X5X2X'.L.Y.C.S.Q.W.M.n.A.S.C.y.y.4.| 8.8.9.M.C.M.C.D.P.m.<.| ;.n././.oX6X2X_._./._.L.OX].Y.'.'.C.y.M.n.1.8.n.,.^ ! ! e.Y.'.I.I.R.I.%.@.5.Z.d.` a F ' ! 7.A.A.F.y.a.y.} A.6.>.x.A.'._.y.O.t.d.a.d.a.U F L ` a._.B.$.4.4.4.2._ ;.{ M j N { ] 4.B.3...` b V ^ ` 7._.Q.F._._.b.| O.v 9 v m v _ V.9.>.V.`.F.|.|.L.B.Z.5.4.s.a.a.a.a.s. .v #.2.| [ ` | L.@X0X0XrXrXqX5X(.A.2.{ >.:.>.*Xb.^ l.6.! A.7.F F G J D K P $.+.] _ | -.( c g n O.y.t.#.I O.9.A.Q.A.W.D.M.n.D.[.^.S.b.^.{.^.Q.Q.A.,.x.F.S.L.'.K.L.;X}.D.W.Q.A.A./.F.F.H._.s.i.a.t.y.4.,._ z u n ` 4.5.#.%.%.t.U.Y.s.e.s.Z.b.F.9.| ] | 9.i.B.Z.u.2.8.4.,.2.4.[ V V N | 2.#.2...2.5.#.O.#.2.| [ #.4.| F v v v _ 6.4.| V m V _ [ ] #.4.5.5.i.C.Z.B.y.9.8.4.7.n._.B.9.B.9.6.2._ [ ",
"W M h M N ^ B.].F.a.3.` m e.F.e.F.{.{._.A.F.B.y.O.| _ _ m [ b.9.S.{.|.2X;XZ.B.B.Y.F.#.| #.$.a.V. .b ..F.Q.;.] a.Z.5.y.E.;XrX0X5X}.8.;.2.>.3.3.6.Q.F.>.6.9.| | _ _ [ | X. .X.+.+.@.#.O.;.} ;.B u B 2.y.a.y.t.a.F._.{.Q.m.M.C.8.C.&X|.[.{.|.&X[.|.;XqXtX5X5X5X4X5XOXL.].].Z._.F.Q.&X_././.x.9.y.4.I F | ,./ B ,.8.4.1.1.2.,.n./././._.oX5X6X4X{./.9.u.C.Y.C.Z.L.'.'.D.y.z.8.8.6.1.x.z.8.9.a.s.Y.I.I.h.f.a.V.d.4.L G v _ [ 9._.F.F.F.F.F.,.[ 6.b.[.|./.F.5.G ' O.#.4.%.` G n v #.Z.V.9.#.2.O./ _ Q N M k M B ^ B.{.H.e.$.` S w.H.9.F.|.}._.A.F.B.a.O.] _ _ m [ b.9.S.{.&X1XoXZ.B.B._.K.#.] %.$.y.V.] b | F.Q.| ] a.Z.5.y.E.2XrXrX9X;Xx.6.7.2.7.7.6.^.^.-.c.Q.} ] [ F F m m S S U  .+.2.,.,.;.;.F g B 4.y.a.y.5.B.C.Q.}.Q.m.D.P.n.K.qX-X-X[.{.{.{.}.4X{.n.n.9.5.5.y._.;X/.P.Q.Q.D.D.A.F.}.].'.a.] o.T &.a.2.;.2.' V v H O.5.$.a.G.G.a.Y.G.s.e.V.H.V.2.[ [ ,.2.6.9.B.a.9.1.6.2.1.;.;.6.,.] 2.2.3.w.5.@. .#.#.2.] J G L F V v v z z _ ] ..O.| L _ ] | ,.#.2.+.I ] 4.a.C.4._ F / _ O.9.B.4.| ,.O._ [ ! ",
"M N N h M | B.{.XX`.V.V.a.e.b.H.'.|.'.A.B._.Z.B.F.y.6.2.>.6.b.3.V.`.{.&X-X9.| 9.F.L.a.C.L.V.V.a.4.3.4.B.S.Z.Z.F.`.5.4.V.@XuX$X'.A.;.2.2.A.9.9.7.A.|.F.A.a.2._ V V ^ [ ..#.$.$.%.4.9.8.4.6.<./ M V | ] 4.a.s.a.a.Q._.M.m.D.D.n.D.&X<X:XXX;XoX|.oX;X}.'.oX].'.'.].F.C.@X3X'.C.y.C._.L.Z.t.O.2.2.2.O.8.9.,.} ( ' t.F.Z.B.7.n.D./././.W.)._.oXoX).D.B _ y.d.$.2.y.Z./.D.n.n.m.z.<.z.Q.c.} [ _ ..a.U.U.f.f.r.f.V.y.5.O.B _ ;.x.F.A.F.'.C.B.7.! 8.^.W.A.A.C.y._ m m m m D ] _ a u ] i.s.B.s.9._ h Q N M N N h N ;.B.'.XXT.V.V.a.w.V.F.'.|.{.B.B.T.Z.V.F.y.2.6.>.6.b.7.V.T.|.|.&X7.| 9.F.L.B.C.L.V.B.a.2.3.7.C.S.C.F.F.`.y.%.C.@XyX2X}.A.;.6.b.~.A.x.7.b.-XQ.A.A.[ N N v k a N K P X...4.4.9.8.6.1.! M B | ] 4.p.s.a.B.F.[.W.m.D.D.M.C.;X5X4X&X{.'.|.&X|.F.A.#.D P O.5.K.C.B.F.F.A.S.A.B.F._.C.a.$.` ` ' o.' O.;.B.S.| L _ #.$.Z.U.V.i.5.Z.$.5.i.+.2.9.2.;.2.6.[ L #.y.B.8.2.8.n.,.-.,.x.8.] | ` | 5.p.t.] @.5.%.o._ ` F n B B z z v } 6.#.#._ v B [ | 7.8.#.O.' G F ] | _ [ V v v [ 3.5.9.9.2.! M Q B ",
"B ! ! N h ;.F.F.e.b.`.XXT.H.`.H.Y.T.H.B.a.'.T.Z.L.a.9.B.b.9.b.9.V.V.V.{.~.] F.|.9.Z.F.].'.OX@XZ.B._.B.5.9.L.Y.Z.L.V.Z.OXL.Y.L.P.7.2.6.6.2.n.'.|.S.B.9.a.a.C.9.[ _ { | ] +.] 4.V.B.2.8.8.} / [ } G ' 5.5.5.i.B.B.B.x.z.m.W.L.8.8.[.&X<X:XoXoX;X;XoXK.a.y.5.e.a.6.4.d.I.@X+X5.#.2.7.y.d.4.G _ 8.9.C.D.D.D.D.y.O.4.L.L.9.B./.[././.P.M.D./.'.P.C.4.n n ] O.O.$.a._._.M.P.D.8.<.<.x.Q.Q.A.9.4.3.2.r.G.p.r.f.a.f.s.a.| 2.S.x.A.{.Q.Q.'.F.F./.Q.W.b.^ B b._.9.` n u s s v _ ! v v _ O.#.4.F.2.6.<.! Q W ! ! N h | F.F.b.b.`.XXH.H.`._.Y._.Y.B.B._._.Z.L.B.9.a.b.e.b.7.V.V.Z.{._.{ F.|.9.Z.Z.'.`.|.@XZ.B.'.C.5.y.L.F.Z.L.V.V.@XY.Y._.F.8.;.6.7.:.B.-X7X~.x.,.8.9.x.>.W h h M v m m 2.V.B.2.9.8.[ ~ [ | G ] 4.5.5.a.B.a.b.x.z.m.P./.1.4._.<X4X&X_._._.'.{.F.5.2.4.$.%.s.5.4.8.9.8.9.B.9.V.'.Z.2.B.B.O.| O.` _ | 7.9.O.' P ] 5.Z.T.V.2.' 4.4._ +.$.L ` y.7.2.[ | ] [ O.B.n.y.M.D.1.| :.1.x.n.n.9.2.$.#.%.i.4.2.5.$.O.] F u v V z M / / ' 4.4.5.O._ V / _ | 9.2.O.o.o.o.' L N V N r u m [ ] ..b.>.,.:.[ Q ",
"B v Q M v 2.V.V.V.V.b.J.`.`.H.H._.].].H.e.Y._.e.Z.{.Z._.e.^ 2.Z.B.+.r.e.#.V.V.` L ] %.a.C.'.|.L.a.C.E.C.a.d.s.B.B.G.I.+X@X@X].F.S.A.;.:.7.F.oX].F.9.9.a.e.B.B.2.{ ;.;._ _ ] a._.M.,.,.[ h 5 Q 9.3.B.Z.5.a.G.U.H.B.x.x.(./.y._ M.2X<X4X&X|.;X].'.@XY.5.L S ] 5.4.%.t.K.K.d.5.,.[ ;.A.B.2.8.8.8.b.A.F./.[./.C.' ` 4.t.#.F 8.(.).(./.W.P./.'.m.,.F z n v L O.#.Z.|.'.)./.u.1.v.l.8.M.Q._.A.B.V.G.U.G.w.0.f.g.s.i.2.v ' 7.| z.[.{.-X2X|._.|.<X}.A.Q.}.&X<Xy.I v u a v N B | } [ | #.] ] | 7.z.c.8.;.B v Q M v 2.V.V.V.V.b.J.`.T.G.F.T.].].H.i.Y.Y.e.Z.{.Z._.e.^ >.Z.b.@.e.e...V.Z.] L o.#.d.Z.'.].L.B.B.Y.V.a.d.a.s.s.F.I.].OX#X]._.Q.b.:.>.>._.6X2X~...| 2.9.b.9.! j j l l v _ B.'.B.2.1.( h 5 B 9.3.B.G.4.a.Z.U.Y.B.x.x.Q.).8.F n.4X;X:X&X/.(.Q.F.'.{.9.5.e.w.a.#.n #.Z.C.F.Z.5.O.9.H.F.x.7.[ | 7.z.>.B _ 7.7.2.3.] ` 5.`.`.Y.i.[ s.C.] ] 5.5.i.C.7.| N B / G O.C.M.n.m.8.:.:.<.<.x.D.F.n.y.a.e.i.5.] ] 5.#.o.I v 9 e z z B [ } 2.B.a.5.,.} ! ! ( 6.S.C.4.O.] | O.] D m ! ! V L ] ] ] | ;.8.x.6.;.",
"} _ N v k ;.9.7.r.b.w.s.V.e.s.B.5.Y.@XY.Y.`.T.a.4.V.`.|.~.S.XX~.w.$.$.e.5.F.3.a n L +.O.#.T.Y.F.'.L.C.I.a.i.B.i.w.Z.L.T.`.].<X].~.b.;.>.9.F.F.7.B.V.9.F.Y.B.B.x.;.;.{ _ ] 4.4.O.O.| M e g e h | e.Y.3.3.`.].L.B.e.F.D.W.).8.} 8.F.|.oX}.<X2X}.C.Z.Z.d.#.m m #.4.i.a.f.d.t.a.| _ } 6.9.} 8.m.A.A.W.M.n.D._.L.8._ P O.L N | D./././.).}.'.|.L.C.,._ ' L ] ` L 4.F.D./.n.1.<.M.m.W.n.n.F./.~.~.{..XT.h.s.a.i.#.` G s m _ ,.B.}.&X2XOXoX'.;X4X&X&X4X-X|.|.|.y.F u a r m _ ;.7.n.9.$.] m N B | -.z.z.} / N v k ;.9.7.r.b.w.s.V.e.V.V.5._.|.Y.Y.`.`.a.5.V._.|.~.S.XXH.9.3.3.w.5.H.3.a s L O.O.#.T.Y.Y.'.Y.C.I.g.t.d.y.5.G.U._.R.OX2XoX_.A.:.>.B.H.F.2.9.e...9.A.9.z.-.M j w g B ;.2.] } } z q e q j | a.Y.3.3.`.].Y.B.9.F.W.W.(.8.( 1.S.|.|.|.4X:X}.S.B.F.B.$.L  .` n 4.L.F.L.'.Z.2.2.3.2.6.] v / c.b.A.b.8.;.2.2.2.7.#.+.3.d.T.T.V.V.OX'.4. .i.d.Y.Z.9.;.! _ V v [ 4.4.m.,.| <.z.n.n.z.x.D.F.F.B.B.s.i.$.#.] ] L n a r q u M } 8.9.n.y.9.5.2.,.;.,.1.8.S.D.F.t.O.] ` _ D ! [ ] 6.2.#.` m V V [ -.x.9.",
"x.2.[ ^ W >.e.3.V.I.f.f.w.5.V.T.'.].'.].`.{.Z.5.X.b.].XX_._.@X_.x.3.e.Z.s.5.^ S D b.~.0.e.].{.9.s.V.I.I.t.%.5.i.i.Z.L._.H.a.F.2XF.A.C.2.,.2.| } | 4.y.L.D.F.F.B.9.1.} 2.6.2.[ ^ V v r h h h v M 2.e.#.3.`.|.S.9.A._.Q.W.P.D.C./ V A.}.oXoXoX_.5.3.a.G.9.L V ' $.t.i.&.i.i.5.9.;.V } 8.,.u.m.M.W.(.D.n.W.W.M.n.8.` v v V [ 4.A.F._.Q._.{.'.'.B.L.B.o.2.5.' v _ ,.A.c.z.8.m.A.D.m.n.A.D.Q.~.A.S._.Y.Z.#.| 4.#.] _ ` 9...9.|.|.{.|._.3.H.7X6X&X_.Y.F.K.Y.Y.a._ v v B | ;.>.2.7.e.e.| P v 0 v ` 2.b.x.2.[ ^ ! >.7.$.V.J.f.f.w.w.V.Y.'.`.'.].`.].Z.5...e.].|.'._.XX_.e.3.e.Z.s.3.^ N D b.~.w.e.{._.9.a.Z.I.I.5.5.5.i.e.Z.F._.Y.V.F.3X/.A.F.7.2.2.L M F / O.n.m.8.1.1.-.~ x B [ { ! M B k q e h e k v #.e.#.3.`.XXS.7.S././.W.W.D.M.B M x.|.;X;X;X}.4.4.e.y.$.` L J V 7.V.` +.w.5.3.a.7.x.2.B Q 6.x.A.S.z.b.b.>.>.{ ^ ` &.f.g.k.d.T.].].Z.5.@.@.s.Z.Z.Z.F.7.{ / B / [ ;.:.:.:.8.n.n.z.z.B.A.B.A.A.e.B.a.3.] ] | L m n v V v ! x.D.D.F.y.O.9.V.B.7.2.} O.9.B.C.B.O._ _ [ ,.| ] >.2.9.e.] [ m r a [ 2.B.",
"7.2.>.6.>.9.A.G.J.G.G.h.f.V.Z.F.Z.L.T.|.{.Z.3.D ] V.].].XX@XH.V.9.] ] e.r.7.^ k l b.`.^.5.5.i.9.5.Z.V.w.+.%.s.C.V.F.F.U..X`.s.V.n.x.,.( F _ / V F 4.8.8.A.F.y.9.y.8.2.9.2.] 2.2.[ M N v g w q v ` _ _ 3.`._.V.F.Q.Q.(./.D./.W.8.A.'._.F.L.`.Y.s.i.a.V.V.2.#.#.$.t.p.g.g.w.V.A.O.,.A.u.8.u.m.n.D.P.D.W.).m.8.D./.D.' a n ! ] 2.9.A.F.H._.'.|.Z.F.`.5.` J n m B V 8.A.c.A.m.A.n.n.W.A.A.W.Q.Q.B.F.Y.a.] O.C.t.` m ] 5.6.4.F.F.Z.H.|._.'.6X6X<XF.B._._.Y.Z...v v V { x.7.>.x.S.S.S.e.| m v m #.3.>.7.2.;.6.6.7.V.H.J.G.G.h.s.s.Z.F.F.Y.Y.|.{.Z.2.` ` V.].].XXXX~.V.9.{ ] e.s.5.^ k l b.`.`.e.>.s.e.5.Z.f.5.@.%.a.V.C.H.Z.U..XT.V.V.B.n.1./ V V v q u ( } ,.8.z.-.;.6.6.;.{ ^ B ` | V h M r w q 7 l [ L _ 3._._.S.F.Q./././.D././.2.n.{.}.D.C.'.}.B.B.i.@.i.] ` 3.6.2.#.#...i.s.4.b.F.S.} / n.A.F.Q.c.6.Q.B.b.e.{ ..#.a.K.&.k.K.Y.i.5.w.&.%.+.w.5.a.L.Z.2.7.2.| [ Q [ <.6.8.z.m.n.n.D.m.n.A.F.F.9.b.9.3.] ] 5.] m v m / V ' 9.A.S.B.a.2.9.S.B.A.2.| 8.C.C.C.4._ _ _ | 9.7.2.9.B.B.V.e...m v m ..3...",
"_ { 6.7.e.b.H.H.J.J.U.J.T.T.H.a.5.2.4.V.{.Y.e...$.H.U.`.H.e._ L D v m b ..#.D 3.S.`.XX{...v ..S.d.s.9.+.#.] ] 2.4.5.t.Z.Y.T.F.V.7.[ ! B N Q B B B [ } | 2.u.4.O.#.8.n.A.6.3.9.2._ _ [ ^ k k q M [ m _ 7.3.>.b.x.z.n.W.P.1.M.D.D./._.Q.L.Y.L.F.Z.i.f.a.5.3.6.#.e.a.a.s.Z.Z.Z.a.| 4.D.y.1.y.M.z.n.M.z./.P.M.n.)./.F.6.] _ V 2.6.7.C.B._.Y.I.].C.F.Y.2.J n a _ V B 6./.[.P.8.1.z.n.W.A.F.A.Q./.C.D.L.B.O.' _ V V v N #.9.B.V.V v 9.|.|.6X6XeX0X|.Y.Y.K.Y.5.V a a B [ [ ^ ;.9._._.V.9.] N _ [ 2...D ^ { >.x.9.b.H.H.J.J.J.J.T.T.Y.a.3.2.5.V.`.Y.a.X.$.H.Y.`.H.e.` L ! v m s X...D 3.H.~.{.`...N ..Z.d.a.e.+.+.] ` 2.5.5.5.I.T.Y.L.B.7.[ ! B V V h q 5 B B B [ ,.-./ ( ,.8.x.} [ 2.[ N N ^ Q g r q v [ m _ 7.3.>.b.x.n.m.W.P.1.M.D.D._.{./.L._.L._.F.a.i.5.U _ ..9.e.b.2.] a.s.a.9.a.B.;.B 2.9.A.Q.D.6.b.B.F.H.b.e.b.i.V.d.@.o.K.E.f.f.a.i.s.e.w.5.V._.Z.9.3.#.6...[ ;.n.D.m.1.8.x.n.A.x.n.A.D.F.y.n.a.5.O.| _ m b a v L ] | 4.| ] 7.9.9.Z.F.F.F.B.9.n.y.B.9.] _ F _ | ;.[ | 9.F.F.B.9.| V _ _ 2.2.D ",
"[ ..7.7.b.S.XXY.G.G.Z.Z.G.H.Y.Z.9.$...5.J. XV.X...s.F.`..XV.....D y y ` $...s.XX-X-X-X-XA.X.+.w.a.t.4.#. .` _ #.#.o.] @.a.T.s.6.n.] B z v M M Q V B / } [ [ L _ ,.8.B.n.B.A.F.9.{ ^ ^ W M Q v M N v v { V { c.z.8.8.z.1.-.8.M.D.n.n./.Y.C.a.B.s.d.f.t.O...] O.2.%.3.s.d.f.V.a.A.B.9.8.4.n.m.z.<.<.8.D.D.D./././.S.B.x.9.8.a._.'.y.9.9.s.I.Z.Z.T.5.P V V m V N V 9.|.}.[.m.z.m.D.W.Q.W.A./.[.[.[.L.B.` n s v V N [ 9.F.~.e.a , [ V.F.<X6X7X3X<X]._.F.F.9.L V _ M v ^ >.{ >.B.B.9.| L v m G ] { [ ` >.7.7.b.H.`.T.F.G.Z.Z.Z.Y.U.Z.e.2.X.5.U.`.f.....s.I.`..Xs.....D a y ` 3.$.r.XX1XXX7X7Xb.X.+.5.a.y.5.#.| ` ` $.$.] ] @.a.`.s.2.y.} B z x N g q e 5 g c h c z M ~ <.8.6.7.9.x.2.[ N Q l h N j M M k v { V { b.z.1.<.z.1.} 4.M.M.x.x.Q.L.C.B.C.B.B.Z.5.I | e.B.2.;.| ] #.9.i.4.4...! [ 8.9.8.9.C.b.9.B.F.S.S.G.V.4.$.%.a.d.E.Y.Z.I.G.f.T.J.w.V.XX`.e.5.3.#.3.2.} 2.D.F.D.8.z.m.C.D.D.A.A.W.Q.Q.L.Z.5.P V m m D m V ] #.2.,./ V | 2.4.V.F.F.F.F.F.a.8.5.4.} ] | V V [ >.| 2.B.B.8.] ^ v m D { [ _ ",
"{ 9.9.| 7.F.{.T.V.T..XH.L.T.Z.#.] $.e.J.R.R. Xr.$.q.G..X@X.X`.3.N D N X.#....X$X XXX1XeX8XH.b.q.e.S.G.6.m m ..9.i.5.o. .+.+.] 5.B.-.Q W x l x W Q M B Q / _ ! / 6.A.W.A.x.y.B.4.] ` ! ! _ ! ! _ B N v V V [ =.1.8.:.<.M.n.:.8.8.1.8.4.4.4.C.i.4.5.o.@.K.e.2.9.9.] ] a.G.G.s.s.B.n.9.z.y.8.4.8.8.8.x.z.M.P._._._._.Q.F.6.7.F.'.B.] 5.d.t.5.&.i.Z...{ { >.B w r B } F._.D.C.m././.}.}.).(.}.%X;XoX/.C.4.[ 2.] ^ _ | F.'._.9.^ N V | 7.B.F.].6X2X<X|.y.6.F.A._ N ! V 6.9.7.9.9.7._ V ! B N V | >._ { x.9.| 9.S.`.`.Z.T..XH.Y._.Z...` $.e.G. XT.U.s.q.3.G..X+X.X].3.S ^ S { $....XXXU.XX6X0X8XH.V.3.5.Z.F.3.S V { 7.9.5.+. . .$.] 4.B.| B x j W j j g 5 e 6 g e e z ( 9.D.n.,.,.8.} D B M W ! N W ! v M v V B [ -.1.8.:.<.M.z.,.8.8.1.,.1.#.#.Z.B.#.#.` P 5.] L ' ! M v v m ` 2.#.| 2.6.;.] 9.7.2.B.Z.y.C.a...#.9.Z.a.e.s.U..XR.V.5.%.a.K.I.f.5.F._.9.| 6.4.2.| ] ;.7.A.S.D.C.m.F././.(././.W.(.[.'.K.y.2.' #.| ` _ | 4.9.7.] D V _ ] ;.3.9.B.|.;X|.Q.2.| B.V.] ^ [ ^ 6.7.7.7.y.7._ L ! n N N | >.[ ",
"^ ;.2.2.X.3.e.V.V.{.XX1X].V.#.v m 5.H.J.T.T. X XJ.s.r.R..X.X1X.X3.` ..e.H.U.T.].#X-X.X1X1XZ.XXj.X.b.r.` V | e.S.F.s.$.#.#.] ] B.F.n.-.W x j W W j Q B ! [ } } [ ,.m./.}.F.8.2.| ] [ [ :.8.~ ! [ B M V ! [ } ( <.n.:.z.N.M.M.D.m.n.L.C.5.Z.L.y.5.2.J O.5.9.2.2.2.` _ 2.e.w.$.$.5.9.y.n.n.m.M.M.y.x.n.x.m.D././.'.F._.&X_.x.B.4.O.#.5.f.#.I %.a.F.B.>.7.7.[ k 7 r | n.F._.D.L./.[./.A.W./.(.>X>X:XoX/.L.a.e.B.B.a.5.Z.H.9.| 2.9.;.b._.S._ 4.|._.V.B.] O.4.7.^ V { 7.[./.A.A.F./.n.2.[ B B 6.A.b.[ ^ >.2.2...3.e.V.V.`.XX2X'.V.#.b S 3.J.U.J. X X XU.p.r.]..X].1X.X3.` { e.H.J. X.X#X#X.X-X-XZ.XXV...s.e.{ V | b.Z.Z.d.4.@.#.] ] A.F.A.-.W j j W j 6 g 5 5 g e g c / 8.D./.y.} _ V M N ^ | 6.! Q [ M M B V [ | ( <.n.:.v.m.M.m.D.n.n.Q.n.4.C._.B.2._ u m U ` v v M M h k h N V _ ,.2.>.| ] 2.4.t.y.a.B.y.4.4.e.s.F.Y..XU.`.R.a.] L G @.t.E.d.E.oXS.>.] 2.a.4.| ] 6.x.n.A.L.D.Q././.P.m.D.P.W.}.}.&X}.D.B.9.9.9.a.9.3.e.9.| ^ [ 2.| 7.F.B._ | F.F.F.B.] O.7.9.[ [ | 9.~.F.b.B.C.F.n.2.[ B Q 7.A.B.[ ",
"z.9.7.] ] e.5.{ ] B.Y.2X|.F.4.P D $.G.U. XJ.T..X#X.XG.w.a.Y.#X|.Z.V.{.`.V.V.I.+X8X X1X1X.X~.tX^.e.{.V.>...9.e.B.C.B.a.s.$.#.2.9.A.x.~ W j j W x x -.) F / [ } [ } 8.A.A.D.S.y.| [ [ _ 2.m.6.:._ z z M _ _ [ | ,.z.v.z.v.1.D./.P.D.D.n.C.F._.B.#.P G V J ] >.| ] ] ` | e.3.D L 4.a.9.9.z.C.P.D.n.8.m.W.D.P././._.H._.|._.F.B.2.' O.Z.d.%. .w.i.B.F.b.b.7.^ k r M | 7.n.Y._.].|.'./.M.D.)./.[./.}.OX[.'._.B.F._.B.2.9.B.F.9.S._.8.A.qX<XB.a.9.| 2.x.] | 2.;.;.[ { ;.;.x.B.6.,.F.F.A.l.[ M x.[.Q.c.7.z.9.` ` 9.5.] ` B._.2X|.F.3.L D 3.Z.T.T. XT.+X#X.XJ.w.e.T.#X|.S.V.`..XV.Z.H.XX3X.X3X#X`.~.uX~.w.{.V.....9.a.B.B.s.a.d.$.#.2.9.A.m.( W j j W W x ( Q g e g h h g ( n.8.8.2.,.V N N B -.x.:.| ! h h v _ _ [ -.,.z.v.m.z.z.N./.P.D.D.y.C.Y.|.F.| v u v r v k v M M x M h v v ~ | { V | 9.9.5.a.a.4.4.5.C.C.Z.Z.F.Y.].f.s.G.e.] ` 2.Z.E.L.D.oX&XA.2.[ ( ' y.n.7.8.n.n.A./._.}.'././.m.D.P.D./.P./._./.L.F.9.B.F.e.2.9.3.7.;.9.A.;.9.&X}.B.y.5.#.8.y.2.>.9.6.2.| ;.;.:.9.A.4.,.A.F.x.8.[ x x.[.Q.9.",
"~.~.7._ ] ..` ` | 9.F.'.}.F.C.a.5.w.s.h.G. X X X+X#XI.r.U w.XXH.5.B.Z.F.V.H.oX$X X XT.1XeXtXeX-X{.{.3X9.D D ] 9.i.2.] D 3.b.>.7.9.[ -.W j j j g x ) ,.Q B M ! | ,.| _ ,.x.A.n.| D m N | 8.6.| Q M z h V ' | n.8.n.n.v.<.v./.W.W.D.M.D.7.a.Y.F.9.] V m v _ >.[ V ;.6.a.V.e.] | 5.y.x.8.n.m.C.C.n.z.z.A.P.D.L.'.].Y.F.F.B.e.x.] F ] C.y.] %.5.| #.b.3.z.S.{ l -.8.2.z.B.B.F.Y.oX].F.S.}.(./.W.D./.[./.K.F.9.e.9._ y v _ B.~.F.|.|.Q.&X_.F.H.e.2.9.B.b.A.x.7.8.=.[ >.;.;.y.7.6.F.W.A.W.6.z.[.&X~.W.~._.7._ ] 2.` ` ] 9.F.'.].Q.C.a.5.q.s.G.J.J.]..X.X$XU.r.U w.|.H.5.b.S.H.s.H.XXXX XT.R.8XtXtXeX-X{.{.3Xe.D V ] 7.a.2.] G 3.b...9.9.[ -.j g c c j W ( ,.c c e g h c z M _ ,.4.O.v r r v =.8.<.[ B z z z N ' O.8.8.n.z.v.<.1./.P.W.D.m.D.9.B.'.F.n.L u y r 8 g h j M B x N v M / [ 2.! _ 8.4.y.y.4.O.#.t.P.K.a.C.e.] $.w.$.$.Z.Z.i.4.Z.oXP.OX}.A.;.( ~ M ( y.F.D.Q.A.m.A.F.F.L.'._.C.A._./.P.W.M./.L.P.C.B.7.5.7.[ v v _ 2.B.n.F.F.b.Q.Q.C.Y.a.6.B.A.A.A.b.8.6.[ [ 2.>.;.9.4.2.A.W.A.W.7.c.(.&X^.F.",
"Q.A.| [ 7.9.| 2.Y.F.Q._././.L./.Y.Z.w.5.a.G.I.$X#XT.a.$.m #.].a.2.2.2.e.~._.@X0XOXI.Z.|.6XiXiX5X~.2.5.2._ m m #.e...m N V N k M v N ! ;.~ g g g g B <.| Q v M ( ,.O.[ [ 1.S.y.] V N N _ } ( / M g w h v V } 8.u.m.8.m.y.8.(.Q.n.n.W.A.z.a.b.9.9.[ m v k N _ { | 4.9.A.9.9.4.y.a.B.n.M.D.P.M.4.u.6.z.N.W.Q.D.;X6XoXE.'.K.y.4._ v v 8.9.| #.#.` 4.B.V.F.'.B.A.A.b.W.Q.F.e.a.V._.].L.Z./.'.}.4X;X{.'._.L.B.F.|.~.6.D V ] A.'.F.B.{.<XA.S._.F.F.L.Y.A.x.{.}.Q.[.&X~.b.A.[ ! 9.(.D.M.!.W.A.W.W.%X[.F.F.A.O.' 7.9.] 2.~.S.F./._./.F.Y.H.Z.w.5.p.G.I.#X#XT.a.$.m $.].a.>.6.2.e.Y._.2X0X+Xh.K.OX8XyXyX7XQ.>.5.4.L m m | e...V b m B k M l M ~ =.Q g g g z Q <.,.~ c g c x x B B [ y.2.N w w v ( } ( Q z h q r v V } 8.n.n.8.m.y.8.(.Q.n.x.W.S.7.B.B.7.6.B r r 7 h j g ~ -.~ M M h c M | 1.) ) | ' O.4.4.4.2.4.| O.4.C.&.o.@.i.%.@.Z.`.F.V.x.6.| (.m.) x W [ [ 2.C.'._.P.[././.S.B.B.L.'.F.C.L./._.:X&X_.L.D.C.y.n.F.F.6.L L [ 9.C.B.8.F._.A.A.~.F.L._._.C.A._.{.Q.[.{.Q.x.A.| ! 8./.W.A.W.W.D.W.W.%X(.F.",
"A.6.V _ | 9.7.9.F.|._.Q.D.D.L.|.@X].V.s.s.G.I.].`.U.i.X.v ` V.F.9.B.Q._.|.XX2X0X+XG.Z.@XtXiXyX|.2.! V ` J F m _ a.B.| v e q q q g k W <.<./ c e z c B ( [ Q j v ( ;.} [ ;.2.2.| | | } O.| / ( Q v g r v n V / ,.n.y.4.u.F.}.&X&X[.%XQ.F.S.>.[ { { [ N B N ^ 2.6.7.9.9.2.9.B.C.B.B.D._.D.D.n.8.1.1.N.!.Q.W.W.'.oX3X@XT.C.d._.F.7./ [ ] | O.] #.V.H.Z.K.L.Z.C.A.B.n.A.F.S.e.B.`.@X|.|.|._._.;X;X_.L.L.C.A.F.oX|.Y.B.a.B._.&X|._.F.S.Q.4X2X]._._.|.|.[._.:X4X{.}.-XA.A.W.x.z.D./.Q.Q.M.m.c.W.Q.A.A.n.7.! _ O.9.9.7.~.|.[.Q.D.D./.|.@X|.s.s.s.Z.U.`.`.U.e. .a ` B.F.e.B.H.'.].oX2X0X@XZ.Z.#XtXiXiX&X>._ F ` L G m ` a.B.>.l w e 7 q g k N :.<.~ g g z c B ) ( ! j q g h j x B F V M / _ / ,.-./ ( Q h g e z n V / O.n.u.4.u.F.}.&X&X%X=X~.!.F.:.! ^ [ _ B ! ! N Q [ -.( B g c V ! B / / G z v F | 2.6.#.4./ z F u.K.d.i.0.w.s.Z.Y.'./.[.A.c.c.6.=.N ^ 7.8.4.y.9.4.4.K./.W.F.C.a.L.'.'.|.'././.%X|./.D.D.B.B.F.'.].F.a.9.e.B._.L.B.A.x.W.<X<X|._._.oX&X[.[.*X&X}.%X&XB.x.W.z.8.D.W.W.W.A.m.m.m.(.A.A.",
"A.7.B B ' n.S.S._.|.[.D.m.C.S._.].T.V.9.$.4.Z.Y.G.Z.3.] a m ] B._.|.&X&X<X<X|.@X@XOX3XtX6X8XyX<X| B v r s J D L 3.9.;.N r h v q w e v [ l.;.x q g z B Q Q Q B [ -.[ [ } ( ` O.| O.#.| ! B u v z x z v h v B L 2.o.F I y._.'.|.}.^.^.c.A.b.x.>.-.:.2.6.9.z.;.>.O.4.5.2.| 2.Z.V.S.C././.D.n.u.8.4.6.W.(././.Q.8.4.R.R.d.%.#.y.4.| M M V ] 4.5.Z.Y.`.K.t.t.d.Y.e.9.8.7.9.B.Z.H.H.Z.T.OX'._.L._.|.Q.C.A.C.7.| 6.B.F.Y.Q.L.|.-X<X&XA.{ 2.A.C.'.<X|.|.}./.S.[.%X(.W.Q.A.x._.&XD.A.W.A.m.m.z.x.M.n.z.n.A.6.V M } n.Z.S._.|.[.F.m.D.S._.].Y.V.9.$.5.Z.Y.Z.Z.3.` p V ] B._.|.&X&X<X<X].oX@XoX2X0X6X6XyX<X;.B v r s J J _ 2.7.;.N h j k w r w l { 8.:.x q g z c M x x M W M g g h M n V V ' | [ M M g z z j h h h v n / 2.O.L ] y.'.'.|.}.*X!.c.S.B.b.6.^ | 6.7.n.l.[ =.l.v.-.M / _ [ Q c x / F g z / O.n.8.| } / n v ` t.f.p.@.5.i.i.Z.'.<X&X&X[.Q.9.7.2.7.B.2.5.O.#.' %.B.n.D.F.S.C.S.C.L.].'.L.F._.'.F.B.m.C.8.] 7.A.C.F.V.Z.'.|.|.'.m.[ 2.A.B.'.<X&X|.}.Q.S./.}./.W./.A.x./.}.D.D.D.A.m.m.z.x.m.x.z.A.",
"F.9.V z / A.B.F.|.|.'.A.C.C.C.F.Z.a.i.V.a.V.V.Z.Y._.a.#.] ] v [ V.~.~.}.<X@X|.].T.Y.XXtX6XeXyX1X7._ B p m D V D [ | >.6.( [ ~ h j w h ~ } / v h r j Q ( [ [ 6.z.<.[ ' / / } 2.;._ | ] B n g z x N B ! -.,.6.O.] ' o.O.d.E.Y.F.~.!.l.W N ..!.x.x.~.Q.x.F.F.x.2.| 2.O.] _ ' A.x.B./._./.F.u.8.8.n.1.z.m.D.[.{.9.$.K.Z.5.L m n z z v h v [ s.'.oX].].I.f.K.K.V.B.a.4.7.9.9.F.H.F.B.a.Y.'./.F.F.F.S.x.6.S.}.S.B.B.Z.'.Y.B.Y.3X3X2X[.A.F.F.F.'.4X6X5X|.[.&X;X}.Q.Q.W.(.W.A.[.(././.A.n.n.z.W.W.m.n.D.F.7.B z / B.A.F.|.{.'.A.B.C.C.F.F.a.i.V.a.B.Z.Z.T._.a.#.| ] v [ B.~.~.|.<X<X|.|.Y.Y.|.tX6X0XyX2X7._ v a m D V D ` { 2.<.[ [ ~ g g e r ^ [ / z h e z v Q B / ;.<.( x B e v / _ _ V | [ M z g e z B N _ | ,.2.O.] ' o.o.d.E.L.F.~.S.l.W N >.^.z.x.[.W.b.m.x.;.:.z./.m.;.[ ,.;.[ B z c z g z / ( _ V N [ 6.,.F n +.5.w.%.s.f.%.%.C.Q.6.c.F.|.|.|.Z.6.5.i.9.a.B.$.4.9.8.B.S.L.L.F.a.a.L.Y.F.F.S.S.S.y.6.S.'.A.B.a.S._.F.B.Y.@XoX}.L.x.D.F.H.'.<X6X2X|.[.&X;X[.Q.D.W.Q.W.A._././.Q.A.n.m.z.A.Q.A.x.A.",
"F.x.>.~ B | ;.7.F.F.V.F.V.B.5.a.B.a.V.Z.F._._._.T._.`.B.V.4.P 9.{._.|.<X-XXX`.H.9.9.-XtXuX0X.X_.F.,._ v a r 8 s D 3.B.2.N j M c h w M N l e r l z h z Q / ! ! -.-.! B [ ;.2.O.] ' O.| B z z g z / _ | 2.2.7.9.] o.%.+.+.#.%.y.'.b.{ M N V | 8.[.}.F.n.B./._.B.6.] B n ' 9.{.F._.'.P.L./.y.4.1.y.m.m.m.z./.}.Z.4.%.%.@.V a r r v g k N | 2.2.y.Z.a.o.t.Y.Z.y.t.y.B.y.8.2.9.B.F.s.B.V.5.#.2.2.2.A.6./ A.F.F.H.Q.~.C.2.#.B.|.L.L.C.4.y.F.L.}.;X5X;X;X}._.>X}././.W.W.A.W.W.~.Q.[.Q.n.z.z.W./.W.D.L.Q.b.,.V N { >.7.F.Y.B.Z.C.B.5.y.V.a.V.F.F.'._.`._.`._.s.a.5._ 5.{.'.|.<X;X|.`.J.9.9.-XtXyX0X|._.F.| _ v v r 8 s _ 6.B.2.N j x x h w M N z q g v h h h M M x x Q N g e M ! _ _ _ / ,.O.x h h e c / [ -.2.,.7.9.] o.&.o.+.@.#.y.].b.^ W ^ V [ 6.{.;X/.n.8.z.x.z.c.n.| B } 4.4.,.[ M x c z e v v N _ [ 7.b.>.[ ` 5.i.C.I.@X].a.y.OX9.-.7.;.F.|.|.G.H.T.V.a.i.#.| 4.B.S.n.6.8.A.K.a.B.B.4.O.>.2.,.x.1.! A.F.S.F.H.Y.B.2.#.i.'.F.S.n.2.x.D.L.}.4X2X:X;X}.[.}.}./.P.W.W.A.S.W.Q.^.[.Q.m.z.z.W./.D.D.Q.",
"F.B.9.^ q q _ V.Z.H.F.H.F.9.| #.a.B.B.V.S.H.Y.T.Y.G._.9.B.`.F.{.'.'.3X|.|.XX~.S.B.9.3XyXyX0XT.B.B._ _ _ N a 0 y ^ 9.6./ z 5 g c j w h h j M M k z M Q B e h ! ;.-.! ! | ,.] [ L ' | _ F B [ / F -.n.n.8.B.S.V.H.'.K.#.%.5.s.s.B.>.{ [ B n ! x.x.8.9.9.A.F.'.F.x.2.F B ] F.'.Q.{./.S.K.L.M.u.4.8.D./.n.y.[.'.Z.9.| _ G a v h v v M ^ } ,.| _ } ' L n #.F.d.y.a.y.y.9.9.1.,.8.8.4.C.B.P m D [ | A.x.;.Q.;XQ._.-X@XY.L.C.Y.C.` / / B / 8.,.7.S.}.2X4X;X[.;X;X)././.Q.n.n.A.Q.[./.A.m.z.D.P././././.F.A.9.! e q _ A.Z.H.F.Y.L.t.] #.a.a.V.V.V.H.Y.Y.Y.Z._.a.B._.H.{.'._.3X|.|.@X_.S.B.9.1XyXyX0XY.V.B._ ^ _ n v 0 u L 9.2.V j q g j j w j j h B M h h M B B q q N ;.~ q j W / N v v V _ F M z / F B ,.x.x.7.B.F.B.H.'.Z.%.%.5.s.B.B.6.{ ^ N v Q x.x.8.z.y.y.9.W.W.x.8.( / O.4.B.B.,.[ / z e r g h _ ;.] 6.{ ^ _ ] 5.K.]._.Z.s.L.$XtX;XA.7.| ] 4.a.a.s.f.a.s.y.B.V.x.9.n.4.} | 2.8.4.a.s._ G _ _ | A.x.;./.&X~._.&XXX_.Z.C.F.a._ F F B / 4.,.4.S.}.;X4X&X[.>X}.[._./.Q.m.n.A.Q.[.Q.W.n.n.D.P./././.Q.",
"Q.9.| B g w _ V.a.e.s.s.a.5.$.5.V.V.a.e.S.F.F._._.Z.a.a.a.].].|.XX|.|.].]._.S.~.^.H.V..XXX#X].|.Z.` V ! v v k v D 2._ r z z e x Q ^ k l ^ -.^ h h / [ ! [ [ [ ;.8.[ -.;.' F _ V _ [ _ _ _ } ( F / 7.y.F.F.9.4.H.H.V.Z.a.s.Z.5.#.3.i.] v [ 9./.,.[ 2.A.F.B.B.B.y.9.2.2.5.F.V.B.Q.F.C.s.a.K.L.D.n.m.y.,.F n.Y.B.#.P _ ] N v v N Q [ ;.8.8.[ / [ _ _ [ ] 2.9.6.#.2.7.y.8.6.<.8.m.L._.B.#.| ` { z.[./.Q.:X&XQ.|.3XtXtX0XY.C.4.G n G ' / B B [ 8.m./.OX>X;X;X>X5X;XW.D.A.z.z.A.^.W.A.D././.(._.}._.L._.9.| W h w ^ V.a.a.s.a.i.5.4.5.B.s.e.e.A.F.F._._.Z.i.a.s.|.].|.XX|.|.].]._.V.S.{.H.Z..X.X#X].].Z.` ^ ! M v v v L 2._ r z c e M Q ^ l l ! -.! h h ^ | ! ( [ [ >.6.W ! ^ ! v v v N V B F F ) / B / 8.a.F.H.5.3.H.F.V.Z.i.s.Z.5.#.$.e.` v _ 9.Q.:./ ,.m.D.m.M.n.8.8.,.4.t.y.y.7.;.[ _ M z _ ! N _ _ V ^ D _ 2.5.F.@X@X_.#.V y.9XuX6XQ.z.6.} | #.Z.Y.s.4.4.B./.F.x.2.,.[ -.:.4.8.C.Z.a.#.| ` ] 9.(./.D.:X&X~.}.2XtXtX0XY.C.4.G n F _ / V B [ 8.M./.}.;X|.OX;X:X;XP.A.W.z.z.A.[.D.m.D.W./.[._.[.'.L.",
"{.F.2.M ^ >._ ] 5.V.w...U _ 9.V.H.Y.B.B.9.9.F.'.F.Z.S.V.T.`.Z.H.3X@XY.V.H.a.b.`.XXH.P D s..X`.J.9.#._ ^ k h r l m | | V v c B ( ! -.{ ~ N N k j M _ ! _ 1.x.9.A.c.[ } 2._ V N V v L ' } / B / / v [ B.a.5. .D ..` 3.V.i.e.5.r.$...r.9.2.A.S.6.( Q _ 9.C.A.9.9.9.B.C.9.y.V.V.S._.'.Y.C.y.K.F.y.B.y.8.O.' 4.C.i.a.9.B.F.9.B h M N [ -.;.6.[ ! [ | ' _ V V ] | | 9.n.B.n.z.,.-.| B.Z.#.] | V V 9.Q.W.(.{.&X|.{.].tX0X9X'.#.F _ F / ' / z z x _ n.|.}./.C./.}.;X}.D.m.M.m.z.b.^.S.m.W.(.[.'./.L.C.C.{.F.2.M ! >.` ] 5.s.5.#.` ` 9.V.H._.V.A.9.9.F.'.Z.F.S.V.T.`.Z.F.7XXXY.V.Y.e.A.{.`.H.^ D j..X`.J.9...^ ^ k r w v n O.| F v z N ~ ! -.{ ! N N k h M [ Q ~ 2.n.z.A.x.! ^ ;.V v v v v F _ ( B x / / M ] B.a.5.] _ X.` 3.V.i.e.5.i.%.#.e.5.2.m.A.6.( B / 8.L.L.S.x.8.y.8.,.y.d.Z.a.2._ B v n 8.| ] 6.| Q v l m ` ..U.'.T.F.2.] 5.@X0X7X-X[.A._.;X/.Y.F.4.$.2.9.7.2.2.4.8.u.8.6.| | 9.A.$.| | V B 7.F.W.(.[.|.|.{.{.0X0X3X'.#.F _ F / ' / z v M [ n.}.}.L.D./.}.;X}.M.m.A.n.x.n./.D.m././.).'./.L.C.A.",
"_.].9.] B.F.V.9.V._.~.B.b.~.~.Q.F.Q.F.S.x.b.A.c.x.S.Q.F.B.5.y.C.Y.R.I.R.T.`.`.XXS.3.D D Z.R.G.e.V.r...` N b M k M _ ` [ N j x x B ~ [ M r g r v N [ 6.| [ ,.x.A.7.[ ^ | | V h v B | [ B V [ b.H.9.Z.F.9.5.$.5.G.S.H.s.b.w.V.].Z.a.C.C.W.W.<.) ) [ 1.n.C.L.y.4.B.Z.B.5.5.a.Z.H.H.F.C.s.d.i.4.6.5.4.2.9.e.4.$.4.Z.F.C.C.C.2.! M ! | ;.;.9.e.4.] | 5.] L L | 6.A.B.B.S.M.n.n.[ ! 7.A...N y v v B [ ;.A.[.&X<X].F.].].OXG.V N [ ] -.! N v M ! >.B.{.|.{.F.S.B.n.S._.m.8.n.z.n.D./.L.F.{.Q./.Y.C.5.f._.`.9.` B.Y.V.9.B.`./.B.9.Q._.F.F._.F.A.z.b.A.c.b.S._.F.B.5.t.d.J.R.T.`.`.`.{.XXH.3.D K j.R.Z.e.a.e.>.` N b l k N ^ [ [ M h x W W ~ [ x g r r h B ] 7.;.} 2.A.A.6.! N [ ` B r h z ( ! M v ! x.~.9.F.Y.5.5...5.Z.Z.Z.V.a.e.V.].Z.i.Z.Z.D.D.:.) ~ ) :.n.D._.M.4.K.F.1.} #.a.K.t.' m F O.u.Z.y.9.9.2.V n p n H o.y.A.B.K.K.I.Y.2X2XB.Q.;X4X:X;X_.F.x.| I O.2.4.| 2.8.9.n.9.9.| _ 2.n.;.N v v v N } ;.A.{.&X<X}.Z.].`.].F.D N [ | | V N v M ^ >.B.}.|.'.F.F.A.a.D._.n.8.n.z.x.D.[.F.F.[.F._._.C.5.C.",
"a.2.$.9.G.Z.Y.Z.Y.|.{.Q.[.[.Q.Q.Q.F.A.x.-.:.b.c.x.~.{._.].Z.5.o.L $.5.G.T.XX1XXXH.X.D X.w.s.q.3.Z.b.{ k m [ W l k M B -.z.-.W x j M ~ N v v r z m 2.B.8.| ,.2.| _ ! Q ! F N v B ! [ [ ( ! 7.{.|.F.F.H.Z.Z.Z.H.S.w.e.Z.e.B.Y.Z.#.@.%.2.8.z.c.l.v.z.m.8.n.C.9.5.B.V.e...$.r.a.V.Y.Z.C.C.V.i.O.J L ` ` ` | X._ ] 5.s.3.O.8.9.[ ;.F.b.>.[ 2.7.9.$.#.O.J G _ e.'.{.'.~.F.K.L.C.| N B 2.9.2.| { B v V 7.Q.Q.A.B.V.Z.Z.I.$X8XF.#.} | >.{ ^ B N x.F.B.F._.F.a.F.C.9.u.C.M.y.u.n.M.C./.F.B.9.A.F.F.Y.Z.V.a.$.2.i.Z.Z.Y.Z.Y.|.{.Q.{.[.Q.Q.Q.C.A.x.-.;.c.b.x.Q.{._.|.Z.t.O.L $.3.Z.T..X1XXXH.] D  .w.s.q.w.Z.V.` v ^ ^ W l h v V -.9.-.W x j B ! N M v r h N ,.C.8.| ,.2.| [ ^ B V V N h M B N ! ! N 7.{.|.H.H.Y.Z.Z.G.~.G.w.a.V.e.b.Y.Z.$.#.$.,.8.n.m.c.:.z.z.8.n.C.t.u.C.A.6.V %.f.d.t.#.] y.Z.C.y.u.5.4.2.V r v m L %.y.Z.K.L.OXOXOX3X@XF.|.9X4X;X|.n.} ' _ V m %.B.A.x.n.9.9.a.9.;._ _ 2.7.2.| [ B v V 8.Q.Q.A.B.Z.Z.K.I.#X8XZ...| =.>.{ [ B N x.Q.B.F.Y.F.B.Z.C.9.u.C.m.y.8.m.M.C./.F.n.9.A.F.F.H.f.V.",
"5.] 5.i.V.V.Z.F._.|.|._.S.S.Q.F.F._.B.x.<.x.A.n.A.Q.Q._.|._.E.a.]  .w.f.s.s.Z.H.`.3.L ` ..] $.V.S.S.>.^ V N h w e w r { A.A.6.~ g ! 7.;.[ ^ ! _ 8./.}.F.2.| ;.| :.| V B B M B ! [ x.x.} -.A.Q.{.&X|.|.].3.3.H.w.$.r.r.e.F.].w.] O.` ' 8.W.A.D.D.x.8.9.,.%.5.2.$.a.Z.w.r.a.f.V.F.C.a.V.L.9.P v n a B ' { [ D L O.5.2.2.9.7.[ ! _ Q ! N B ' O.#.4.O.m u B | H.|.{.|.'.Z.d.5._ m v _ -.| S.3.n a F 7.A.W.9.3.4.%.s.R.+X$X|.2.[ ^ { >.;.v D 7.H.F.Y.F.a.9.B.Y.C.9.y.C.D.n.8.x.n.C.y.n.9.B.F.Y.].Y.Z.5.| 5.9.Z.C.Z.Z._.|.|.{.W.S.Q.W.Q._.S.x.6.c.A.x.A.Q.F._.|.Y.'.a.]  .w.s.r.V.Z.Y.{.3.L ` X.] $.b.S.b.>.^ V N h h w g h { A.A.l.~ g / 7.:.[ ^ ! _ 8._.}.Q.1.| ;.-.>.;.B N v M M M ( x.z.[ -.A._.&X2X|.;X].6.0.H.e.$.i.w.e.J.`.5.] O.` } 8.P.D.N.N.z.8.9.| %.4.,.O.9.a.9.Z.K.d.t.4.y.C.B.8.4.y.9.y.| N s v J %.f.Y.'.S.t.C.K.E.oX6X6X0X@X}.D./.n.8.7./ _ ' O.2.b.B.C.B.y.y.9.| [ _ | ;.] A.4.n a F 8.A.D.9.4.4.5.a.R.+X#XXX6.[ _ { 2.{ b ^ 7.F.H.H.F.a.9.B.Y.C.5.n.P.C.n.8.y.u.C.a.a.9.A.F.Y.].Y.Z.",
"_ L | 5.d.Z.Y.T.a.Y.|.A.:.9.Q.S._.2X|.A.A./.[.D.A.~.{._.'.F.i.2.` X.e.w...w.5.3.| _ D X.3.X.3.b.b.~.~.>.l j h w w h g ^ 7.8.z.| B } 7.b.-.^ ^ ;.Q.'.A.M.n.8.8.8.x.6.! ^ ! M B } x.W.6.6.A.F.F.W.'.{.'.{.V.V.H.V.e.5.K $.U.H.4.] O.8.x.D.F.W./._.n.,.,.,.O._ _ ] 9.G.Z.a.a.B.i.t.y.y.a.Z.5.L v m v v V _ V L J | 2.| ] >.9.:.v j l k v v n L O.8.O.v z B :.~.-X|.T.Z.f.f.d.] G V | >.7.F.9.P G _ ] | 2.2.4.F.i.$.I.f.+.s.V.X.M { 9.] v v L e.F.B.i.V.e.H.oX'.C.u.C.D.m.n.n.n.y.B._.{.'.|._._.Y.a.` L ] 5.a.Z.Y.T.a.Y.|.B.>.7.Q.F./.2X|.C.A.~.[.S.A.Q.{._.'.Z.y.2.] ] e.w.@.w.5.2.] D V  .3...3.B.b.~.~.;.k l g w w h r ^ 8.6.9.-.B ] 6.n.{ ^ ^ 2.F._.A.D.n.9.8.9.b.6.! ! V x M [ x.A.6.6.A.Q.W.~.{.&X'.|.V.b.G.V.p.5.K &.H.H.4. .O.4.y.A.P.P./.(.n.;.,.;.| F F F ' C.Z.t.d.E.L.y.7.4.2.;.4.4.4.7._ V L L +.d.V.L.'.S.u.4.C.L.].3X].'.'.C.n.n.S.D.x.2.| [ | 7.A.B.a.u.4.a.i.2.o.] 2.2.7.B.4._ G _ ] | 2.2.4.Z.i.@.U.f. .a.V.X.N { x.] b b ^ e.Z.B.a.V.i.F.oX'.C.u.C.D.M.n.m.n.n.B./.'.{.|._._.T.a.",
"a m L #.a.e.e.2.L B.~.A.A.Q.{.'.{.<X}.A.C.D./.D.F.%X6X}.B.2.| 2.N N ] ] ] 3.#.#.] _ _ ..#.| e.B.S.S.:.^ v M j k l h q v 9.A.A.:._ 8.A.7.[ / [ 2.A.F.D.F.L.D.x.8.6.B.|.F.,.;.1.x.A.x.A.A.W.W.F.A.A.[.'._.{.B...a.5.+.+.a.Z.5.9.e.a.a.7.n.Q./.F.F.x./ [ ,.! k N ] 5.i.f.a.i.i.5.2.t.Z.L.F.Z.6.L N l l l V [ 2.2.9.e.3.#.2.S.Q.>.W x x N [ ,.7.8.4.( u e M [ 9.F.a.t.f.i.g.i.o.L V { >.b.e.$.O.P V _ ;.7.} L 2.w.a.j.w.r.s.V.w.D S ] ] L S ] Z.s.P _ a.V.Z.@XoX_.A.C.n.y.D./._.C.C.Z.F.D.~.H.B.] b a m _ #.e.e.e.2.D B._.A.A.Q.{.[.}.<X|.n.S.D./.D.W.&X5X}.A.#.| $.N N ] ] X.$.#.#.] L _ ....#.9.S.~.b.6.^ l l j k k z q v 7.A.A.;.^ 8.A.9.[ ! } 2.A.F.D.D./.D.n.8.7.A.>XL.,.-.1.A.A.m.W.W.Q.W.W.A.A.[.{._.XXb.>.e.5.+.+.a.G.4.4.a.a.B.7.n././.F.L.x./ / ;.B k r N L O.t.%.5.i.C.y.;.[ ] | ' _ ' _ _ #.#.O.t.d.y.B.D.9.9.4.Z.{.`.].T.Z.5.C.Z.4.4.L.x.2.[ ! [ 8.D.n.8.n.4.4.5.#.2.] ;.>.9.7.#.| L G _ 2.7.' _ $.9.a.f.p.0.s.s.w._ S ` X.D D ] Z.s.U L e.V.F.|.@X_.A.M.n.n.D././.C.C.F.F.F.~.L.a.] m ",
"v y k m ] a.H.5.m L a.F.~.Q.Q.Q.}.|.'._.'./.D././.&X5X;XL.' [ _ m m V L L D #.7.| _ 9.e.e.B.B.F.~.S.b.e.{ M l l l v B } ;.[ ;.9.,.| ,.] [ 6.9.-.B.[./././.m.m.A.>.z.:X;X[.}.A.8.z.c.A.W.W.A.A.c.A.!.[.A.e.7.7.e.5.p.5.I.J.5.a.a.| v B ] n.C.B.D.y./ ;.| -.N N _ 2.y.d.i.s.Z.a.9.y.V.Y.Z.Z.V.a.{ v l k W 7.~.~.F.F.e.2..._._.c.{ W =.l.6.Q.}.D.n.8.O./ B z } F.B.Z.Z.*. .+.o.+.[ >.V.F.Z.a.5.I V m ;.x.6.V ] $.w.h. XG.p.r.e.w...@.%.w.$.p.].].w.` $.3.5.{.2XY.n.M.m.u.m./.4X/.B.A.Y._._.b.` y N v r y S ] e.Y.4.V D e.~.~.~.Q.Q.}.|.'._.'./.W.W./.%X5X;XL.' [ _ m m D D L ^ O.7.;.[ 9.e.9.B.V.V.~.~.b.9.{ N M v v z N { ;.} ;.9.2.| | | [ 6.8.| A.[.L././.D.A.A.;.z.<X;X[.}.S.z.x.m.A.!.!.A.A.A.D.Q.[.S.b.7.7.e.5.a.&.I.H.5.a.s.] v N | n.C.n.F.y.! ;.| ;.B a B ' 5.a.5.a.a.u.9.] M / _ B B V m $.9.9.a.d.4.L O.n.7.7.2.Z._._.].Y.i.$.V.C.C.5.O.2.x.8.8.,.9.C.n.9.n.4.O.4.2.2.2.6.A.Z.V.i.5.P m N ;.x.2.V ] $.w.G.T.U.w.r.p.3.+.#.$.w.3.i..X].w.] $.3.5.'.2X_.n.B.M.n.n./.2X/.a.A._.~.~.n._ a b ",
"v v v N _ 5.i.3.5.5.{.2XXX{.~.Q.{.]._.L.P.L./././.(.;X5X;X9.4.[ N ^ | ..3.| 7.x.7.,.4.B.a.a.B.B.V.A.!.S.C.2.v k | 2.7.2._ [ 7.A.9.;.9.9.[ 7._.D.D.D.n./.[.D.n.x.6.>.6.7./.D.M./.D.Q.D.m.Q.Q.x.A.W.6.2.B.~.F.B.F.K.I.V.V.a.#.5.a.#.[ >.V L #.Z.F.A.3.7.;.8.x.2.8.B.9.B.C.i.F.L.F.C.y.s.B.e.3.#.{ [ { ! N 6.Q.~.~.{.B.] D >.x.z.6.c.*X*X=XqXrX%XL.P.L.u.O.} | 7.a.5.+.` ` P D V ] Z.`.H.Y.d.5.] ` _ [ x.7.[ _ ] V.h.J.g. .@.f.J.G.U.R.f.U.R..X XT.J.s.5.5.Z.].C.7.u.n.n.8.F.|.F.e.B.'.|.&X`.e.D b v b v N P 5.a.3.5.4.'.<X|.{.~.F.'.]._.P.P.L././.Q.[.;X5X;Xy.8._ V ^ | ..2...6.B.9.,.7.B.B.9.B.Z.S.A.S.F.S.>.v h [ 6.7.2.[ { 8.A.9.-.x.z.| 7./.D.S.D.n././.C.n.n.7.,.6.8./.L.A./.Q.Q.W.A./.Q.A.m.A.6.6.B.~.S.b.H.G.K.f.V.a.#.5.a.2.[ ..F L 2.B.F.S.7.7.>.x.b.O.| 9.5.5.C.s.i.y.9.| M z v z v v [ 2.2.#.4.4.L D 6.A.A.x.9.F.B.B._.Z.#.#.5.K.Y.K.y.x.[.Q.8.,.4.y.u.8.8.2.,.2.| ` ,.V._.H.H.s.5.] [ ^ [ x.z.[ L X.s.G.G.p.@.@.f.I.I.U.T.f.U.T.+XR.U.G.s.5.5.Z.].C.9.y.n.n.8.D.|.D.y.B._.-XXX}.e.V N ",
"{ 9...] 5.4.a.Z.Z._.|.|.2X<X_.~._.F.F.F.'.;X[.P./.[._.'./.F.9.#._ { { m ^ [ | ;.;.6.2.7.9.9.F._.F._.F.V.2.` _ V 8.C.F.x.;.,.9.9.6.[ ;.,.,.| 8.D.P.8.n.A.A.n.9.1.2.x.x.S._.S.n.F.D.n.7.z.(.}.Q.c.A.8.[ 9.F.A.9.B.Z.Z.C.5.5.4.e.#.3.9.] ` | 9.Z.Z.9.2.9.x.B.F.A.y.9.9.s.F.B.C.L.Z.9.9.a.a.5.2.#.2.2.x.6.<.!.&X/.S.F.9.} _ V { 1.z.m.%XwXwXwXqX}.P.D.P.L.n.1.2.7.#._ m D $.5.w.9.w.4.V.T.Y.5.] _ _ [ >.b.c.9.9.B.G.f.G.h.@.@.p.s.I.h.U.U. X X+X X X].U.w.5.#.4.B.F.y.8.4.[ ;.7.A._._.H.<X1X<X_.B.>.{ 7.>.] 4.9.e.Z.G._.].-X<X<X'._._.F.F.K.}.oX}.Q./.(._.'./.F.9.2.^ ` [ V ^ [ ] ;.-.2.2.7.e.9.F./.S._.F.B.2.` _ D 7.B.F.x.-.>.9.z.6.{ | 2.;.} 7.D.D.u.n.A.D.m.8.1.2.z.y.D./.C.m.D.D.m.6.z.[.&X(.A.W.6.[ b.F.B.e.a.Z.Z.V.9.3.9.9.2.$.9.` _ | 5.L.Z.i.2.9.B.S.~.B.y.4.2.5.L.y.6.B.2.v B Q h h r F 4.2.O.| O._ F 6.Q._._._._.V.9.5.F.B.3.e.B.5.d.L.A.7.F._.B.O.O.4.%.6.8.6.n.n.9.7.7.9.V.~.H.9.] ' _ { >.x.x.9.9.B.G.f.J.h.@.@.i.g.U.U.U.U.T. X.X.X.X.XU.w.5.#.4.B.S.y.8.1._ ;.9.A._.'.H.<X1X<XY.a.2.",
"~.H.e.7.w...] e.T._.oX@X_.|.|.Y.B.B.F.F./.|.|.[.W./.[.L.'.}.'.5.[ ..[ N N ^ [ [ ( [ ;.[ 2.W.{.'.F._.A.] ' G | #.] 2.x.7.9.7._ [ 8.>._ _ ,.2.4.2.2.4.,.y.8.y.y.C.9.2.4.9.4.O.2.A.A.n.8.A.[._.A.x.Q.}.F.F.`.S.B.B.a.V.b.9.B.Z.6.+...3.] $.i.i.i.C.5.5.5.%.4.a.B.y.y.6.9.C.B.B.L.C.7.4.a.y.#.5.B.F.S.3.[ ;.m.Q.W.9.n.S.[ V F [ 8.*X!.!.=X%X5X5X}.M.y.u.P./.m.7.x.9._ _ #.5.V.H.Z.Z.G.G.H.V.X.m _ | A.|./.8._ ` d.Z.h.I.U.G.g.i.i.&.s.I.U.U. X+X+X XT.R.I.Z.T.Y.C.y.,.O.[ [ ' ,.9.B._.B.|.6X@X_.~.{.^.H.b.7.5.$.| i.T._.oX@X_.|.|._.s.B.C.F._.|.|.}.L./.[.F.'.].'.7.` ..` M N ^ ^ -./ [ ;.) ,.K.}._.F./.A.] ' L ] 2.] 2.9.7.7.7.[ _ 8.,.[ _ ;.2.4.2.4.4.,.8.9.y.n.C.9.2.6.9.4.2.2.m.n.n.8.A.[._.A.x.Q.|.W.F.'.S.B.B.s.B.B.9.b.F.3. .#.5.` #.t.y.i.V.t.5.5.%.%.a.a.t.9.O.2.s.y.9.A.| ! [ Q h e r M 2.2.;.[ _ ~ | n./.'.C.y.C.M.y.S.L.S.9.7.3.] y.Z.4.4.7.9.B.a.4.O.| n.x.m.x.A.A.Z.A.V.Z.Z.a.] V _ | A.}./.8._ ` C.V.f.I.T.G.s.i.i.%.g.h.U.U.U.+X+X XR.R.I.Z.T.Y.Z.9.2.;.[ _ ] ,.7.B._.B.|.8X#XY._._.",
"~.{.A.w.3.3.#.2.Y.2XtX2X].'._.B.O.5.C.B.y._.&X_._.[.(.C.D.'.OXB.D _ ] ^ V [ ] ;.| } Q B >._.'.A.D.W.9.' [ #.a.| v V ^ D ] | N F 7.b.2._ | ,.4.8.6.,.O.,.y.n.9.D.n.V N | ] _ O.C.F._.[.{._.Q.^.[.Q.Q.A.e._.Z.a.C.F.F.S.B.b.F.Z.V.$.+.+.%.4.5.s.d.%.t.i.i.d.d.d.a.#._ 2.a.F.S.a.y.y.4.4.5.9.a.a.`.{.V.7.[ 8.A.A.A.F.x._ L ! 1.x.Q.N.!.%X%X[./.L.C.y.1.8.M.A.6.{ 6.B.G.Z.S.G.V.e.J.R.Y.J.G.a.3.9.B.C.|.2Xd.G m #.5.f.f.i.a.Z.i.U Z T 0.f.g.h.U. XU.U.R.G.E.@X'.2.m z B n _ 2.] B N ' ] Z.@XZ.F._.~.~.|.V.w.3.2.#.2.Y.2XtX2X].'._.B.O.9.C.B.9._.&X_.(.[.[.C.F.'.|.B.V _ ..D V [ { >.;.} / n ,.(.{.S.S.Q.9.] [ | a.| v V _ ^ | | N L 9.a.#._ | ,.6.8.4.,.O.,.n.y.9.F.A.M m ] ] _ O.C.F._.{.{.[.Q.[.[.Q./.B.a.Y.Z.y.A.C.F.F.B.b.F.H.V.+.#...&.&.5.d.d.%.5.i.i.a.a.a.y.] v _ 4.B.n.O.,.x.9._ k v v v / | [ [ ! ( ) | m.L.y.4.C.'.@X2X|._.b.7.{ D 4.T.s.5.5.5.F.F.a.| 4././.Q.m.n.A.B.F.Y.Z.V.a.e.5.9.B.S.{.2XC.V m o.t.f.f.i.p.h.i.U Z T &.f.f.h.U. XU.U.R.Z.E.@X'.4.m z B n _ 2.] B m _ ] F.|.F.F._.~.",
"~._.J.G.5.#.#...V.@X3X3X|.B.4.| ] V.Y.F.F.Q.}././.}.S.O.n ] Z.y.` ..B.w...| | | ,.,._ N 6.Q.W.A.Q.Q.A.x.8.2.9.2.v v [ N ;.2.] o.2.5.4.,.4.O.[ 4.n.4.8.A._./.a.C.9.` 2.] ` V L 2.9.F.F.V.S.[.-X|.Q._.7.] a.F.S./._.B.b.9.>.] a.I.a.&.w.5.i.C.a.y.5.5.%.#.4.y.d.8._ Q [ 7.B.y.y.C.B.4.4.t.w.V.J.H.Z.a.2.} 6.M.m.b.8._ ! [ x.n.D.(.M.N.%X/.S.C.P.C.x.8.n.M.x.>.[ 9.H.Z.q.w.f.I.R.R.Z.f.T.`.XX].Y.Z.B.V.L.%.m G U ]  .P m U %.+.d m ..3.f.J.h. XU.h.h.f.i.a.5.4.5.| L V z v 2.;.n r v ] 9.a.B.B.e.B.F.`.Y.G.5...#.] V.@X3X3X].B.3.| ] V.L.F.F.F.|.Q./.|.A.| n ' Z.e.` #.V.9.| ;.| ;.O.,.( B 6.Q.F.n.P./.A.x.7.6.9.2.v v _ v O.2.] o.#.5.2.2.2.O.' 4.m.4.4.D./.Y.n.B.9.[ 2.| _ V L 2.b.F.F.F.F.{.<X|.~.~.9.] C.D.S._._.B.b.9.;.] a.I.p.5.w.5.i.Z.s.5.5.t.%.o.5.t.a.6.B e z | O._ / ,.7._ h M e B ' _ B v [ x.n.1.1.m.L.t.d.'.@X2X<XoX|.Q.A.:.! _ 3.%.&.i.Z.a.F.'.M.8.n.m.m.M.A.F.L._.Z.e.Z.Y.`._.F.Z.B.C.Z.%.G J I ] o.I m P %.o.m m O.5.s.I.h. XU.h.f.f.a.a.t.4.5.| L V z v 2.;.N r v ] e.i.B.e.e.B.",
"|.`.F.H.9.S V $.Y.].#X3X].F.s.B.Z.T.Z.C.a.F._.|./.S.L.4.v m 2.a.V.H.b.` V { >.,.' ) / ^ x.Q.A.A.A.A.W.Q.x.7.2._ v k v m | #.#.C.Z.V.T.B.} [ ' } 9.F.B.9.n.L.F.O.O.5.9.y.4.G n 2.a.A.Q.{.F.B.[.|.F.B.y.F.|.'._./.F.2.2.A.9.>.5.Z.g.a.5.@.` L P #.4.i.5.4.t.y.4.| ! _ | | 2.8.B.C.a.4.e.a.#...7.7.$.5.2.} 2.2.[ [ [ ! } A.}././.{.M.W.}.L.t.4.d.D.n.8.z.A.b.:.;.S.B.3.w...%.h.T.R.f.i.U.`.H.9.2.5.#.+.i.t.t.t.5.t.#.d 8 p P ] L ] 7.w.G.U.U.U.g.k.I.].Z.f.'.L.B.9.| V u n ] #.F v n ] P | w.a.F._.]._.Z.Y.w.V S 4.Y.].#X2X|.F.a.B.Z._.Z.C.n.F.'.|./.S.L.4.n V 2.a.V.F.B.[ m ` #.;.} ' / ( x.W.A.A.A.M.W.F.b.4.2._ v v M N O.O.@.C.V.V._.B.| [ ' } u.S.C.9.n.L.C.2.O.5.9.i.4.G m 2.9.B.F.'.S.A.{.}.F.B.x.F.].}._._.F.2.2.A.9.O.9.f.g.i.5.@.` L _ #.5.t.t.4.9.i.2._ v z M n n v | 9.;.! ! | F V _ _ F [ x.A.W.A.m.D.P.t.C.'.2X2X2X6X-XQ.Q.z.^ ^ D [ d.E.I.Z.~.}.[.z.8.n.D.W.A.C.F.F.B.5.V.H.F.5.4.5.$.#.i.i.&.i.5.t.#.d 8 s P ] J | 5.i.G.T.U.U.g.k.U.R.Z.d.E.L.B.9.| V a v ] ,.D v m ] P | w.a.S.{.",
"`.`.#.5.G.e.3.Z.K.B.Z._.B.e.s.B.a.B.s.y.5.a.9.L.F.F.Y.9.' _ ] 9.H.Z...b b [ ,.,./ B / [ z.>.>.x.D./.(.Q.6.;.{ L v r ^ 4.Z.K.Z.Y.T.Z.F.B.F B _ M ^ 7.9.{ 9.B.B.i.y.a.u.5.` n F O.9.C./.F.{ } B.Q.Q.A.S.'.|._.Q.F.F.4.B.F.C.5.5.p.g.s.&.D v v _ 4.5.B.Y.A.7.;./ N ! ~ [ } O.2.5.t.5.5.y.a.5.3.$...] 4.V.d.y.6.B v M N Q B.~.[._.D.x.z.B.B.O.O.4.a.B.n.A.W.b.b.A.H.Z.Z.t.%.%.Z.I.Y.g.d.K.T.Z.O.L ..#.o.&.&.Z.T.V.w.| | ] G V G L ] .. .3.s.f.s.s.s.g.Z.Z.K.].OX`.a.#._ m _ 2.7.[ v s J ] G $.Y.|.F.`._.#.w.Z.e.3.Z.Z.C.V._.V.e.B.V.d.B.s.i.4.a.9.Y.L.F.Y.7.] _ ] 9.H.Z...y N [ #.2.( B B | x.,.,.m.W./.(.Q.7.;.[ J v h _ 7.F.L.Z.Y.T.Z.F.B.^ B ^ M / 8.9.| 9.B.B.a.y.i.5.5.` n F O.e.A.L.F.} } C.F.Q.A.F.'.}._.Q.F.A.4.C.F.A.7.y.i.f.f.&.D a v _ 4.t.B.~.B.7.-.M j j h M B v v _ 2.| | 8.4.4.8.8.,.>.F.Q.x.A.W.b.B.C.d.C.].2X|.E.oX|.'.}.}.m.} M ] L.Y.K.2X|.}.{.W.P.M.M.P.M.C.B.B.a.y.a.Z.Z.#._ #.#.o.5.5.K.Y.f.y...] ] V V J L ` #...$.p.g.p.f.f.d.Z.f.I.oX].T.B.#._ m _ #.9.[ v v J ] G #.Y.|.Z.",
"H.B.J ..V.B.B.f.%.2.s.9.3.9.a.3.] ` %.y.9.] ] C.~.F.] b N ] | $.b.J.~.b.F.F.4.| n u B [ 8.} [ m./.}.}.}.{.~.3.6.6.V [ 9.B.L.Z.y.d.H.V.b._ z g v ! | 2.8.2.B.y.7.4.4.o.O.` V _ 2.2.4.F._.9.9.B.A._._.{._./.Q._.F.n.6.F.F.B.2.$.%.5.p.5.| V v V 2.B._.|.Q.-.! B M B B ) | O.4.4.5.t.y.s.4.5.5.e.e.5.d.K.i.%.` m h k k k Q 7.Q.'.Q.x.2.9.9.%.4.t.4.2.,.x.S.x.7.>.b.I.].f.O.#.I.R.Y.f.C.i.K.E.V.] _ y.y.' I e.H.Z.B.F._.F.4.` _ ` #...X.R T E J *.i.+.$.+.5.oX@XY.5.] [ | 5.6.e.2.] | t.d.$.+.3.Z.Z.H.s.D ..V.V.V.s.5.2.s.i.3.5.a.3.] ` 4.i.9.] ] B.L.L.] n N ` ..#.e.`.H.B.F.F.3.[ n z M } 7.} [ n./.}.[.}.|.Y.2.6.2.V [ 9.a.L.Z.i.s.F.Z.B.[ h h v V | 2.8.2.B.9.7.5.4.O.O.` V _ 4.6.4.F._.y.9.B.A._._.{._._.Q.~.F.B.4.C.L.a.5.@.%.%.p.5.] D v V 4.B.L.|.Q.{ ! l j h e c ! F _ F 2.A.n.y.B.K.S.F.S.z.A.F.x.| _ V ] 5.d.K.K._.Z.u.P.3X0XrX:XQ.z.| 8.S.y.C.C.B.F.m.m.z.u.n.n.4.7.8.9.9.y.t.C.Z.d.` _ t.a.] P t.L.Z.a.F._.F.6.' _ ` ....X.R T E S *.0.#.@.+.5.@XoXL.5.| ' | 5.4.x.2.] O.t.d.%.#.3.F.Z.",
"i.5.w.5.3.] $.$.P ` ] V D | 5...` ] a.V.] d v #.Z.e._ v _ #.] D e.XX{.F.{.F.9.} / M B -.6.8.y.P.}.oX'././.T.V.y.$.V v | O.9.Z.s.V.F.e.7.B h r k [ -.| O.| ;.O.| [ G P 7.O.' ` / _ } 9.L.|.}.'.<X&X'.|.|.|.{.Q.F.a.u.a.9.4.4.%.i.&.w.5.| _ m ` a.V.F.{.Q.=.~ M c M B / 4.4.5.4.4.t.i.5.$.$.Z.`.G.i.a.f.t. .J u r M N l ^ 8.A.~.~.9.,.2.] ] O.4.O.] V ] S.l.7...` 4.y.+.I O.Z.Y.Y.Z.Y.f.K.Z.K.9...e.9._ _ 5.H.{._.|.4X4XY.y.5.5.5.$.$. .U K d d  .+.#.#.Z.Y.C.a.' G ] 5.Z.F.~.Z.9.a.d.i.f.a.#.Z.F.a.5.5.5.3.] $.#.L U ] V D ..5.| ] ] a.V.] d v ..Z.9._ v _ ..X.D e.XX{.F.{.Q.9.| ! v B } ,.8.y./.}.oX'./.F._.C.i.#.^ v | | 9.C.a.V.F.9.7.V h w v ^ ;.} ;.| ;.#.O._ G [ 9.O._ ` F _ ] 7./.oX}.[.<X&X{.}.|.|.{.Q.A.B.9.B.5.4.4.%.i.w.w.5.| _ m ] a.B.F.}.W.=.W x q q e u | n.y.' ,.F.F.V.a.C.F._.Q.A.2.B v 0 N _ _ ] #.a.].3X|.y.d.OX9X9X;X/.[.*Xz.| | | 4.C./.L.8.) -.1.} [ ,.,.6.4.5.i.C.d.C.3.| y.9.[ _ 3.H.|._.&X-X<X_.y.9.5.w.$.$. .P P f S  .#.#.#.Z.Y.V.a.' G ` 4.Z.F.H.C.9.i.s.i.h.i.O.V.H.",
"#.Z.s.e.w.L _ V m n p s b _ 4.2.] | a.i.] S m L 2.2.] L | P L _ H.-XXX{.{.F.x.9.9.1.8.8.6.n.8.;.' y.'.Y.Z.4.O.P N h v v [ #.i.B.e.9.>.B h h h h h r B [ [ N L | | 4.y.9.4.O./ V V B / | A._.F./._.&XF.Q.Q.W.x.A.B.Z.C.5.4.$.@.f.s.$.] _ F F 4.Y.F.x.;.:.^ x j M V _ ] ] O.#.5.t.5.5.#.O.4.Z.H.V.3.$.5.+.U ` ` L { 9.Q.c.7.B.F.'./.e.4.[ _ ` I n v a ..Q.S.S.9.2.` L n u _ 4.8.e.B.B.5.] U #.4.a.9.| [ ' ^ { 7.7.7.S.tXiX@XL.Z.Z.0.q.@.U S p p m P #.a.s.s.6.#.L _ ] | 5.B.a.9.F.Z.d.t.K.U.a.i.] +.Z.f.a.9.J _ S m n a s v [ 3.#.] ] a.y.+.m m _ 3.2.] L ..` D ^ H.-XXX{.{.F.b.z.x.6.6.7.6.m.8.| ' n.'.Y.V.5.#._ N r v v [ 2.i.d.e.e.>.m g h h h h h B [ ` B V | | 4.a.7.4.O./ V V B / | n._.L./._.|.F.Q.Q.W.b.A.B.Z.C.5.4.$.@.V.a.$.X.[ V V 4.Y.L.y.| <.{ j g e z B F ' 4.2.4.n.4.4.4.] y.F._.F.7.! v w a v V _ @.#.2.Y.5X@Xd.d.L.OX9X3X&X%X*Xm.( ~ [ M.C.y.u./ / ;.( Q ( | _ } } O.4.#.+.| #.9.9.,.{ { [ | 7.7.8.F.rXyX#XF.Z.f.w.q.+.T S s t m P +.a.s.a.4.#.L _ | O.4.B.B.9.F.F.a.t.Z.T.s.i.] ",
"i.I.T.Y.B.] $.2.] ! N l j ! 6.7.} | 6.2. ._ _ ` ..3.2.| ` ` $.5.f.`.@XXXL.V.C.A.n.z.z.<.l.Q.x.V / 2.C._.Y.5.` ^ N k k k ^ | >.3.3..._ h w _ ! l M l ^ >.| D G ] ..9.e.9.4.] B M z h j r ;.A.4.4.B.T.C.A.C.B.F._._./.a.5.O.o.%.f.5.] ` ;.9.n./.4XD.:./ [ Q h h N ' | ` ..O. .$.5.$.e.e.w.w.e.s.j.s.s.w. .J $.9.2.#.Z._.C.C.Z.Z.L.Y.C.e.#.` J ` +.L N ^ x.F.A.9.] L L N l M ^ 6.b.Q.5.L a v ` e.F.<XF.] [ V 2.] _ ` ' 5.F.`.Z.H.U.3. .U ..$.3. .X.w.Z.e.w.s.5.5.3.] ..| 3.B.e.e.e.e.$.p.R.T.s.$.] p.G.T.H.V.] $.2.] ! M l k ! 6.7.] | 2.2.| _ _ ` #.2.3.] ` ` %.w.f.`.XXXXL.C.B.B.B.8.z.<.l.Q.y.B / 4.C.T.U.3.] [ b k l h ! | 2.2.3...[ h q _ ! l v k ^ $.| L V ] | e.9.9.8.[ B B M h h r | Z.7.4.B.'.C.C.S.B.F._._.Y.a.5.o.] %.f.5.] _ | 9.n.L.4XD.:.! ) Q g r h F [ P | #.] y.B.7.w.9.7.9.V.F.S.>.V M k h { 7.] 8.2.#.a.].@X'.C.'.oX5X<X}.D.%XW.=.Q [ ( _ V / B B } ) F F / / } | ] ] _ G ] 7.C.|.Z.| ] L 2.| _ ] [ 6.F.`.Z.U.H.$.X.P  .3.5. .] e.Z.r.r.a.w.5.5.{ ..| 3.a.9.a.e.e.$.a.R.U.s.$.] ",
"5.Z.].F.y.O.2.a.9.A.z.! l V 6.b._ / 6._ ` L #.e.2.6...m L $.g.s.p.G.T.T.Z.B.B.7.[ ! 2.A.Q.(.n.B.9.] 2.U.`.].{.b.^ e e h [ A.B...` ....n _ [ ^ ^ D l N ..6.| _ _ D _ 9.B.6.N M B M ! | _ L 2.9.y.B._.L.Z.B.B.F.Q.F.B.5.y.5.o.#.5.e.V.Z.B._./././.8.M.A.1.[ M h v / ` ] 2.i.5.y.i.w.5.#.$.3.w.e.s.a.r.a.w.a.a.5.$.4.B.B.9.a.L.L.F.B.Z.Y.5.] X.2.9...V D [ b.|.7.V 7.3.] ! ^ ;.c.^.}.A.} B V { A.~._.7.4.6.,.B.7.] O.#.] V P 9._.F.w.+.P X.e.V.V.9.S.J.w.3.5.$.3.a.7.{ | X.` ` 2.4.Y.`.G.H.J.Z.a.w.5.Z.].H.y.O.2.y.9.A.x.~ l N 6.b._ / 7._ [ L #.a.2.2.| V V $.f.p.p.G.T.T.Z.C.B.9.[ / 6.A.^.Q.m.B.9.] #.Y.`.].[.b.! w w k { A.B...]  .] m [ [ [ ^ D l N >.#.| L ` J _ 9.a.2.N M B x ! ] [ _ 2.9.a.a.Y.L.D.B.n.F.F.F.B.u.y.5.+.#.5.a.V.Z.A._./././.8.m.A.6.[ v q v V _ L #.t.5.B.C.9.B.9...9.V.V.V.] M N V _ >.;.] 2.#.5.4.y.Y.'.Y.oX5X5X@X&X}.%X=Xz.) ) B B V V v M | ;.B x ( _ | 7.6.| ` ` | a.F.F.9.7.7.2.B.4.] | #.] J _ e.Y.F.w.$.P ] e.V.V.e.Z.H.r.3.w.$.3.e.e.{ | X.` ] 2.3.Y.`.G.J.U.Z.a.w.",
"`.#X.XV.5.4.a.Z.S.F.x.| [ [ { ^ v _ 7.2.| [ ] 5.3...` [ ] w.f.G.Z.J.T._.L.s.5.9.n.n.B.Q.Q.A.B.S.4._ #.C.i._.<XA.! j e l ;.F.7.m L 2.O.' 7.[ _ [ V M b N _ | ] ' J D 2.4.[ v _ ,.;.2.x.a.3...5.Y.L.Y.Y._.F.L.Q.F.9.7.#.] t.a.a.&.9.V.F._.'./.Q.F.8.W.W.W.A.6._ v N | #.5.9.5.w.2.3.5.] D X.4.3.w.w.5.&.f.T.].G.9.9.B.O./ _ O.y.a.s.L.L.#.U P ..4.3.>.>._ 7.F.a.3.7.] V [ x.!.A.^.|./.9.2._ m { >.9.e.V.B.F._.e...$.i.F.5.` e.e.5.a.G.a.] ` #.V.Z.J.V.e.3.$.2.L m D ^ V b ` _ +.w.s.w.w.s.$.Z.T.Z.T.3XXXf.5.4.a.Z.S.F.9.{ [ [ { ^ z _ 7.2.| _ ] 7.7.{ { ` ] p.f.G.f.I.`.`.Z.C.7.9.x.x.A./.Q.A.B.D.4._ 2.C.i._.<XA.! j w k ;.F.7.m J 6.| | 6.` _ ^ V M l N _ O.' ` _ D #.8.' v _ ;.:.2.B.9.3.| 5.Y.K./._.Y.L.L._.F.9.6.O.o.t.d.a.4.9.V.Z._.'./.Q.D.z.D.Q.W.D.7.! v v _ ] 4.i.9.2.2.6...D D 3.V.e...N v [ >.6.2._ _ | 2.] L G O.d.L.|.@X6X2X<X|.(.(.m.-.Q M M B V z n ( B B _ -.[ } 7.2.2.3.] ` | 2.5.9.B.B.F._.a.#.$.i.F.3.` e.a.5.a.G.a.| ` #.V.Z.H.V.w.3.%.2.L m S ^ D N _ _ #.w.s.w.5.s.3.Z.T.Z.",
"T.F.i.i.5.#.4.] ` | | 7.B.b.;.V v F 2.;.{ B N V ! N ^ 2.Z.I.I.I.G.J.Y.V.Z.V.u.7.a.A.B.A.A.F.F.8.F N | 9.F.|.B.6.{ M w N F.F._ V 5.9...N V _ [ _ N y w r B ] 2.#.' ] | 7._ M B -.8.2.6.9.9.e.H.XX].}.a.4.s.B.B.9.| V v 0 U C.d.5.e.V.Y._._.[.F.Q.A.D.D.A.n.;._ B F | #.5.a.5.4.2.#. .` m D 3.e.e.a.p.5.L.|.T.B.2.! V F 4.2.n _ ] y.F.Z.Z.a.O.4.a.a.e.| V 9.9.6.| F ' ` ;.c.b.S.}.|._.Z.5._ v N V ] 2.e.F.'.Z.a.Z.a.9.B.3...e.e.e.Y..XT.Y.9.| V.`.Y.s.5.5.%.#.' L N M V ^ ` ` 2.7.3.3.$...] @.s.Z.T.Z.w.e.4.#.5.] ` | | 9.B.x.;.! v _ 2.;.{ N m V D V ^ 2.V.I.I.I.J.G.Y.V.Z.V.9.7.B.B.B.B.A.S.S.9.F N | 9.F.{.B.6.-.M w N F.F._ V 5.9...N V [ [ [ N r 8 y N } 2.2._ ] ..4.( M B -.8.,.2.e.9.e.F.@X|.'.a.4.s.B.B.7.| V a 0 ` V.s.4.a.B._._._.[.Q.F.D.A.D.A.n.;.! v v V ] o.5.4.] V _ _ v v { 7.9.B.#._ ] #.| -.| 2.{ [ _ V F I 4.y.Y.'.oX3X2XQ.D.Q.m.6.~ z v B n v / ,.;./ [ [ { -.| ' #.e.#.G L _ ..2.4.Z._.F.y.B.a.9.V.4...e.e.e.Y.|.U.Y.e.] B.`.Y.V.5.3.%.#.' F M l N ^ ` ` 2.3.3.3.5.X.` @.f.V.",
"w.$.w.e.] v m n a N ] 3.7.9.-.N ! 2.2.| _ 7 e r w v _ 7._..XR.I.G.Z.s.e.s.Z.T.Z.| _ a.Z._.V.6.` v ^ 6.Z.`.|.F.2.B e e M [ } 2.y.C.4.#.m y N N k l k v B 2.9.a.9.` V ] [ / ~ M | 8.] G ' #.i.U.`.C.9._ D $.4.4.3.] N r 0 m ] %.Z.'.Z.a.9.B./.S.S.A.x.n.9.;.V ! [ ] | 2.9.i.9.a.s.] L ` v v 3.Z.V.Z.h.Z.G.Z.a.7.9.| ^ B ;.2.N m G %.a.C.Y.Z.e.B.Z.B.4.V a L ] [ ` 2.7.2.;.x.z.Q.&X|.F.y.Z.w.D y b ` >.e.9.9.3.5.a.s.r.b.3...>.b.H._.`.s.F.].4.3.4.2.y.t.5.5.#.O._ M B N [ ..3.B.F.`.T.Z.3.] D  .$.5.$.e.e.] v m m a N ] 7.7.9.| B ! 2.6.| _ 7 e r w v ^ 9.`.`.R.I.G.G.s.e.V.Z.T.Z.| _ a.Z.Y.B.3.[ v D 6.Z._.XXF.6.B e g M _ } 2.y.C.5...B r N B k l k v B 2.9.a.9.[ V | ] _ ! M | 7.] F ` #.y.I.T.V.7.P V %.5.5.7.| N 0 0 m ] $.Z.`.F.a.9.F.Q.F.F.A.9.x.9.| B v B V [ ` ] #.2.' F _ ( ! v v [ ..2.{ _ [ L V _ ;.8.| _ ! _ _ L O.` #.B.Y.].|.L.P.D.W.1./ M z M v u / 8.z.A.l.=.[ { | ] | 4.5.P S ` ] ..5.3.9.3.7.a.s.b.b.5.#.3.b.H._.R.s.F.'.5.2.7.$.y.t.5.5.#.O._ v N N ` ..3.B.F.T.`.Z.5.X.D X.$.",
"w.a.G.B.] m [ #.L V [ { >.7.] M v | n.F.A._ a r B _ V ..e.f.R.U.R.J.e.s._.XX`.F.i.4.y.'.B._ a v v [ e.F.C.Y.A.! x M c h ! | 4.9.$.L D v v v k r r y B [ 2.x.,._ _ S L 2.2._ M V / ` V J $.w.V.V.#.` m D %.5.$.| ^ b N _ #._ J #.9.s.9.6.B.F.C.B.8.7.4.8.2.| ;.2.6.,.3.3.3.4.9.9.6.3.] V m 3.b.H.T.e.$.3.B.Y._.|._.~.9.[ L M F O.#.4.B.F.C.Z.H.Y.B.] v a a n m _ ] 2.B.x.Q.Q._.[._.Z.i.5.$.D v N D ^ D m D ] e.e.3.e.e.3.w.$.3.3.Z.Y.#.4.Z.9.] _ s m ] 4.5.4.' M v ^ B { B.B.2.e._..X.XH...3.s.5.w.s.G.V.` m [ #.L V _ { >.7.| M v | y.F.A._ a r V ^ V | 5.G.].I.R.J.e.s.R.|.].L.i.2.y.'.B._ a v v [ e.F.Z.L.A./ c n c h ! ;.4.9.2.L J v v b k r w k B [ >.x.,._ P m L 2.2.( v ! / _ V G $.i.V.V.$.[ m G %.5.#..._ N N _ O.P G 2.5.V.e.6.B.F.B.B.8.6.4.7.2._ [ ] [ ^ _ D P ` _ [ | [ } B k v V _ [ ] G V _ ] | ,.8.z.6.[ B u G F I o.u.Z.Y._./.L.A.<.} ! v z z r n [ 8.A.W.<.~ [ 2.6.#.#.] ` V S L ` L V L | e.i.3.e.s.7.0.>.$.3.Z.Y.#.4.Z.y.] _ v m ] 4.9.4.' M v ! Q { V.B.2.e._..X.XG...5.a.w.",
"5.r.Z.Z.9.7.7.B.2.| | [ { 7.z.;.! ;.A.A.A.2.v a >.S.S.2.e.I.R.I.G.$...a.a.V.Z.V.i.y.Z.a.` s b m J ` 2.9.7._ z r e c z ( 8.D.9.V r a a a a b a v k M { 6.[ } n r [ X.#.2.8._ v v u V L L #.Z.T.f.a.a.$.+.w.5.#.` m N L O.9.#.O.4.5.C.9.2.9.B.9.] L ' 2.9.n.7.9.9.9.8.8.5.5.s.B.B.e.B.9.] ] 9.B.B.Z.t.] | e.F.S.}.&X}._.9.} O.B.F.4.L L $.y.L.L.'.C.] m m V m _ | D ` ..b.F.^.'./.K.L.Z.#.S l D D ^ ^ S N V L ..a.e.e.w.e.w.a.H.e.7.5.#.9.y.9.2..._ u m V _ _ _ | V ! { ! ;.9.3.7.Y.2X#XT.f.V.a.5.5.w.Z.F.9.6.5.a.2.| ..[ [ 7.z.;.! ;.A.A.A.2.a a 2.S.A.3.e.U.R.I.G.$...a.a.V.V.B.a.9.Z.a.] v m m J [ 2.9.8.[ z e r j z ( 2.F.9.V 0 y v a a b a v y N } 6.} } n r [ ....2.4._ n v a V J L @.K.R.f.a.a.#.+.5.5.#.` m v D ..9.#.| 5.5.B.9.#.9.a.5.' V ' #.7.y.2.2.6.;._ m ` | 2...-.-.-.6.,.,.[ _ | ` V m v F | | -.:.7.9.2./ n _ 4.O.V G O.y.L._./.A.-.[ ( ! Q V v z B [ 8.W.6.! [ ;.O.#.$.P P L D D D D _ _ ` #.a.s.w.e.w.w.a.~.e.7.7.#.9.y.9.2..._ u m V _ F _ | ! ! -.! >.9.2.7.Y.2X@XR.s.Z.a.5.",
"..` e._.B.>.] | B.F.Q.8.;.^ Q 8.A.F.S.A.9.9.C.C.V.'.F.V.Y.R.I.I.f.T  .V.f.5.$.$.| G ` ' F V _ #.#.#.9.F.y.V e g z r g B ,.2._ r w p b V m _ _ V V ^ 2.8.-.! v r N _ #.4.5.O.' B u u n ` &.f.G.s.s.V.a.e.%.] ] ] _ D N D #.9.F.F.a.2.` D m #.| G m V ` 5.n.9.9.9.6.| 2.4.5.9.Z.S.Z.Z._.B.| 3.B.B.B.&.J L 6.{.7X&X}.|.&XW.9.A.F.9.7.V B O.d.L.Z.Z.a.#.@.] ] #.s.s.>.` ` [ 9.W.F.F.F.Y.a.I s y S ^ X.X.` X.s.e...+.w.5.....5.V.{.F.B.7.] B.L.7.] ^ N B v u u n G ( } ,.b.x.>.b.'.-X2X2X`.V.V.r.$.#...` e.~.B.2.{ | B.L.W.8.>.! Q 7.A.F.A.A.y.9.B.C.B.'.F.Z.U.`.I.I.j.U  .V.f.5.$.$.| J ' | G m _ ..2.#.e.Z.9.V 9 r h g g B ,.6._ r 0 y b S m _ _ V D ! 2.8.;.! v r b ` ..3.9.O.` B z u n ` &.Z.J.f.f.V.V.i.$.] ] ] _ L N D #.5.Z.Z.a.2.` m m O.| m m n ` 4.9.5.| 2.| V y N ] 2.2.1.,.8.A.x.<.2.x.y.| _ m n F 4.8.,.[ 6.B.B.6.8.5.4.2.L L O.t.B.y.n.,./ ~ x Q _ [ ( F [ ,.7.z.:.[ | O.| O.| G L L ` X.] ] #.a.e.#.3.w.5.....3.B.{.H.B.7.] B.H.4.] ^ m N v u u n F _ [ ,.b.x.>.b.'.-X3X<X].V.V.w.%.+.",
"` ] F.|.b...4.Z._.{._.W.S.7.-.7.A.A.W.F.B.{.Y.L.{.Y.F.H.I.R.I.+X$XT.J.Z.p.+.` ] D r a a N ] 5.3.4.a.B.V.2.v r k z g q g V M 8 N { X.` ` 2.2.6.$.] ( O.8.[ V V M P #.3.5.5.4.5.%.' V m ` s.s.5.$.i.s.f.a.P p D 5.a.] N a b ` e.y.4.` n G V ] #.O.` G ` 4.9.n.C.B.>.;.B.V.a.Z.'.C.C.|.'.C.O.2.F.'.L.f.%.4.9._.4X|.4X5X:X&XQ.B.A.y.B.| _ #.C.L.L.Y.d.5.d.a.%.5.C.V.a.3.2.] >.x.A.B.Z.Z.o.I L d N ..>...e.w._.T.` D ` 3.3.2.$.>.L _ 3.;.V 2.F.F.b.[ _ ! M N V m M ! ^ -.:.9._.|.}.}.<X@XZ.C.a.Z.4.J ` ] F.].A...4.F.F.|._.S.W.7.-.6.A.A.Q.F.A._.'.L.`._.F.Y.E.R.I.+X$XU.J.Z.i.@.] ] J r y a N ] 5.3.5.a.s.V.2.v r l z g q h B N 7 N { ` ` ` 2.2.2.$.' ( O.8.[ V V n L #.%.i.4.4.9.4.' V m ` d.V.0.&.s.s.f.a.P p S 3.b.{ b k k ` 9.9.2.L n n m ` #.] L G ] 4.5.5.y.9.] | | ] | 5.9.6.<.z.n.1.,.z.A.n.6.] F F [ 8.A.x.z.S.Q.L.m.9.y.9.2.[ _ $.9.9.1.O._ B ! Q B ! ( B / O.u.m.n.6.,.,.2.O.] O.] P _ #.$.>.5.5.F.H...D ` 3.5.3.$...L _ 7.| ! 2.H.F.b.` _ ^ v N V m M ! [ ;.:.z.Q.&X|.}.@X@XZ.C.a.Z.4.L ",
"F ] 5.Z.B.5.9.C.a.F.'._.~.W.W.^.D.x.A.B.F.F.C.F.Y._.Y.G.d.f.0.g.U.T.G.a.w.L m L N 8 N v m ` 4.#.+.@.%.9.>.V M h h q g v ^ | V _ 3.#.3.2.5.2.a.y.O.4.C.B.8.} ' | 2.a.Z.f.t.4.4.4.8.| ] y.Z.9.&.w.5.@.&.w.P s L ...._ b k y [ ] 4.Z.9.O.#.#.4.9.t.%.4.d.y.O.2.B.S.B.B.D.a.t.C.Y.L.OXoXy.I ` 2.B.Y.V.C.Z.Z.B.n./.4X<X*X4XqX4X&X_.Q.H.A.B.a.y.s.C.K.L.d.d.t.&.5.` #.V.e...2.;.;.7.7.5.a.+.L J L ` >.0.7.w.9.Z.Z.s.9.3.V.J.V.w.` D D ..B.F.>.>.b.{.S.>.[ V _ 7._ k M ~ { :.>.n.|.'.F.|.@XE.'.'.K.4.L L ] 9.C.e.5.5.V.a.F.'._.~.Q.Q.~.D.x.A.A.F.Z.C.Z.Y.Y.Y.F.d.f.0.g.U.T.G.a.0.L m L M 0 N v m _ 5.2.] #.5.9...B M h z q g h _ | V _ 3.$.3.3.5.2.a.y.O.4.C.C.8.} } | 3.a.Z.V.i.5.4.4.7.>.| a.Z.a.w.w.w.*.&.w.L f L ..$.` b y r D _ #.V.4.] o.o.2.5.5.#.5.K.a.' _ 4.y.9.7.6.| 2.y.8.8.n.1.:.1.8.n.S.F.9.4.9.,.} | 8.M.F.[.{.[._._.Z.n.9.2.#.4.5.4.| O.,.( / B B B M B [ ' 1.C.y.2.| O.2.#.` o.O.] #.#.7.e.w.5.F.V.s.5.5.B.H.s.9.` D _ #.B.B.2.>.x.{.S.>.[ V _ 7.^ l M N { >.>.n.|.'.F.|.@X'.'.E.Z.4.L ",
"#.F ] a.B.V.5.5.] 9.F.F.-X_.B.Q.S.4.9.F.Z.F.'.Y.F.Z.4.#.J o.g.I.I.Z.p. .o.J v L >.` N 2.` V | 2.O.+.5.2.] ! M M M x _ ;.2.7.7.9.e.>.| 2.....9.s.4.y.y.8.O./ v V ` 3.s.g.w.$.] } _ ! _ 2.i.i.%.@.@.#.w.5.2...3.5.w.X.` m L V [ 7.4._ o.5.5.9.a.y.y.d.V.d.4.B.V.A.B.B.y.t.] #.F.'.'.'.%.I n V 2.F.Z.K.Y.L.S.D.|.wX4X:X5X:XwXrX;X|.[.Q.n.Z.K.K.d.C.d.&.y.i.t.i.#.$.V.e.] ^ / v ! V _ a.t.L a m S D >.b.w.9.Z.H.Y.`.XX#X8X8XY.a.6._ ..<XuX5XB.7.{.&Xb.] B D [ ^ k k N 6.!.S.S./.F.Z.oX2X@X@X6X9XZ.$.#.G | s.B.V.5.5.] 9.Z.F.-X_.b.Q.S.4.9.F.Z.F.`.Y.F.Z.4.+.J T g.I.G.G.a. .] J v P ..[ N 2.` m ..2.o.+.3.3.| ! v M v M ( ;.2.7.7.9.9.>...2.....9.s.5.y.y.8.O.F v V ` 3.a.f.5.$.] ' _ ! _ 2.V.s.5.5.@.%.i.5.2...3.9.w...L m m v V 2.O.V ' 4.%.5.y.t.y.V.L.Z.4.4.5.O.9.7.O.7.y.8.8.n.n.<.,.1.<.n.M.D.F.F.F.n.,.,.x.n.n.Q.{.[.oX;XL.F.A.2.,.4.9.a.9.4.| / / / [ ! z v / F ' 9.4.2.2.4.%.4.4.4.] ` ] _ 3.V.9.>.a.Z.Z._.|.XX8X8XH.a.2._ ..;XuX6Xb.7.{.&Xx.| B ^ { ! k k ! 6.W.S.C._.F.F.oX2X@X@X9X9XZ.$.",
"` n 5.Y.G.I.Z.5.V P 4.Z.|.{.Q.~./.S.B./.L.y.5.%.5.9.] +.%.&.p.i.h.H.3.J m v J 9.S.B.b.2.N V | $.5.K.B.X.| 9.9.[ z M [ [ 2.2.7.5.9.9...#.| 3.2.9.i.#.' _ n r y m L ` $.%.%.4.4.| M r v _ | #... .#.#.] _ ..L 2.a.e.e.>.2.6.O.7.B.y.O.| y.K.n.5.a.a.4.2.9.a.A.S.S.B.y.t.%.` _ 9._.'.L.t.' u n ;.7.y.Z.].'.F.S.|.5XqXwX&X&X&X4X;X<X{.{._._.E.E.a.5.%.o.t.5.%.#.4.#.3.s.e.2.F v r v O.#.#.#.n b b V r.S.e.3.5.`.Y.|.1X1X#XXXU.V.4.P [ B.-X2XXX~.-X-XA.7.>.;.] 9.;.! { S.~.Z._.F.L.|.oXoX@X].3X3X#.m ' n 4.Y.G.I.Z.4.D _ 4.F.|.}.Q.~./.S.B.F.L.y.5.4.5.9.| #.@.&.k.i.I.I.$.L m m V 7.S.S.b.2.N V | 2.5.K.B...] 9.x.[ z M _ } 2.>.9.5.9.9...| | 3.6.9.y.#.' ` M e r m L ` @.%.%.4.4.O.M r v _ #.$.+.@.5.@.] P #.L 3.V.e.e...#.3.` 2.9.4._ F 4.Z.9.$.B.f.y.y.Z.K.C.5.9.9.O.4.y.n.6.1.8.<.z.<.;.B [ 8.n.x.n.m.y.y.8.9.D.D.W.Q./.Q.[.}.}.F.A.B.B.a.C.4.| _ _ | [ / B B v V F F F O.4.,.| O.5.a.a.| _ J | b.S.e.#.3.F.F.`.XX1XXXXXY.V.4.P _ B.<X<XXX^.-X<XA.7.2.| ] 9.| ! { S.~.S./.F.L.|.oXoX@X].3X6X#.m ",
"' O.B.Z.I.h.a.+.m m 3.S._._.S.B.F._._.9.] m D ` #.5.e.3.w.s.i.i.s.T.Z.| V F O.n.V.S.~.9._ D [ V.Y.F.5.a._._.|.^.z./ n [ 6.8.4.] | 9.4.7.9.y.2.y.B.4.O.L m v N [ 4.5. .5.s.9.3._ g k V _ ] 2.5.#.] ] m _ D V _ ..2.$.O.2.5.B._._.F.u.a.L.'.a.2.a.y.4.4.| | b.Q.B.4.4.t.t.O.F 2.D.L.Z.d.o.v M [ 7.9.y.C.5.9.F.}.%X&X4X4X:X&X4X5X;X}.;X9X|.V.4.#.` +.9.f.a.] a m ] 2.9.#._ V 9 z _ 9.9.| L v k b { b.S.e.5.#.3.|.tXXX`.J.`.F.$.] v n y.F./.F.8.C.'._.9.| V V | #.] >.!.S.{ 3.2.6.V.].@X.XXX].F.2._ ' | B.Z.I.I.a.+.m m 3.S._.[.S.B.F._._.n.] m D _ ..5.e.3.e.s.i.i.i.T.Z.' F F #.x.V.S.~.9._ D ` V.Y.F.5.s.`._.|.~.8./ M [ 6.8.4.] | 9.3.9.9.y.2.y.a.%.O.L m v N [ 5.3. .5.s.5.4._ r j B [ #.5.4.$.+.` m D m b _ ..5.2.] 3.2.B.Y./.C.O.4.L.|.a.4.Z.B.9.a.2.6.y.B.y.O./ O.,.8.1.,.,.1.z.8.-.! [ 7.z.8.x.A.9.6.A.S.D.A.Q.[.[./._.&X[./.[.;XY.y.#.' L ' 2.2.[ v z B B n v u i I ` V ` #.4.4.%.G n L 2.V.V.B.e.2.3.H.<X|.`.H.`.H.$.] v V y.F./.F.7.S.'._.9.| V V | #.| { ~.S.{ 3.2.$.C.].@X].XX].F.2._ ",
"' 4.C.T.+XT.f.%.S k ] 7._.[.A.x.F.~.F.| k r v D 5.H.G.e.s.i.@.5.s.T.Y.F.n.C.S.9.b.F.B.B...{ ..V.].a.#.F.XXF.F._./.8.} / / | | _ ] ,.7.A.S.5.4.s.d.i.#.m m m V L 9.3.D 3.s.9.| ! v B N [ O.] V F ` O.[ v N m N m ] #.] _ 4.Y.T.F.9.9.a.6.O.#.4.5.4.#.| | | >.x.A.C.y.%.4.1.4.n.9.u.d.y.' n M ^ z.n.4.4.] ' 4.x.8.W.}.&XwXqXrXqX%X[.%X|.].%.J J ] 2.4.5.4.L a 0 v | 2.' F v 9 v ;.A.B.` V N b V >.Z.G.B.e.| ] V.XX3XZ...a.Z.5.#.] 2.y.F.F.2.V 2.S._.A.#.[ _ ] 2.a.b.H.XX{.9.` ` ..5.5.3.3.5.F.3XB.' 8.s.T.+XR.f.%.S y { 9.~.}.B.x.S._.F.| k y a L e.H.Z.e.s.i.@.5.a.`.T.F.n.C.C.9.A.S.B.B...{ ..V.`.a.2.F.|.F.F.[./.8.} / / | ;._ ] ,.7.A.S.9.4.s.f.a.#.m v m V P 5.3.S 5.B.9.| ! v B N ] 2...m m ` ..[ h k v v b ..2.#.L $.K.L.K.y.9.y.4.O.O.9.B.9.2.| _ ` | 4.9.#.| ' ,.1.,.<.1.1.8.8.1.x.8.;.;.8.8.9.,.| 8.8.4.m.W.Q.{.>X4X;X[./.[.}._.5.L _ O.,.,.O.[ B z v h r e u m I L G ' O.] ' ' L ' #.4.B.H.H.B.2.] B.].@XZ...a.Z.5.#.` 2.y.F.F.#.V 2.C._.A.#._ _ ] 2.a.b.~.XX{.9.` ` ..5.5.5.3.3.H.3XB.",
"2.9.s.T.].T.J.e.D ^ b.S.!.{.!.9.A.[.F.{ m v a ` 3...3.e.a.5.a.d.K.Y._.{./.D.y.y.A.B.F.V.F.5...2.2.2._.XXB.A._._.F.W.m.,./ } ,.,.2.2.8.9.u.| | %.5.@.m m y _ 2.4.5.$.] _ 6.A.>.B h B _ ' 9.2.N F ^ ` { [ [ [ V v _ ] | ] ' O.B.y.2.B.y.6.] _ ' ,.O.' #.7.2.8.x.n.C.y.I ` 8.F.x.[ 2.y.%.G v M { A.Q.n.9.2.L V V ! :.W.*X5XqX:X:X[././.{._.%.L 2.V.a.| _ _ v a k N ` [ _ P _ V [ >.7.9.] { ] ` ;.7.B.V.w...3.6.[ w.XX..b 5.i.C.a.5.F.F.L.'.B.y.L._._.Y.9.| 2.9.5.Z.XX`.XX~.V.w.` ] 5.+.` _ J Z.6XF.2.e.V.T.R.I.J.e.D ^ b.S.~.^.!.x.A._.W.| N a v ` 3.X.3.e.i.5.p.d.I.Y.Y.[./.A.n.B.B.B.F.V.F.5.] 2.2.2.Y.|.B.A._._.Q.W.n.2.( } | ,.2.2.8.x.u.| ] %.5.@.m d y _ 2.4.e.#.] _ 2.A.2.B c B [ | e.7.N v V [ { [ _ [ N s ] ] %.] ] 2.a.8.9.F.n.9.| F _ 2.| / _ [ ] 2.O._ 4.D.4.1.1.-.:.1.1.<.8.x.9.8.6.z.x.8.8.2.' _ [ _ ;.W.(.%X<X>X>X{.Q.Q./.L.5.` #.B.t.} _ F v v v r u r a G G ' #.O._ ' #.o.4.O.O.2.4.9.3.4.9.4.] a.|.$.m 5.i.C.a.5.F.D./.'.C.y.L._._.L.y.| 2.5.4.Z.XX{.XX~.V.7.X.] 5.#.` _ J V.6XF.",
"e.C.a.5.G.].].a...a.H.{.^.^.S.b.F.{.|.F.B.7.` { 7.2.3.b.a.Z.I.Y.C.F._.B.A.A.m.S.F.F._.F.Z.4.5.V.s.V.{.Y.e.9.F././.n.n.A.u.9.,.,.2.9.n.x.1.} O.4.5.+.J n a ` 4.a.e.5.3.3.O.7.2.[ _ ! } _ 4.,.N V N [ 6.9.7._ V D L [ 2.2.F _ 4.2.2.| 7.4.} _ _ 2.7.,.2.a.e.B.A.x.n.%.m _ 7.W.9.| n.Y.9.I V ;.A.Q.Q.C.Z.a.#.V } ;.! } m.(./.A.Q./.z.A.2X_.i.y.].`.s.4.] m v r v N D ` 2.| n ! ] | ` _ [ _ ] 7.V.V.B.Z.#.M _ ] V { ] v _ e.s.a.a.a.Z./.L.].|.Y.C.C.C.'.Y.4.3.e.5.5.b.H.H.G.e.` ` X.] ....$...e.Y.a.9.C.a.5.G.].].B.X.B.S.{.{.^.S.b.F.{.|.F.B.7._ { 9.3.3.b.a.Z.L.Y.V.F._.S.A.M.A.A.F.F._.F.Z.5.9.V.s.V.]._.i.9.F././.m.n.A.u.8.2.,.2.9.n.9.1.} ,.%.5.#.J n v ` 3.a.e.5.3.2.>.7.6.[ / / | ] a.6.N N M { b.B.A.[ P [ m m ] 4.F L 5.2.,.O.4.2._ B B } :.] O.} | 6.,./ O.1.} ) 1.1.) :.,.1.8.9.8.8.8.8.z.y.n.9.2.[ | 2.[ -.A.(.Q.M.Q./.8.n.|.L.5.4.L.L.B.4.O.( M r h r r n _ L G ' 2.2.O.| O.] O.4.5.9.e.4.#.] >.2.| >...m ] 9.s.a.s.a.Z.Y.L.].]./.S.C.C.'.Y.4.5.e.5.5.e.H.F.G.w.` ` ..]  . .$...a.Y.a.",
"] a.y.y.Y.'.V.%.` X.$.B.~._.Y.e.a.T.H.F.~._.9.2.B.Q._.F.V.F.'.Y.C.B.A.n.n.m.D.}._._.|.Y.V.Z.I.`.s.i.G.Y.V.a.F.F.n.A.n.n.W.n.-.8.8.,.,.:.8.[ N _ 4.5.] ` _ ] 2.a.9.7.y.a.n.7._ [ [ [ | V | 2._ B B ^ } z.7.[ _ [ ;.>.9.,.[ ' 8.9.] } 7.;.V V [ 6.n.B.A.S.B.Q./.D.y.O.G ' 9.A.2.#.K.}.'.s.#.y.y.B.B.5.5.a.i.#.] 2./ v ;.W.c.6.W.F.| V ] a.T.].].i.#.#.] V v v v ^ | >.7.2.v a P _ F J V V ^ $.H.S.F.a.D r M } 6.| n _ 5.Z.e.4.s.V.V.Y.d.C.OXOX'._.B.B.XX|.V.e.a.Z.G.e.` X.#.P b D P ^ ..5.a.Z.G.%.] a.y.t.Y.'.V.5.` ] $.B.H.`.Y.e.a.U.H.F./._.9.2.B._._.F.Z.F.'.Y.C.B.A.y.y.m.D.}._._.|.L.s.Z.Y.R.s.a.G.Y.V.B.S.H.m.m.y.n.W.n.,.1.8.<.,.-.9.{ B _ 4.5.] I L ] $.y.e.7.a.B.B.2.[ _ [ [ 2._ 2.9.| M N Q -.S.W.7.;.;._ _ 2.| ` O.y.4.F ( O.;.! l h v [ O.%.,.} 2.,.B n G / } 1.1.;.,.,.z.x.D.8.8.6.2.8.4.4.u.y.2.,.2.} B ,.W.c.6.W.F.| V ' 7.F.H.G.5.%.#.O._ / B M l N | 5.#.` ] | O.6.O._ ( _ | 4.n.S.a.O./ ^ ;.z.2.D ] 5.V.9.5.a.f.C.L.s.C.OXoX'._.n.B.@X|.V.e.s.Z.H.e.` X...P b D P ^ ..9.a.Z.G.&.",
"%.%.t.| 4.C.$.V D D D X.H.XXH.B.w.w.5.9._.@X{.F._.F.F.]._.F.C.C.C.C.y.y.y.L./.'.'./.'.Y.i.s.a.a.w.f.].Z.e.9.b.F.D.F.M.n.M.x.| [ | ,.[ N N v N | %.#.o.4...m 6.V.F.F.B.A.F.6.M v N _ [ / O.2.2.,.;.2.| ,.6.;.[ [ 6.z.8.] _ ] 6.,.[ | ;.! N F | 9.B.F.B.A.F.|.'.F.C.O.' 4.S._.C.C.I._._.V.5.C.Z.e.4.5.t.i.%.#.#.] V n { x.7.c.~.b.| | a._.|.Y.a. .U ] ` ! m ! ! ..2.| ` V b D ] #.] _ D ] >.3.S.~.B..._ M [ A.F.x.5.B.Y.H.B.3.#.5.g.f.5.4.L.oX_._.B.9.{.6X`.e.w.a.Z.3._ D ` ` a a ` 3.5.e.Z.G.p.5.%.%.t.| 5.V.#.F D D D ..S.XXH.V.r.5.4.e._.@X{.Q.Q.F.F.].Y.F.C.C.F.B.y.y.y.L./.'.}./.'.Y.e.s.a.a.w.s.R.G.e.5.b.F.D.L.M.n.M.n.| _ | ,.[ B N v N ] 4.#.#.4.O.V 6.Z.F.F.B.A.F.2.M h k ! _ ^ ..9.9.6.8.6.;.8.n.7.-.| { 2.4.#.O.| %./ z V ( B M x M M _ _ ` ' O.n.1.x e e M 1.8.,.,.1.-.,.9.8.8.n.8.1.1.8.u.y.y.$.2.#._ V ] z.c.x.~.9.| ..i.Y.].Y.a.] ] #.O._ [ [ ! V _ | 2.' ` ` | 4.4.,.} 2.4.2.7.B.2./ _ _ -.b.Q.b.7.B.F.Z.a.6.+.3.f.f.5.4.L.oX'.L.B.9.{.8X`.e.e.e.V.3.L _ ] ` a a ` 3.3.w.f.I.p.5.",
"] O.] V V | | _ ` [ ^ ] b.Z.e.V.V.$.e.Y.|.|.|.&X|._.{.{.'.'.Z.B.Z.F.F.F.K.K.L._.|.|.|.V.y.i.f.@.@.f.f.w.] i.F.B.8.m.n.8.8.8.;./ ' 2._ V M _ | 4.5.4.4.#.v M ] >.F.F.B.B.a.[ v h y V _ | 7.} _ O.;.2.7.2.^ ~ { ^ _ | ' _ / O.O.] 2.B.A.] V [ a._.Q.F.A.n.F._.Q.S.F.C.A.F.F.~.oX$X].5.%.f.V.B.9.3.5.V.Z.i.5.%.$._ m V [ [ [ [ 9.x.B.B._.].Y.T.|.t.I L L N N N ! >.7.! v v D 2.7.4.4.#.O.V.Z.$.5.5.#.#.V B W -.:.{ B.L.L.F.B.Z.a.5.a.f.d.y.C._._.}.;X].F.Y.e.` P L P L X.X.L D P J S ` ..e.J.f.s.w.] O.' V V ;.X.^ ` P V | B.Z.e.Z.s.5.a.Y.].|.|.&X}.'.'.'._.'.F.B.Z.S.F.L.K.L.L._.|.].].Z.e.i.f.$.@.g.d.5. .w.F.B.4.m.n.8.8.8.;./ [ ,._ V N _ | 9.9.2.3.>.n v | 2.B.Z.a.A.A.[ v h h Q ^ | y.2.} | ;.;.z.x.[ ~ >.{ V _ L ] _ ] | F V 7.F.:.B M { >.O.F L O.8.2./ h e e z } 1.1.4.9.| } 6.8.8.8.8.8.8.C.C.a.y.5.2.] V _ } _ ^ [ 9.b.B.V.Y.].K.Y.].5.' ] ] [ [ -.{ { | _ F V ' O.4.B.7.2.8.9.B.9.7.8.' _ / [ [ >.z.;.A.L.F.C.B.Z.a.w.d.g.d.u.C._._.|.&X].F.H.9.] P L P L X.] D D J J S ` ..e.J.Z.s.e.",
"G V V / M M | 2.m v v ` w.>.#.e.B.$.$.Z._.F.S.F.{.|.XXXX].]._.Y.V.A.L.Y.L./.].OX'._.V.B.4.s.i.` U +.w.w.$.i.d.y.4.8.4.| O.,.O.O.| O.| ] #.4.9.i.9.2.,./ r k M V ` 2.9.2.' M z r r v V / _ F / ' ! ! _ } [ ^ { -._ _ V _ ] 2.O.2.9.n.B.#._ ` 2.B.B.4.2.8.D.Q./.[.}./._.|._.B.Y.OXE.a.5.y.Z.F.V.9.L.T.i.5.5.a.i._ v { #.[ v { B.9.Z.L.f.I.Z.i.5.#.m u n B l W ^ ^ ..;.[ ` >.3.9.9.O.` ..4.7.e.5.2.2.] L _ ^ { :.[ ,.x.7.y.Y.<XT.i.a.d.a.%.1.L.].|.@X|.|.Z.i.2.X.L b S #.#.5.w.%.] b b ^ X.w.5.X.D V V F / v M >.>.V v v ` w.>...e.C.$.#.Z._.F.S.F._.|.XX-X|.].`.H.Z.A.L.L.L./.].OX'._.V.B.4.s.i.U ] @.i.w.@.a.d.9.4.8.8.| | O.O.2.O.| | ] #.5.5.9.9.2...D r z v N ] 2.9.2.] M h g q h ! { [ _ ' } ^ ! { 2.6.2.x.9._ N B m G ] _ L | #.8.,.N l ! 6.7._ F 4.2.} ~ z x r e F 6.z.A.A.8.,.,.,.n.A.8.2.A.C.y.t.9.i.u._ B ] 2.} N { B.9.F.H.V.Z.f.y.5.2.J B / [ ^ =.-.{ ] [ _ _ O.,.6.y.9.4.9.9.n.B.9.9.4.O.} | ^ ;.z.} 2.x.7.n.F.|.T.a.i.d.d.2.1.K.].}.<X|.].F.a.$.] J s S ..$.5.w.5.o.b b ^ X.w.5.` D ",
"X.l h k h M 9.~.{ y k ^ 6.7.2.4.@.` ..V.Y.b.] [ b.{.|.|.F.Z.V.Z.B.B.H.Z.B.Y.T.'.L.Z.Z.2.+.U J +.G.p.g.i.&.%.%.5.8.6.2.| 2.2.3.9.#.] #.O.#.%.a.B.y.| W k j w k ! [ | #.#.| [ B z g x B v 9 n [ ,.] F V G [ ^ ^ [ ^ ` ` #.#...4.S.a.3.a.5.$.4.4.4.#.| 4.y.x.F.Q.Q.}.[.[.{.*XB.Y.@XOXZ.t.B.Y.XX|.F.Y.K.5.5.a.d.d.4.#.9.4.V m 6.Z.9.9.Z.a.a.d.$.m n a q w w j l ! { ] | ,.A.a.y.#.' m V #.B.F.F.H.~.9.2.| | >.6.:.^ :.n.z.n.L.oXoXI.L.s.%.| O.y.L.}.|.'.]._.`.E.i.L s D  .3.Y.F.%.` S b b ` 3.$.X.w.] v k l g M e.Q.{ r r ^ 2.3.2.4.#.] o.B.Y.b.] [ b.|.|.`.H.Z.V.Z.B.B.H.V.s.L._.].Y.Z.Z.2.O.U L +.I.i.g.i.5.$.$.5.8.4.2.| >.2.3.9.+.| #.o.#.%.a.C.9.| N j k w h V [ | | 2.| [ ! h e c F B u B O.9.7.[ V ^ | >.-.| N h y k N D #.6.' _ ' } / [ -.x.A.9.y.7.B ! ! M h e ! | 2.2.a.B.n.y.8.9.m.D.A.7.8.A.B.a.B.Z.B.5.2.y.7.V m 3.F.9.9.V.a.a.d.2.G n v a B ~ ~ [ { ;.2.;.,.y.9.2.,.,.O.O.4.A.S.S.S.F.n.,.2.2.,.7.2.[ <.n.8.u.F.OXoXY.L.s.5.| ,.n.F.|.|.{.]._.'.E.y.L s L ..$.T.F.@.U D b b ` $.@.X.r.",
"9.7.| k r B 2.~.b.m N m V ] | ] | D 2.Z.6.D ^ D ..F.Y.Y.Y.s.9.V.Z.Z.F.Z.s.f.Y.].E.Z.a.f.#.J #.p.f.f.i.i.+.%.%.4.2.2.] [ ,.7.2.] D ` ] ] L _ #.] | 6.^ N l k N { 7.2.#.A.9.x.1.( N N Q V z n G O.| L n v m _ ;.] { { ..e.e.w.5.9.2.2.i.5.5.#.5.5.2.$.4.2.A._./._.%X}.{.&X&XV.T.OXf.$.] i.F.&X-X{.Y.Z.y.y.F.V.d.C.F._.Z.O.#.$.9.a.5.w.g.a.O.] V u r h e h W W ! { ,.| 9.9.5.O.F v r n 2.~.{.-X'.'.'.n.S.B.9.7.B N z.}.}./.y.K.'.F._.T.2.[ } } 8.L.}.|.9.5.Y.`.a.v 8 m ..Z.U.Y.i.5...D b ..b.G.T.~.5.7.{ k w V 7.~.b.V m m ! { | ] ] L $.Z.3.D ^ ^ #.S.~.T.J.B.9.V.Z.Z.F.Z.f.f.Y.].Y.K.i.C.#.J @.i.g.f.i.i.+.%.4.2.2.2.} [ >.9.2.` D _ ] o.L I O.] >.2.^ W l j V { 9.2.#.A.9.n.<.) B x x / z n ( 2.2._ B V v V | V h k N N L ] #.| V n V / ! ;.8.9.,.4.C.} | 6.[ =.[ ! ;.9.2.O.B.F.B.n.9.9.A.D.F.A.C.Z.C.C.F.Z.V.B.F./.Z.#.#.3.4.a.5.w.d.i.#.] F v v v v Q { =.-.,.6.,.9.9.8.,.} _ [ | 4.B.S.[.H._./.y.C.B.9.8.^ Q z.(.}./.y.Z.E.L.`.Y.$._ } ] 7.F.|.].y.5.L.R.a.s 0 b ..Z.I.Y.a.4...S b ..V.Z.Y.Y.",
"5.G.b.^ N >.b.S.S.{ ^ [ V / _ { 2.` | Y.{.V.] N X.B.w.a.s.3.$.e.e.s.Z.Y.a.%.i.s.I.@XY.5.%.d.I.f.i.0.i.&. .] L n ' 2.[ ^ { >.L b a V L G n G _ m _ ;.! N l M ;.A.C.` 4.y.7.,.1.} / / [ / B B V L ' _ v 8 r V | 2.w.e.3.w.s.Z.w.X...a.I.Z.5. .%.w.5.%.] | a.F.S.c.W.%X%X|.&X'.F.L.&.] ` _ [ b.{.|._._.9.8.S.L.Z.a.C.Y.Y.s.#.| O.#.5.V.5.] L G _ 4.| v k ~ ~ ;.:.>.O.8.9.n.4.| ! V B z n 2.H.1X|._.<X@X|.Y.Z.V.3.-.6.W.;X2XY.'.Z.y.|.@X9.! v ;.F.F._.Z.a.B.'.T.Z.] _ X.a.Y.T.].G.V.e.^ b X.3.r.5.#.w.S.b.^ N >.b.S.S.{ ! [ V ! _ ] 2.` | ~.{.B.] N ..b.e.e.V.$.$.w.a.s.Z.I.a.%.i.a.Y.@XY.5.$.d.I.f.a.i.t.&.o.o.G n ] 2.[ ^ | | D b a m L V n G L n ^ ;.! W M M -.S.B.` 4.y.6.1.<.-./ ~ / x c v n V ` [ _ V N ] 7.3.] | 9.{ ] 5.e.#.L V m v ! [ [ [ B [ #...7.z.7.b.{ ] 4.9.9.9./._.a.4.2.2.| 7.D./.F.F.8.u.S.K.Z.a.d.K.L.B.#.] $.2.4.f.5.o.L F L 2.| B N [ -.6.8.,.2.4.9.m.9.O._ / F _ ] 6.F._.F.V.'.'._.F.B.B.5.-.8.!.;X2XL.E.C.y.|.<X9.V z ,.S.W.L.F.a.B.T.R.V.] _ ] a.H.`.].G.V.e.` b X.$.e.3...",
"e.V.7.V N 3.V.b.b.e.3.>.] 6.| { F O.4.5.3.2.9.V._.Z.3.w.a.5.+.] m ` w.f.i.5.5.] f.].I.Y.a.4.5.f.I.t.&.@.@.I 0 9 B O.x.7.7.| m V D V N V G V V ` ] B N e k k N >.4.#.| ,.;.-.,.:.<.x.z.1.,./ V L _ ] m 7 * y { 7.9.w.w.$.$.w.a.w.s.`.R.a.U U %.w.i.%.] 2.B.B.:.{ x.!.!.W._._.7.i.O.G L N y M 7.F.F.|.L.D.F.F.L.C.y.5.u.5.] I 4.5.V.G.5.V u V | n.,.V ;.b.W.9...6.2.#.n.8.| _ _ [ _ V V ] V.{.s.9._.}.C.s.s.s.i.2.;.D./.OXoXoXL.F.|.Y.7.! M ;._./.A.y.y.Y.OX_.9.#.| ..9.e.s.V.5.e.s.{ S S X.@.G.U.w.V.e.V N 2.B.b.b.e.7.>.| 7.} | D | 5.5.3.2.e.B.`.Z.3.w.a.3.+.] m ` i.V.i.5.5.U s.`.T.T.t.5.5.f.I.&.&.@.@.` 0 9 N | b.z.7.{ V D V D m V F D V } { V N w k k N 2.7.#.| 2.,.| ,.:.-.z.z.4.,.V u v m ^ ] _ V ` 2.7.B.S.e...4.e.V.a.a.Z.O.L | [ [ ;.[ O.2.b.H.}.4X{.A.A.a.C.C.4.5.a.9.9.7.O.| ;.8.9.8.B.y.n.D.F.L.C.y.8.t.5.] _ 2.4.B.H.9.G a V | n.;.^ 2.A.S.c.1.4.2.2.8.4.,./ B F ' | ] 3.F.F.2.3.F.L.y.a.a.g.i.2.;.A./.'.oX@XL.F.|.~.7.! M 2.^.~.B.n.y.L.|.'.9.#.] >.e.e.s.V.5.e.e.{ S S X.$.J.J.",
"D #.` l y ` #...7.H.~.b.9.7.6.9.} _ 4.a.9.4.V.].@XV.3.5.%.p.5.@.P 3.s.5.+.&.w.i.R.R.].XXV.3.d.].f.@.o.+.i.L 9 u z | Q.{.x.{ ! M V V N ! N _ 2.;.] L M v k r v v _ ] ` } ,.2.1.6.x.W.x.8.n.2.F _ O.O._ u * v } | 3...X.5.w.s.H.Y.`.R.U.3.U K U @.$.+.&.a.5.] | 6.W.(./.D./.[.O.B B n n / ' / #.n.x.Q.}.(.D.[./.P.K.d.4.4.] #.6.i.e.S.9.] { ^ 7.S.6.4.B.F.A.7.2.5.4.| 9.9.] ! V } [ { 3...3.V.5...$.[ ] i.i.p.5.] | [ ;.2.Y.T.Z.B.A.b._ M N ;.7.:.>.| _ ` | ] _ D D | $.$.{ ..3.s.s.3.L S K R @.X.U ..` v y [ 3.>.e.G.H.b.e.l.6.e.{ _ 5.e.9.5.V.].@XV.5.5.%.p.5.@.P $.s.5.+.5.w.w.T.R.]..XV.2.d.].f.*.U +.t.L 9 u z | W.}.z.{ ^ M V V N ! B _ 2.>.] ! M v a r v v L ] ' ' ,.,.<.6.m.W.z.M.Q.,.n v _ { 5.e.2.3.4.3.e.B.4.O.9.5.Z.Z.Z.] G O.S.9.7.b.6.] 9.L.B.Y._.{.|.F.F._.Y.Z.2.9.B.9.O.| 2.| / } } y.m.C.m./.L.M.C.a.4.%.] O.4.i.i.V.9.| { [ 7.S.6.4.B.V.A.8.2.5.#.| 4.7.| F B ' | ;.2.| 4.B.9.2.2.| #.r.i.a.e.] { [ >.2.H.`.Z.C.V.b._ N N { 7.>.2.| _ _ ..] _ D ^ X.>.3.X...3.s.s.$.L S K R +.@.",
"R S b S D ..3.3.X.e.~.~.b.2.>.6./ m | 3.3.O.3.V.T.s.$.+.+.#.%.a.+.] #.@.$.a.f.f.f.s.s.H.V.5.5.4.o.J U i.d.O._ | 1./.%X[.6.B N M V V M k Q [ 6.b.b.| N m v r v m N ] 2.9.8.8.6.l.z.z.z.z.2.,.| | 9.7.' n v ! [ ] 2...#.&.s.Z.G.H.H.V.s.5. .K P T $.0.5.r..._ ^ 6.A.(.(./.D.9./ z v v u ' 9.2.| 2.,.x./.Q.Q.%X%XL.P.y.%.4.y.F.i.y.#.] 3.| 2.z.6.7.a.B.Z.C.B.Z.C.i.$._ 2.B.#.N N } _ ! m _ 4.e.` b v 0 m f.G.J.I.@X_.A.7.` O.t.L.Y._.J.5.N ! ^ ^ l N ^ N v a a s v ^ | { ^ ` ..V.U.s.w.w.X.K S Y T R S b S D X.3.3.{ e.~.~.b.>.>.6.^ V | 3.3...2.V.T.s.+.+.+.+.&.a.@.` #.#.$.r.p.f.Z.s.s.Y.Z.5.5.4.o.J I d.d.#.L O.,./.%X[.6.V N M N ! M k N [ 6.x.B.| N N v w v v V ` 6.9.9.z.6.l.z.z.z.n.8.1._ V [ ..4.V.i.e.a.a.B.B.2.O.5.d.f.a.t.O.5.y.F.6.| x.7.] a.Z.2.4._.{.'.Z.B.i.a.F.C.a.9.2./ ' 4.O._ _ } ,.n.M.A././.C.M.t.%.4.y.Z.a.y.#.| 3.] >.x.>.7.a.B.B.B.a.Z.a.4.| _ 2.9.O.B F | ] ` D _ 3.a...^ L v V Z.h.G.T.].~.A.7.`  .5.Y.Y._.H.5.N ! [ ^ l N V m v a a a b D ;...^ ` X.C.T.s.r.w.] K S Y T ",
"@.P S s D ] ` X.S D $.S.{.9.>.[ k v #.3.#.P ' $.a.V.%.$.@.i.f.5.X.L S L w.U.T.T.s.w.$.a.Z.y.4.$.] d U %.5.y.Y.'.Q.>X}.n.[ M M M ~ -.-.-.[ ^ [ 8.;.[ V N a v v r n n 2.B.D.A.1.-.-.;.2.2.2.4.y.B.d.4.` F _ ;.;.[ | | #.&.s.s.a.s.s.a.p.i.&.@.+.q.r.r.w.@...X.N _ z.!.W.D.8.[ B z z M M 2.C.8.[ B Q <.A.(.Q./.[.L.y.%.o._ 2.L.a.P P ` V M N { -.>.9.F._.Z.C.E.Y.d.i.6.5.%.] L ' } V v v L 5.w.` k ^ B.|.@XR.Z.H.T.`.~.F.G.5.w.Z.G.Y.s.X.N N D D h r V _ v y a S b b ^ S X.3.#.5.s.5.$.0.$. .Y T q.@.K m b S ] { X.S ^ $.H.`.b.>.^ y v #.2.#._ ` $.a.V.5.+.+.p.G.&.] L S P w.U.R.T.s.i.3.a.Z.y.4.$.] Z U %.5.a._.'./.>X}.n.[ M M M _ -.-.-.( [ [ 7.#.` V b a v a a n N 2.n.A.A.6.-.-.:.6.<.2.A.C.a.e.>.O.t.i.4.3.2.5.s.4.5.s.4.#.y.5.] ] #.y.| V 2.B.#.| 4.3.B.].|.`.Z.4.3.` #.a.8.O.[ V / } [ / / _ ,.x.W.D.W./.D.u.O.' I 2.L.a.P P ` V v W { -.;.9.L.Y.C.B.L.K.y.4.] O.o.L m _ | [ m D { w.e...D ] A.XX@XT.Z.T.~.~.~.H.H.i.5.f.G.T.B.| m N V ^ k r ! _ v r a S N N D D ` 3.#.5.a.5.$.w.$.X.Y R q.",
"@.$. .s a m D S s b N 3.~.B.B.A.[ v N ..] _ L ` 3.5.]  .@.$.w.V.V.5. .` 5.V.J.J.f.H.H._._.C.4.C.#.J @.5.Z.Z._.C.n.|.[.9.{ ^ ! ! ;.z.m.c.6.:.^ ! V V m a m ] L m V a _ n.S.x.;.=.:.;.;.,.2.9.5.a.4.I F ` ] x.;.k N ..$.%.w.e.+.#.B.F.i.&.$.@.q.w.p.f.f.&.3.2.^ | b.=X}./.4.n r h e M _ A.K.y.1.| ( -.z.Q./.W./.C.4.o.G m ` 4.#.D L L S M l ! ;.8.B.H.].2XoXY.V.a.s.a.| #.' n ] ] v r k S 2.e.V.3.w.1X6X#XJ.Z.a...e.H.`.H.e.@.w.V.$.m b a k M V D _ 6.3._ v N ` _ D { >.V.V.e.w.5.w.r.s.r.q.@.q.q.@.$.+.s a m S S s b N >.~.S.S.b.[ v m | ] ` L ` 3.5.] +.$.$.5.f.Z.5. .` 4.Z.J.U.s.J.H.Y._.C.4.C.#.S +.5.Z.Z._.B.n.&X_.9.} / ~ ! ;.l.A.c.6.:./ ! V V m a m | L N V a _ n.D.x.-.=.<.:.6.8.9.C._.Y.F.9.4.V.C.s.4.L | F.5.$.u.5.T.Y.s.5.o.5.Z.L.F.x.6...#.#.9.a.s._.B.s.a.B.5.u.4.' _ _ F | O._ | ,.} <.x.Q.W.Q./.C.5.O.G n ' 4.#.S L _ D v l ! >.9.B.F.].@X].L.d.t.5.4._ ` G n ` | m N m ^ 3.a.Z.5.e.-X1X@XI.Z.a...e.T.Y.H.i.@.5.V.@.m s a k b V ^ [ 2.3._ v m ` ^ D { >.V.Z.i.w.&.w.r.s.r.q.q.q.q.",
"X. .+.` m v m s k s k D >.7.A.B._ y v P F ' 4.a.i.9.$.y.a.5.5.U.`.5.X.] 3.Z.U.J.r.e.5.B.9.,.| 2.] ] f.U.G.Z.].Y.C._.C./ N / [ } m.W.!.x.l.m.,.[ V V m P 5.9.4.N r n F u.x.1.;.6.;.| { | 9.i.5.5.o.v G ,.4.n.>.N _ #.4.w.5.$.v m 5.Z.i.+.@.5.w.0.p.p.G.f.s.w.3.9.!.(.A.6.' v u M h / 7.e.D.2.V ;.6.;.l.{.|.'.F.C.u.o.G ` 5.2.5.5.5.+...[ [ 8.x.A.F.y.C.'.'.L.Z.d.i.2.V | _ N ^ >.| v ` w.e.r.J.J.H.`.XXXXV.G.Z.B.G.`.G.e.3.X.P s.s.] L m s b ^ 2.B.V.5.] D m D D D ..S.G.s.G.a.U X.+.@.r.r.g.h.k.X. .+.` m v m a y b k D >.7.A.S._ z a P L ' 4.i.a.9.$.9.s.4.5.Y.T.5.] X.3.Z.U.G.w.w.5.a.9.,.| 2.]  .s.I.H.Z.].Y.C._.B./ B / [ } c.W.(.z.z.c.,._ V V V L 4.9.2.m r n F 9.z.2.:.l.>.-.-.2.y.C.'.L.B.7.>.9.s.4.| 4.B.F.a.u.2.L.3XL.L.Y.B.Z.Z.L.<X{.9.| _ P $.6.#.a.e.5.r.a.3.2.[ ! _ { [ ] ' V _ | ,.7.n.Q.|._.F.B.5.o.m ` 5.$.3.w.5.@.O._ } 8.x.n.D.9.A./._.L.C.y.5.#.m _ F N _ ,.;.N ] w.s.a.J.J.H.`.XXXXV.Z.V.V.Z..XH.e.3.] U s.s.] J m b b _ >.B.V.9.| D m _ D D $.S.S.V.Z.e.X.X.+.$.q.q.g.h.p.",
" .T 3.3.] v a y k S D >.{ { 2.3.] D a y N 2.9.7.#.a.].Y.@.L ] 3.e.9.V L 5._.`.G.s.e.4.` B v B m L @.a.V.5.5.I._.E.C.4._ B _ [ ;.x.A.!.^.A.Q.M.8.] V L 9.B.B.4.L _ ] ' B.m.8.z.A.x.7.2.2.4.5.t.9.%.G L 2.7.A.B.c.9.] D 5.a.7.#.#.i.a.w.@.&.w.i.p.f.h.j.f.V.e.B.F.~.{.D.7.4.9.6.$.D | a.7.C.8.V [ { :.z.b.F.L.L.Z.%.] I U #.+.w.w.a.s.#.J F | x.A.n.[ / } | y.K.K.L.4.#.O._ ^ ;.7.x.B.G.~.G.V.f.V.Z.Z.XX8X<XH.Z.Y.Z.r.X.` $.3.` $.i.5.| K m D #.e.F.Z.9.] L N b S ^ $.b.r.e.V.w.P S S  .s.j.g.q.X.T  .&.2.] v s y b N D | { { 2.7.| G v r N 2.9.7.#.a.`.Y.$.P ] 3.b.9.V L 7.`.`.G.V.e.7.[ B v B m _ @.s.s.w.&.Z.`._.Z.4.F n _ } | x.A.W.!.W.Q.A.8.} V L 9.B.C.6.L _ ] _ M.A.8.9.b.c.7.2.,.8.4.B.S.B.A.7.#.#.] ] 2.a.Z.4.] G ] F.<X/.F.].oX@XF.~._.n.2.| #.2.$.+.a.H.a.a.V.#.J V { ] -.[ ! _ [ [ ] ;.6.x.x.B.A.Z.B.%.] U ` #.#.w.5.a.B.o.F F | 9.A.x.[ _ [ | y.Z.Z.Z.2.| ] ' _ >.8.b.b.Z.H.V.s.V.Z.Z.Z.XX8X@XY.K.Y.V.e.X.` #.5.` $.i.5.| P b D ..e.Z.V.9.] ^ b b S ^ >.r.r.e.f.w.P S S  .s.h.g.q.T ",
"T P ` 2.O.v r N ^ >.>.e.x.7.2.,.2.| _ _ 6.| _ ] 2.B.C.#.G s V L { _ N v 2.Z.Z.V.s.9.#.2.| [ [ N L ..@. .@.p.a.f.E.Z.2.] ] 4.S.M.m.M.m.W.(.Q.2.O.| m v _ 9._.B.O.2.4.6.S.D.A.x.W.W.F.B.a.a.5.i.e.4.] / | 4.b.z.b.A.b.3...5.y.5.5.i.w.5.&.w.%.w.s.f.h.G.j.s.3.a.B.L.}.[.D.7.9.a.9.| #.3.9.B.A.A.| M N ] ..2.5.i.5.3.s.T.Z.f.w.w.#.3.w.] d n F x.n.,./ B x z ,.M.K.E.C.B.3.D b D ^ 7.~.~.H.Z.J.f.$.3.r.S.#X8X].Z.s.s.w. .U ..w.S.G.I.9.#.] D ` r.a.V.H.V.D v p y b X.w.H.H.Z.e.e.r.T D q.r.j.p.@.Y X.P ] 2.| v r N ` >.2.7.9.7.2.2.2.| ` _ 6.#./ ] $.B.V.$.m a D P ` ^ N v 2.Z.G.V.s.w.#.2.| [ [ B L #.+.X.@.w.s.f.E.Z.%.| ] 4.F.m.A.m.A.Q./.Q.1.;.| N v _ 9._.A.O.4.4.4.D.F.m.b.Q._.W.B.B.B.9.y.C.B.8.,.| | ] | | | 4.4.F v n O.F./.|.|.|.|._.}.-X{.b.9.e.#...e.H.`.a.#.5.7.2.| | | | ^ _ 2.A.n.O._ _ | ;.2.2.4.5.$.i.Y.Z.f.i.5.$.$.w.+.d n / z.n.,.( B N M 1.n.K.L.a.B.2._ V _ ] 9.S.H.Z.V.J.j.$.7.w.Z.XX9X`.Z.a.s.w. .` ..w.Z.H.G.a.+.` K ` w.B.V.H.V.D b t t S X.r.G.G.V.s.r.w.U S r.r.j.p.@.P ",
"S s y D [ v v ] e.7.^ { V.F.S.B.9.] 4.y.a.L v | 3.a.2.#._ v n a b b ^ _ 3.3.s.Z.V.3.O.2.,._ ! m m ` |  .U &.f.Z.E.a.$.#.O.#.y.6.,.z.n.n./.8.z B } N B _ 7._.'.C.y.a.9.9.A.A.z.9.B.A.C.F.B.a.V.9.4.7.5.2.| 2.9.b.z.2.>.4.#.#.#.$.5.i.&.5.i.i.f.f.p.p.h.f.@.| B.F.P./._.B.L _ 5.5...#...9.F.D.7.N v Q ! [ _ L ] 5.B.Z.L.U.Z.G.e.5.G.R.t.I / 2.M.8.;.~ M z x O.B.C.B.7.#...P a y D ^ 9.F.J..X#XXXZ.S.J.Z.e.Z.].R.i.L P X.] { 3.H.H.T.C.a.%.$.$.w.e.V.].F.m y a y t S $.r.H.H.G.f.Z.a.r.3.r.r.q.0.P S s y D _ N v ` 7.3.^ | A.F.F.e.9.] 5.9.y./ n | 4.y.4.#.L v b y N N ^ _ 3.5.a.Z.V.2.2.2.,._ V V m _ .. .U 5.f.f.R.a.$.2.O.O.y.4.;.z.x.m.Q.8.z N ' V m _ 9.Y._.V.y.a.y.y.A.A.z.x.A.A.Z._.L.L.Y.C.9.2.[ 4._ z v L F N L V N L | B.|.}.<X@XXX|.-X4X&XB.e.3.2... .$.w.3.` 2.n.a.A.] [ [ _ V 7.B.n.,._ _ ! } ] [ ] 5.B.Z.L.I.Z.Z.a.5.J.`.t.P F 4.m.8.;.! x z z O.B.C.a.9...#.` v v ^ { e.F.H.R.#XXXH.Z.H.G.s.L.].T.p.K P ] X.{ 2.F.J.Y.V.B.3.$.$.w.e.V.].F.m y y t w S >.V.H.Z.G.Z.Z.s.r.3.q.r.r.q.P ",
"X.s s s v v D 5.a.O.` 7._.F.B.a.9.u.#.,.B.| | 4.#.| a.a.V a v s S N ] 6.4.#.] | ` >.7...| [ v F V m D ] $.9.V.U.Z.5.P N a m m v V 4.O.| 8.} M B _ N v ] ] 2.F.Y.F.F.y.8.n.n.B.n.4.4.e.9.7.5.9.B.F.A.9.7.;.:.6.z.2.M h ! | O.i.a.f.s.9.i.5.w.s.f.f.I.f.d.4.9.Q./.W.Q./.C.' O.5.5.>.3.$.2.V.B.8.2.;.;.6.7.6.] ] 3.Z.Z.V.s.K.T.C.C.L.Y.a.o.O.m.D.z.M.1.( [ 9.9.5.[ V O.| ^ [ ^ h r [ Y.'._.].@X#X2X1X@X3X+XK.Z.I.C.#.] #.....] 6.V.K.a.y.s.s.e...$._._.B.[ v v r 0 D >.e.Z.G.J.e.r.s.w.e.V.5.#.$.3.` s y b s v L 4.a.O.] 9.Y.F.C.y.9.u.#.O.M.O.] 5.#...a.B.D v v s m S ] 4.4.#.] | ` >.7...| _ v F L B L ` $.e.V.U.G.5.L m a n m v B 4.,.| 8.| M N [ m N ` ] 2.H.Y.L.Z.y.8.n.B.A.B.7.9.B.F.F.Y.C.a.B.O.F | [ M k v y r a b s b >.b._.<X|.OXL./.Q.W.F.S.7.5.#.#.@.5.i.e.| J F | 9.O.;.9.e.#.#.9.C.n.7.{ :.6.8.| O.4.C.C.B.s.K.T.V.C.L.Y.a.] O.m.S.z.x.1._ [ y.y.4.{ F ,.;.^ { _ k v ] /.'.Y._.|.@X2X1X@X1XXXK.Z.I.V.#.o.#.O.| | 3.C.F.a.i.s.s.y.#.2.Y._.V.` v v r 0 m 3.e.Z.G.G.r.e.a.w.e.V.9.#.$.3.",
"` m S L ] J L 5.C.C.Z.B.#.O.B.8.O.O.O._ 4.#.2.B..._ a.{.9.v s N b X.X.` ` m V N N >.3.2.3.] v L [ [ ;.7.i.w.5.V.e.3.#.` a b a a v [ | 6.8.,.! v M k r v m 3.G.].`.a.5.7.O.B.x.] [ _ ] } | | ,.2.9.B.n.| _ ^ ^ [ _ M g N [ | 9.i.s.s.e.B.B.9.5.B.i.&.i.d.9.>.c.Q.Q.D./.C.u.a.4.4.3.w.2.w.B.e.n.F.A.x.b.-X<X'.S.9.B.9.5.B.9.a.s.C.Z.d.#.B / ,.[ / -.} / 6.B.5.#._ _ { ;.[ N k h v / 4.F.F.Y._.3X0X0X0X3X@XI.V.I.R.V.5.#.2.| L ` 2.a.y.5.a.9.3.` ^ 3.9.2.2.] y 0 y N >.b.V.V.Z.V.Z.5.` ^ | 2.4.3.#.] S S L ] V J 4.B.Z.Z.B.2.| B.4.| O.| _ 1.#.2.B...L a.].e.v v m S ` X.` _ V V N N >.3.3.3.] v L [ [ | 5.y.w.9.V.e.$.$.` a s v a n _ | 2.8.;./ v v k r v m 3.Z.].'.a.5.8.,.B.y.| ] | 2.4.a.t.y.#.O.4.4.z.7.] N b y y y S S b ` b.'.2X}.L.K./._.&X|._.x.i.f.w.@.5.a.2._ m n O.9.#.9.Y.F.7.4.8.D.L.A.z.b.[.[.F.A.7.t.y.9.B.9.a.d.V.Z.C.%.n [ ,.} ~ -.[ / 6.B.7.#.^ _ } | [ N M v M / 8.F.F.Y.E.2X6X8X8X3X#XT.Z.I.E.V.5.O.#.| _ [ #.a.a.4.a.5.4.` L 6.9.2.2.] a 0 r v 3.B.s.V.V.Z.Z.9.` D ..#.4.3.#.",
"m b L ] 5.2.| 5.Z.B.2._ N 2.F.4.#.4.4.' F } { X._ b L Z.F.5.O.#...@.5...m v N _ ] e.5.3.#.] V N ] 8.B.B.B.B.#...5.3.` v 0 r r u u r V | ] V z e 7 8 a a ] s.G._.H.e.B.4.O.2._ h v v n _ 2.' [ _ | 9.2.G N v M [ [ Q ! { 8.9.9.5.i.a.i.V.F.a.i.i.5.*.&.2._ v Q z.(./.D.m.y.2.F [ | ..#.5.9.y.| _ ^ { l.S.{.'.F.A.a.9.9.S.B.4.2.y.4.I P n n u e h h l [ B.B.B.e.B.A.| { z._ h h B [ ' O.4.a.V.`..X#X1XT.V.Z.I.a.t.5.5.%.| [ v N D #.a.i.e.#.D ^ w.2.^ _ ] ..m 0 s X.e.w.w.V.s.r.3.` _ ] m ` 2.] S S b D X.5.$.| 9.Z.B.#._ N 2.F.4.2.4.4.} F ] } | D N L Z.H.4.#.+.X.$.5...S v N ` { e.5.3.2.| V N ] z.n.B.B.s.#...3.3.` v 0 r r z u r ! | | V v e 7 8 a a X.B.G._.L.9.V.5.2.2._ r v v N #.B.5.$.V G 9.y.| ..[ m b P ` D S S ` w.V.L.L._._.}.oX;X5X|.'.F.s.f.&.$.%.$.L 0 v ,.F.F.9.9.b.B.9.,.4.8.8.6.6.7.m.F.Q.F.9.7.9.y.Z.n.4.2.y.4.I L n n z q h x M _ b.B.s.w.B.B.;.| z._ h g V } ' #.4.a.B.`.].@X1XR.V.f.K.d.5.5.5.4.O._ v m L #.a.b.e.#.J [ 3.2._ _ ] | m 0 s ` 5.w.r.V.s.r.3.` L ] B ` 2.] m ",
"t a ` $.| ..V ] s.9.| V ] ' ..#.2.' V n B 2.{ y b ` e.Z.Y.`.s.$.w.$.3.X.V D L X.>...w.#.#.2.] L [ x.F.F.a.e.....e.H.V.X.m v V [ V B | } V r r u y y a ..F.T.T.H.5.#.#.` | G v r r v n D | 2.#.O.| ] L F N k h B V M V z.Q._.d.5.$.5.e.B.Z.5.| #.%.5.5.] v e M -.m././.C.1./ m [ [ D 2.B.a.C.9.| [ ^ V { e.F.F.V.B.B.F.F.F.Z.y.#.` F G F F r 7 g B _ B.F.B.e.H.9.#.x.9.b.2.V ! >.y.9.2.4.4.4.y.a.T.G.+.J L o.U n I 5.5.[ L N ! ^ [ 6.e.6.] ] 7.6.` V _ ] ] ` m D ..3.X.e.G.G.a.` m | ..N v v m 0 8 y ` 3.#...D ] B.7.| V ] ] | 2.4.` V v n 4.] k b ] e.S.H._.a.3.5.$.3.X.m D D ] ....w.#.#.#.] F } x.S.F.y.9.#...e.H.V.] n v F ' V B ] [ V r w h r r v +.Z.T.T.H.5.#.$._ | F v r w a v ` e.y.O.G V _ J O.3.#.S b P X.`  .` X.H.F.a.7.Z.oX;X5X5X<X4X<Xy.a.5.&.&.i.e.3.b V [ ! _ 2.] >.C.F.4.4.8.8.<.{ -.2.e.A.Z.B.y.a.F.S.F.Z.t.#.I L G F m r 7 h M [ A.F.B.y.H.9.>.9.9.x.2.V ^ ;.y.9.2.4.2.5.i.s.T.G.+.S L ] U d I 5.4.` _ B m _ ` 6.e.3.] | 6.2.` N _ { ..` m D $.3...e.G.Z.s.` S | >.m v v n y ",
"t y S ^ L [ V ] 2.2.6.2.6.] #.4.#.` n v v N v b ^ 7.H.e.e.V.3.S ] w.$.P L X...3.5.$.e.e.4.` J [ ,.x./.B.O.@.#.` 5.].].s.| ` V V L O.4.O._ L [ D ^ _ ` G.XX.X`.a.` L m L G n v w w N _ [ O.7.y.B.4. .] ` V V v r h N V x.}._.#.O.5.9.9.9.4.4.O.' $.B.s.9.^ x B ~ [ O.) ;.F z n [ Q r [ #.y.d.4.1.7.' n | a._.|._.b.9.B.A.B.F.9.#.o.U G J V k w r B | b.S.V.w.X.m b 2.A.F.F.n.B.S.F.F.9.#.] ..5.e.G.Z.$.R J L J s f L ' O.| D v b m ` 3.9.e.9.>.^ ! ^ _ ` _ L L ] +.w.e.s.s.H.H.e.X.9.a.2.v w 0 0 t y D ^ ^ ` m ] 2.$.5.2.6.] #.4.#.L n v k N b b D 7.H.e.b.V.3.S ] r.$.D L ..X.5.5.$.w.e.4.' L } O.9.Q.B.O.#.O.` w.`.XXV.| ` G V _ | 4.#._ L ' L D ` D G.@XXX`.a.` L m J F n v 0 7 v ^ ;.5.a.a.C.5. ... .$.5.+. .5.s.f.F.w.X.H.].`._.].2X5X|.|.7X<X~.$.5.I.Z.i.t.%.#.o.,.O./ n B [ ;.7.n.u.n.n.8.z.6.} 6.9.F.Y.F.y.9.A.B.S.F.u.#.o.o.G G V k e w N | B.A.V.w...b v 2.S.S.F.n.A.C.F.F.9.#.] | w.e.J.f.%.] S L L s a P ` | ] D l b S ` 3.w.e.7.2.^ ! ^ _ _ L L L ]  .w.e.s.s.Z.T.5.` e.e.>.v 0 0 0 ",
"k y a b V V m m F 4.a.3.O.F ] 6.G N G v N w w b ....>...L L 5.5.X...X.D ` $.w.a.V.Z.5.#.4.O.2.a.B.x.9.2.#.#.$.$...$.w.%.+.O.n n ' } 4.9.#.| ` D D ` ` 3.e.V.w...L ] P V n N B n V ;.,.2.2.#.;.2.4.#.] L ] | _ M [ | ! ^ 8.2._ O.#.| ` O./ / | P _ #.O.] | ^ M x B n n z z z z / / v ^ 7.y.u.O.,.F.B.y.C.F._.|._.S.9.9.S.B.9.] ` ] o.%.] ` S v v V { 2.9.e.>.N y N 6.6.8.8.] 2.n.F.Y.2._ _ ` $.w.e.f.w.$.a.w. .d d m ` #.] m M b b b _ >.V.!.7.^ { >.e.7.#.` J  .3.0.Z.w.] $.V.$.` 9.B.B.#.m r r y y y b S D v N F 7.9.6.#.V | 6.V m L v v w w b ........L D 5.5.X. . .` ` $.e.e.V.Z.5.2.3.O.#.i.B.x.y.2.#.$.$.3.X.3.5.$.#.O.v n ' } 4.9.2.] [ G _ ` { 3.i.s.w.| L ] _ V n n v v V ;.3.9.9.5.B.T.s.$.@.$.+.w.p.a.s.w.s.U.Z.V.T.].`.|.`.{.<X<X'.b.V.b.2.V.I.t.%.C.s.7.4.,.[ 8.8.<.9.,.,.n.m.n.8.y.A.B.2.2.B.F._.L.A.9.9.S.C.9.] ] ] o.#.#.` S N b V { >.e.9.>.b k N 6.4.9.8.] 2.n.F.Y.,._ _ ` $.5.a.s.w.@.a.p. .d d S ` #.] V v N l b ^ >.S.S.7.^ { 2.e.9.$.` J  .$.w.f.5.X.2.Z.3.` 9.V.B.2.m r r ",
"k y b y a r w v _ B.9.] V G 7.i.4.O.[ m b l l ^ ..{ b ^ 5.Y._.Y.d.$.X.` ..e.V.V.V.V.i.%.5.s.V.B.9.9.2.o.o.+.%.] s X.w.] I ] L ] O.] 8.K.y.` V _ ` [ ` ` D ` L L ] _ V m F _ [ O.;.,.6.6.8.8.4.y.F.B.#.] ` ' O.2.2.2.8.V n n F O.L [ | 2.| F _ ] G a N _ ^ ! ! ! / M v n z r g ! | ;.4.8.4.C.K.L.Y.Y.OX`.E._.].'.{.S.9.9.y.y.o.m d U %...X._ V _ >.2.2.7.{ { S v m ] a.C.4.F _ 4.B.A.] v a a P ..w.p.w.h.G.s.i.+.J S 5.9.L N N N v b ^ { >.b.S.6.9.V.V.B.5.#.G L  .] 5.5.L ` >.` m L | 7.| L N m y y b k k r r v _ A.y.] V G 5.5.2.#.` N N k l ^ >.{ b ^ 5.Y.`.Y.s.$.X.` ..e.b.Z.V.V.y.@.5.V.B.B.e.9.2.o.] o.@.X.s U w.] I ] L ] O.} 9.F.y.` D L { ` ` ` L P L P ] _ V m L L _ [ | -.,.O.2.#.t.Z.Y.V.p.&. . .$.p.3.$.a.V.Z.].{.Z.V.J.Y.].<XXXB.S.XXH.2.i.t.` +.s.B.y.8.n./.5X>XD.C.8.n.C.8.8.m.L./.{./.A.B.F.F.F.L.V.9.9.a.i.o.H m U %.#.X.^ S _ >.>.>.5.] X.m b N | y.B.4.F L 8.S.B.] v a a P #.p.r.w.f.h.s.p.+.G J 3.9.` N N b b N [ { >.b.S.6.7.A.V.B.4...D L  .] 5.w.L ` ..` m _ ] 4.| V N m ",
"s y s l r w h _ ] 3.6.V ` 4.B.4.y.a.a.7.^ l b ^ ;.{ S N 9.XX].e.4.5.>.D ` 3.e.Z.a.4.a.5.5.5.5.V.9.5.` J G m  .$.+.w.5.I O.y.2.G _ n.y.5.2.] ` _ ] ] ..L S m m D ` _ N [ ] _ ,.9.;.<.8.6.9.b.n.S.F.C.O.L J V V } 2.B.a.6./ F ' ' / | 2.m.y.C.C.O.v v N B Q -.8.8.8.4.| G z r u B / ;.4.2.y.E.K.].OX_.L.L.'.].|.].|.F.%.4.f.K.i.5.` P +.3...D _ ] ] >.3.X.X.e.>.S _ 7.8.| F V F 8.9.b.x.D r s D X.$. .0.s.h.f.s.p.p.w.i.5.b m N v V D _ { >.z.A.A.x.b.A.V.a.3.| G b L ] ] P ] ` b a v V m V v V L b y b k r w k _ | 2.2.V ` 4.B.5.a.a.a.9.^ v v [ >.` V N 7.XX].e.4.9...D ` 7.r.Z.a.4.d.5.5.5.5.s.e.4.` G J J ] $.+.w.5.` o.y.2.F ` y.y.5.2.] ` [ ` ] ] P V m m V ` ` N _ ] _ ;.6.[ [ 2.| [ ' _ #.V.Z.Z.V.w.$.X.] ] X.Y.XX].].Y.3.5.a.B.H.XX|.`.3X<Xa.e.B.Y.t.t.Z.Z.F.S.m.).%X[.n.A.A.D.8.,.D./.}.;X}.|./.Q.F.F.Z._.F.3.4.C.Z.a.t.] ` +.$...D _ { ] ..3.....w.2.V _ 4.8.| _ n _ 4.9.b.9.V y b D X.$. .w.s.h.f.g.a.p.5.p.3.b b N l B S ^ { >.z.A.A.b.b.A.V.a.3.] D b P ]  .L ] ` N a N V m m N V L ",
"k y y y w w D ] ] ] [ b 5.V.a.a.$.#.y.C.#.` | ! [ | ^ v [ V._.9.| ,.2.| ] | V L 4.s.a.y.9. .+.3.0.D S S a p J X...3.3. .` #.[ V 7.&XrX2XL.B.9.2.#.#.` 2.B.5._ ] 3.2.O.2.O.,.2.:./ -.6.m.C.M.m.y.x.O./ n m G F F [ 9.F.C.u.u.n.4.,.4.D./.M.B.u.` m n L V ! [ 9.F.]._.a.#.G v v V _ ] _ 6.C.F.`.Y.Y._.Z.Z.Y.|.|.H.a.a.a.d.h.d.d.h.r.X.3.#.] $.#.L n P ' ] | $.w.2.| 7.2.B 0 z n ,.8.7.7.[ S N D ..w.5.G.f.$.r.G.U.U.s.s.G.2.] | ' | | _ _ ' } y./.Q.S.D.C.C.B.2._ a N ` $.` L G m n m m r u r v N y k y y w w L | ] ] L b 5.V.a.B.$.#.i.V.#.' | ! [ | _ v [ B._.9.' ,.2.| | | V L 5.d.a.a.9. ...5.5.L S S a p L X.+.3.3.| ` #._ V 4.|.qX2XY.B.9.2.2.] ` 3.s.4._ | 6.2.O.2.#.,.2.| z Q } 1.} _ F V ..B.e.3...X._ D N L 5.F.|.i.' #.9.a.a.5.H.`.].].s.#.2.$.9.B.Z._.oX5X;X&X%XD.n.9.D.S.n.,.8.m./.'.[.}.[././.F.V.a.a.a.C.Z.I.d.d.K.i.+.3.$.` #.#.L m _ ' ] O.2.5.2.| 6.2.m 0 z n ,.8.7.7.[ D N D ..w.w.J.h.*.q.h.U.I.s.s.G.$.| | ] | | _ _ } | n.Q.L.D.D.C.F.B.4._ a N ` $.` L J N m m N a a w n N ",
"w y t w w y _ 2.| ..3.2.#.3.9.a.5.| $.B.6.4.F.9.| ! N N | B.L.'._.F.n.6.2._ u v ` O.` J ` ..5.$.s.w.] S a y D K X.r.F.s...V L B.F.V.|.4X].Y.XX2XY.B.5.2.s.4.| B.B.7.2.8.,.4.2.1.( } z.x.m.S.C.n.m.C.4./ F _ O.O.2.C.F.F.Z.y.P.S.8.z.}.[.K.y.O.G v L ,._ Q _ a.F._.].Y.B.i.4.| 6.4.2.| e.Y.Y.`.].Z.a.Z._.F.H._.B.B.Z.d.k.%.&.&.t.s.e.$.] ` L J m G O.| ] ] | 3.2.| 2._ n F 2.,.| / v N | { ^ ..3.a.G.J.r.q.p.J.U.I.p.p..XT.V.i.6...{ | F [ } ,.x./.}.}._.S.C.a.| v y V ] ' #.#.F D [ | ] V n m y y y 8 r r r L #.| ..3.2.#.3.5.a.9.] 6.B.3.7.F.7.| ! N N | B.Y.'._.F.B.6.2.L a a _ O.' G ` #.5.$.s.r.U S a y V K X.r.H.s.#.V L B.Q.D.|.2X}.Y.XX2XY.a.9.3.B.4.| B.B.7.2.4.,.4.8.:.x z / } [ } / L 2.V.Z.9.B.e.{ B u V ' t.F.4._ 2.2.3.3.5.V.Y._.H.9.#.| ..] #.B.B.F.|.}.[.}.D.n.8.y./.'.F.n.m././././.F.D.Q.F.9.a.F.T.Y.d.i.&.&.i.s.a.$.] ` P V m G O.o.| ] ] 3.2.#.2._ n L ,.,.| / v N | ` ^ ..$.a.Z.G.p.w.p.U.U.I.p.s..XT.B.i.6.2.' ' F _ | ;.x./.}.}./.F.B.a.| v k B ] ] #.O.G G [ | [ V n m r ",
"X.S y w 8 N 2.V.B.3...w.i.4.3.$.#.O.O.s.B.B.[.{.;.[ _ V #.a.7.A.D.2.] _ V v u n n n 9 9 m ] w.w.r.0.$.+.P L ]  .+.e.J.V.4.o.` _ [ [ | 9.A.].@X2X<X].Z.` _ #.' F._.| _ _ [ [ V ( -.<.x.n.n.n.y.m.C.P.C.n.4.4.2.4.9.A.u.a.a.4.D.).P./.[.[.y.4.4.G n | n.9.9.7.a.F.F.V.4.4.f.L.Z.Z.Y.F.t.5.Z.F.9.s.C.Z.9.2.| | 2.H.E.K.a.i.T %.0.*.s.G.V.r.#.V a 0 F 4.O.` ] #.2.2.| O.' ' 7.A.9.B y h V | ` V b S ` w.w.X.r.q.h.g.j.k.p.p.5.i.9.#.2.4.4._ F 2.B.A.D./.}.}.D.D.A.,._ N M v F #.$._ #.3.4.e.y.5.4.2.` S a 0 8 m 3.V.s.5...e.e.5.5.#.#.| #.d.B.B.'.'.2._ / V #.e.7.S.S.6.} _ N v u n n v 9 8 b X.w.w.w.r.@. .U K X.X. .a.J.f.5.| _ _ _ [ ] 9.B.{.<X<X<X{.F.] ` #.` Z._.O._ _ _ / M Q ! Q ( ;.) ,.4.O.2.B.~.b.S.A.2.N r B V _ C.y.2.y.2.] ^ ..a.H.e.5.t.a.5.a.5.4.B.A.n.Q./.W.W.D.Q.L.K.|.}.L././.S.D.S.M.x.9.9.7.B._.XXI.Z.f.&.&.&.&.s.Z.V.e.#.G s r F O.O.` ] #.4.2.| O._ } 9.A.9.V y h m ;.{ V N S ` 3.3.X.q.r.h.j.j.p.p.a.w.9.5.O.2.2.3.` / 4.n.C.D./.}.}.S.C.B.2._ N N v V 2.$._ #.2.5.e.y.5.4.2.",
"$.^ y b S 3.G.`.U.e.X.5.B.3...` L ] 5.Y.].'.|.{.9.9.4.[ L F V ] [ _ 2.x.L n n _ O._ v m X.` #.w.$.@.$.%.@.+.q.w.w.p.s.f.5.a.y.m r D 2.2.2.B._.F.a.2.#.| L P J | [ u u z n M M V _ <.A.D.C.u.u.C.C._.oXOXP.B.m.L.a.4.9.u.u.a.C./.>X:X%X'.C.y.t.] ' s.F.B.b.B.2.5.a.3.+.5.5.u.Z.C.a.Y.F.s.s.5...] 5.A.] L v a m 2.F.I.f.p.*.*.*.&.3.3.w.V.s.] v 0 F %.o.| 2.4.e.B.4.2.2.8._.|.F.[ h r r k N N k _ 3.e.3.w.$.T q.h.G.h.G.f.w.5.] v V ] ` V v 2.|.;X[.[._./.L.K.F.C.A.b.7.] ` 2.y.$.9.5.2.4.2.a.Z.i.#.^ a s m 4.Z.`.Y.e.X.5.s.3.| ] L ' 5.Y.XX`.|.}.z.9.4.[ L L m ] _ _ 2.9._ n n _ O._ v m ] ` #.r.$.@.$.$.@.+.%.w.w.r.s.f.5.i.a.m u V 6.2.2.B._.H.B.3...X.L L L | [ r r z v z e z z Q ,.6.[ ;.,.[ [ b._.!.b.7.7._ _ v v V 4.2.| $...` b S 5.Z.w.` P | #.O.B._.}.D.x.m.m.D.n.A.F.F.y.L.|.'.D.9.m.x.y.n.,.,.4.7.e.B.F.T.J.f.t.k.&.i.5.$.3.a.a.] v 0 I 4.o.| 2.4.y.a.4.2.2.8./.|.F.[ h r r k N N y _ w.e.$.r.$.T q.h.h.h.I.g.5.w.] v m | ` b v 2.}.<X[._._./.L.F.F.B.A.x.7.] P 4.u.$.9.5.#.5.2.a.Z.a.",
"B.e.5.$.V.Z.p.Y.I.w.w.a. .L L a.H.d.V.Z.Z.Y.H.2.9.A.F.V.a.#...#.2.B.oXF.#.| L _ 2.y.6.a.B.{ N S X.@.R @.$.0.p.h.h.p.w.f.I.g.t.2.9.2.4.B.{.e.7.e.9.w.5...L P ] _ V a u r B V B N ! } 7.9.y.m.Z.D.D.L.;X5XoXL.D./.L.F.L.K.C.P./.W.%X>X(.L._.Y.K.f.a.Z.L.9.` | #.P ....` ` 3.` #.4.4.d.Z.C.y.+.#.4.e.C.7._ a b _ 3.Z.Z.w.s.I.g.0.&.$.@.#.V.Z.Z.t._ O.5.#.5.5.3.3.| ] 2.C.C.4X5X/.] k 8 7 w y v k _ 3.F.Y.U.r.X.w.I.s.w.w.G.J.b.^ A y y k s u _ Z.Q.F._._._.F.F.F.{.&X|._.A.9.B.C.4.5.3.3.#.G L 4.a.V.e.5.3.f.V.a.Y.J.e.w.s...L K e.H.C.V.V.V.Y.F.2.9.B.F.Z.a.+.#.2.2.S.@XF.#.| L L 4.y.6.e.B.{ b D X.@.U @.%.&.p.G.h.g.w.f.I.f.5.5.5.2.3.b.].e.4.9.e.e.$...L _ ] L V a r u n v h r q h Q { [ | 8.7.9.A.D.n.,._ [ [ O._ n _ 2.3.#.2...7.9...H.S...` #.| _ #.C._./.n.8.x.M.z.:.6.b.b.y.a._.}.D.8.n.m.n.x.2.2.9.y.9.a.Z.Z.s.V.J.f.w.w.w.#.#.V.F.C.5.I O.4.%.4.3.5.2...] 2.C.C.2X5X/.] y w 7 r y k v L 3.F.J.H.a. .q.I.p.i.r.G.G.s.` a y a a b y [ S.~./._._./.F.F./.}.|.&X_.A.9.B.B.4.5.3.3.#.G L 4.i.",
"Y.Y.s.f.a.] P f.].G.a.r. .P L ] 4.V.Z.e.5.a.B._ 2.F.F.Y.i.w.] ..a.F.|.F.4.+._ G O.C.A.F.B.{ D ` 5.w.@.q.&.+.@.f.U.j.p.f.f.a.i.C.a.3.4.Y.{.7.{ X...w.3.D b S ] #.9.F 0 a n B / } ;.,.8.x.2.4.A.A.n.6.,././.L.C.L./.C.B.C.K.C.L.D.[.>X/./.P.Z.k.d.i.d.s.y.4.O. .L D X.....2.{ V N F | t.d.a.5.&.4.9.a.B.i.` L ..B.H.s.5.V.R.U.g.g.r.G.T.{.Y.'.'.t.%.u.Z.L.9.#.] _ | t.a.n.L.L.B.2.N r w r k v V m _ 9.B.B.s.$.0.f.p.0.$.@.r.r.^ S y t y a a [ F._._.{.'.F.S.B.C._.[.|.|.Y.Z.Y.Z.2.] #.4.9.s.2.o.y.Y.H.V.s.a.X.U f.].G.r.w. .P L | 4.C.V.i.5.a.B.[ ;.S.F.Y.a.5.] #.y.F.].F.5.O._ G O.C.A.F.B.{ D ` 0.w.@.5.&.+.@.j.I.j.p.f.f.i.a.B.B.7.3.~.|.4.| X.>.r.$.^ b J ] +.5.V 9 a n v v Q N M V ] ^ m _ 6.x.S.Q.F.n._ v V ] 4.` P #.a.a.3.3.e.V.9.e.>.` #.#.` ] 9.y.C.D.D.8.8.6.6.[ _ 2.B.C.C.F._.}.D.W.W.Q.m.n.W.S.n.S.'.Y.b.e.G.T.T.V.r.r.Z.J._.Z.Y.T.u.%.5.Z.L.9.#.| _ | t.a.y.L./.B.2.N r 7 w k v N N ^ 9.V.V.s.%.w.f.p.w.$.+.p.3.` m y w y b y ` F._./.'.'.L.Z.B.A._.[.|.|.L.Z.Y.K.2.] #.4.9.a.2.O.y.",
"$.w.a.a.s.r.w.w.0.p.s.`.s.X.J v a P ] e.Z.Z.7.B V B.Z.5.] s.p.5.$.O.Z.i.5.5.4.5.9./._.Q.S.b.b.s.9.@.@.@.&.$.r.J.U.p.@.&.%.C.Y.C.9.B.S.e.3.#...e.G.H.w.b s f ] 4.i.2.L _ O.O.| ,.A.x.9.B.8.8.B.D.F.n.8.m././.y.D./.L.C.K.L.y.1.[ 1.M.n.8.4.d.t.i.p.d.#.9.Y.K.a.$.+.3.w.7.{ _ ! v u F u.t.#.5.5.] #.5.C.V.X.2.e.>.7.b.3.w.r.f.h.Z.G. X.X].Z.K.Y.t.5.9.i.4.3...] _ ` ] O.4.4.| _ ' F v v y v v b _ ..2.| ] ` m P %.s.f.s.e.@...^ D b y l ^ D .._.-X|._.F.F.B.C.B.F._.XX&X].F.Y.Y.a.] ..3.4.2.4.a.a.3.w.a.s.s.w.5.w.0.p.a.R.s. .L a a L ] e.Z.Z.7.V V B.F.5.] p.p.&.$.O.Z.a.5.i.4.5.9._./._.S.b.b.s.w.$.@.@.*.$.k.J.J.p.@.&.%.V.Y.B.9.B.V.e.3.>.#.e.G.S.3.Z f s ] 5.i.2.F _ | | _ ] 4.| ` 2.` N L | ,.8.A.L.F.O._ 2.y.Y.Z.e.V.Y.V.3.X.{ { >.>.N 8 y n F $.9.a.n.M.n.1.1.1.:.=.>.9.V.C.i.B._./.}.[.Q.Q.D.D./.S.S.F.S.B.s.s.s.Z.G.G.G.G.T.].T.V.C.Y.y.5.y.a.4.2.#.| ` ` | O.2.2.| _ ' F n v v b v v _ >.2.] { ` m P $.a.f.s.r.$.X.` D y y b ^ D >.~.XX|._.F.F.B.B.V.F._.|.XX{.L.Y._.a.] ..2.4.4.4.a.i.",
"i.5.y.f.s.&.+.J d  .i.R.s. .D G _ s r D w.H.V.` | y.$. .P U @.w.5.s.L.Z.s.i...2.F.F.F.Q.A.S.9.#... . .5.s.a.e.s.$.K S ] 3.s.Z.F.s.b.7...X.^ ^ ^ 0.G.e.D m S m I 2._ L [ [ | ,.9.F.A.A.Z.D.L.L.F.A.W.n.A.D.D.P.D.D.[.E.L.K.d.#.( -.8.8./ ' t.d.i.d.f.Z.i.Y.T.s.f.V.G.Z.V.7.^ M v z F t.4.] 5.#.] 5.y.C.V.e.Z.b...>.7.w.3.5.s.i.p.Z.U.`.Y.9.5.Z.y.#.#._ G ] { D D m n m G | ` n m V m v L m m ] 9.B.] ] #.| L $.0.$.w.f.V.X.X.>...S S S D ..H.{.XX@X|.F.F.a.C._.F.F.[._.~.L.L.C.V.V.Z.2.L L L a.E.i.%.e.f.s.&.+.K d ] s.T.s. .S D P v y D w.H.B.` ..a.$. .P P +.w.5.d.K.Z.s.5.| 4.F.F.F.W.A.S.9.#. . . .5.s.s.e.s.$.P S ] 3.d.Z.F.a.a.e...{ ^ S ` 5.G.w.L m m m _ 2.P V _ F ' | 9.F.3.6.3.3.2.| O.[ / | ,.u.8.4.Z.].`.Z.r.V.|.J.9...{ 7.7.{ r C r v V 2.y.C.C.M.n.8.8.6.<.l.b.B.S.C.C.9.F.<XwX%X(./.m.Q./.A.F.A.9.7.V.B.e.a.Z.G.Z.H.H.I.L.y.t.L.a.4.$._ _ ..X.D L G n m L O.` v m V N v J m m ] a.B.| ] #.| L @.w.%.w.f.Z.X.{ $.X.D S S D ..H.{.XX<X].F.F.a.S._.S.F.{.[.Y.L.Z.C.V.V.F.#.P L P y.E.",
"#.#.a.K.Z.$.d p ` 0.w.G.I.U d $.r.^ 8 y X.r.b.r.w.$.+.T K J d U %.d.Z.V.#.L m ] 7.B.A.2.} 4.4.] 5.5.5.y.9.B.A.7.#.P m ` F.{.Z.i.y.s.4.2.` N r k >.b.e.X.] O._ U $.U L [ } [ 8.D.L.D.S.L.'.}.'.S.S.x.b.A.n.n.M.A.A.[.@X@X].d.%.O.2.n.8.3.B.V.f.t.f.g.E.R.`.Y.V.a.I.T.U.d.e.4.! k N ! 2.4.4.y.9.e.a.i.a.B.s.T.B.4.B.a.3.] X.7.2.e.Y.J.H.T.C.i.2.| 2.2.| F _ G B b b N s m P m a m S ` 5.5.#.] ` $.3.L ] Z.a.9.s.Z.s.e.e.#.L D ] ] ..>.X.....3.S.J.`.XXY.e.A._.[.S.D._./.F.C.F.a.y.B.7.>.` _ L ` 4.#.#.a.Z.Z.$.d t U 0.w.G.T.` d #.r.^ 8 y X.b.r.w.w.$.+.] K J d U 4.s.Z.V.2.J m | 9.B.B.2.} 4.4.' 4.5.4.a.9.A.B.7...P m ] F.{.Z.i.i.a.9.2.` N y k >.b.e...] #._ ` @.P S L [ ^ >.B.B.y.5.C.].F.6.[ B / u././.D.y.n.L.Y.C.s.s.Z.G.Z.9.#.2.2./ v B v v N ] B.C.M.u.C.F.F.A.c.<.8.C.C.L.Y.F._.|.&X{.(.D.m.M.m././.n.| 2.2.4.4.e.w.5.i.Y.T._._.B.a.4.2.4.2.O._ [ L V b m m s S P m v m S ` 5.5...] ` $.3.S ] Z.i.y.B.Z.V.e.e.#.L L ] { ..>.X.....3.b.J..XXXT.x.B.[.[.S.F._./.F.F.Z.B.y.b.7.>.` [ L ` 4.",
"[ y.y.Z.Z.%.d p U  .U p.T.%.#.4.@.^ D ^ >.b.H.r.$.w.p.w.i.] m ] ] #.a.#.D b v z _ B./.9.O.4.4.] ` 5.y.2.>.A.F.b.9.4.] [ F.-X_.B.K.E.s.7.{ S S ^ 7.~.{.5.P ` _ P +.%.5.9.B.x.A.Q.D.y.M.C././.F.A.B.9.x.A.A.A.A.z.x.Q.<X].f.K.d.d.Z.B.A.Y.OXE.i.%.t.OXE.U.T.T.G.a.Z.I.Z.i.] _ | -.{ 2.B.u.4.O.#.9.u.+.5.s.G.E.a.#.s.9.4.2.] 2.3.9._.Y.9.6.| ` m F 8.x.2.[ L ] L V D S L J m a s v N 3.H.H.w.5.$.U ]  .a.T.d.3.4.F.H.s.e.#.L L | >.| ..] >.0.e.3.q.J.XXXXQ.F.[.%X[.F.D.y.9.D.C.9.B._.9._ _ ,.4.` v ' y.a.K.Z.&.m p P  .U r.U.&.#.5.X.^ D ^ $.b.H.s.$.r.p.w.i.] S ] ] @.a.$.D N a k _ B._.9.] 4.4.o.] 3.a.2.2.A.F.b.y.7.] [ S.-X`.B.Y.I.s.4.{ D V D 7.H.{.3.P ` P J #.$.5.9.B.b.A.W.9.| O.5.Z.Z.4.2.[ ' u.'.}.D.9.| 2.5.C.V.a.a.a.e.2.$.#.] _ [ _ N h v _ 4.y.M.C.L.A.b.A.m.x.A.F./.Y.B.5.9.A.A.W.x.6.D.D.c.m.n.} n | 4.4.4.#.| #.i.L.T.Z.9.2.| L } n.x.6.| ] #.` L _ D P L m b s b V 3.H.Z.e.4.$.] ] +.a.T.B.5.4.G.G.s.w.#.L L ;...| ..] >.w.e.3.r.H.XXXXS.W.~.|.[.F.C.u.9.C.C.u.B._.9.[ _ ..4.' v ",
"v ' O.d.y.5.@.$.w.w.w.&.w.G.a.+.^ $.^ ^ H.J.Y..XI.p.f.U.Y.t.#.,.] ] ..P b a s r v 6.F.C.C.K.#.v a ] #.4.9.A.B.n.B.a.#.| 9.V.V.f.f.t.@.#.D S [ ` ..4.7.5.#.[ V ` y.s.i.] 6.7.8.n.n.y.n.y.B.A.4.O.6.9.9.9.B.A.A.A.A.~.].F.y.C.C.Z.F.F._.].].Z.o.#.f.I.Z.d.5.0.f.G.U.Z.a.i.o.m F ] 2.n.F.7.2.' [ 2.y.s.'.R. X.XI.V.B.5.5.L a ] B.B.Z.B.| V n n u B 2.;._ ,.2.s.B.3.>.` P ` S v s a D 3.a.a.3.a.Z.a.5.B.I.U.d.5.9.a.Z.Z.w.] X.2.>.[ ^ ^ ` ..b.S.r.S..X`.|.XX|./.F.A.n.B.y.9.C.C.y.9.{.].Z.B.5.V 0 r n _ O.C.9.5.$.$.w.w.w.&.i.Z.a.#.^ q.^ ^ H.H.T. XI.p.f.I.Y.y.O.#.] ] o.L b a v r z 7.F.C.F.K.2.v a ] 2.6.9.B.A.a.s.y.#.| 9.B.B.f.Z.t.@.#.S S [ ` ..3.7.5.#.[ m ` 5.s.i._ 2.7.8.8.;.} ] O.#.B.B.9.1.O.} / [ _ / N a ` a.s.s.w.a.w.#.#.4.O.F ` F z w v } 6.} 1.M.P.:.^ 6.l.z.x.z.n.Z.C.B.7.2.;.z.z.W.[.z.( ! V B F 2.9.,.L u _ y.C.K.Y.a.2.' F F [ 6.2.] 6.4.B.B.3.2.` ` ] J m v a D 7.a.B.5.a.Z.i.$.f.I.E.d.5.9.B.Z.Z.r.] ..2.>.[ ^ ^ ` ..b.V.r.V..X`.XX|.}.[.F.A.n.B.9.9.A.C.n.5.].|.Z.B.9.V 0 0 ",
"r u B G P $.Z.G.r.s..XI.w.e.a.9.3.^ S ^ r.b.H.T.`.V.+.9.4.4.4.,.` O...m b a a r w L 4.C.F.y.4.F F #.9.9.a.a.9.s.Z.B.9.y.B.2.] 2.#.U +.5...3.5.....P N _ #...] ..$.9.V.2.7.B.x.9.n.C.C.m.C.K.n.| ] x.a.A.A.B.y.B.S.F.L.Z.Z.K.y.O.2.B.Y.E.I.5.L ] L.I.E.Z.s.a.s.s.G.Z.5.5.@.I [ ] 2.4.4.O.' _ N [ A._.T.Z.f.Z.Z.V.5.#.2.#.6.B.`._.9.| _ / V n v / ;.=./ ] A.Y.F.C.B.e.| J D m v v N >.B.F.B.a.V.s.w.I.E.E.I.+.` w.G.s.w...6.| N h N { 2.5.G.`..X.XR.Z.Y.`.F.Q.D.S.A.F.B.y.n.A.y.B.].@X].Z.9.P N v r z n G U @.Z.G.p.s..XI.5.i.a.5.3.^ S ^ r.b.Z.`.].B.@.w.4.4.4.,.[ O...m b a y r w V 4.C.D.y.4.G L 2.9.4.y.y.y.B.C.B.9.y.B.$.| 2.+.U +.5...3.5.>.#.L N ` #...` ] 2.a.Z.#.2.x.8.6.,.2.] ] 6._.A.9.y.n.1.1./ z N m V ` t.s.V.a.a.a.2.2.5.I n _ _ V u n ( z x -.1.) -.6.<.<.:.<.<.1.8.2.-._ } [ [ 8.z.;.( M c M F ( F _ / v v ] Z.Z.a.5.6.6.#.| O.,.;.| [ #.a.F.F.a.a.e.O.I L N m N N ..B.Z.V.a.f.f.i.G.E.E.G.+.P w.H.a.w...2.] N h N { 2.5.Z..X.X.XR.V.`.`.H.W.F.A.A.F.A.y.B.A.y.a.].@X].Z.5.P V v ",
"V v v 4.a.a.i.p.r.p..X.XG.e.a.3.^ D l D 3.G..X`.`.V.5._ n z G F B n n 0 p v y w w v | Y.B.y.B.5.O.2.3.2...#.5.u.y.n.y.K.Y.y.2.5.#.+.U T @.t.9.%.4.| n p L 2.4.` m { 9.5.9.y.y.9.n.C.C.L.L.'./.9.| 4.B.B.a.y.y.5.4.5.C.F.L.]._.9.6.B.|.].a.] 5.e.Z.].].T.p.&.p.Z.J.H.s.] U o.O.2.2.] D a u u B ;.F.~.V.w.e.e.w.w.#.' O.5.Z.V.Y.Y.4.| 2.7.,.[ [ 8.l.6.7.n.S.L.]._.e.7.$.` V a v m { 9.F.H.Y.Z.B.V.V.@X3XE.i.U b X.Z.I.V.3.] M q q v [ 9.b.V.H.U.R.R.G._.Y.>.| 7.S.H.S.9.6.8.y.B.Z._.`.Y.5.5.4.5...N z v 4.a.a.w.p.r.s..X.XG.w.a.3.^ D A ^ 3.H. X`.T.Z.5._ n z F F n n n 0 p v y 0 r v | Y.C.9.C.5.O.2.3.2.| $.5.y.y.B.y.L.Y.a.2.4.+.+.o.] %.t.t.4.3.| d a L #.2.` m ] e.5.4.9.9.8.O.2.O.4.V./.9.n.D.m.8.8.[ [ { m v ` i.a.e.5.a.5.| 4.4.4.| 2.a.B.8.2.[ B x :.v.) -.:.:.v.<.v.n.n.,.B z v V x ( | [ :.:.~ c r B / ! ! B N F [ 4.a.4.#.2.O.4.4.7.A.c.6.x.x.n.Z.L.F.9.5.#.` L v v m { 9.S.F.L.Z.s.B.Z.|.3XE.i.U s X.Z.G.V.3.] M q q h { 9.b.V.H.U.].T.G.T._.| | 9.A.H.S.e.6.8.y.B.Z.T.].F.4.5.3.9...",
"v r F #.Z.U.h.f.r.r.G..Xw.S a s ^ ^ ^ q.b.G.`.`.s.y.a.,.F z z z / } u u m b a r r r | B.B.Z.Z.a.2.4.2.2.2.3.4.9.u.y.y.a.a.] ` | U J U U t.Y.f.$.O.U m m ] #.X.D N S ` 3.5.9.9.A.B.n.C.B.C.L.K.m.4.4.9.4.4.$.2.4.#.4.D.C.y./.'.F.F.F.].2Xf.| ..e.Z.'.E.Z.t.@.@.a.G.Y.B.@.o.] ] 2.2.V a 0 r r B 2.c.b.b.e.s.w.5.5.5.$.%.s.Y.C.C.F.y.8.9.n.A.7.{ ;.z.c.!.n.C.L.L.L.F.V.i.u.#._ _ 2.F.|.~.F.Z.Z.a.B.Z.T.K.V.@. .` P e.`.V.2.N r k N k z _ ^ X.B.a.s.f.V.V.V.9.Z._.Y.F.F.Z.4.O.7.9.2.#.e.e.2.7.Z.Z...a u V #.Z.U.h.f.r.r.G.R.p.m a b ^ ^ ^ >.b.H.Y.{.B.9.a.,.F z v z / } z u m v a y r r | B.B.Z.V.a.$.4.2.3.2.2.4.5.9.9.y.y.a.' _ #.] J Y U i.I.V.@.o.` m m ] O.{ S b m D 2.4.9.6.6.2.| 2.F.B.B.7.n./.C.8.;.V B a v m #.5.9.s.a.i.w.$.4.4.a.a.4.A.Q./.A.[ j -.P.v./ W =.l.<.z.n.M.N.-.c z B v e z c x ~ W B c z / V ! [ N N _ ` $.9.a.B.y.4.9.7.y.A.7.6.c.7.x.B.n.B.B.9.4.4.#.[ [ 2.F.{._.F.S.Z.B.B.F.T.K.V.%.] ` ` e.`.Z.#.m h k N v v [ D ..B.i.s.f.V.V.C.9.F.'.H.F.F.Z.3.O.7.9.2.| a.i.3.5.F.Z.| ",
"_ ] P @.w.f.G.h.G.j.p.f.0.b 8 y S D X.7.$.$.w.b.y.C.S.n.,.| / u ] A.y.] P v a v v n | 7.9.a.y.4.5.9.3...5.+.O.5.i.9.8.O.| G ` #.` L @.+.i.K.G.%.] I L ` $.2.` ` D D ..3.i.9.2.4.u.4.O.' 4.F.L.F.C.5.2.a.a.i.5.i.C.F.OX/.D./.D.y.9.B.Z._.C.5.#.V.Z.t.V.s.&.&.%.*.e.G.U.B.5.O.] 2.| a 0 9 q w k N ^ 6.b.H.V.5.5.4.5.t.u.L.OXL.y.C.Z.B.2.7.z.| h z l.[.^.A.m.m.M.A.S.L.L.B.$.} 2.A._.{._.V.9.a.a.a.F.i.#.U _ L _ >.Z.H.H.3.V h B [ M 0 r a #.`._.G.s.r.s.s.F.Y.'._.F.V.a.e.4.O.` ` [ 3.Z.4.2.Z.B.] ` ] _ @.i.f.I.h.j.j.j.f.w.s < y D D >.7.$.$.w.e.y.C.F.y.,.| / u ] C.y.` ` b s v v M ;.4.7.a.i.4.2.9.5...5.@.O.5.y.9.9.O.| G ` #.` J +.+.i.K.G.%.o.I P ` $.#.` P S b ` X.4.9.O.-.;.| O.9.7.x.W.x.M.x.,.<.[ v v v J D P $.f.F.B.Z.Z.s.2.4.C.B.b.x.m.6.N g -.u.( e x ,.z.z.n.n.z.l.-.N M M v z v M B q j h M / ( ! ! ! Q ^ | ' _ } 2.5.4.5.4.6.2.2.:.z.b.8.9.9.x.y.n.a.s.9.#.' 2.A._._.Q.V.9.a.y.s.Z.e.#.P P L L ..Z.H.H.3.D h N ^ v w r a #.`._.G.s.r.s.s.F.L.]._.F.Z.9.y.8.O.' ] ` 7.F.3.#.Z.V.] ",
"%.] P ] U i.G.j.r.s.f.f.V.U y s S >.$.X.$.7.3.3.J | y.8.' _ ` n N ] 3. .P D D m | 9.2.] 4.a.2.P #.2.] ] P ` @.y.n.9.9.y.O.] | O.4.t.t.i.%.$.w.w.@.o.+.$.i.a.#.` { ..5.Z.C.9.2.O.4.,.O.4.y._._.F.S.u.#.@.i.a.a.d.C.L.}.}./.D.D.9.O.5.5.V.B.#.9.H.`.Z.f.Z.i.w.w.a.s.a.#.2.6.;.| 2.#.N 0 u r r q e ! z.b.7.9.b.Z.Y.Z.L.Z.].OXK.C.C.B.9.4.;.B k h B 6.!.W.z.C.n.C.A.F.'.L.B.4.^ ` Q.&XQ.A.9.6.B.B.C.B.` V V V v b ..b.V.a.a.3.] ! N a w 0 a ] a.U.I.s...] 5.Z.V._.{.B.B.B.F.B.| B v [ V._.F.a.F.s.4.%.` U  .U w.G.f.p.j.f.f.f.` y s D X.X.X.q.7.3.3.J | y.8.' _ _ v N ] 5.] P G V N X.9.2.] 9.a.2.L #.6.` ] P P #.y.a.9.5.u.O.] | #.4.i.t.a.%.@.w.w.@.] ] %.e.i.#.` D ` ..a.C.y.,.( } [ O.4.9.A.F.x.M.A.D.6.;.B N m m m  ...@.i.Z.Z.Z.9.#.9.B.9.| -.6.-.B q x / F c B ,.8.z.8.n.z.[ -.6.7._ N n v h j M W x M B M Q B ! { ;.} V n V F _ 2.4._ ] | } :.S.x.8.9.x.A.n.y.C.B.9.2.! [ F.{.Q.A.9.7.y.B.C.B.] V D m N N ..b.V.B.i.6.| ! N y r 0 a ` a.U.G.s...X.5.V.C._.'.B.B.9.F.a.| B v [ B.~.F.B.C.s.5.",
"i.P L X.` w.f.G.s.r.I.I.f.U +. .5.J.e. .w.V.w.7.[ ] 9.9.9.9.$...L ` w...$.e.w...9.2.D _ 2.V.i...` ^ D S m ] i.e.2.9.B.B.y.] ` | 2.9.5.5.+.+.$.w. .P K +.s.$.X.P P ` V.`.H.b.2.[ O.4.y.S./.'.;X|._.B.i.e.$.e.B.i.a.C.F.n.8.P.F.F.,.n o.9.#.4.B.s.d.Z.E.T.H.s.w.Y.G.5.J n V [ >.6.] m b y v v h h h 2.B.| 2.9./._.}.'.C.Z.Y.Z.y.C.e.3.2.! r z v / :.z.z.8.8.n.x.7.8.A.F.F.i.V | _.<X_.x.[ ] 9.B.F.Z.| m m b y y ` 7..._ [ _ N V B v v a V #.9.Z.I.s.i.] ` 9.a.B.Y.F.Z.7.9.9.} B M | {.}.Z.3.B.Z.s.w.P P U ] 5.V.G.p.r.I.I.f.] +. .w.J.e...w.V.e.5._ | 9.9.9.9.2...P _ w...$.w.7.#.9.2.D L 2.V.e.O.` ` D S m X.i.9.,.y.B.a.y.] ` ] 2.w.5.t.+.#.$.w. .K J  .s.$.` K D S e.`.Z.e.[ ! F ( } 8.y.6.x.m.M.m.A.6.[ ^ V m _ ] +.3. .#.$.B.Y.5.#.5.B.9.7.| B V j 5 q B / v B / ,.4.8.8.,.6.x.6.{ ! N N N v h h M M Q ! B B M v _ ;.| _ B n m _ | | _ ] O.8.A.n.x.x.n.n.9.7.7.n.B.9.2.m { Q.|.~.x._ } 9.B.F.F.| V m s k y ` 7..._ ` _ V N n v k a m $.9.Z.I.a.p.o.` 5.B.C.L.F.V.7.7.9.} B N | '.|.V.4.V.F.a.",
"5.+.U L  .w.r.w.q.j.h.a.p.a.*.5.s.w.a.$.3.w.w.V.y.4.#.4.4.B.s.a.w.a.e.r.s.e.e.9.a.3._ ] 5.a.B.y.X.D P b s ] 9...[ 2.' | %.' G V ` | +.] _ | 3.$.+.] S X.s.s.3...D ` e.Z.Z.e.#...4.n.D.L.S.C./._.S.A.a.e.V.].].Z.C.L.D.A.D.[./.C.9.L J [ 2.4.5.a.d.a.5.@.$.3.3.V.e.P d w r N { | [ m N v v M M M ! A._.A.9.8.F.|.}.Z.9.9.C.C.C.V.e.3.#...F | ;.( 8.Q.D.A.8.9.8.} } 9.B.F.Z.[ ] Q.Q.x.7.9.6.y.Z.9.a.B.P v , w r N { ..O.V V 9 r / >.| ` 2.T.V.Z.T.f.s.+.I t.s.y.t.9.4.7.>.[ N M _ _ B.|.B.#.5.Z.s.5.+.] L  .r.w.w.0.s.h.a.p.i.*.5.a.r.a.$.$.w.9.V.i.4.O.4.5.a.s.a.w.a.e.w.s.e.e.e.a.6.` ] 4.a.C.y.X.D P b s ] 5.#.[ 2.' | 4.' G F ` | #.` L ] 3.3.+.] S X.s.s.$...S S w.V.V.3.V ! ,.8.C.K.C.9.A.n.m.D.n.6.>.A.b.2...] 3.Z.a.i.5.4.5.2.5.5.3.9.7.` Q h q 3 e z / [ ) O.4.y.u.8.| } ^ M M N D V v v h h x W ( -.B c r z G / ;.' V V N M F ] ' 7.F.x.2.7.n.C.B.n.9.| | 7.x.e.4.[ [ S.W.9.7.9.4.n.Z.9.a.a.L s 7 8 y N ` >.| V V e r / ..{ ` 6.T.V.V.T.f.a.+.` i.d.5.t.5.7.7.2.[ B M _ _ A.|.B.#.4.Z.s.",
"w.e.3.$.e.$.+.+.$.G.s.%.+.&.a.i.] T w.5.$.3.3.e.9.9.2.4.5.4.5.w.a.G.s.#.] ..e.V.e.a.B.Z.Z...P $.5.3.w.` S $.5.3.3.7.[ O.] I G / ] _ _ ] ..5.e.w.#.P s S $.s.f.Z.G.e.0.e.3.#.V._.F.F.C.F.y.#.' _ _ | #.4.s.V.F._.}.|.[.Q._././.C.y.I a M ^ ] 2.a.K.s.P n _ $.4.i.$.G s 0 h l ! ^ 7.3.D v _ | -.| ;.9.F.F.n.9.C.F.4.O.2.2.B.Y.L.a.e.a.a.a.y.y.4.| | ;.n._.n.n.A.A.x.A.F.F.F.s.b.Q.F.x.9.A.C.Y.C.4.B.9.] m a y v V ..3...B h h Q 7.Q.S.9.F.Y.L.f.5.5.a.5.] O.y.Z.u.5.3.8.;.! l v ! | #.4.d.Z.5.@.5.w.w.3.$.p.3.+.@.3.G.s.%.T &.i.p.U U w.w.$.3.3.w.9.9.2.5.5.4.5.r.p.G.s.$.] X.e.Z.i.a.B.B.Z...P @.3.3.w.` L +.5.3.3.7._ #.o._ V F ] [ _ ] ..5.s.3...U f S $.s.f.G.V.e.$.3.| ` 9.A.F./.m.F.x.8.A.x.m.D.A.;.} n.x.A.a.9.a.a.Z.F.s.y.B.B.e.3.w.Z.3.N V B M v h z N ! [ O.4.O.5.B.,.v e k v V V M w r l r M z / -.B z r u F O.O.| | [ / _ ' ,.O.4.C.7.| ,.y.Z.B.9.9.9.9.x.B.b.9.3.3.B.C.9.7.n.A.L.C.2.x.a.| m p y v V ..7...B h h Q 8.Q.!.9.Z.Y.L.d.5.5.a.3.] O.i.Z.u.4.4.7.;.! l v _ | #.4.d.G.5.%.5.",
"Y.H.5.5.5.P P w.s.J.p.$.&.a.V.g.w.s.s.r.3.#.#.7.9.i.5.| 5.5.&.a.e.s.w.P P X. .#.2.a.a.Y.3X%.0 ] V.H.`.G.V.r.+.#.5.5.@.5.%.#.] _ | ] D #.e.a.Z.e.` S s s ] w.f.a.V.s.7.5.4.B._./._.F.2.O.[ V F V F | 2.3.` b m | C.'.F.x.C.D.C.u.#.] N / { ..3.9.a.V.5.P ' #.2.9.3.m 0 v r N >.e...D D ..6.9.b.b.>...B.9.O.2.9.9.O.} 2.9.9.a.5.w.w.5.4.y.4.4.4._ [ [ 8.L.F.C.B.B.F._.{.Y.V.H.Y._.F.D.9.4.n.B.8.B.|.'.Z.%.5.3.$.9.V.b.2.v r v Q :.Q.^.B.4.O.` #.9.$.$.i.i.a.Y.F.4.7.7.6.{ W ^ -.3.a.5.%.Z.Z.5.Z.]._.H.5.5.5.L P &.s.J.p.$.t.a.V.f.r.s.s.e.3...2.5.9.a.2.#.4.5.&.a.e.V.3.U P  .....2.y.s.T.3X5.0 ] V.H.`.G.V.e.+.#.5.5.$.4.%.#.] ' | ` V #.e.e.Z.e.X.b s y U w.s.a.s.r.3.X...B.{.[./.F.n.y.8.8.x.A.Q.Q.m.b.A.W.n.F.F.Y.Y.Y.].Y.e.y.B.w.#...3.V.9._ [ ;.[ M h M v k F _ ' ` I ] | N v v _ [ ` _ B v N v M / [ 6.-.! z z G O.O.;.[ B M B _ _ L 4.a.;.[ } 4.C.y.4.2.6.8.A.F.V.a.a.B.F.B.A.9.8.y.n.5.A.|.'.Z.%.5.3.2.9.V.b.2.v w M W :.Q.[.B.4.O.] $.9.$.&.i.a.a.L.F.4.7.7.2.[ W ! | 6.a.y.%.C.V.5.Z.`.",
"_.3.D | i.#.L ] &.Z.Z.T.f.d.a.f.Z.w.s.G.Z.a.2...9.9.#...5.5.4.9.b.V.e.L J ] S S +.e.5.B.@XT.@.+.s.U.V.Z.Y.J.H.Y.s.#.#.g.Z.V.a.%.5.y.| [ ..6.i.5.` D D  .#.%.s.F._.V.4.5.9.H./.F./.B.O.] V v b _ O.4.a.e.#._ _ ;.6.>.7.z.2.u.y.O./ F v B | >.w.B.t.5.d.#.o.@.4.$.i.5.#.O.>.3.b.H.5.` ] e.B.B.4.7.3.#.5.| V ` o.#.| ] ` ] 7.#.| 5.O.m L | ' 2.4.[ [ ;.7.9.y.d.B.B._.].T.Z.s.w.V._.F.B.B.F.C.y.y.y.B.'.Y.i.#.O.t.C.F.F.y./ e g x [ =.-.2.L ` ..V.Z.3.a.U.F.Y.C.o.O.6.2.[ [ ^ 6.b.F.K.5.#.%.#...H.@XY.7.D ..i.#.L X.5.s.G.Y.d.d.a.V.Z.w.V.G.Z.a.#.>.7.9.#.#.5.5.4.9.e.Z.r.L J ] D S +.e.5.B.@XT.$. .s.U.V.Z.Y.H.G.H.V.$.+.s.f.V.a.4.5.y.| [ ..4.9.w.` S S X.+.$.i.G.T.V..._ ] F._.{./.A.y.y.B.z.z.m.D.Q.D.(.&XA.6.9.V.Y.F.a.B.s.4.B.4.2.w.5.i.9.4.,.7.9.6.-.6.{ ^ { _ L v m L $.4.m r m ;.;.2.n.O.) V / | 8.9.z.;._ ! v v v B B M M z z n _ | 4.5.,.[ [ 9.4.4.4.4.4.e.B.a.5.e.3.9.F.B.B.B.C.C.y.y.y.B._.T.y.%.O.5.C.F.F.y./ r e c [ [ ;.;._ _ ..V.Z.3.a.H.Z.L.C.O.] 6.;.[ [ ^ >.A.V.K.5.#.4.#...H.@X",
"9.N N ` o. .P ] $.5.5.#.4.y.#.] 5.>.5.a.G.V.5.7.9.9.3.2.9.Z.Z.C.B.V.3.L U $.S m 5.9.$.a.`.R.Z.a.w.$.+.@.g..X3XG.$.@.s.I.f.d.Z.d.y.B.7./ V ] | ` P ] ..@.$._ ] a.F.e.4.6.4.B.Z.A.9.2.O.] ` L _ #.B.B.B.Z.4.4.4.2.>.;.;.| / _ 4.D.,.B z N ^ [ >.B.B.s.C.5.5.Z.K.a.Z.F.I.C.Z.w.3.V.s.5.e.5.B.7.] ] #.#.+.] J P m m V m N v ] 4.4...L m G F / L V n B ^ 6.9.] ` O.$.Z.'.V.s.G.w.5.B.B.F._./.C.B.C.B.F.F.y.5.4.5.C.F.B.y.C.4.B B [ [ N N [ _ L ..B.V.a.H.H.V.C.#.V | b.x.-._ ;.>.#.9.y.` F F s m V.|.9.N N ` ]  .U ] $.5.5.#.%.y.#.] 5...5.e.G.V.9.3.9.9.6.2.9.Z.Z.B.B.A.2.L U @.S m 5.9.$.a.`.R.Z.g.w.$.+.@.f..X3XJ.$.@.s.G.d.d.Z.d.y.B.8._ ^ ] ] _ L ] | @.#.J L 9.Z.2. .P L 3.F.W.7.8.4.8.| [ >.A.W.D././.A.=.[ 6.B.B.B.e.e.V.Y.XXV.6.9.9.B.Z.y.n.x.z.8.x.A.B.S.H.5.#.` #.2.9.9.P V m _ | 8.n.8.:./ F ;.,.;.1.1.:.~ v M v r h x v z g u G O.#.4.6.| | #.2.' ' ] O.e.B.2.5.e.$.#.3.9.B.L.F.B.y.C.B.F.F.y.5.%.5.C.F.B.y.C.2.B B -.} B N [ _ L #.a.V.s.H.Y.V.d.4.V | e.c.;._ ;.>.2.9.y.] L L v m V.|.",
"v N ^ L m m ` +.3...2.i.y.5.O.` 3.H.H.`.Y.V.5.e.b.9.x.B.B.'.{._.S.A.2... .$.3.5.a.5.5.i.i.a.f.I.p.w.w.p.f.T.#XG.w.p.p.f.p.d.Z.K.9.9.A.2._ L m v V ] $.2.o.G F 2.9.2.4.9.2.x.x.9.9.y.C.y.4.$.2.9.9.a.V.Z.V.Z.S.b.x.6.;._ V v G | / M W N ^ { 7.e.F.Y.C.i.t.t.a.i.Z.L._.Z.J.G.r.e.G.s.s.9.9.2.,.4.%.t.i.%. .U s s D m v v L 9.a.| G G V n v m _ V N ! >.e.] G L I ] %.@.#.$.X.` ..9.Z.'.L.C.B.y.y.L._.F.#.O.O.9.A.F.C._.L.S.S.m.-._ _ L V ] 4.5.V.e.] ] 9.t.O.F _ 9.A.2.| 9.#.X.| L v m _ [ #.7._ v N D _ m m ` #.3...4.i.y.5.O.` 5.H.H.`.Y.V.9.e.n.9.e.B.C.'.{._.S.A.2.#. .$.3.5.s.5.5.p.a.a.f.I.a.w.w.i.g.T.#XG.w.i.g.f.i.d.Z.K.9.9.A.2._ D G v m ] $.$.] m m O.4.] ] #.D ..3.z.A.B.y.9.9.A./.|.D.A./.D.1.;.,.2.A.a.e.a.H.|.].F.B.9.7.y.B.F.x.<.<.6.m.6.[ { 7.w.3.%.d.Y.B.5.B.5.6._ _ [ z.8.v.1.) H a G O.8.-.~ M z e g g l l h x F u F P O.y.7.-.| | 2.I n N G ] | ` U #.X.] ] y.Z._.L.C.B.y.y.L._.Z.%.O.O.9.A.F.S._.L.D.D.n.;._ _ J V ] 9.9.V.e.] ] 5.4.O./ _ x.M.2.| 9.2.| | _ n m _ ] 2.4._ ",
"N D L D s a L +.] b F ] $.5.O._ [ 3.V.`.XXH.a.F.F.9.n.F.B./._._.A.7.|  .@.w.V.H.Z.$.5.s.i.f.Z.g.w.%.@.w.a.J..XG.f.h.p.&.i.d.a.f.9.2.9.A.{ v s n L J ..#.] ` m L 9.a.y.9.8.9.F.B.y.Z.L.F.i.2.2.e.Z.C.Z.C.F.F.A.{ ^ ;.} V z B 1.} B ! Q ! ` >.7.9.F.Y.Z.d.t.4.a.B.B.a.y.Z.s.Z.G.f.f.s.w.i.9.9.B.L.L.K.i.*.@.T J L  .L m D | 9.9.+.L m n m v v v v N ^ ..3.+.L J ` J J @.Z.$.K ] e.F.i.Z.Y.C.B.L.F.F.C.] F u _ x.A._./._./.}.L.B.6.| 2.#.e.B.a.5.5.2.3.$.2.' v V ( _ ! V 9.Z.y.2.] L N v ] 9.n.2.V m V L D n p L +.] s L ] #.5.#._ [ 3.V.]..XF.e.F.F.a.n.S.B./._._.A.7.| ] @.r.V.H.V.3.%.a.a.g.f.p.i.&.@.w.s.J..XG.f.h.p.0.i.d.i.f.9.2.9.A.{ v v a L J | O.` F p V 5.8.#.#.#...b.F.Q.F.A.n.F._.[.4X>XQ.M.<.-.-.( k | A.4.9.Y._.Y.V.'.{.y.V.L.B.8.z.m.W.c.;.[ L #.5. . .@.&.a.f.9.#.] ] [ [ M.z.1.z.) x n n B V B M q e r h h l Q [ | F v n O.5.4.,.;.| [ _ n v m L P D ` $.] ] #.e.V.e.Z.L.C.B.L.F.F.C.] V z _ 9.A._./._._.}.F.B.6.;.#.2.e.B.e.5.3.2.3.$.2.` n V _ _ ^ V 9.V.i.2.] L N m | 9.n.6.F ",
"] ] ` D b D ` ] ` b D $.e.Z.>.N S 4.Z.XX@XF.a.F.F.L.S.M.y.y.y.y.7.2.O.U q.w.e.r.3.$.^ w.f.G.G.w. .S S T 5.a.f.I.p.w.p.*. .&.5.5.2.;.2.6.{ h u m ` #.4.e.| L ] O.A.B.4.#.,.9.n.n.B.a.B.s.e.4.2.9.V.F.C.C.n.C.,.Q } 1.( B B ( 8.1.Q ~ B V ..7.2.x.V.F.Z.d.y.a.L.9.u.Z.d.a.a.a.%.o.o.] o.#.9.B.B.F._.V.5.*.@.T P S P ` L ` 5.V.e.#.L b f m m v a k N ^ >.r.r.$.X.U U &.d.a.O.U $.a.I.a.w.e.s.B.Y.|.Y.e._ h v ! 6.A.{.{.D.9.5.a.a.4.] | y.5.4.#.%.4.#.5.7.| m a V F V V a P t.4.] ` J v v _ ' 6.s.#.] ] ` D b D ` ] P b D $.e.Z...b S 7.Z.oX@XF.B.F.F./.S.M.y.u.y.y.7.2.O.U &.r.a.w.3.>.L w.V.J.G.w.+.S J  .5.s.Z.G.a.p.p.$.+.@.5.9.#.,.6.>.| u r m _ #.4.5.] m L  .B.F.| ] L ] 5.4.a.B.S.Q._.Q.Q.[.>XQ.m.-.x c h M M ^ { 2.4.5.9.F.B.9.7.] ..2.#.8.W.z.1.-.Q _ ] >.$.$. .P +.a.5.J _ 4...] x.A.A.x.( h x z g j h c z M z B x n ( ( } O.,.' %.C.y.2.[ =.M ! ^ D ` ` ] #.#.O.] $.5.s.Z.i.w.e.s.V.Y.]._.e._ h v ! :.S.}.}.S.e.4.a.e.5.] | y.5.5.#.#.4.2.4.5.] N v V V V G v _ 5.4.] ] ! v v _ ' 4.a.#.",
"3.5.5.X.] X.X.] P D X.e.H.w.3.$.9.Y.|.6X|.F.B.S.L.}.L.M.n.u.y.i.a.B.a.w.i.r.w...` ` D #.w.r.r.0.$.] J +.g.G.G.U.s.w.0.$.S  .a.a.2.2.;.2.2.] _ #.y.u.e._.Y.#.] 4.9.,.[ ] ' O.2.8.n.B.9.C.B.a.5.9.B.B.y.n.D.8.( } n.n.1.! B M Q ( ( B x | 7...| 9.Z.B.C.y.9.7.S.F.n.C.K.C.y.5.%.I d p G O.B.F.S.F.Y.Z.i.@.@.@.X.Y P +.$...e.w.5.X.S Z s f p s y k D ..7.0.b.j.s.&.t.Z.a.,.O.] @.5.i.$.+. .5.e.a.V.V.5.m v v h [ b.[._.Q.F.V.e.+.O...2.9.i.t.#.O.] #.7.#.m v r u m V N 0 0 L _ D V V L N V } O.2.5.4.3.5.X.] X.X.] D D X.s.G.w.7.$.5._.|.3X|.Z.a.F.L.[.L.m.y.y.y.a.a.a.a.i.i.i.w.X.X.` D $.w.w.0.w.$.P S +.d.G.G.U.s.q.w.@.J  .a.a.2.2.>.6.>.{ ` #.a.7.y.'._.| L 2.7.] n n t y s L 2.9.B.{./.A.z.A.=XQ.W.z.} B h h M N ` 2.5.7.C.a.} V V v m | 5.,.,.,.,.-.[ [ b b X.$.@.T i.f.+.L ..5.6.2.6.B.A.z.( j j B q q z z z V B ( F / ;.| / | ' O.t.C.8.,.[ [ N W _ { [ ] o.4.#.] 5.5.y.i.i.$. .+.3.a.B.B.Z.4.m v x M [ b.[.~.Q.H.V.w.#.....2.9.t.t.#.O.] $.4.2.m v r a m V m r 0 P ` L J D _ V V | O.4.9.",
"`.H.w.9.| ] 2.` D ` ] #...b S ..7.i.H.Z.L.B.B.B.C./._.F.B.y.A.a.a.a.s.$.+.@.5.+.` ` ..X.S U ..w.$. .S +.h.f.$.a.G.s.r.$.w.w.w.9...2.9.:.2.2.4.y.L.F.F.~.B.D V ] ] ] | ' ' } } ,.x.F.F.B.Z.F.B.B.B.y.u.y.1.[ n n } O.( z x M Q 1.-.z B } 3...5.b.s.5.] ' _ ;.8.A.n.K.C.5.5.4.%.` n p F 2.9.A.F.Y._.F.V.a.q.$.T P ] $.w.....3.$...U K S d p a a v N { 6.e.Y.U.Z.f.y.y.y.y.9.4.5.s.Z.p.0.$.5.a.e.2.2.] N z h M ~ :.A.9.4.s.w.w.5.P $.y.5.5.t.O.] ` O.2.] V N y 0 w a m ` L +._ s m V V _ ' L m _ V.].G.w.9.| ] 2.` L ` ] #.{ S N ..5.e.H.F.Y.B.n.B.C._._.F.B.y.B.B.a.s.a.$.@.@.5.| _ ` $.` L P +.w.$. .S +.h.f.@.a.G.f.r.&.w.r.w.9.| 2.9.2.2.4.4.y.F.Z.H.~.a.m b _ V B B v a t q A ] #.9.x.8.9.A.A.D.z.6.6.;.( M v { 7.2.9.2.3.b...F _ _ m L ' y.8./ / 1.x.A.{ k y s S J @.f.d.L $.2.[ #.7.>.b.9.<.[ x x g q q g g u z M B x B / | ) n F #.Z.F.B.2.| ( / V ! [ [ ` O.2.#.9.a.5.5.s.Z.a.&.$.3.a.e.2.#.] m h h M Q 6.A.x.3.B.e.w.$.U $.y.5.5.t.#.] ` ..2.] V N a 0 w v V ` P ..] N m D V _ ] _ m L C.",
"H.e.` ^ _ _ _ ] ` { 3.B.3...{ ..3.#.e.5.a.9.4.a.F.L.S.C._.'.L.C.Z.F.B.y.5.$.| L b D X.` S D  .$. .X.U $.i.5.a.T.J.s.f.h.s.w.i.e.| { >.| ` v n J %.Y.|.F.9.` L ] 2.7.2.L ' O.O.,.2.9.B.Z.Y.'.T.F.B.y.$._ n n u c [ [ B z M M Q [ ~ x ;.B.e.5.5.e.B.5.P L O.y.m.S.C.C.C.u.t.5.4.#.' V n _ 2.9.A.F.F.F.Z.I.f.0.$.&.r.r.$.U K P @.w.w.$.Y f s y b N ^ 7.b.S.].'.C.s.a.n.9.L.B.5.i.s.h.G.G.w.V.G.B.2.] _ _ [ N k N ;.7.>.] $.w.5.p.$.$.#.#.%.+.J J ` $.y.a.| V a r a y m | 2.| #.] _ ` F B V N _ | B.H.e.` ^ _ _ _ ] [ ` 3.B.3.......3...e.5.a.9.4.a.F.F.F.C._.'.L.C.Z.F.B.i.5.$.| P b D X.` b K  .3. . .U $.i.&.a.T.J.s.f.f.a.w.e.i.| | ;.{ [ v n G 3._.|.S.9._ m _ | 2._ i y y 8 S V ` #.2.2.n._.{.S.,.[ } 2.} N ' V.B.e.2.2.] [ M v ! ! | a.B.n.4.8.M.<.,.6.M r y m D +.5.#.' P 2.e.e.H.F.F.W.6.6.8.Q j x x h h e e g B ,.8.F ( } ] ) / O.9.9.9.8.;./ ! ( | | ] ;.#.#.,.y.B.9.5.a.f.h.G.w.V.F.s.2.] _ _ [ N h B ;.7...] $.w.5.p.5.$.#.#.%.o.J J ' 2.a.i.| V a r a r m | #.] #.` _ [ F N V B _ | B.",
"..5.3.] ` O.%.9.8.3._.B.7.` { >.] 3.b.#.X...O.6.S.'.H.B.C.F.'._.H.Y.Z.V.Y.a.m a D ` | ` ` $.w.w. . .+.@.s.s.s.J.G.w.w.e.$...$.5...` N ^ D y a s ] H.b.b.V.7.` >.7.e.>.[ [ | ,.7.z.9.e.F.H.F.Y.Z.d.C.1./ u z F ,.M.n._ / ! N N B M ! 7.F.G.V.w.e.V.d.o.O.i.{.[./.W.D.M.O.,.5.5.6.9.B.8.2.y.n.n.B.F.F.Z.V.a.i.f.I.h.0.@.K Z S X.0.s.w.X.s s s a z N [ { >.{.|.F.F.C.n.D.n.9.3.5.f.p. .U $.H.F.B.x.7.7.6.;.2.,.[ ;.2.` ] 3.@.$.e.q.+.] I P  .L P #.2.e.V.9.L b m v y D 6.#.2.3.3.9.| h r V { 9.9.2...7.5.' ` O.%.9.4.7._.Z.9.{ X...{ $.s.+.| | #.6.V._.F.B.B.F.`._.F.Y.F.V.T.9.G a L ] ] ` ` $.5.w. . .+.@.p.s.s.J.Z.w.w.r.$...$.3...` S ^ L y a s ] F.b.b.b.3.L { 2.7.^ y y y y k m D L #.>.9.H._.F.2./ _ | ` D 2.Z.w.....e.{ l h e q r | 9.x.7.8.2.8.1.;.| V N b P | #.4.%.#.4.2.9.F.'.;X<X7.r x ( g 6 ~ / z h h h g / 1.n.1.8.| -.;._ ,.2.#.,.,.[ / / ( | ,.1.2.4.4.9.2.2.O.$.s.s.+.T $.G.F.V.b.7.7.6.;.2.,._ | 2.` ] 5.+.@.w.&.+.] L P T L U +.3.e.V.7._ v N v a L 2.#.#.4.7.7.] v h m _ 9.9.#.",
"] 3.e.e.y.Z.9.2.B.A.9.7.2.>.$.w.` b S b b ^ $.9.B.Z._.F.F._.`.Z.B.B.V.Y.'.y.m m ....] _ 4.V.V.e.w.$.@.q.p.s.r.5.w.3.3.$.U L `  .....` b b b m m ..S.H.~.H.V.3.] ^ ` ` ` _ ] | ;.7.7.6.9.e.a.B.y.y.u.O.G n / O.1.y.n.8.,.} ! N B ! } { $.r.H.G.H.I.I.t.#.9.Q./.M./.).n.| #.B.A.8.9./.F.S.B.C.C.C.S.Q.F.a.e.i.s.G.j.$. .T Y K P T  .w.w.P p v a y v v _ 6.n./.Q.A.D././.D.9.5.+.$.@.P U s.H.B.B.F._.F.B.2.x._.A.B.B.#.] &.3.$.X.q.@.] | i.i.U D ] #.5.5.3.] [ ] V _ | #._ V ` 2.2._ v r N [ | ] ` ] 3.e.i.y.Z.9.2.B.A.9.6.2...>.9.` b S b m L #.5.B.F._.F.F.Y.`.F.B.V.V.H.'.a.n m | ..] _ 5.V.s.e.5.$.@.0.r.f.e.w.5.$.w.$.P L `  ...X.` b v a m m | F.H.H.Y.V.#.` v v l y 8 8 8 8 t b D | #.6.B.Z.B.2.] } _ ] ..e.Z.V.3.7.e.-.N h e q r } 9.9.4.8.| / / ,.6.6.4.2.2.3.%.#.5.o.#.O.7.B.B.L.}.n.Q h B x Q B x h 6 e e z ( ,.,.6.} ( | [ } } O.,.] } V / [ ,.,.4.7.2.8.C.A.9.2.2.#.$.@.U U a.H.B.B.F._.F.B.2.n._.S.B.B...X.3.w.+.+.0.+. .o.p.i.] J ] #.4.9.3.` ` ] J D | #._ N ] 2.2.[ v r N _ | ] ` ",
"2.b.Z.Z.L.F.u.4.6.,.6.A.S.F.B.Z.3.A y t y m #.a.4.#.B.Z.V.H._.9.P ..B.F.n.| G | 4.2.| ] 4.7.3.3.@.]  .@.q.h.U.a.w.$.$...K _ P ] e.s.X.D a y s b D 2.S.H.S.w.3.` ^ ^ D ` P ] ,.,.6.x.9.9.B.a.9.5.t.O.F B / B / 1.8.O.,.6.} v z v _ | ` _ ` 5.V.G.].].a.5.B.C.x.n.W./.m.,.[ 4.m.n.x.W.m.4.4.C.P.n.n.D.W.F.Z.B.9.w.w.@.@.@.T T  .P K 0.V.$.G v m m v y V >.b.S.9.>.8.L.&X[.S.e.5.V.f.p.a.Z.V.9.9.F.F.F.n.;._ y.B.6.] ` X.$.X.@.X.X.U +.+.J @.#.` J ` 5.B.9.| L V b V ] _ n s v V ` D r r V [ D ` | 2.e.Z.Z.L.Z.u.4.8.,.6.A.V.S.V.F.3.s y y a m 2.B.5.$.a.F.V._._.w.L ..B.F.9.| F ] 5.#...{ 3.e.3.$.$.X. .@.0.G.U.a.r.3.$...L P ` ] e.e...D p s d v S >.G.~.S.r.3.X.N r w y 8 y 8 < y b _ #.5.2.2.2.2.| >.;._ V ] w.w.3.e.F.b.{ M 5 w h M ,.S.9.8./.8./ [ ..2.9.B.y.9.4.4.4.%.4.y.y.B.B.y.n.A.C.8.| | :.:./ B c q e z / ,.4.z.,.[ -.[ / ! ! } } _ _ / F F | 9.8.| | | 4.D.C.B.9.5.V.s.a.s.Z.Z.7.9.F.F.S.B.| _ x.C.2.| _  .+.$.X.$.X.T +. .L @.+.U L U 4.A.9.| L V v V ] [ m n v D ` D r w m [ _ ] | ",
"V.T.Y.Z.y.2.9.A.9.8.x.S.Q.F.F.b.#.D s l t v ..3.] | 9.V.B.V.F.e...5.B.8._ _ O.B.L.i.#.4.w.2.3.w.+.P T  . .h. Xs.5.3.$.] X.P ` @.r. .+.5.X.b S m D L e.>...X.` ` ` _ | [ / [ 2.2.9.B.F.B.F.C.4.5.M.4.,.,.F c G ( / B / _ v v n N _ [ ` L ` X.b.`.@XI.f.y.B.F.A.m.1.D.C.1.F / :.x.m.Q.Q.n.u.y.u.5.D./.A.9.n.a.2.+.U P T X.q.q.X.R X.e.s.e.2.J _ ] V m k { b.W.9.A.[.oX{.[.S.B.V.Z.w.s.I.Y.Z._.F.F.A.A.A.] h m v v V a s  .X.$.$.$.@.t.&.@.i.a.5.#.| 3.6.#._ v v y a D L V m n V } ] N y r L 2.B.V.Z.`.Y.Z.y.6.9.A.8.7.x.S.Q.Q.F.e.$.D s v 0 p #.3.| ] 9.F.e.B.F.e.#.5.B.7.[ _ O.B.K.a...7.9.>.3.w.+.K T T @.h. Xp.5.$.$.]  .P P $.w.@.+.3.X.m m m S ^ e.>.>.X.X.P S y l w w w y y a b L #.5.$.| | 2.6.7.2.[ ! ] ] X...9.~.^.>.l e e h _ y.y.8.S.[.D.y.B.4.4.e.4.2.4.9.4.4.O.4.y.y.y.B.K.n.#.} [ 1.8.-.) / F M e z ) u.8.8.n.n.8.z.z.( M N ;.] ( | 2.1.| 4.4.6.| #.8.M.C.A.B.b.V.V.w.a.I.F.F._.H.A.A.A.A.} z B v v m s s  . .@.$.@.+.w.4.$.i.a.4.O.| 3.6.#._ v v a a D D V m n V ] { N y r _ 2.B.B.",
"a.w.B.w.5.7.e.b.9.8.6.z.n././.e.2._ m D s m #.5.3.5.B.V.e.s.F.Z.Y.Z.3./ B V | C.L.F.a.3.9.>.9.s.$.U +.@.@.h. XG.a.p.5.5.P D m K @.X.D X.$. .P L P ` | ..` D S ` ` { ..` { | 4.2.2.F.Z.L.K.y.5.B.d.8.1.1./ x B ) ( B F ( n v m ] ] L L L [ w.V.].].E.E.B.s.F.S.n.6.6.8.,.V z Q 8.W.Q././.D.C.a.y.A.x.9.6.9.n.B.4.P +.s.f.s.q.$.3.w.0.>.0...X.3.V.5.` { e.b.S.F.~.P.C.u.A.F.x.3.$.&.a.V.H._.|.~.Q.Q.Q.~.x.,.V u n F b m ` q.q.j.j.a.f.Z.V.3.a.s.V.9.] V V n n _ _ _ L ] 4.2.| ` P ` V v m #.9.i.F.e.e.s.7.7.9.w.x.9.8.6.z.n./._.b.>.^ S D a m #.5.3.4.V.Z.9.s.F.Z.Y.Z.6._ V B | V.L.F.a.4.7.2.9.V.3.U +.T @.h.R.G.a.i.5.5.U S m L @.X.S X.$. .P L L ' | ] ` S b D S b b k r r v a a D | #.2.O.O.1.6.;.:.2.x.7.7.a.9.#.9.F.9.[ c e e M 2.A.4.,.8.n.n.y.y.8.5.a.9.2.4.y.y.u.4.%.5.5.4.4.a.y.| F ' 1.-./ Q [ 1.[ z e ) n.n.D.D.Q.}.Q.z.Q h ^ | | } ] 4.n.4.4.4.9.y.y.9.4.4.9.B.9.2.#.$.a.f.Z.'.|._.Q.~.W.~.c.| N z n D S A X.$.q.r.s.s.f.f.Z.3.e.V.B.9.] B / M n _ _ _ L ] 4.#...] L ` m N m #.9.y.F.",
"3.H.V.7.3.3.| [ ;.8.;.8.A.F.F.B.9.3.e.e.$.9.B.5.e.Z.F.s.V.B.B.Z.V.4.7.! v _ 2.9.y.B.F.Z.B.7.3.] ` ] +.@.@.&.r.U..XG.w.] J D L  .@.T S U ` U %.5.O.$.a...X.m S ` ] ] ` [ ] >.2.2.2.%.u.B.B.y.9.4.4.,.z.-.( x / 8.m.,./ V z n _ 2...L ` _ 2.F.~.{.XX2X@XZ.Z.F.F.F.n.9.n.9.,./ M :.M./././._.K.a.4.8.A.A.6.x.Q.9.#.` ` 0.G.f.q.@.X.3.0.>.X.D D 9.{.B.2.B.V.S.a.V._.4.i n 9.x.9.4.5.s.Y.H.4.Y.~.x.W.}.[.~._.2.[ O.5.5.] S S D D ^ r.s.s.$.$.V.a.2.9.| V } | / n ' 2.4.#.5.a.C.5.| _ ] 2.2.9.4.#.| ..3.H.V.w.3.3...[ ;.8.:.9.A.F.D.B.r.7.9.e.$.9.V.5.e.Z.F.a.V.B.B.Z.V.5.4.V M _ 2.a.y.B.F.Z.B.7.2.` P ] +.$.@.q.p.U.+XI.w.] J S L  .#.X.S U ` ] $.5.+.$.a...X.s b D S S y 8 r 0 r u m | #.2.O./ [ ;.2.;.[ -.;.| 3.F.y.#.y.8./ z e z k N 2.| } ( F B ( ' G _ %.y.y.4.1.4.1.#.4.4.9.y.#.] 4.d.4.| | / | [ [ ,.,./ u Q 4.K.'./.D.D./.D.1.Q ! | _ / ,.7.4.4.y.4.4.5.B.Z.5.V G 2.9.9.5.3.a.J.F.7.Y.Q.x.W.{.[._._.6.[ #.5.r.^ D S D P X.w.s.a.$.$.V.a.2.5.| D ] | F n ' 2.4.#.9.i.B.9...L ] 2.2.9.4.#.]  .",
"` V.G.$.{ ` L ! | z.x.A.A.A.b.x.9.B.F.a.V.B.$.V 2.V.Z.F.V.Z.a.4.P V _ v / a.F.Z.Z.F._._.H.e.| V V P X.$.0.0.w.I.U.i.+.L m D  . . .+.+.` D  .&.%.a.Y.5...X.D U P X...] [ | >.| ` 4.y.C.C.t.] ' _ _ ( -.:.( ~ ( 1.z.1.,.F / O.O.#.] D ] #.| 9.S.~.'.].V.2.9.F.F.x.x.F.S.y.[ F 1.A.m._.oXD.L.K.B.9.7.x.A.x.x.B.C.7.` ` $.Z.w...` @.e.e...` D S $.F.V.3.9.V.H.Z.B.s.O.u V z.7.;.;.2.H.|.Y._.S.6.;.A.A.Q.[.F.8.O.4.y.B.3.L S S S X.V.J.s.a.V.Y.B.2.2._ F 2.2./ V / G O.4.2.4.4.] _ P 5.Z.a.4.2.5.5.] ` V.Z.3.{ _ L ! | 8.x.A.A.m.n.x.9.B.S.e.V.V.#.D 2.V.F.G.V.Z.a.4._ D _ v ! B.F.S.Z.F._._._.e...m S P ] $.q.w.w.G.U.w.#.J v L  . . .@. .U J ] &.%.a.Y.5.X.` D K S D D N 0 0 t a u v | 5.8.,.[ | ,.:.:.-.<.=.Q | B.Z.B.D.8.( M B B B V _ V F z g z B F v | a.y.4.2.#.u.| | #.y.Z.n.O.] 4.a.5.5.O._ ! _ [ ] [ / / 4.8.B._.'.F.D.y.8.7.[ ! ! B B 2.n.u.4.4.5.4.y.a.a.#.G V 6.2.;.| 2.F.].H.Y.S.6.;.A.A.W.[.F.7.O.4.9.b.w.D S S D X.b.I.V.i.V.`.B.2.2._ V 2.2.F V _ V | 4.4.5.5.] L _ 5.Z.e.3.#.5.9.] ",
"^ ..$.>.` D D _ / } 6.x.m.n.x.;.>.x.B._.Y.5.S y D 2.V.Z.F.Z.3.L b b a v [ F.F.A.F.Y._.F.~.9.#.#.3.$.5.@.&.i.p.i.+.] #.] a m ]  . .+.+.X.P J I @.V.C.] #.s...U ..3...` ] | | { [ 4.B.C.L.Z.#.G B z j Q -.:.( x ) } ,.u.;.,.y.4.O.] | 5.4.| _ [ x.A.S.B.#.$.B.F.7.y._.D.#.B ( D.M.2.z.C.C.d.u.t.u.9.6.7.z.8.Q.'._.b...3.$.X.....3.7.e.7.$...b D | 6.5.2.3.e.a.Z.9.G v r B ( | 7.7.B.F.{.x.z.A.~.W.A.Q._.W.y._ L ] 3.r.w.D ^ { 0.V.V.9...e.H.G.e...V | n.O._ ' F 0 s #.| _ m a m L 3.a.4.] O.t.a.5.^ ..$...` D D _ _ [ 6.z.A.n.x.;.>.x.B.{.H.5.D r V 2.s.F.Z.F.3.D v b y v [ C.Q.B.F._.L.F.F.e.2.#.3.3.$.$.5.p.i.w.+.] @.| a m X.] ..+.+.X.P J I @.V.V.| >.s...L U @.X.b a a y p u m ] O.| } -.,.6.6.6.8.8.;.! M ` 6.y.4.} } | ( B M M V M B F n z M v z _ #.#.4.%.O.1.[ L 4.D.F.n.8.y.y.u.4.9.4.9.[ N Q -.| | O.y.y.y.C.B.y.9.8.2.8.;.6.| ` [ O.#.4.4.O.` ` #.s.y.] F N B [ | 7.7.B.F.{.x.x.A./.W.A.!._.Q.y._ _ ] $.e.r.^ ^ ^ r.V.Z.5...B.H.Z.i.| V ] n.,._ ' F 0 n O.| _ m a b _ 3.B.3.] #.y.a.5.",
"` ` >.X.2.>.[ V V / [ 2.A.n.9.8.7.n._.'.`.Y.2.v D #.4.Y.]._.e.| ] [ P 2.9.V.S.e.A.F.V.y.4.O.y.C.V.a.w.e.a.s.f.w.o.#.9.$.V m D V _ ] $.` X.] ] 4.a.C.F.Z.V.#. .a.s.3.X.] ..O.' | ,.4.y.S.L.y.` n z h Q [ <.) x Q } n.m.' ) 4.8.9.7.2.t.a.2._ V [ 2.A.B.9.9.8.A.Q.F.L./.,.u [ /.F.n.4.#.e.5.4.4.5.2.2.#._ ] A._.F.6...3.] ] 5.a.a.$.$.$.$.+.D m S _ { 3.w.e.3.w...n a z ! 8.x.9.z.B.A.S.A.z.W.Q.Q.Q.*X{.Q.S.4.9.C.s.w. .P D ` $.b.4.G m %.s.5.+.#.#.4.6.| _ ] _ a b D ` ] b N S D D ` ] 9.Z.F.B.9.X.` #...3.>.[ D ! / [ 2.A.n.9.6.7.A._.{._.H.$.v D #.9.F.].T.a.| ] ` P 2.9.V.S.e.S.F.B.i.6.#.9.V.B.a.5.w.a.s.s.5.o.#.t.$.m m D D _ ] $.` ] X.U 4.a.C.Z.Z.Z.#.] s.V.3.D D m m n r v / I _ } ,.1.8.8.8.6.z.8./ v _ | | ` _ F / / F M v N V V } [ ( ) v u n n ' t.9.4.4.O.,.7.9.y.b.9.2.` | y.F.C.n.6.^ ^ ] O.2.4.y.d.u.#.#.4.4.4.9.x.6.8.4./ a m } #.2.O.2.] +.5.$.L F V / 2.z.9.8.b.A.W.W.z.W.Q.Q.Q.%X'.Q.D.4.9.Z.e.w.X.^ D ` 3.b.2.J m %.a.5.@.#.#.4.6.] _ ] ` v s V ] ] N m m D ^ ` ] 9.Z.L.s.5.",
"D y S 2.7.3.L v V [ B [ 8.A.W.Q.F.Q.W.H.].{.3.m L #.4.Y.].Y.F.i.4.$.4.4.V.H.F.H.H.F.9.2.L m #.F.Z.7.4.w.s.e.5.%.%.t.i.V.a.#.N a b m ] 5.#.] +.d.].@X@XZ.` ` 5.r.5.4.#.| #.2.' _ O.O.1.9.n.y.4.G V -.-.-.z.<./ z ( z.M.) G ;.y.m.7.2.n.K.B.;.[ | ;.7.a.A.A.9.A._.F.F.|.'.O.| y.5.4.6.5.5.5.5.t.5.#.2.6.' m N a.F.2.6.6.6...3.a.s.r.>.>.q.5.3.` _ ] ^ B.H.r.a.5.#.G v v ( :.-.;.;.;.| x.[.W.W.!.W.F.~._._.L.C.K.Z.e.5.` P X...3.V.Y.C.] @.s.0. .] #.5.2.#.F N V m ` >.9.>.V V N b N _ 2.a.V.B.5.#.S y m 3.3.3.D v V _ B [ 7.A.F.W.W.F.F.~.|.].5.m L #.3.H.].Y.Z.y.4.2.4.4.V.H.H.S.F.F.9.2.L m 2.Z.Z.7.9.e.s.a.5.$.@.y.y.C.a.>.N v b m ] 5.#.] O.s.].@X@XZ.` L +.w.3.3.` P ] ] J u u F _ [ O.8.n.u.8.1.,.} ,.] / _ L | 8.4.O.[ ' ' _ _ [ / n O.n.n.,.M z n I 4.a.u.4.8.8.9.x.7.9.8.] V _ _ y.Z.2.| 7.2.! N _ O.%.4.#.' G ' O.4.5.u.B.4.4.#.#.[ _ #.9.4.C.Z.9.i.5.4.] G B [ :.-.;.2.>.{ b.(.A.W.W.W.F.~._._.K.C.K.Z.e.w.` ` ` $.0.b._.C.U %.p.0.+.] #.4.2.#.L N m b _ #.4.2.V V m N b _ >.e.B.B.5.O.",
"` _ ..3.2.` m v [ ..| | >.n.A.x.b.A.x.9.F._.F.F.Z.B.V.Z.T.Y.B.e.a.B.5.$.V.{.{.`.B.>.] #._ m ] B.Z.B.B.a.Z.Z.e.$.o.| #.6.6.^ k k m N N ` ] 5.Z.oXoXZ.H.F.2.V.Z.a.e.3.] #.O.#.] _ | | [ | 2.9.y.] _ ;.2.8.8.[ c x x F 1.) / ) ;.8.7.A.}.Z.$.] { { ;.6.7.n.C.S.S.A.m.P.oX2X'.Z.Z.y.y.5.5.5.$.5.5.3.#.4.9...b n m [ #.9.F.F.B.B.B.Z.s...X.3.&.w._ D [ N 2.L.#.@.$...V r j x -.6.} [ M M :.A.!.!.W.Q.Q._.Q.A.n.y.C.5.P ] +.3.e.w.7.e.L.'.Z.s.p.w.@.U #.i.s.O.L L | 9.H.Y.F.B.| ^ N b k N D D | 3.5.2._ L ..4.>.` N n [ ..| ;.2.m.A.b.b.A.b.9.F.H.F.F.Z.a.Z.H._.Y.V.i.a.C.4.$.V.`.XX{.B.>.[ #.P m o.B.Z.B.A.s.Z.Z.i.$.....#.2.3.^ y v N m m ` ] 4.Z.@XOXK.L.F.2.V.Z.e.w.$.` X.o.O.L n G o.[ / O.4.8.2.O.O.O.O.} ] ' ' ' ] 5.u.t.4.O.L _ >.6.] F O.m.8./ e u F %.B.d.y.5.7.y.A.b.;.>.6.2.2.| | #.2._ 9.~.S.[ _ O.4.4.4.#.o.O.%.5.t.y.5.| ] ] | 5.4.` ,.9.4.C.F.%.@.4.$._ v B B -.6.-._ N M ;.A.^.!.!._./././.C.n.y.d.5.P ] $.3.w.7.5.a.Y.'.C.p.p.q.@.] +.a.s.#.L L O.9.H.~.F.B.| ^ N b b b D _ | 7.9.2.",
"w.9.e.9.3.[ v N D [ | 7.7.x.b.A.b.;.[ 7.V.H._.H.J.V.V.Y.L.V.y.5.9.a.2._ ` V.~.~.>.! | ..#.5.y.5.B.A.6._ 2.G.Z.V.5.J _ #.] N v b V ] m v m y.L.K.C.C.B.F.Y.T.Z.Y.Z.] P ] ..| ..| | ,.| [ ,.x.K.y.,.,.;.} Q M z e g x / ( B Q / ,.A._.'.V.#.#.>.-.7.b.n.n.y.A./.M.m.n.D.'.oX].L.5.L L o.` L o.5.5.9.e.5...L v r N ] 6.2.-.9.S.B.B.a.$.&.w.5.w.#.N v y n m m L m V v k h z ( _ M k h l { c.W.A.W.W.A.A.n.9.a.y.5.t.| +.e.V.Z.b.3.` #.K.Z.f.*.Y U T %.w.5. .D v ` V.H.V.e.9...[ V N b V D D { ] ..9.e.e.b.7.3.[ v N V [ | 7.7.9.x.A.x.;.[ 7.V._._.H.H.V.Z.H.H.Z.9.4.5.a.2.P { V.H.~.>.^ | O.#.4.a.5.a.B.6.' 2.G.Z.d.5.L L 2.{ N v b V ] N v S 9.Y.F.Z.C.B.F.Y.Y.Z.U.Z.L m ` ` ] ] n d / _ O.2.9.8.} F F / ' 5.C.9.9.4.%.Z.Y.C.C.a.4.8.F.A.9.} / 2.1.F c e u O.t.y.C.9.9.F._.b.6.:.[ [ 8.7.7.B.B.a.B.A.2.;.] 5.4.4.5.y.#.O.d.C.5.$.%.2.| V _ O.#.O.O.` L ] $...] ` I m N B x ! _ M k h x [ c.W.A.A.!.M.D.n.9.B.y.9.5. . .w.V.Z.a.4.' #.Z.K.f.*.U U T &.w.4.o.V s [ V.`.V.e.4...[ S N l D V V ] ] #.4.",
"5.5.2.] ] ' B V | ] 3.F.Y.F.V.F.x.! | B._.|.Y.V.V.V.3.w.w.e.e.B.5.4.4./ L n.F.F.A.9.9.7.B.B.7.7.>.^ N r V e.H.H.U.Z.3.] { D v a D ] F a L 4.C.K.{.`._.F._.F.2.] m a ` #.o.4.5.#.#.| ` ] 6.m.D.F.F.B.#.' [ [ / n z M N ! -.~ ~ =./ [ F._.d.4.#.2.n.D.W.S.y.4.8.F.W.A.B.B.T.F.a.$.O.5.&.@.2.s.B.y.9.B.9.6.F V v B 2.2.M V V ,.9.9.F._.H.Z.w.5.&.P m b r k b m m v a v N v v v r h w h ^ l.c.b.m.W.m.x.M.S.C.5.#.#.4.#.| ] ' #.I u m ' t.Z.s.@.J Y T @.+.d s m ] s.y.5.` n v F / B [ ^ { ..` 3.$...3.9.2.] ] } B B | | 7.G._.H.V.F.9.! | B._.].Y.Z.V.V.3.w.5.a.y.C.9.4.4./ / n.F.F.A.9.7.9.x.B.9.6.#._ M k m e.F.H.T.G.3.{ ..D v y V ' L u L 5.B.Y._.'._.F._.F.#._ a 8 D O.` o.O.` G [ ] 2.2.4.| F ] O.] #.a.V.Z.s.3.a.F.T.'.a.4.7.,.2.n.6.B M ! | | / v 0 m #.4.a.Z.a.S.Q.F.,.;.[ ~ | n.1.D.'.C.n.5.2.O.#.5.y.4.B.C.y.4.a.a.a.5.4.7.[ } 2.8.$.O.` _ _ ` ] P ] _ G m m V N M v k h w l ^ x.b.b.A.A.c.c.D.A.B.9.#.O.5.#.| | ` #.U v m ] 5.Z.f.@.J Y T @. .Z s m ] a.w.3.] m a F / B [ ^ { { { 3.$.#.",
"` N a m B v z n ] 2.e.Z.Y.H.J.H.a.2.7.S.'.]._.H.V.e.$.X...w.a.F.9.,.8.8.} 4.8.A.A.W.[.W.9.7.6.] D V D D N ] e.Y.H.G.e.....` D m b v n G O.C.'.oX4X|.V.F.|._.2.v a V 9.C.d.B.C.a.#.L [ | z.n.n.A.F.i.' _ _ _ [ / v e j x [ ;.;.:.M ! 8.Z.t.] I O.8.m.m.9.n.u.8.S.[._.F.B.V.B.5.i.Z.g.f.s.i.Y.].C.| | 4.| ,.' B V [ B h z ! ] ,.8.A.L.].Y.s.p.w.5. ._ V V b m L m b b N m v k k k k l { ;.:.z.A.^.D.W./.D.C.B.y.] _ F _ } / ' J d p _ Z.f.a.i.k.@.@.%.+.J S ] 9.B.9.5.G i u n M [ 2.:.>.{ { ] ` ` ` m a N B v z n ] 2.9.Z.J.H.J.F.a.2.7.B.'.`._.Z.b.w.@...#.5.i.Z.9.O.8.8.| 2.8.A.A.W.[.S.9.7.6.{ F V V D b { e.J.H.Z.a.X.X.{ ^ N v d v G O.B.'.|.2X|.S.F.|.'.,.a 0 m s.F.Z.C.C.y.| V ..2.>.` _ P O.2.5.4.5...] #.5.Z.F.Z.C.9.9.y.y.F.L.7.! M h g V _ m a m D D 2.F.9.9.H.n.[ [ [ -.,.} ,.M.W.C.8.4.4.t.u.4.8.4.4.y.4.O.%.B.s.4.4.| B | 8.4.2.2.5.#...` ` P P ] ] _ m m B v k k k j N ^ :.:.l.A.Q.A.W./.D.Z.B.y.] _ F L ' F ` G v a ` Z.s.p.w.k.@.*.*.+.J J ] 9.V.e.4.G r u n v } 6.2.>.{ X.{ ` ` ",
"D V V V N v v v _ 5.w. .G.f.Z.T.a.2.e._.|.|.].L.V.e.w...] 2.3.7.x.8.y.S.8.,.4.8.x.A.b.b.4.6.2._ S _ ` D s D w.U.J.5.X.] ..X.V b b D ] #.u.Y.'.F.A.F._._.|._.Y.4.L #.B.B.C.C.9.$.| ] ' ,.;.6.z.n.S.B.2.,.1.%.1.;.B e e g x W ^ =.{ :.A.F.a.O._ O.z.x.z.9.n.8.8.D.[.Q.B.Z.Z.s.s.f.Z.Y.Z.V.a.Z.Z.a.| ] O.,.2.9.2.F k r M ] 8.9.9.9.8.S._.Y.e.s.I.G.5...[ D S | 5.] m v k V _ _ N y ^ { >.6.7.b.~.{.W.D.D.L.a.y.i.| m v V ^ ] | ` ] ] ] B.Y.G.s.p.%.&.i.&.+. .5.s.y.4.y.] v u z n ,.-.^ ! { | L V V D m V V N a b s P 4.5. .Z.f.G.T.a.3.a._.|.|.'.Y.Z.r.w.....#.4.8.n.8.y.C.4.2.6.9.B.A.b.B.7.2.#._ V P ` L b S w.T.U.5.X.] ..] V v m G O.%.t.L.'.F.B.W._._.].'./.4.L 2.H.F.L.Z.2.L L ' | | ] ] | [ _ O.4.y.9.] L #.e.Z.Z.B.5.4.4.B.B.S.9.-.M h r e z V L V V _ F _ X.] ] 2.7.| ,.6.[ / ) -.n.n.4.| 4.d.C.y.4.y.9.| ' ` I ` #.%.#.#.] ! / ( [ _ | 5.#. .` ` [ #.5.$.L N v D _ ^ N y D ^ 6.6.7.b.~.[.Q.D.W.L.a.a.y.o.m v V ^ } | ` ' ' ] e.`.Z.s.i.%.&.p.5. ...5.B.9.5.u.| s v z B ;.-.^ ^ ^ ] ^ S D ",
"..9.6.4.o.V s s U 5.w.$.G.G.G.G.p.5.$.B.C.Z.L.T.Z.e.5...D _ [ | ,.8.D.F.C.4.8.2.2.9.B._.F.Z.a.4.$.] S S S D +.f.G.$.b ` ` [ _ [ 2.9.a.y.5.B./.F.9.x.F._.'.'.3XoXA.B./.F.8.y.9.] G L } | [ ;.c.A.m.y.9.4.4.8.4.| V c j q j W ~ :.l.A.<X<XC.O.| ,.,.z.A.W.y.y.D.P.|.|.F.B.Z.a.y.t.i.K.E.K.s.5.7.B.B.x.4.' L | 2._ N ` 2.7.B.D.A.7.6.B.F.B.e.f.f.&.$.9.] D N D ` J D _ D D 2.3.{ ! >.b.~.!.S.!.Q.Q.P././.L.Z.Z.u.I m n B B | | [ ` { [ _ 2.s.V.5.@.U Y ] w.s.B.B.a.#.O.O.` F u / } ! k h V | ' P F >.9.4.4.O.V a b U 5.p.$.Z.G.G.G.r.5.3.B.Z.Z.L.'.H.e.4.#.D _ } } ,.8.D.D.A.2.8.2.2.8.B./.F.Z.a.5.%.` S S S S X.f.Z.@.b ` P _ [ ` 2.9.a.u.4.B./.F.9.b.F._.'.'.9X<XB.~.|.'.y.9.8.m a [ O.| ` | } V L O.y.9.B.B.s.B.e.e.B.V.2.| ] | 2.n.l.^ l w g r g V [ B v m V n v N [ | ] ;.x.6.;.,.,.:.1.8.8.y.C.L.C.%.] 4.O.n v B G _ ` $.2.] [ 2.| [ [ | 2.V ` #.] ] ] ] #.` L ` D D 2.6.| D >.b.~.S.W.!.Q.~.Q./.W.L.Z.V.u.P N v N V | O.[ ` [ [ _ 2.V.s.5.$.U I ] w.a.V.a.B.#.O.O.[ G c / } ! k h ! | ] D ^ ",
"7.A.b.B.a.[ J ..$.@.w.p.I..X`.I.a.&.$.e.B.B.d.y.4.#.%.o._ ] } ;.[ ,.m.Q._.F.y.#.3.S.L.|.oXE.i.t.w.$.@.] +.&.p.d.Z.5.L s v V ..#.2.9.#.4.y.C.B.n.c.b.S.Y.E.OXoXoX_.S.W.F.A.m.7.[ N _ } _ B Q -.z.n.n.y.[ _ _ _ B z M z g j W ~ { 6.c.F.A.6.#.2./ ! z.Q.A.8.8.m.D._.|./.V.Z.Z.s.a.d.d.Z.a.a.#.V #.B.B.#.V n n m L ] ` ' _ ] 2.[ | ;.8.A.Y.V.V.Z.+.P #.| m a m L L _ ] [ #.9.6.3.7.B.b.S.S.F.Q.~.S.F.F.C.6.2.5.] m r k v N _ 2.;.V v ! _ O.] J m L m b ` 5.9.9.B.F.2.] ;.,.} / ,.;.-.^ M v } ' V _ 7.S.x.A.B._ L  .&.@.w.p.U.]._.I.a.&.$.a.B.s.a.a.3.#.2.O._ | } | [ ,.m.Q.`.F.y.#.4.S.L.}.oXT.y.t.5.&.@.U +.&.i.g.G.w.L n s V | 2.2.7.2.4.y.C.n.B.b.b.S._.E.OXOX;X|.~.~.[.D.A.9./ n _ } y.O.V v _ 1.y.m.M.y.8.2.4.#.#.4.] L V v N / ,.6.Q j h h h B [ ! v B B n v w u ' 2._ | 2.| ,.n.8.6.,.z.n.F.F.F.Z.B.4.| F v u V F G ` O. ._ _ ;.;.2.2.7.,.m D ] #.] ] ] ] ` _ ] ` #.9.2.3.7.B.b.S.!.F.~.Q.F.F.F.A.2.4.4.O.n r k k W [ 2.O.V v V _ ..o.D m L m v _ 5.a.9.B.S.2.' | ,.| / ,.:.-.! B v { ' V _ ",
"7.6.6.7.7.{ #.w.r.G.f.T.`._.C.Z.w. .$.e.F.].].V.#.' O.#.2.4._ ~ [ 7.;.9.Z.F.Z.B.F.F.B.F.].Y.C.5.#.` @.s.I.f.f.p.0.$.+.] _ _ [ D } B.C.u.C.C.A.A.8.;.[ B.P._.'.}.{.A.z.6.2.2.2.O.| 1.8.( v M Q <.A.W.D.n.,.| _ M z z z x M M ~ ~ ^ z.7.2.2.2.,.[ 6.!.%XW.m.n.D.D.A.x.B.B.K.Z.L.Y.Z.B.5.9.5.| _ ..2.| F m m m _ #.4.| O.` V m M ! 6.,.2.4.a.a.Z.a.5.+.#.#.] ] | L / ] 2.2.3.2.9.9.e.7.e.9.e.S.~.S.A.8.| v N L V a r z k h M 2.6.D N [ 8.5.$.| N y v ^ 7.B.B.a.9.9.,.,.8.8.1.6.c.n.6.:./ B _ | O.9.6.2.2.7.7.{ #.w.r.h.Z.T.].T.B.Z.w. .$.i.Z.].'.Z.2.` O.#.#.8.[ / [ 6.;.9.Z.F.Z.B.D.K.C.Z.]._.B.5. .] @.a.h.Z.f.p.5.@.] ` _ _ _ V ] A.B.y.C.S.A.B.7.;.[ B.L._.OXOX&XQ.x.l.6.2.9.9.' [ ' F F [ | 2.A.D.C.D.9.6.4.7.#.| ` D S N r k u x v q 5 h c z B / ( ! _ [ V r 7 v | O.O.] | 4.6.6.1./ / 1.D.n.y.' | 5.#.F z u u n / G ] #.6...[ | ;.;.8.8.] [ ` P 3.B.3.#...` _ | 2.6.5.3.9.9.9.7.e.9.e.S.~.F.B.7.| v m L V a r k k k M #.6.L N [ 4.5.3.| m y v D 3.B.B.i.e.9.| ,.7.8.1.<.x.n.6.,./ n [ ] | 9.",
"| ! [ x.A.b.G.r.r.Z.e.5.3.B.B.3.X.X.$.w.s.H.Y.F.C.y.M.u.' / B z ^ z.2._ ] 2.V.L.C.C.a.a.L.K.B.a.$.$.%.f.U.f.V.f.5.] ] | | | ,.,.n.Q.D.P.Q._.F.x.6.[ F 4.y.C._./.~.~.x._ B N / ,.8.8.8.,.B B B :.W.!.W.D.y.;._ B z z B j l W ! Q ! ;.;.^ ] 2.y.y.z.S.{.Q.A.F./.F.7.2.4.Z.K.C.K.T._.T.F.B.e.2.[ } O.} _ _ _ ` O.#.O.#.4.O.V u v V { ! v B F _ t.Z.s.V.Y.G.V.5.$.O.O.2.6.2._ [ 9.w.3.9.V.V.b.b.V.e.#._ v v [ #.N r k N l h v | #.| ] 2.a.Z.Z.L.O.k k V | 9.y.2.] V V 2.n.z.8.z.m.x.>.>.} _ ' | O.4.[ ! -.x.A.b.H.e.r.Z.e.5.3.B.B.4.` X.3.r.a.Y.Y.F.a.u.B.8.' / B z ( 9.;.` ` 3.C.F.C.C.a.B.L.K.a.a.$.+.@.f.U.Z.f.s.5.| ] O.| | ;.2.n./.C.F.Q._.F.b.6.[ ! 4.y.C.'.{.[.{.A.^ z u B | ,.' F F M ) ,.z./.[.M.<.8.m.n.5.;...] ` m k w 7 h N W h e h M [ [ { | 6.[ _ / r 0 F O.` | ] [ 7.A.9.[ v V ,.8.#.| N N V n v u e q z B F [ 4.9.| [ -.-.[ ( [ _ } ] ] a.Z.a.5.+.| 2.2.4.6._ [ 9.e.3.9.V.B.e.b.V.7.#._ v v _ 2.m r k N k k v ] #.O.o.2.B.F.Z.F.| k v ! >.9.y.6.| G / 2.n.z.8.z.m.n.,.,.} ` ' | 2.4.",
";.[ -.z.S.S.7...w.$...X.D N ! ] D U w.w.5.e.i.B.d.C.K.M._ 9 r r B 2...S L 4.5.9.y.a.u.4.C.K.C.Z.H.G.Z.i.Z.$.#.a.a.2.2.8.;.2.8.n.D.D.D.S.S.Q._.B.9.9.,.4.1.8.C.S.~.Q.7.! B ! B [ ;.-.x.9.1.9.1.z.!.N.m.n.m.6.[ F z h z h v ! B D { ^ [ L ] O.D._.A.A.~.Q.A.F.A.9.8.y.a.V.C.d.C.Z.Z.B.9.n.x.9.#.2.| ` F _ ' | O.O.' ] o.` ] V N O.] N B n V m ` 5.5.f.Z.T.`.Z.5.2.8.9.A.2.D ` 9.9.9.F.F.B.9.e.e.e.4.#._ v N m y r w h k h n _ O.$.5.] 4.Z.y.C.,.v k h N 6.a.4._ v v [ 2.2.<.,.2.-.;.2.7.] | O.,.| ;.| [ z.A.S.0.X.w.$...X.F N ^ ] D ` w.w.5.e.a.d.C.C.K.C._ 9 r u V ,.2.m P 2.5.y.y.C.5.4.C.L.Z.Z.H.J.Z.w.Z.$.#.e.s.2.2.2.| ,.8.A.D.W.D.D.D.Q.~.A.9.9.2.8.,.8.D.D.[.~.9.B z M z V } F _ } } 8.n.m.M.m.n.;.,.n.8.2.2.3.3.X.D m v 7 e z N x W =.[ ) -.;.{ -.[ } | V N _ [ I L ] ] 4.B.9._ B / 2.n.y.2.' L n r h z z z z u M L | | ! V [ { B M v B V P ..4.J.Y.V.4.2.8.x.B.2.L ` 7.9.w.F.F.B.9.b.b.w.5.2._ v B N u r w h k r N [ | 4.4.] 4.Z.y.V.2.v k r N 6.y.4.L z v ' 2.6.1.;.2.-.;.2.9.' } O.,.| ",
"_ ! x -.<.-.] ` X.] ` 2.] _ C.].3.X.$.7.V.Z.B.F.Z.y.a.#._ n a G e.a.3...] w.%.3.y.a.V.5.y.B.B.F.s.e.b.Z.V...D ..9.6.6.8.[ / :.,.8.n.6.x.Q.W._.B.7.x.a.8.6.m.A.W.[.m.;.[ n V v B ! / [ 4.8.D.P.m.m.c.z.m.x.,._ ! B v r h v [ 2.4.5.9.O.] ] 5.a.e.e.S.F.B.B.V.b.7.5.Z.Z.a.y.5.6.2.9.7.2.7.2.8.9.O.B v v B N m _ [ _ | 3.5.4.#.| O.| ` D v v v ] 3.5.f.s.p.w.] _ | 8.A.D.B.4.2.] V #.a.9.3.#...e.V.Z.e.2.] ! m r r a r v k D | | #.' I F O.u.y.} v g r v _ 2.4.#.] _ _ ! [ | | | ! V 2.a.O.O.| _ V _ ! x -.<.;.[ ` X.] ` 2.] _ C.].5.X.$.e.V.S.V.Z.C.y.B.2.I n a G e.s.3.+.] 5.5.2.t.a.C.5.y.C.C.V.V.r.V.Z.V...V | 9.6.6.6.) / :.,.8.m.1.x.Q.Q./.A.4.9.n.8.4.m.D.Q.[.A.>.[ n n z n B v G ( ,.8.8.1.<.=.=.;.,.,.1.y.u.Z.i...P N v h v h M M / 8.[ [ :.| N B ( [ [ O.1.| O.` _ O.#.#.2._ n n n F } 4.2.' L F / B z x h c z n z [ ;./ _ [ B M z z G _ P O.$.5.5.` _ #.4.A.D.B.4.4.| J | a.9.3.....e.V.V.9.2.] F n u r a y v k L ] ] O.` L L O.u.y.| z r g v [ 2.4.#.] V _ _ [ | | | D B 3.a.O.| | _ V ",
"| | [ D.z.;.] 2..._ ..` v >.F.B...` X.w.e.a.a.F.Z.y.t.u.y.5.$.4.w.3.$.$.+.5.5.B.Z.L.4.` ` #.V.e.e.V.$.>.3.` N [ ;.6.8.x.9.z.1.;.-.1.8.z.Q.[._.B.B.9.8.9.D.Q.[./.A.2.[ N v V n x M M ( 1.y.A.n.z.c.v.c.A.x.;.V M M M B B V m 2.C.y.5.%.$.#.#.#.#...] ] 2.b.b.b.Z.V.e.5.9.4.] } | 9.x.z.8.2.8.6.V u z y h r r v _ _ _ _ ..] | ] ] 4.B.5.[ ! L | 4.5.a.s.w. .m ] 6.,.| ,.9.a.9.5.O.] #.] X.3.7.b.G.G.B.w.2.| 3.J 8 a _ _ D P ` G J L F F ] 4.O.V z v N N V P F L 2.3.] [ ..7.6.#.[ _ | _ ' _ L N V | | [ D.z.;.] #...` ..` N ;.S.B...` ` w.r.b.b.G.Z.a.9.5.t.9.2.%.5.5.3.@.@.5.5.a.K.L.2.' ] #.B.i.e.e.>.>.3.` N ! ;.,.8.n.8.z.1.;.-.,.8.z.Q.[._.B.A.y.4.x.D.Q.[.(.A.2.[ M z n a v n n n ' 8.8.x.6.z.6.-.,.1.8.8.8.L.'.9.#.V N D ] 2.[ M N :.;.! ( [ / z N } | 1.n.y.8.4.O.I $.y.y.a.9.` [ F z a V F m v N B x c x g z g e e V } / [ ;.} B v B ' | | ] $.#.] J | 4.,.| #.u.y.5.4.O.] 2.] X.3.9.V.Z.Y.s.9.2.O.4.G 9 a L [ m _ _ J J G L G | %.,.B v v M N m _ J L 2.2.] [ ..8.7.2.[ _ | _ ] ` L B F ",
"x.7./ -.1.| [ ] 4.+.` m V 2.%.$.` D $.e.e.e.e.V.F.a.y.5.y.a.y.a.s.w.w.5.] K 5.G.d.5.m v L 2.].J.e.e.^ y N v v N _ 6.D.n.M.z.,.1.<.,.n.W.M.9.8.4.2.4.A.m.W.A.Q.Q.,.V n v v B / _ _ | 4.u.7.,.| ,.v.v.<.8.9.2.[ | 7.| _ _ ` _ | 5.%.%.+.@.%.0.#.` m D X.>.6.6.w.V.4._ | ] _ v N _ 6.B.n.2.[ _ F u u m N v r r k v k h v N n V ] 2.s.Y.s.7.| >.7.5.y.Z.5.o.J m L | ] [ | 4.u.5.9.3.| ] ] ` ` w.H.V.5...] | #.i.o.p J 4.w.5.#.` s t a V [ o.4.y.F B ^ _ [ _ J a s O.9.#.5.2.` _ #.3.+.2.5.] ` | _ [ x.7./ -.1.| ` | 3.+.` m m 2.%.$.] S $.w.e.e.e.Z.C.a.i.4.u.a.a.i.s.p.0.5.U L 5.G.d.4.m s D 2.|.H.e.e.L r v v v v ! <.W.n.M.n.,.1.1.,.m.D.M.9.7.4.$.4.A.n.D.W.Q.Q.2.V n v u m _ ` ' O.O.4.9.2.6.9.x.A.x.m.n.8.,.4.L.C.#.J L #.2.2.7.{ ! -.6.[ ! _ v z n / } [ ,.8.n.n.8.4.4.y.a.u.y.9.2.O.F v r u a n m v B Q z c c x c g z z / | 8.z.} ( F ` 2.2.4.5.+.U J m ` O.| _ | 4.9.9.9.4...] ] ` L w.H.V.w...] O.%.i.o.p J 5.w.3.#.U d 0 v V ' | 4.u.F B / _ ` _ V a a ..5.2.7.2.[ _ >.3.#.#.3.] _ | L [ ",
"[ | / ( } } _ V $.H.i.+.5.V.V.5.` S X.>.e.r.3.4.a.A.a.C.C.I.G.a.f.p.@.S S  .5.+.P m y a p m 5.V.5.$.^ S m v M M ! l.x.A.x.n.z.1.,.8.8.n.n.2.4.5.#.9.y.2.,.l.m.D.,.v n m m _ O.O.,.O.1.2.1.,.( ( <.z.<.} ,.;.2.8.9.9.2.2.>.#.5.e.a.f.p.&.*.5.$.K m P 3.9.7.2.>.] F s m | V v _ ] #.6.O.| / z u z m [ O.N r w r k g r r r r v F ] | 5.2.4.>.] ..9.a.5.@.J d N D >.9.9.y.C.s.y.5.| L D L ` ` ..3.w...b ` e.i.t.%.+.i.i.p.f.e.#.G r r n [ 5.M.n.} ' ] { 2.2.| V G O.#.#.e.2.` L ..2.+.2.a.Z.4.#.] V _ -._ ( -.} _ V 2.H.i.+.5.V.V.5.] S ` 3.w.7.3.7.B.B.B.Z.V.I.Z.s.s.s.+.S J  .$.$.P m r y y S 5.Z.5.3.D m N k v k Q 6.x.M.n.n.z.1.,.8.8.n.x.2.4.5.2.9.9.6.,.l.m.A.,.u v m F ` 4.4.4.4.O.4.O.8.n.S.A.A.F.W.n.,.F F _ V F _ | 9.B.6._ ~ ^ x.A.| F ! n n F ' / ' O.O.u.M.P.C.B.B.y.8.4.2.2.O.| G 0 9 v n v v v z e 6 c x z g c M B _ 6.7.| ] _ V ' 4.9.%.] H m m F O.9.9.y.C.s.y.5.] _ S L ` X...3.9.] m ` 5.t.t.*.o.i.a.r.Z.9.$.G r r v [ 9.n.B.} ' } ] #.4.#.V D +.$.#.w.2.` D ..2.#.2.a.Z.5.2.] V ",
"[ _ [ B M n V F #.Y.V.5.V.Z.J.s.$.L +.5.y.4.#.2.9.A.H.F.f.a.w.%.w.0.U f P $.5...` ` J b p b b L L J ` #.` N v N -.A.A.x.8.8.9.9.8.,.| ( } _ ' | 2.n.A.7.1.z.z.8.| v n G | 2.5.4.4.| _ V / } ( F | 6.7.e.A.9.9.B.B.H.B.B.e.e.e.e.p.p.0.i.%.$. .m s L ] ..^ ^ { ^ n v F O.] V _ _ | 2.O.O.' B v m ] O.2._ r 7 h v h q g g r v N D P | #._ D { 9.Z.d.5.%.J H ` 2.e.S.L.|.XX_.Z.4.L b D ] 5.....X...m y _ #.t.*.+.&.f.g.f.Z.s.r.U b u v / x.F.S./ n ] 4.4.3.#._ ` ` ` ] ] ....$.3.#.#.3.B.F.B.9.e.2._ [ [ B v M F G +.Y.Z.5.V.Z.G.s.@.L #.5.e.7...>.7.B._.F.V.B.w.5.w.q.U f P $.5. .] ` S s a a b D J F ] O.` N k M | b.A.c.8.8.8.y.8.1.| ( } _ [ | 2.x.B.8.6.x.8.8.| z v G O.9.B.4.t.u.4.` ' u.e.B.e.9.a.S.n.8._ z e B F F [ / 7.A.A.7.{ ;.2.[ v r 0 a G _ _ O.O.} 1.n.D./.m.n.C.8.8.8.4.7.' V v u a v a v z c g h 6 h g g e z z N ! [ } | [ _ #.y.B.5.o.I S ` ..e.A.F.|.|._.G.5.D b S  .3.#...X...S y L 2.5.*.+.0.g.s.f.f.g.i.` d y v ^ x./.C./ n | 4.4.4...` ` X.` ] ` ....$.3...#.3.a.F.B.9.B.2.",
"} 2.| z e v F ,.B.Z.G.Z.s.G.Y.G.s.s.V.Y._.F.9.6.3.B.].{.L.5. .+.$.$.@.+...` 3.w.+.] s s 0 s m S n p ` t.#.V v B 7.A.x.>.} ,.1.,.,.,.| ,.F z B 7.C.S.A.Q.Q.W.9.1.} B v v F | #.| 2.2.#.} / ( / [ ` _ { 9.B.e.#._ 2.F.b.3.b.b.e.e.w.a.f.s.i.%.` f p b D N ^ ^ ^ ! V / } | ,.O.| L _ | ' G F n u L 9.Z.9.G v ^ ;.| N q r h h v V D #.2.] m ` ] >.V.Z.d.I.d.%.4.4.7.2.5._.1X@X_.5.m a ] w.3._ X.3.D s m ` #.5.t.%.*.k.h.I.f.f.5.J p v N [ A.A.A.4._ ] | #...] D ` X.`  .] X...3.5.#...#.3.e.B.A.x.;.} ,.| h e z F ,.B.F.G.Z.s.G.Y.G.s.f.B.Y._.F.e.6.7.B.{.'.L.3. .+.+.$.$.+...` 5.w.@.X.s s t s S m d p ` t...V y N 6.A.x.;.[ O.,.O.2.O.' ,.B v B 4.F.A.A.Q./.W.x.1.' M u a G ] #.#.5.C.Z.B.5.d.a.5.3.$.9.7.9.9.,.8.u.D.n.n.C.4.A._.F.7.! _ ] ] m w a V ` O.y.4.O.8.8.8.n.M.8.n.C.m.n.9.9.4._ n m v r v v y n B z c c x F x z z v B N ! ^ ] 2.4.6.A.C.s.Z.a.$.2.7.2.2.9._.3X@X_.9.m a ] e.$._ X...P s N _ #.5.i.&.*.p.f.I.h.f.5.J a v N [ A.D.n.4.` ` | #.#.` D ` { `  .]  . .3.5.$...#.3.9.B.B.9.-.",
"[ ,.2.( v B V ;.9.B.V.J.U.G.s.Z.a.Z._.].oX].F.B.A.B._.|.|.s.$.+.U T +. .5.$.r.r.e.3.S S K  .5.@.J H %.i. .S b ` x.A.6.8.B.B.6.] ` | 4.8.O.| / O.9.A.A.A.F.D.x.z.,.F n n V _ _ [ | 2.4.| _ / _ ' ` [ 2.9.y.9.9.B.a.e.e.7.V.~.G.e.$.w.T.I.g.%.L m s s v l M ^ -.| _ -.n.7.6.2.6.2.t.u.4.' G G G o.a.a.#.O.5._.|.~.>.k w h h k V _ 2.s.4.P _ ] 3.F.`.E.OXI.a.B.F.H.B.e.a.F.Z.y.O.V D 3.s.w.5...D b v D ' 2.t.&.*.%.i.h.h.h.h.5.L m D _ 9.W.x.S./.C.#.] L ` ^ D ` ] ` X.X...#.3.5.5.e.e.2.4.A.F.A.| ( 1.2.[ v B ! ;.e.b.Z.H.U.G.V.G.a.Z._.{.@X'.F.B.B.B._.|.].s.$.+.] T  . .5.$.r.e.e.q.S S L  .&.@.J J %.i. .m v ` 9.A.6.6.n.C.2.[ _ | 7.9.O.| _ | 9.b.A.A.W.D.n.8.,.F n v n V _ [ O.s.L.Y.y.5.t.%.+. .$.e.A.9.7.D._.[./.'.W.D./.W.z.>.| 2.n.y.` m ` %.%.t.a.5.4.m.m.n.n.n.z.z.M.D.S.n.x.x.6.] V v _ { V v ' ,.F x x c x B B V N V V [ | 2.3.3.9.B.L.K.Y.K.y.a.F.F.V.e.B.S.V.9.#.V D 3.s.5.5...D N v S { 2.5.%.@.&.p.I.h.I.h.&.J m D _ 8.W.n.S./.C.#.] _ ` L D ` X.` X.X.#.#.5.5.4.e.e.2.3.B.F.A.;.",
"6.| 2.{ Q ! B _ 2.2._ ..e.V.T.H.Z.F.V.F._.F.A.Q._.F.B.A.B.2.#.3.&.&.$.3.9.s.V.Z.H.w.K R 5.i.a.K.t.&.w.w.] D _ | 2.| ] 8.S.F.9.V B 2.2.y.C.F.B.9.8.x.7.,.<.9.8.9.4.[ O.' ] | _ ] #.2.#.2._ _ I I ] 3.B.Z.y.9.4.s.b.3.>.b.~.XXH.9.9.V.f.f.K.4.J G m a b l j W :.;.-.,.n.B..._ _ G | y.K.C.y.5.B.L.C.4.4.s.H.|.|.|.~.:.! ! Q M _ 9.Z.V.4.L y N 3._.Y.Z.I.h.d.d.Y.Y.H.e.w.6.#.#.` ] +...3.V.s.3.D y y ` O.#.4.%.+.&.k.f.K.I.h.p.$.+.| { B.Q.n.Q.'.y.J O.7.X.X.^ D ` ] `  .3.$.3.3.2.3.5.#.>.x.Q.{.Q.6.| 2.[ B / N _ 2.2.L ] s.V.Y.J.V.F.Z.F._./.B.F._.F.A.F.B.2.#.$.&.5.@.3.e.a.V.V.H.5.P U 5.i.i.Y.5.%.i.w.] P L | >.| { 7.S.F.5.V v 2.2.9.C.F.A.9.7.x.l.2.1.8.8.9.8./ O.' } O.] ] O.9.C.V.$.] +.+. .@.5.5.e.n.n.9.A.L.P.M.8.8.1.2.S.B.6.B.F.B.t.` #.9.a.y.5.y.a.S.A.M.M.D.A.D.Q.D.M.S.A.9.2.] _ [ | ..V u _ O.[ ) ) F B x Q _ _ [ ] #.4...` [ 3.V.d.y.f.f.a.C.F.Y.Z.e.w.3.#.#.' ] ....3.V.s.3.S y a ` X.2.4.%.#.&.&.g.h.K.h.d.&.@.| { A.Q.n.F.'.y.L ..3.X.` ^ D ` ] `  .3.2.$.5.#.3.9.2.>.x.Q.{.Q.",
"D.9.n.2.[ ..` | a.V.4.| 2.2.5.Z.7.;.B.~.H.z.7.W.~.x.9.9.9.O.| 5.G.e.X.` _ I 5.D.Y.C.] ] e.s.C.`.G.V.s.%.] L _ _ V / 2.x.7.7.| [ <.x.x.z.A.Q.Q.m.1.n.x.} ,.9.y.n.4.| #.#.5.9.2.2.2.#.O.| #.]  .%.w.V.a.d.u.a.y.u.4.4.4.B.x.9.6.>.G.`.s.i.i.&.#.I u m ` n v ( | :.;.;.8.2.L m v | C./.'.'.Y.'.]._.B.5.H.@X'.oX<X_.F.F.S.2.^ v m 4.V.B.s.L d b  .`.].Z.G.G.f.Z.f.V.a.3.3.3.$.#.` 5.a.+.w.f.s.w.+.L S X.3.$.&.&.+.%.&.t.g.K.f.g.a.i.2.#.F._.W.[.|.a.L | V.Z.$.` ^ ^ X.3.3.w.w.7.e.#...6.2.2.1.W.%X|.S.9.n.2.[ | ` | a.B.5...2.3.4.B.7.| A.F.~.9.7.F.Q.x.9.9.7.O.] w.Z.r.] ' _ _ 5.Z.L.C.] U e.s.V.].Z.f.a.&.o.J F _ B V :.b.9.8.-.[ 6.c.z.8.A./.Q.A.,.x.x.| ,.9.n.A.4.| #.| 4.5.4.4.2.7.5.4...P ` K R $.+.P n } 2.O.C./.Q.A.8.;.] | ] { 4.i.Z.C.%.| B.Z.L.C.8.y.y.y.B.Z.C._.F.F.Q.~./._.F.b.2.m y _ a.9.L L y.B.2.6.8.6.;./ B { 6.| ;.9.B.#.` _ ..Z.H.V.Z.G.s.f.s.s.a.3.5.4.$.+.] 3.a.+.0.f.s.w.+.D m ..2.@.&.%.+.%.&.5.d.K.h.a.s.w.3.#.F.[.F.[.{.a.L ] V.Z.#.` ^ P ] 3.5.w.w.7.e.2...6.6.2.6.D.%X|.",
"A.,.` N ] #...3.e.i.s.i.5.#._ _ >.:.{ z.Q.F.Q._.B.9.6.| V _ 5.s.V.3.] F 9 7 F C.oXE.V.e.J.B.4.s.e.a.a.w.%.` P V r M >.A.A.A.M.z.:.-.=.-.8.x.m.D.m.8.;.[ 7.n.9.y.8.O.2.| ] ..4.9.6.O.O.4.y.B.s.V.s.V.a.d.t.u.C.C.n.7.,./ N B { A.~.H.a.5.t.d.t.] I #.2.#.O.| } } 8.A.B.6.] [ [ 9.Q._.]._.C.y.L.T.Y.Z.H.<X;X|.|.'.F.F.'.B.] m m ] t.B.i.t.U ` s.@X#X.XH.G.U.J.&.e.Z.9...4.9.w.@.$.j.f.r.G.f.e.+.S S ..5.5.%.%.%.%.&.t.t.t.f.K.I.Z.s.9.{.2X4X1X@XF.a.9.3.3.B.a.w.$.] 3.V.Z.Z.V.B.9.3.3.A.8.,.n.Q._.A.,.' V ] #...3.e.i.a.a.3.2._ _ 2.:.[ x.Q.Q.Q._.A.9.4.} F [ 5.B.V.5.] L 9 7 F C.oX'.C.i.H.s.4.s.e.s.i.i.#._ ` V r M >.A.A.x.A.z.-.-.=.-.8.z.m.W.n.z.:.[ 6.y.9.y.4.O.2.| ] ] 4.a.6.] ] 5.5.3.] K R &.r.$.I L 4.B.D.D.A.W.x.} | #.[ V 5.L.B.9.#.#.C.a.#.%.u.5.O.#.9.C.B.F.B.B.A._.F.S.V.B...b r ` 9.9.5.9.y.y.4.2.} } [ [ _ ;.[ _ O.7.i.w.O.` 5.Y.R.T.G.f.I.I.5.t.Z.9...5.e.5.$.$.f.f.p.G.f.e.+.S D @.5.&.%.%.%.%.&.t.t.i.f.I.G.Z.s.9.'.2X4X2X<XF.a.9.3.&.a.V.5.3. .#.V.Z.Z.V.e.9.3.7.B.8.<.n.Q._.",
"D.4._ ] 3.#.] #.3.5.a.C.a._ V B N 6.z.b.~.~.Q.S.A.n.6._ n v ] 4.4.5.' a u u N B.<X|.F.x.7.{ #.e.w.e.5.i.%.L F [ B N -.2.x.x.6.6.,.-.! N ;.8.6.9.9.7.' _ | n.F.9.6.6.| ..3.9.u.4.2.3.9.a.C.C.9.9.a.i.y.5.O.,.y.Q.S.x.6.,.[ 2.z.H._.`.G.i.f.Z.a.#.' O.%.| { { / / -.A.C.2.4.e.6.8.9.A.B._._.L.E.F.a.9.5.B.{.<X4X<X|._.'.L.a.4.| ] 5.a.s.5.5.s.Z..X1X#XU.U.I.f.q.3.a.5.#.9.i.2.e.s.f.s.Z.U.f.w.w.+.+.$.p.i.t.i.t.5.t.t.t.i.J.R.I.Z.9.V.].4X6X7X#XI.Z.i.5.5.Z.Z.B.Z.e.5.V.V.e.Z.B.4.9.A.C.D.Q./.Q.Q.D.4._ ] 3.#.] #.@.5.i.B.a.` ^ B N 6.z.B.~.Q.W.F.B.x.6._ v v ] 4.5.4.` a u u G C.<X|.Q.x.7.{ 2.e.e.i.5.i.$._ V [ B M | 2.b.z.2.>.:.;.! M ;.z.7.9.y.4._ _ O.B.S.9.4.6.| ] 2.9.u.2.| | #.4.4.#.+.] T X.+.] a m 5._.F.m._.Q.S.,.[ [ V L 3.7.O.4.' V 6.a.| 6.C.y.4.4.9.9.9.9.4.V.F.x.6.b.B.9.] a s #.s.a.a.i.5.5.2.L v M M M B ] ' L ] 2.e.5.5.y.e.J.XXXXY.U.G.f.$.$.a.5...7.i.2.e.s.f.s.Z.T.f.r.i.+.+.$.a.a.t.i.i.5.t.i.i.i.I.R.T.Z.9.V.{.2X9X3X@XI.G.a.4.5.V.Z.V.Z.a.4.Z.V.e.S.V.9.9.C.C.A.Q./.Q.Q.",
"C.n.a.#.3.5.%.i.V.].+XZ.#.D [ ! ! x.Q.S._.W.F.A.#.8.a.' L v L 9.9.4.L F a m 2.H./._._.[.x.| 7.3.5.9.+.` ] #.6.2.2.;.[ ;.6.2.! ^ | [ ;.6.2.x.7.O.2.4.%.4.a.C.L.S.7.] [ | 9.B.O.} 6.B.a.B.F.L.F.F.F.a.y.t.O.| 9.D.A.z.a.9.a.Y.S.Z.H.H.Z.g.g.a.5.O.| O.i.4.] | -.[ B B | ] 7.B.9.7.7.n.n.F.|.oX'.y.,.2.9.A.A._.&X|.Y.B.C.C.C.V.9. .+.5.w.5.a.'.]..X#X#X.XZ.$.5.b.>.#.#...] #.2.5.5.s.Z.J.G.G.h.G.p.w.%.y.s.d.y.&.5.t.%.%.%.5.%.5.i.5._.Y.Y.1X3X'.5.a.f.Z.f.5.] 2.s.V.5.5.` | e.i.9.B.{._./.[.F.7.A.C.B.a.#.$.4.5.w.Z.].@XF...D [ V ! x.W.F.~.Q.F.A.2.7.a.' L v L e.5.4._ F u m ,.L.~.~._.[.x.{ 7.3.3.5.#.` ] 2.2.2.2.-.[ -.7.2.B ! { { >.6.2.z.7.| 2.4.#.5.y.C.L.C.6.| _ | 7.9.' F O.7.2.6.#.#.5.i.+.T U G m o.4.Z._.F.}.|._.C.| D V J ] | O.] 0 u F 4.O.2.a.y.9.4.4.2.4.9.2.b.A.9.7.B.9.4.` d m $.i.p.a.5.i.9.2._ L N v v m V F n m | 5.&.t.Z.Y.`.#X@X.XZ.$.w.s.5.#.#...] #.2.5.w.f.Z.J.G.G.f.I.i.w.5.t.s.d.i.%.5.t.%.$.%.5.%.9.w.5.Y._.H.2X3X].5.i.s.Z.Z.w.] $.b.s.4.5.] ..w.9.3.C._._./.[.F.7.A.",
"C.B.y.2.$.d.V.Z.Y.T.T.Y.B.2.2.9.b.^.S.b.Q.D.S.B.| | 4.] L O.4.B.i._ V V _ y.W.[.[.~.b.A.b.7.5.$.$.+.K L +.6.| [ ;.:.,.} -.] m v N v ] 2.O.2.| ] O.5.t.i.a.9.B.C.7.| ! [ 1.O./ O.4.4.9.C.F.F.F.F.C.L.Z.s.#.| 7.x.c.b.S.F.L.C.%.5.a.e.i.a.f.a.| ` 2.4.5.#.| 3.A.A.;.! ^ } O.y.A.A.n.A.D./.'.}._.A.>.| b.'.{._.~.B.5.4.#.t.a.i.t.i.5.&.5.5.#.i._.].T.T.s.X.D 3.G.r.3.$.` [ | [ | B.`.Z.3.s.R.R.h.+.+.@.w.s.B.5...` D m ] 5.5.X. .e.Z.`.H.s.'.@XZ.5.%.t.5.5.#._ ] 2.3.2.2.] ' 9.y.| O.F.F././.~.Q.F.B.B.a.2.@.C.Z.Z.I.`.Y._.s.2.2.7.b.Q.A.b.Q.S.F.x.,.O.5.] L O.4.B.i./ m V [ x.F.[.[.~.b.A.b.7.4.$.3.+.L L #.3.] ( -.,.,.} | { N v v v ` 2.| 2.| ] O.4.t.i.a.9.B.F.7.[ ! _ ,.) n / 2.O.] ,.#.#.y.i.+.+.5.G.G.G.H._.|.|.'.Q.S.A.7.;._ m ] #.#.] v v V ] | _ | | | ] 6.2.| | #.2.| B.F.A.a.] G m ] &.i.a.i.i.a.e.5.+._ m a n V J L m S  .$.5.#.5.K.T.T.T.s.] ^ 0.G.r.3.2.` [ | [ | B.`.G.3.a.R.T.I.+. .@.i.s.V.5...` G V ' &.3.X. .e.Z.`.H.s.'.|.F.5.%.t.5.2.#.` ] 2.2.5.$.] ' 7.a.| ,.F.F./._./.F.F.",
"y.4._ J L 4.5.f.Z.C.s.`.XXe.>.x.b.W.!.S.F.F._.F.4.| #.3.O.5.5.4.2.[ ' 9.B.}.{._.&X[.S.S.~.V.V.Z.V.@.] 2.#.6.>.^ [ ;.! M ^ Q v a r y b ] | | _ ` 2.5.d.a.4.#.5.B.8.[ v v F / ' 8.B.y.5.n.B.A.B.A.C.C.y.O.L F [ <.c.A.F.Q.L.y.' ` 5.e.5.a.K.B.2.#.4.$.] V D ! ;.9.2.6.7.#.2.A.D./.D.D.F././.L./.S.7.| x.{.:X'.9.2.#.o.I ] i.i.%.&.p.s.f.s.#.] s.T.f.r...] w.G.H.j.e.4.` [ 2.[ >._.].Z.#.$.R.3XOX@.L @.f.f.$.m r a v b S 5.a.w.3.Y.].H.{.Z.Z.V.4.#.o.+.] ] | P L | #.2.4.4.| ] 2.7.| ,.A.F.F./._.A.a.5._ J L %.5.s.G.Z.d.T.oXa.>.x.b.W.~.S.S.F._.Y.4.] #.2.| 5.4.5.6.' ' 9.A.|.{.[.-X[.F.A.~.V.f.Z.s.$.U 2.#.6.2._ [ -.! M Q B v v r t b ` ..] _ P 4.5.B.i.4.2.7.a.8.[ h u B F F u.n.8.O.2.2...#.4.2.i.G.5.&.3.5.V.'.|.[.F.6.9.9.2.[ ^ | _ F V N a ' #.] _ [ _ ! ^ ;.] ! n | n.4.9.7.O.| ` J ] t.g.g.i.@.&.p.w.5.#.L m n a m | ` J U +.%.5.#._ i.I.f.a.#.X.r.Z.S.b.e.3.` ` 2.` >._.{.V.#.$. X3XR.@.J @.f.V.#.m y a v d G 5.e.w.3.U.].H._.F.Z.C.4.#.#.+.] ] | _ L | #.2.6.4.| ] 2.8.| ,.A.F.F._.Q.Z.",
"B.5.L J ] 5.t.d.s.i.a.F.Y.H.B.b.B.b.F.F._.|.|.Y.V.5.%.s.s.5.5.#.y.C.Z._./.H.F._.|._.Z.C.F.F.`.].f.+.X...| ..` V v z M M V _ V m a a m ` ` +.5.w.5.$.4.9.3.| #.n.B.O./ n n B _ 1.B.y.| 2.4.B.B.B.y.t.o.P V ^ { { ,.x.n.Z.Y.Y.a.#.5.t.%.4.y.$.2.9.4.#.L n v N { >.,.9.8.| ,.n.D./.[.(./.:XoXL.n.2.2.6.b.B.e.2.+.#.%.] G I &.t.#.+.%.a.Z.Z.B.3.e.U.w.` ....S.~.XXXXXX@XY.9.2.| e.|.0X0X].{.].Z.f.5.+.&.s.5...b , 0 m _ X.H.G.e.s.`..XF.Z.6.9.4.] 2.2.] N V _ _ V F _ ;.8.2.2.4.y.9.O.| B.F.F./.B.B.B.5.L J o.5.5.s.a.a.a.Z.Y.H.A.e.b.b.S.S._.|.|.H.s.4.5.f.d.5.5.#.y.C.Z._.F.~.Q.H.{._.V.Z.F.Z.].].f. .X. ...| ` B v j x M B D m N a a m U ` #.5.5.5.$.5.e.4.| #.y.n.O.F z u z F O.9.2.F 2.9.7.2.2.#.t.i.V ] +...5.Y.{.{.~.b.c.x.8.2.| [ V ! m m G 4.y.2.7.2.` _ } 2.9.,.} 1.x.7.[ V L F V L ] %.i.g.t.@.@.a.r.5.| _ F n a G ` L J P  .w.B.y.#.y.Y.w.X.X.3.S.`.XXXX@X@XY.9.2.-.e.|.0X0X].`.`.Z.g.5.+.0.a.5...b , 0 m _ | H.H.e.s.{.XXZ.H.3.9.8.| 2.#.] N V _ ^ ! F / ,.8.2.2.4.y.8.O.| n.D.F.Q.F.B.",
"y.y.C.5.d.H.Z.V.4.] m ..H.B.3...] 7.B.B.V._.F.i.s.Z.G.G.K.s.y.f.Y.Z.L.}.Q.6.6.4.e.F.E.Y.Z.U.].G.+...$.$.] ` N k e v ! ! } 6._ v D D X. ...$.w.5.i.V.H.Z.#.` [ ] 9.4.] B z n V | y.B.8.' | 9.F.Z.d.%.o.] ] 2.7._ / 6.9.4.y.Z.d.V.5.5.i.y.] _ O.2.3.2.L s 0 v [ 6.9.8.| _ F ,.8.D.(.F.C.P.D.| B v [ 7.x.| _ #.9.2.O.#.] o.&.t.C.i.&.4.i.s._.@XB.s.w.K D P e.S.`.XX1X2XV.#._ [ F.<XyXtXyX0X@Xa.a.V.a.a.&.s.Y.4.N P 2.5.e.H.Z.w.e.a.a.V.a.2.{ [ ^ { } | ] ! v v ;.6.7.9.,.N [ 4.y.y.C.4.7.F.&X|._.F.9.y.C.9.d.L.I.V.5.` m O.Y.a.2.2...7.S.B.V.'.Z.a.s.Z.Z.G.G.d.i.V.Y.Z.L.{.F.6.4.4.e.F._.Y.Z.T.].G.+...5.$.] ` V y 9 z ! V } 6._ b V S ]  .#.@.e.9.i.V.F.Z.#.` [ ] 4.4.| n u u n / 2.7.,.[ >.3.9.9.4.2.` L $.w.e.B.B.Q.{.W.Q.A.F.Q.A.2._ a v ] #.2.#.4.` V ..| 2.4.7.S.A.[ ,.,.7.,.! _ _ G I +.+. .U ] #.f.V.i.4.$.O.P n m G _ ] +. .+.5.y.Z._.s.a.r.P ^ ^ r.S.`.XX1X#XB.2._ [ F.<XyXtXyXtX<XB.i.V.a.a.&.s.Y.4.m _ 3.3.a.G.G.$.e.s.e.V.B.>.] _ ! ] | | ] V v M | 7.8.9.O.B _ 9.y.y.C.4.9.S.&X|./.F.",
"5.#.2.#.5.V.G.B.2.L s | C.4.#.] ] w.F.F.f.o. .p.U.U.G.V.i.i.f.Z.a.C.@X|.a.5.2.7.V.Y.'.Y._.T._.Y.V.0.w.w.>.X.$.>._ v z n | } m v m m  .+.&.p.@.i.f.f.s.5.] ` [ ` O.' F ' ' O.4.n.S.V.4.2.3.9.B.V.C.y.4.#.%.a.9.] _ ,.B.y.,.a.L.C.#.t.u.4.' / 2.y.2.#.4.o.L F ,.n.m.4.) / _ G / 9.m.8.8.8.O.[ [ | x._.Q.9.2.7.e.2.#.2.5.9.e.9.Z.H.Z.B.V.V.F.H.V.i.w.5.5.e.B.H.{.XX.X{.a.#.,.y._.2X2X4X6XtX6X_.Z.Z.V.K.Y.`.R.5.] #.5.5.a.a.V.s.s.w.%.@.| N h k v ! 7.b.2.] V B ,.y.B.n._ F 4.F.9.4.C.8.| 8.B.B.'.F.4.#.2.#.3.B.H.B.2.L s | V.4...] ] 5.H.Z.V.+.] i.I.T.h.Z.i.i.g.Z.s.C.oX].a.9.2.5.C.Y.`.Y._.`.`.Y.b.e.w.w.$.X.#...[ v u z | [ n n m m ] +.&.a.@.i.s.s.s.5.] ] _ ' O.[ n _ F ] u.u.4.3.2.;.>.2.2.3.O.[ a S e.s.3.#.9.A.F.W.[.W.A.W.A.z.[ a r  .5.#.] #.m a P 2.2.,.7.n.,.! B ! [ ) M B _ [ ] #.I J L o.+.i.i.5.#.2.' V G _ L P #.4.5.5.e.a.B.Z.a.t.5.w.5.e.b.~..XXX].].B.,.#.9.'.4X2X6X6XtX6X_.F.Z.f.K.L.T.T.4.] $.4.5.a.a.s.a.r.e.2.$...N h k M ! l.x.2.{ V N O.n.n.B._ F 2.D.y.4.C.8.| 8.A.V.'.F.",
"V.2.J V #.B.a.#._ L m ..5.$.2.` ` a.J.Z.%.] %.G.U.f.I.p.i.i.s.B.a.a.K.Z.'.Y.C.a.F.]._.{.F.F.F.F.7.{ >.$.q.3.r.b.O.u r z M F V n a b V  .+.] L +.+. .w...P _ ] ' _ m n F O.u.u.F.Q.V.B.e.9.5.9.e.4.5.t.y.C.a.i.B.9.y.C._.F.Z.C.i.%.%.I z n B } ,.2.5.y.C.4.4.n.D.u.;.| 1./ c B 1.u.y.n.n.n.y.n.C.F.A.A.~.F.F.b.7.7.7.7.a.B.9.B.F.H.Z.{.|.F.e.9.4.2.a.J.H.V.S.`.<X].V.y.5.B.'.<X;X{.{.|.'.|._.].{.].].V.i.i.4.` G ] 3.5...` ..w.5.5.a.#.v r h j ! 6.:._ [ / ' 4.B.y.4.} 4.D.4.| _ 2.n._ _ V F 6.B.C.$.J L #.B.a.#.P V m ..5.3.2.` ] a.Y.Z.&.] *.G.U.h.I.s.i.i.s.d.a.B.Z.K.'.L.B.B.K.'.'.{.F.V.F.S.e.^ >.$.3.$.e.B...r w z n ! V v p n D ] +. .K X... .w.@.P L ` ' L m v F o.1.%.y.a.9.3.2.>.| { { F n 8 s  .$...` ' 8._.[.Q.F.m.x.x.l.| V D ..#.] ..5.2.` 2.9.#.N v ! V x x x x j h v v ! m V V I #.] ] o.2.#.#.6.,._ _ / F _ 6.e.e.e.F.F.C.i.9.5.%.a.H.H.s.S.{.-X].V.i.4.B.'.@X;X{.'.{.'.|._.].{.].].Z.i.s.4._ F ] 3.7.#.X...w.3.5.i.#.h e k k ! 6.2.[ [ ^ [ 9.a.y.4.} 4.S.5.O.F 2.n._ _ N ^ 2.B.",
"L.#.b a V | _ N v v a _ 3.3.#.] $.s.s.s.s.f.I.I.d.s.I.U.i.@.w.s.K.].2X@XT.F.H.S._.[.z.>.>.| { ` { X.#.$.$.3...S r 8 u v n / V v r u d m D K L ] +.&.I.&.` P ] ' F N F F ' 2.5.a.F.Z.Z.i.9.5.5.7.4.9.y.F.F.y.5.a.B.F.F.}.Z.2.] ] ] #._ G h n } 4.y.a.C.C.Z.8.8.(.M.;.u.u.O.F F 8.A.A.C.9.5.4.,.4.7.9.S.H._.F.Y.F.B.6.O.A.F.D.C.L.F.B.{.XX'.Z.s.9.5.i.Z.H.B.9.3.7.3.| ..$.a.'.oXoXXX&X-X}.XX{.|.3X@X'.Z.y.C.V.4.O.#.$.O.D b ..s.e.Z.K.` z q m [ | 7.2.[ m G | a.C.a.4.a._.B.4.2.] 2.F.7.[ N B ] V.F.#.n v L ] [ v v v a _ 5.3.....@.s.a.f.f.f.I.G.f.g.G.I.i.$.w.B.G.].<XXXT.F.F.D./.[.z.:.>.;.[ ` ^ X.#.w.q.3.+.S 0 8 r u n / V v 0 u m m L L K `  .0.G.5.` I ] ` V B V n ' O.o.4.B.V.5.2...^ S S [ [ y y m K ] ] O.2.S./.W.n.<.1.1.[ ! N L ] #.#.5.3.#.] _ ` ] ^ n ! V B h q 5 3 g r M v v n a ` 9.4.2.4.4.4.2.2.4.O._ / _ | 4.9.e.9.Z._.L.a.a.5.4.a.Z.H.B.9.3.9.3.| ..$.a.'.oX;X&X&X-X|.|.{.&X2XoX].F.a.f.V.4.#.#.2.#.D m ..f.a.Z.Z._ v w N _ -.7.>.[ m G ] y.C.a.4.a._.C.4.2.} 2.C.9._ m N | S.",
"y.] m V ] #.| ` V b m v ] #.a.G.f.a.s.G.T.T.T.G.I.T.U.Z.i.4.5.2.2.Z.F.B.F._.^.!.[.x.M q W ! k l ^ ` X.3.$.X.D S i 0 n z v _ _ V v u a u y y ] 0.a.g.h.I.s.i.$.] / n n / ' #.4.9.B.a.B.B.a.e.5.2.` [ 9.C.y.y.a.C.Z.F.Q./.m.| _ ] #.5.u.F u / 8.9.y.u.d.C.u.8.8.D.D.n.8.8.O.[ / ,.B.B.4.O.9.u.O._ ,.B.A.H.Z.B._.Y.,.[ 2.F./.F.F.}.{.F.F._._.B.5.5.3.5.6.4...` D V L ..] | 5.F._.|.|.}.[.<X-X!.A._._.Y.Z.K.I.5.F ` 9.9._ s X.w.e.H.d.5.L u r [ 2.7.9.2./ F ] $.5.C.Z.C.Z.B.4.u.4.| y.9.O._ ] 9.V.F.y.] m G ] ;.| ` L v m v ] #.a.G.V.s.f.Z.T.T.T.I.G.T.U.V.t.5.5.$.6.V.H.V.F._.Q.F.}.x.l w N ! v v ^ ^ X.3.$.X.S m 0 0 n a v [ _ n a r u a t y ] w.a.g.f.I.d.i.%.] F v v B F O.O.O.%.2.| #.` y w D D m D S S D L ` ' [ } 8.x.6.[ ( B h v v a m 2.5.$.X.+.] ] | >.;.| } V j e 5 = 3 g g h k z r 9 n #.,.| | #.9.B.#.| } / _ [ } O.B.F.a.a.F.F.y.9.4.3.5.2.7.#.[ D m _ ..` O.t.Z._.|.|.}.[.-X<XQ.B.~._.Y.Z.Z.I.5.G _ 5.9.` v ] 5.e.J.f.5.P r y [ 2.4.9.2.^ L ] %.9.s.Z.C.Z.B.4.y.4.O.a.x.| _ ' 9.V.F.",
"5.V.5.5.y.2.O.#._ m v _ | 2.Z..XT.f.V.`.G.Z.Y.T.Y.F.s.i...{ #.D a V | x.[.-X-X*X[.,.g z M k q a _  .+. .] J d L P d a v k { >.N r r v y y y ` $.@. .&.f.U.K.5.| _ F / | 4.9.8.4.4.4.V.C.9.e.9.2.] ;.8.B.9.9.Z.L.F.A.A.x.A.9.$.4.a.5...V B ;.x.7.4.5.d.a.#.4.n.D./.M.M.C.C.2.| 9.C.7.4.4.9.4.4.` V 6.B.9.a.5.5.F.Z.A.D.D././.'.oXoXY.d.d.a.u.i.B.a.9.7.#.L L ] m m ] ` ] 5.F.Y.L.F.W.Q.Q.}.).D.L.'.'.y.4.%.n u L 2.2.V D _ ` ..V.B.2.L ` _ v J | ;...2.3.%.a.Z.Z.t.2.] O.L | 9.B.B.6.{ D >.~.|.V.y.d.5.4.i.2.| 2._ v m _ | 3.F.`.T.V.f.`.G.Z.Y.T.T.F.s.a.#.] 2.V k S { 9.=X&X-X&X%X:.j k M v 7 a X.X.#... .S d J P s a a u | 2.v r 0 s r r y ` 3.@. .q.G.U.K.5.] L V V | ,.4.2.O.' ] 4.2.V b D D D L D Z J +.$.] J r 7 M [ / ( 1.<.[ h 7 v L #.w.4.#.K ^ D ` ] { [ [ _ M z c q g x e 5 e z e e r z v B F F | 4.6.,.;.[ ;.;.2.9.C.F.V.t.u.y.5.y.a.a.9.4.#.L L ] m m | ` | 9.L.Y.F.F.Q.Q.Q.}./.D.L.'.'.y.%.#.m u L 2.#.V J _ ` +.B.s.$.L ' _ n G | | ..2.4.4.a.Z.Z.e.$.] ,.L | 7.B.B.6.] V .._.|.V.",
"Z._.a.4.u.t.9.B.9.| [ 7.F.a.e.T.XXY.G.s.4.B.Y.F.Z.C.F.A.>.D v r r v k { =X4X&X^.c.-.M B N y r m ..#.$...L m d m ` ] L L ..7.#.v i a a m v b ` X.X.P  .0.f.Z.t.#.| O.9.7.8.9.9.4.4.y.B.s.V.V.e.x.9.6.| ,.9.;.6.x.2.,.6.,.7.a.5.5.Y.Z.4.6.7.x.F.A.9.a.Z.B.a.4.9.W.).M.D.n.y.9.n.C.B.B.F.Z.5.$.%._ m ] >.a.a.5.y.F././.D./.'./.OX'.K.Z.u.y.y.a.s.C.9.] V _ $.] V V _ m _ a.C.C.F.Q.Q.A.A.A.[.[.F.L.OX@XY.t.L 0 p F ] 9.9.4.#.P _ 5.t.C.Y.K.C.#.2.2.2.3.4.9.5.a.Z.g.$.5.7.] #.B.F.F.e.e.9.7.F.{._.B.F.Y.y.$.9.y.9.B.9.| [ 7.F.e.e.T..XT.Z.s.3.V.Y.F.Z.B.F.B.#.V v r r l l ;.*XwX-XQ.z.-.M N v u w V ..X.$...L m d m ` ] L _ O.4.2.v 0 a v m a b P ] ] P U i.h.f.y.#.] O.8.6.4.8.4.,.O.4.C.a.5.$.$.#.L L X.P X.&.5.$._ m n F | 2.B.A.A.A.| v v L 2.a.#.` D b m ` >..._ B N M z x z B N z c j B x u e 4 z M v / } } -.;.} ;.,.1.6.y.B.y.i.t.y.y.y.a.C.9.] L _ #.| V D L m _ a.a.C.F./.Q.A.A.A.}.[.P.L.oXoXE.t.L i p F ' 9.9.4.#.P _ 4.9.C.L.K.C.#.2.2.6.5.5.5.5.a.Z.d.#.9.4.] O.Z.F.Z.a.9.e.7.F.{.H.B.",
"Y.a.4.#.5.C.a.8.4.7.7.9.F.e.9.Z.J.V.Z.B.$.9.Z.a.9.B.C.| N h h r h w j V [ 6.S.x.! M h g V _ ` $.y.+.` ` J m d U +.+.o.4.V.e.] _ L V a y y D D S L P D +.5.t.5.%.O.O.4.W.x.6.,.O.4.C.y.$.9.B.B.S.B.4.F / <.<.,.;.[ [ :.8.9.y.t.%.V.Z.9.9.b.S.~.F.B.Z.Y.Z.F.C.x.8.n.8.;.2.n.C.C.C.9.9.L.V.t.u.a.y.#.| #.a.F._.A.A.F.(.Q.*X}.F./.D.a.d.y.t.u.5.2.,.2._ _ 4.6.$.` _ 9.9.] 3.a.F.}.'.S.S.W.D./.(.[.}.oXOX].Z.o.d 0 n | 2.| 7.] ] #.3.#.a.V.u.y.t.| L | 6...] e.H.H.i.4.9.4.F L 9.B.B.B.B.B.9.S.S.V.F.L.s.4.#.9.d.y.4.4.4.4.9.S.e.5.Z.H.V.G.V.2.5.Z.a.y.n.B.;.B h h h w w k W ^ 7.A.x./ B h r B _ ` $.9.#.` P F m d U +.o.| 5.V.e.] _ L V a t y D ` S L L J +.5.5.5.$.O.O.8.Q.x.,.| [ O.y.B.s.5.%.5.@.K X.*.$.@.+.@.w.4.2.#.2.8.8.n.O.2.B.2.] ` ` L X.` S b k ` 3.{ ! ! / Q x B B j h g q 5 e z M B B B z h M F ( ! _ [ -.-.7.6.2.8.5.4.5.t.t.t.5.2.,.2.[ _ 4.4.2.I L 5.9.| 2.9.Y.}.'.S.A.W.D./.(.[.}.oXoX'.Z.o.n 0 n O.2.| 7.X.] #.$.#.a.C.u.y.t.| L | 3.| ] i.F.L.i.4.e.6.L _ 9.B.V.B.B.B.9.S.S.Z.F.",
"a.o.#.4.5.B.B.4.9.F.S.F.H.F.V.w.+.#.e.$.` [ b.b.2.n.,.B h q q l h q w k M [ 2.,.B v n n L | #.4.9.$.o.P J ` #.%.%.5.] 5.w.#.D V D .._ D m D D ` +.] X.#.5.@.#.5.5.t.B.F.A.1.| :.2.y.2.2.| >.9.F.Z.9.I n [ 9.} ~ ~ Q =.[ } #.5.U ] X.^ [ 7.A.Q.{.].F.4.3.F./.A.,.} ;.} ] 9.L.F.9.4.y.C.a.a.K.y.4.a.4.a.4.3.9.7.-.6.m.W.%X*X>X}.L.a.y.d.y.5.4._ V ! [ 4.y.5.O.| ] 3.e.6.9.a.F.|.{.Q.A.Q.Q.W./.}.}.}.'.B.%.%.4.] 9.F.2.| ] ] ] ....] y.d.a.5.a.2.] L _ ` ] 2.9.a.2...| 2.V [ a.F.V.B.V.e.e.e.B.Z.Z.a.O.#.4.5.B.B.7.9.F.F.F.~.G.V.e...#.e.$.` [ b.x.2.B.2.N h q q h l q e k l { 6.,.B z v n I | #.5.e.$...P G U O.%.5.%.X.3.e.#.D m V X._ D b D D ` +.X.X.#.5.#.#.5.t.5.B./.D.1.| -.| ,.O.w.5.%.5.+.+.@.$. . . .$.s.i.i.u.O.' ,.2.2.8.A.9.3.V.V.e.B.>.D l b ^ >.{ ^ V M M B B z v c q 5 e e 5 z M Q B x B n u n B Q ^ [ [ <.n.n.n.y.5.5.y.y.5.4._ F ! [ 3.9.5.#.| ] 7.e.3.9.a.F.{.{.Q.A.Q.Q.W./.}.).OX_.a.#.%.4.' 9.F.6.] | ] ] #.#.] 9.f.a.5.a.2.` _ L ` ] 2.9.a.2.| #.| N _ B.F.Z.a.B.b.e.e.B.Z.Z.",
"#.` 3.7.2.9.A.6.z.~.F.5.w.Z.`.V.#.{ | ^ N ^ >.7.>.$.^ k k C q w j j l v N | 8.8.,.B z B O.4.$.i.V.G.&.T  .+.$.4.5.| m V ` m v p P @.` ] P ] Z.Z.w.$...@. .D  .a.B.L.F.B.6.| ;.6.z.x.6.#.] ;.z.Q.Y.y.O./ [ 8.O.M N B Q ! F _ o.' L { 2.9.7.9.x.9.9.b.6.2.e.A.x.6.2.y.y.4.5.a.y.O._ ( | u._.).K.n.9.H.].Y.n.O./ M Q ~ l.!.:X(.n.8.u.C.y.y.5.4.O.} [ } z.x.V.7.] 2.F.|.|.].C.C.L./.D.x.W.(./._.}.F.n.C.#.%.y.L.Y.'.|.Y...| 3.5.+.%.i.5.y.t.#.%.5.O.V 0 0 r v [ | | 7.A.2.! [ A.^._._.Q.Y.F.i.a.Z.f.$._ 3.4.2.x.A.6.9.~.F.7.w.Z.`.V.#.{ | ^ N ^ ;.>.3.$.^ k k C w w j l l v N ] 8.8.,.B u B O.4.2.a.f.G.$.X. .+.$.5.4.| V L _ m v p P @.U ] L ] G.f.w.$.+.$. .D o.a.B.Y.F.Z.9.,.,.l.6.<.^ ` | 2.9.#.2.V.@. .+.5.r.s.e.3.>...m v ' A._.A.B.#.#.n.4XqX!.^ N W V ` | [ B z z V F B / / B c c j h r x M B ^ ^ B z z c n c B ( z.A.z.6.1.4.M.a.u.8.4.| } [ -.x.9.B.6.` 6.F.|.XX{.C.C.L._.D.x.D././._.|.F.B.B.#.#.a.L._._.|.Y.| ..2.5.o.%.i.9.y.t.#.%.4.O.V 0 0 r v _ | ] 8.A.<.! [ A.^.[._.Q.Y.F.i.a.V.V.",
"4.O.e...] 7.B.9.e.Z.9.L ` 5.H.H.b.e.7.V v l l S A 1 t A 8 8 q q w l g v L #.2.4.n.8.| 1.y.y.4.V.G.f.w.r.&.5.5.9.9.2.N a u n m s L +.+.%. .] U ` $.f.f.f.w. .3.e.i.B.5.2.| ,.<.l.z.8.6._ _ ;.b._._.a.#.' | 2.| F B x ~ -.,.2.' V m | e.A.x.9.2.[ { 9.2.[ >.7.7.4.9.F.Z.C.5.9.8.} / F ;.1.P._.'.L.3.a._.L.C.,.z g j W ) m.(.W.M.W.L.M.u.O.2.7.6.6.;.[ { 9.F.9.] 6.F.|.6X|.L.F.S.F.F.n.n.S./.}.}.F.B.8.#.a.K.|.<X_.O._ ] #.#.#.o.o.i.a.d.d.&.4.t.#.J r r 8 8 r N [ 6.x.1.} >.A.[.&X[.F.B.i.$.4.H.Z.2.#.e.>.] 3.b.e.b.S.w.^ ` 5.H.H.B.w.7.D v v S D s 1 2 A 8 8 C q w l r v L #.2.8.n.8.,.1.y.y.4.V.G.f.w.w.&.5.5.5.y.#.m r u b n s L ..#.$...] ` U $.p.Z.f.w. .$.e.a.C.e.2.' ,.1.z.l.6.| ` #.s.V.4.O.O.2.5.w.s.S.V.e.3.$.{ N m L 2.8.,.6.#.L ] A.:X*X-.j M N ^ | ] B x B V m V O.9.1.! z e g c Q / B V [ [ ( B z z u z Q <.z.x.x.n.C.y.t.#.#.7.6.7.;.{ { 7.F.i.| 3.F.|.3X|.L.Z.S.D.F.n.x.D.(.}.[.L.A.9.#.a.K.|.<XY.| _ ] #.$.#.o.+.t.a.d.f.&.4.t.$.L r r 8 8 r N } 7.9.1.[ >.A.[.|.'.F.B.i.$.4.H.G.",
"9.C._.5.X.D S S q.r.X.` #.9.V.H.Y.e.N a k S D S 2 ; ; < 8 C C h C y D P O.9.n.n.A.D.A.b.n.C.C.G.Z.+...e.a.V.s.5.y.t.| G s G ` a 0 D G.I.h.+.S T r.s.G.G.w.#.$.5.t.#.' ' O.1.8.z.<.9.y.6.] | 9.Q./.Z.4.O.#.4.#.L M B v / [ O.] L m { 7.B.B.x.9.>.| 8.9.[ _ / ] 9.9.B.y.a.5.9.y.y.1.1.n.n.m.u.S._.B.e.C.C.%.n e e g x ( 1./.(.{.4XP.O.o.F F | 7.z.>.[ :...9.9.5.9.V.{.<X|.Y.L.K.D.D.W.D.M.A.S.F.A.9.| ] %.Z.'.&X|.O.V ] ,.] | #.%.i.t.K.a.$.4.y.5._ v 0 r v V V F _ ,.8.-.;.8.F.~.F.a.B.a.4.a._.S.9.S._.5.X.D S S q.r.@.` $.9.V.H.~.w.m a l S ^ S 2 ; ; < 8 C C h C y D _ | 9.n.n.A.D.A.b.y.B.V.G.Z.$. .r.a.Z.s.5.t.y.] F s m ` s 8 L G.I.h.@.S @.r.p.G.G.w...$.w.9.%._ ` ' ,.z.M.:.6.9.2.| d.Y.B.| J 3.w.w.V.J.Z.e.5.7...m V v z _ ,.2.9.2.8.z.<.=.W l w l ` [ L z h B n G | 2.n.8.} ! z z j B ! N B / _ F n z u u M ( -.n.Q.Q.{.C.| O.F _ O.7.8.>.[ ;.;.9.9.4.9.C.{.<X|.'.L.F.D.Q.W.D.M.A.A.D.B.9.| ] 2.Z.'.;X}.O.V | #.} O.O.%.i.t.Z.a.%.4.y.4._ a 0 r v V V / _ ,.8.| ;.8.F.~.F.B.B.e.4.a.`.Z.",
"O.A._.s.R A A A A K Z S ` b.H.Q.b.3.D S X.@.^ A 2 ; ; d ^ D ^ ^ 8 D #.6.n.F.D.n.9.6.2.x.Z.Y.i.4.i.3.w.e.a.e.e.5.O.%.5.4.F [ 9.` D #. .+.g.q.K T @.q.p.r.$.P S ] %.o.#.4.4.} ,.:.:.B.Z.9.8.2.7.n.C.F.a.4.5.t.u.o./ M M B / } #.4.2.2.e.S.S.e.;.[ W B [ [ V v F #.4.9.9.5.9.5.8.y.n.n.1.M.M.C.P.'.{.H.a.y.%.n u u e x ~ <.A.D.A.|.C.1.y.O.[ | ,.;./ ! { 6.| _ | e.V.Q.'.].F.S.F.W.D.D./.n.8.x.7.#.O.2.6.4.n.n._.|.9._ | 9.2.#.#.a.Z.] ` O.F G O.| L m v m ] | ] _ V / [ | >.8.6.9._.`.].F.].@X`.w.O.B._.s.D A A A A S Z Z ` x.H.Q.B.2.^ m X.X.^ A 2 ; ; d ^ D ^ ^ 8 D O.8.B.W.D.n.8.6.2.b.F.Y.i.4.e.$.w.e.e.y.i.4.O.%.5.4.F [ 9.` L +.X.+.h.@.K R @.r.p.w.$.P m ] $.] o.5.%.) ,.u.<.A.B.3.5.C.C.2.F L ` 3.3.5.e.9.$.3.2.X.] ` N r v N N _ | 7./.n.W ~ [ V _ { m v e z / / ` ] ` P ' [ [ [ ! B V ! V B B F L F n B B / Q [ n.D.A._.C.,.y.,.' } | ;.^ ! } 7..._ | 9.S.F.'.'.F.D.F.P.S.D./.m.8.x.9.2.O.#.6.3.y.A._.|.9._ | 9.2.#.#.i.K.] ` O.L G | O.L m n m | | ] L V / ) | 6.7.6.9.Y._.|.H.].@X`.7.",
"^ { ` X.t A A A A A K R _ | n.S.9.+.` S D $.X.X.S 1 1 U 4.4.8.F 7 _ 7.x.A.W.F.A.c.7.9.b.e.a.e.#.3.#.3.e.b.#.D m m I O.4.;.| 7.9.a.V.&.+.T T T q.r.f.r. . .D p m I o.t.%.o.) ' ) 6.A.a.B.7.7.6.a.C.Z.9.9.V.C.5.4.O.V v B | 2.5.a.a.9.9.4.9.9.[ l W l Q [ _ F F 2.7.n.9.4.u.t.8.n.M.W.Q.Q.(.(.(._._.F.3.2.t.O.} ' ^ ^ ! ~ ;.c.b.b.n.8.7.7.;.| | ! z z V 4.6._ L 6.7.b.|._.B.2.x.W.D.m.W.A.x.7.' / ..e.B.F./.Q.}.;XD.| O./.F.2.4.5.t.O.G ' L V F N v m ] O.#.O.O.' ^ V M Q [ 2.{ | 9.B.V.H.H.Z.3.D D { X.` A A A A A A Z ` _ | A.C.9.+.] m D q.X.X.S 1 1 U 4.8.8.G 7 _ 4.x.A.Q.W.A.c.6.9.b.e.e.9.$.3.>.3.e.b.2.D m m I #.4.;.| 7.9.a.C.t.T @.T T q.r.j.q. . .S a m U o.t.4.] ' ) ) z.S.B.4.5.9.a.2.G V L ] 3.w.5.w.e.b.>.X.` b N m z q q a v v :.-.~ ( [ | L _ V v z B ( / ] ,.[ N B ! ^ [ B Q B M B B M n F F ' } [ ! v N -.x.x.x.y.8.8.1.,.;.} ~ h h B 7.6.L L 6.4.B.|._.a.6.x.D.A.m.A.A.n.9.[ ! 2.9.B.F./.F.}.4XF.| O./.F.1.2.t.t.O.F ' L V _ n a V ] | O.#.O.' _ B M Q [ 2.[ | 9.V.B.H.H.G.3.^ ",
"D { ..` R r.j.r.q.Y S P F ' ,.2.` m 8 < a 3.7.q.w.S A X.F n F n } 9.9.n.M.W.Q.W.b.b.A.e.] ] a.e.` N S ` 9.2.P ` ` ] O.4._ [ 6.x.3...o.@.Y Y K k. XG.R  .] ] K L I I ' o.4.,.) ) <.8.8.4.6.8.6.7.9.4.| #.9.y.#.4.y.2.` / O.4.y.5.2.` L G G _ M x M ! 7.2.O.| 4.9.8.9.b.n.y.M.S.M.x.m.%X(.D.W.Q.F.F.F.i.2.#.] ' O.6.-.[ Q ! >.6.-.| } [ [ ! / [ _ v r z ( ` V _ 2.x.B.~.B.2./ / 8.n.n.A.Q.z.] m V 9.~.F.F.[.}.>X;X'.O._ C.&XoX/.] F O.O._ _ | ] F n G ] 4.4.4.| L _ [ B N M M Q [ | a.V.5.#.X.D b D { ..` D r.j.p.q.Y K U F ' ,.,.` m 8 < y 3.3.3.w.S A X.F n F n ' x.9.n.A.D.W.F.b.b.A.e.] ] B.e.` S m ` 9.2.P ` ` ] O.2._ [ 6.x.2.O.@.T Y E K q. XI. . .X.] J J I I o.O.u.1.) :.m.F.F.A.Z.9.} | | _ L 3.p.5.5.9.e.V.b.$.` m D ^ v r z r u v v x M _ ;.,.` _ L r u x M / [ _ N g k k W N M / ! v z B M n F G [ O.,.| ! B _ ;.6.;.;.} [ [ / _ } _ M r v _ ' F _ 2.9.A.~.A.2.V ( 8.n.m.A.Q.9.} m V 9.H.F.F.[.[.;X;X'.| _ S.|.&X/.] F O.O._ _ ] ] V n G ] 4.4.2.O._ _ { B N k N Q [ | a.V.5...X.D b ",
" .5.a.2.3.H. X X].I.5.L v B _ F v v D R ^ ^ ..^ S D ] _ u u F F A._.z.;.n.!.W.~.^.Q.S.e.e.3.3.3.X._ _ | | L [ $.6.6.z.;.[ -.,.7.[ m P E E T T k.h.j.0.J J  .$.$.I n 9 F 1.1.:.:.-.} [ [ | 9.B.9.4.| _ _ P #.5.4.9.y.y.O.O.O.#.#.` J m a v v B [ ^ ~ 6.B.x.B.C.y.} ,.y.y.n.M.D.S.z.A.[.=X/.(.)./.F.C.B.5.L u u G #.| { D B ! [ >.2.^ ! B ! | 1.[ B v _ _ _ | #.] ;.x.A.a.} B / ,.n.W.(.&XS.2.D V 6.F.S._.&X&X&X|.F.' ..Q.&X:XB._ %.u.2.' F _ [ ] O._ L 4.5.%.| _ _ _ N M M M M _ 6.V.e.w.X.R J P X.9.a.2.5.H. X X].I.5._ v V _ F N s S X.^ ^ ..^ S D ] I 0 z F F A._.c.;.n.W.W.Q.[.~.S.e.w.3.$.3.X._ _ | | _ [ #.6.6.9.;.{ -.:.7._ m I E E Y T k.h.f.w.K S  .%.%.] p 9 G 4.1.1.u.n.1.2.a.C.C.y.8.| _ _ @.5.5.p.a.0.$.>.w.$.D ^ 2.| v a m V V z n v B _ P ] P _ F F ( / ( ~ x v B M k v ! ^ 2.6.[ / Q F I G B F ' | ,.| ! ! V ^ >.;.[ / B ! } 6._ B n _ _ _ ] ,.| ;.c.B.B.| M F ,.x.W./.&XB.2.L N 2.H.A._.}.>X&X|.D.} O./.&X-XA._ %.u.#.' F _ [ ] O.` L 4.5.%.| F _ ! N M M v M [ 2.B.b.w. .U L K ",
"..e.a.n.9.B.Y.XX|.#XZ.F i n L m y D b.e.#.{ ^ S 8 N 4.4.4.t.#.#.9.D.A.8.A.~.[.}.{.H.S.V.H.7.L ..#.` _ ] O.] [ | 2.2.{ ^ N ! 6.9.#.#.L m E T k.0.q.G.f.*. .] $.5.%.I I O.;.u.8.) ( / [ } ] | | ] ` | ` ] #.4.y.5.` ` #.O.] _ P ` ] ` G n n B _ ;.:.x.b.A.9.9.C.A.9.y.m.n.n.n.C.m.z.m.W.!.!.(././._.F.Z.5.] L m L #.#.L ^ ^ N N { 6.=.! W Q [ | [ ,.| O.| _ | 2.| [ 9.B.u./ n [ 6.x.A.Q.Q._.2.V V #.Z.W._.<X5X&XL.y.| S.4X4X|.A.#.O.5.5.4.} ` m m ` ' o.#.$.4.4.O.M x M j M k v [ e.V.f.f.$.$.$.X. .e.B.e.9.b.`.XX|.#XZ.G 0 n L m r V b.e.#.{ ^ S w N 4.4.4.t.#.,.9.A.b.8.A.(.[.|.{.S.S.Z.H.7.L ....` L ] #.` [ O.2.2.[ ~ N ! 1.9.2.#.L H J @.q.q.q.G.s.*. .] @.i.#.I I 4.1.u.n.) -.( ,.B.B.n.C.m.8.9.4.5.w.s.a.V.b.w.V.H.V.3.] S a r r N F u e u z v u m _ ] 5.B.O.[ ) ( Q g q x g k M N N [ } [ | | O.,.| _ [ _ | O._ F V B B { :.| B B Q [ | } O.| O.| _ | 6.] { 7.b.9._ n [ 8.x.A.Q._._.4.V V 2.Z.F._.:XqX&XF.a.o.C.4X4X|.A.#.O.5.9.4.] _ m V ` ' ] $.%.4.4.O.M M M j M k v [ a.V.V.s.q.@.@.X.",
"w.$.e.F.S././._.;X;XY.#.D m p 0 8 s P O.4.#.L u L 2.a.a.a.4.a.C.B.V.7.4.M./.D./.B.| 7.w.3.3.X.3.9.` m D D D ^ 7.7.>.^ l h M B | 4.2.P n H #.%.@.i.h.g.g.] I %.5.a.V.C.8.z.<.) ) ( [ [ | | ] _ ' 2.| | $.5.5.5.%.G G ` ' ` ' ..6.2.5.| F B _ ] | >.>.6.6.{ >.A.Q.Q.C.n.C.m.n.m.A.z.z.A.N.W.W.Q.}.|.F.a.C.V.i.t.a.y.] L ] _ _ { ;.:.{ [ { } } | 9.a.2.4.5.O.O.8.| ! ;.6.9.2._ 7.A.W.W.Q.[._.y.' ] #.9.B.~.-XqX-XF.4.] 3.F.-X&X~.e.O.O.a.L.4._ n L #.4.&.4.O.#.4.V h N x j B B ! 7.C.a.s.Z.g.r.q.q.w.$.a.F.S././._.;X;XY.#.D m a 0 8 s P O.4.2.L u L 2.a.a.a.5.a.C.B.V.7.8.C./.D./.A.| 7.5.3.3.X.3.9.` S V D ^ ^ 7.7.>.^ l h v B | 4.4._ n m *.%.@.t.K.g.i.T I %.5.s.Z.Z.9.z.v.) <.1.,.8.B.9.B.A.D./.C.4.4.$.$.s.`.H.T.J.V.Z.s.` s 0 8 y m N r a v n v n I P L ] #.6.6./ x c x x Q M N n F O.] G ,.u.4.5.u.4.4.,.4.8.' L _ _ ^ [ { >.{ -.{ -.{ ;.7.y.%.4.4.O.O.3.;./ ] 6.y.O._ 7.A.W.W.Q._._.9.` ] #.9.b._.-XqX-XF.4.] 3.F.-X&X~.9.o.O.a.L.4._ n L #.5.4.5.#.#.4.V h W k h M B / 7.B.a.V.f.g.r.q.q.",
"0.w.H.'._._./.[./.L.F.B...b 8 b m a L 9.O.G G m V _ | O.P 5.C.B.V.Z.e.,.u.D./.'.B.] 7.] S m 6.Z.5._ N v ^ >.>.>.>.>.{ l u V _ } 4.u.} L #.t.i.5.g.g.k.*.T &.I.Z.Y.`.Z.9.z.z.v.-.[ [ } 8.y.u.4.#.4.3.6.9.5.5.5.$.] L I F ' 4.F.{.F.9.4.| | ] [ 2.>...! [ { >.b.S.F.S.Q.(././.C.A.b.b.b.b.W.^.^.[.'.B.7.a.Z.C.Z.Z.t.] I _ V | z.7.7.-.{ 6.:.| 2.2.' V %.y.4.4.9.7.] ` #.#.| _ 2.[.[.Q.[._.'.F.y.#.| ] { B.|.|.F.B.9.] _ A.Q.S.F.F.t.4.a.y.| F F O.4.5.5.%.%.] V u h v k h r z V #.Z.I.h.f.h.p.@.q.$.w.Y._._._./.[./.F.F.B...b < b m a L 9.O.G G m N _ | #._ 5.C.s.V.Z.9.#.u.D./._.B.] 7.X.m S 6.Z.9._ N v ^ >.>.>.X.7.{ l r F _ | 4.8.o.L #.y.i.&.i.g.k.%.T &.I.Z._.].F.x.z.c.v.) ) -.,.A.B.Q./._./.C.o.] %.5.Z.H.3.$.e.w.r.3.U L m V ` L D V J m m P ] ] +.] ] 9.Z.A.1.) ) ) -.[ / F F 4.4.4.%.4.B.5.O.O.1.8.4.8.4.' L [ N { 6.7.:.{ [ >.;.| 2.6.[ F O.C.4.4.9.3.] [ #.#.O./ 6.(.[.Q.[._.}.F.y.#.;.] { B.{.|.Q.B.9.] ` B.S.F.F.F.5.5.y.n.| F G O.4.4.5.#.#.] V u h v k h r z V 2.Z.I.h.f.h.p.@.q.",
"f.Z.U.F.F.Z.F.H.B.5.B.T.T.` y J S i u O.%.G J I v m | 9.4.9.a.Z.`..XI.u.[ ] 4.7.B.F.B.5.X.m ..9.] D N y ^ ^ >.^ ^ 3.e...[ $.e.9.6.7.B.B.y.t.d.f.K.f.*.T  .g.T.I.Y.H.F.S.m.8.6.1.,.;.8.B./._.P.C.B.n.7.i.#.o.#.o.I I I _ | 9.Q.[.B.2.x.A.D.2.| 6.| { ` / -.7.x.A.A.B./.%X>X}.C.,.9.b.9.x.W.{.^.{.|._.x.B.Z.F.C.t.O.F L _ / [ >.>.^ W ! ! ^ 2.2.[ G _ ] ` | B.Z.B.4.2.t.4.#.' 4._.{.}.&X_.F.y.5.2.3.{ V ^ #.6.7.Z.Z.V.B.F.S.S.F.Z.5.4.4.| F V F ] 5.u.5.o.] #._ M N l h k z n V ] a.g.f.U.h.p.p.h.s.Z.U.H.H.Z.Z.H.B.5.B.R.T.` y J m p u #.%.H J I s N | 7.4.w.s.Z.`.].T.9.[ ] 4.7.B.F.B.5.{ S ..4.] D b y ^ ^ >.^ [ 3.7.X.` 2.e.9.2.9.n.B.a.5.a.f.K.g.*.@. .s.`.J.T.Y././.N.m.v.) -.,.z.A.}.{.[./.'.'.a.t.y.Z.L.9.S D X.X.P U L m P 3.3...` X...L L ` O.] O.I L O.7.A.8.-.) ) 1.<.[ / / O.4.B.B.4.i.C.y.4.4.8.8.4.O.F / V V [ >.;.[ N ! Q _ 6.2._ L ` o.` O.B.Z.B.7.6.5.5.#.} 2./.{.}.&X~.F.y.4.4.4.] N L >.6.7.Z.Z.C.B.S.S.S.S.Z.9.5.4.O.F F V ] 4.y.t.o.o.#.[ v N k j v u n V ] a.f.g.U.h.p.p.h.",
"s.Z.H.V.e.s.s.r.w.w.V.Z.e.] X. .5.i.] #.' H T o.#.b.9.F.L.s.G.|.].U.I.5.m v ] ,.2.b.V.V.2.m ` ..{ S v t A S ^ ^ ` ] 3.3.9.a.e.e.7.B._.].y.#.&.I.T.i.k.&.U U +.5.e.7.F.[.A.-.<.z.8.,.8.S.F.L.K.n.S._._.E.d.%._ G I o.G m } 8.W.W.6.| 2.x.x.8.B.F.7.` ] | ^ { 9.x.8.x.n.W.D./.n.| ;.7.b.^.!.A.S.[.%XF.A.B.F.F.d.y.4.I m v M M ! :.{ ! N B B 7.C.s.9.t.4.5.] 4.F.Y.Y.Y.L.a.t.9.9.W.Q.[./.B.B.5.4.6.x.2._ v r B O.B.L.Z.B.e.B.F.F.V.i.9.2.| V n F | 9.a.y.o.] 4.] V M v v k u z G $.t.&.p.U.h.j.h.j.s.Z.F.V.e.s.a.s.w.w.V.Z.e.] X. .5.t.] #.' H T o.O.a.x.F.L.B.Z.|..XU.Z.t.m v ' 2.2.B.V.B.#.V ] ..{ D a y A S ^ ^ L | 7.3.9.a.e.b.9.x._.|.i.%.&.Z.E.p.k.&.T ] +.5.y.7._.:XN.) ) <.v.1.x.F././.D.D./.].F.V.a.y.i.#.X.D s Z S P  .P L $.5.5.e.5.2... .#.5.V.y.#.L v B | [ c g ) l.7./ M F F 4.9.4.a.L._.C.8.1.2.4.1.O.L v v v M Q | { ! N N N 7.B.a.5.5.4.4.] 4.F.H.Y.H.L.a.t.5.9.D.Q.Q.Q.S.a.5.4.6.9.6._ v y N #.B.L.Z.B.b.S.F.F.Z.9.9.2.] V n F ;.y.a.y.] ] 2.] V M M v k u u F $.t.0.i.U.h.j.h.j.",
"e.V.a.s.f.r.$.X.$.q.r.V.$.#.w.a.f.&.*.w.P K @.y.Y.&X&XA.4.e.i.B.a.5.a.5.m r _ 4.9.b.9.3.[ N ..>.{ N l l w 8 A ^ ..5.3.$.w.e.e.V.F.F._.H.a.i.i.f.f.p.p.w.U S L 5.a.#.B.F.) / ;.8.n.8.,.C.D.D.4.} 6.Q.{.L.L.C.O.F H G d u m ;.x.m.l.;.| -.[ [ 2.9.4.F m [ ] 2.F.A.[ :.A.A.n.m.A.B.3.2.9.b.S.c.>.c.Q.W.Q.D.D.Z.a.4.] G n n r r v / { [ n v D 7.F.Z.$.5.Z.{.Z.a.H.H.T.`.I.E.Y.Z.9.9.A.Q.~.V.B.y.O.' ] | / F m | 7.C.L.s.2.6.a.B.B.C.A.B.9.2.} / L | a.C.B.4.` %.O.G N D V / m v _ 5.i.&.*.i.g.r.0.$.e.s.a.s.j.r.$.X.$.q.r.s.3.#.w.a.f.&.*.0.U J *.y.Y.&X&XA.4.e.a.s.a.5.a.5.m r _ 4.9.b.b.2._ m ..2.] N l l w 8 A ^ +.5.5.#.e.e.w.b.S.F.Y.Y.a.p.r.h.g.i.f.w.T S P 4.y.#.B.~.[ x -.1.n.x.B._.D.b.A.D./.L.B.C.H.Z.e.e.s.r.X.P w.q.+.@.w.e.5.5.V.B.4.#...] a.V.4.| / z B [ ~ z g N [ [ N z v ! 9.n.2.8.C.F.B.6.4.4.O.O.] V n a r r v / [ _ v v D 5.F.Z.5.4.Z.`.V.V.Z.F.U.].L.I.K.Z.9.9.A.F.Q.C.B.y.O.] ] | ! V V ] 7.B.L.a.4.2.B.B.b.C.s.B.9.,.[ _ _ ] i.C.B.5.` $.O.G N D ! F B m _ w.i.&.*.p.g.q.i.$.",
"` X.] 5.r.q.X.@.@.$.G.T.s.V.Z.s.s.%.Y K K f E +.6.;.>.] ] 3.Z.L.Z.V.a.B.] L $.Z._.S.>.V b v N ^ _ k C = $ : C A X.s.w.r.s.H.e.3.9.e.4.w.&.q.p.h.&.@.@.X.J L P 5.Z.B.A.S.1.O.:.4.u.u.2.n.D.D.,./ [ 9.Q.L.K.C.y.t.O.I n u v Q [ :.6.;.| | B N [ 2.9.#.] ] 2.#.e.9.| :.x.^.D.m.Z.Y.B...3.2.V.!.l.{ x.Q._._.L.F.K.C.#.G F L v v M / 2.2.,.O.2.9.V.Z.i.5.V.H.`.H.Z.H.I.T.I.I.I.H.B.6.z.A.x.2.O.| G n Q ^ _ ` O.9.n.C.F.y.Z.F._.B.y.a.7.B.A.x.6.;.;.| 7.9.a.5.#.4.5.$._ | 7.| _ ] #.3.i.g.g.h.g.q.@.E X.X.] w.r.$.X.@.@.$.G.T.s.V.Z.s.f.*.Y K K f E +.6.;.>.| ] 3.Z.Z.Z.V.s.B.o.L 2.Z.Y.S.>.m l v N ^ ^ k C = $ ; : w  .s.q.e.V.J.b.q.9.e.5.w.0.$.p.h.&.@.@. .S S ` 5.Z.B.F.Q.6.[ ;.:.8.n.y.F.A.A.m.D./.L.B.u.B.B.b.e.e.s.r.s.h.$.X.@.&.+.+.5.V.F.a.3.| ] 6.5.1.;.} :.6.;.~ N l l M W N z 7 v | 4.2.O.9.C.B.n.9.8.t.5.O.L G L N z M / ,.2.#.2.6.5.B.G.i.5.f.F.`.H.Z.H.F.U.I.I.I.F.y.7.7.A.n.,.O.' G B N _ [ [ O.y.y.A.Z.B.B.F._.B.e.a.9.n.A.9.2.;.| ;.7.9.a.5.O.4.5.%.[ ] 3.;._ ] #.3.i.g.g.h.j.q.*.J ",
"X.+.@.s.e.r.$.q.q.q.Z..XT.a.i.i.0.i.q.q.T Y 2 1 , w N ^ _ O.Y.@X|.|.H.Z.f.e.Z.{.b.{ ^ M r r e N ! w - . o $ : < s S D #.5.b.>.D ] $.U $.q.q.g.j.@.@.$.q.P D D J 9.C.F.F.L.D.n.u.C.C.n.9.n.9.,.( ( 6.D.W.Q.Q.M.n.9.O.m n M N M [ O._ _ V v v [ x.C.B.i.5.$.4.| ! | c.c.W.P.m.F.Y.F.s.9.2.| x.A.x.A.~.[.A.D./.'.L.5.O.,.#./ v v ! ,.4.2.O.] ] e.C.a.i.Z.J.V.e.V.`.R.Z.I.I.g.y.6._ [ 7.7.[ } L N v r v ^ ] O.O.2.8.9.y.C._._.S.B.y.9.z.x.n.2.6.A.F.4.] 4.9.s.#.m #.` G 7.A.n.A.A.9.5.i.g.U.h.g.p.T ] +.$.a.r.w.$.q.q.q.Z..XT.a.i.i.w.i.q.q.q.Y 2 1 , w N V _ #.Y.<X|.{.H.Z.d.y.Z.'.B.{ ^ N y w r N ^ h - . X $ < A s S D #.5.b.>.D ] #.U $.0.q.g.j.@.@.$.$.K D S D 4.Z.F.F./.D.u.1.u.9.6.4.9.8.z.x.n.A.4.` | 5.e.X.X.#.q.G.h.q.@.@.w.+.] 2.4.B.a.2.#.' } O.O.1.M.n.z.,.! v b b w r M / V V _ | 6.#.8.B.C.9.8.y.B.y.#.] O.,._ B z / ,.4.2...] | i.Z.s.e.V.J.V.5.V.T.T.Z.I.Z.g.y.2._ [ 6.6.] ' ` V n u z / o.O.O.2.9.y.9.F._._.C.B.9.9.9.z.A.1.6.A.F.8.] 4.5.B.#.J O.` m 9.B.x.S.A.9.5.i.f.U.h.g.g.T ",
"w.L L o.3.w.q.3.r.V.s.r.w.`  .w.%.*.k.k.k.T Y A : = C v #.F.`.].{.|.|.'.C.4.4.4.] D D V r w r y : # .     o o $ t 2 t y y S ` ^ ] +.*.p.p.q.q.s.p.0.$.@.D L ..| a.Z.L.F.L.'.D.u.y.C.y.n.2.| ;.( -.m.A.A.Q.Q.D.n.8.O.a v N B V | } m n / [ V _ ] 2.9.B.a.a.i.` [ { =.c.W./.D.Y._.H.S.w.L ! ! >.S.~.W././.D.F.D.Z.5.,.5.2.[ [ B h ' 9.4.4.2.P ] i.V.e.r.V.V.V.V.Z.Z.i.&.&.5.#.` _ / | 7.4.#.G m v r h [ [ ` ' | O.2.y.C.F.B.e.y.9.9.8.;.;.8.8.A.n.6.] 7.a.C.5.m o.C.K.L.Q.Q.~.{.Y.s.y.f.G.U.U.U.U.w.L J O.3.r.q.3.r.V.s.r.w.`  .w.@.%.k.k.q.Y E Z , = C v #.Z.'.].|.|.|._.B.5.4.3.` V ! V w w r y * # X     o o $ t 2 t t y S ` ^ X.#.%.p.p.*.k.g.p.q.@.$.D P ] | y.F.Y.H.K._.M.O.,.4.#.n.9.-.1.,.[ O.' ] 5.e.3.X.#.@.X.r.G.f.w.0.%.X.@.` #.9.V.e.6._ _ _ ) 8.n.[ Q x h v b a 0 a V ' ' _ F L _ O.4.5.9.7.7.9.9.t.2.O.5.,._ [ B u ( 4.4.9.#.L | i.V.e.r.Z.b.V.V.f.Z.i.%.&.5.| ] _ _ ;.4.8.O.F n a e h [ ' ` ' | | 2.i.C.F.V.9.B.9.9.z.;.;.6.x.A.x.2.| 8.a.V.5.d O.C.K.L.Q.Q.Q.[.Y.B.i.f.h.U.U.U.h.",
"s.%.$.w.$...#.3.s.V.G.s.+.X.&.a.%.@.@.w.r.*. .b & $ % , ] Z._.Y.A._.&X}.D.2.D V ` #.#._ G n u 9 & % $ O   o + + ; o o O = y _ P b S %.p.q.q.s.j.r.q.@.&.] ..V.Z.H.H.H.H.F.V.x.7.9.i.n.C.u.,.8.,.:.u.M.n.S.Q.A.A.b.3._ v V / N [ 4.5.#.3.e.2...2.7.9.5.a.Z.a.` V V B [ c.^.^.Q.F.F.C.u.#.' ' 2.B.~._.{././.C.y.C.a.a.9.] B | _ ! 2.5.#.5.3.^ X.s.e.$.$.3.s.]..XT.s.5. .` P ..9...^ ^ ..2.$.$.` v v N [ ' } 2.#.O.#.4.e.V.b...2.9.A.A.A.W.A.Q.Q.z.2.n.n.4.a.i.#.C.|.].{.F.Q.[.{.|.`.H.V.Y.f.s.Z.U.f.5.3.w.2...@.3.s.V.G.s.$.] $.p.%.@.$.w.p.*. .f & # % , ] Z._./.D._.&X|.D.2.V L ` %.#._ B n u < : $ + o   o + + ; o o + = y _ L b S &.r.0.0.p.f.w.w.$.w.` X.V.H.H.H.Y.Y.F.V.9.2.,.O.1.u.%.F 1.u.9.t.%.&.t.5...L ..$.X.w.s.r.r.R.f.Z.d.%.I O.4.y.2.M h r h B _ M q e g v n F v u F O.4.O.F F G F #.#.9.9.9.5.5.5.y.i.9.] V | _ ! #.4.#.5.3.` X.a.p.$.$.$.a.`.R.J.a.3.] ] L X.7.| [ ` #.2.2.3.` k v N _ ] | 2.O.O.#.4.i.Z.a...2.9.A.A.A.W.A.Q.Q.z.2.n.n.4.a.y.#.C..X]._.S.~.{.{.|.`.H.V.Y.f.s.Z.U.",
"5.$.e.Z.Z.3.X.$.3.B.G.f.$.U ] +.%.&.5.p.f.i.J , % $ = $ r #.B.{.|.'.[./.Q.9.V ] t.y.O.L ) F 0 < d Z 2 ; + + % ; % X     o < m G m D ` $.Z.G.s.s.r.*.w.$.P 5.G.Z.B.3.$.Z.H.F.B.a.y.u.u.O.( ;.n.m.;.O.u.4.M./.W.b.B.b.7.] } | [ ,.4.5.5.5.V.5.3.7.a.3.L ` 4.4._ V N N ^ <.!.*X{._.L.C.d.d.n.9.6.n.~.[.}._./.C.C._._._.F.| V [ ` 3.B.5.` ` $.w.r.$.X.$.$.$.i.|.3X1XV. .P m L 3.3.] ` X.#.3...$.X.V v G | O.2.5.#.#.#.$.3.w.B.e.x.b.x.A.Q./.(.Q.[.S.8.8.y.O.4.y.V._.Y.G.B.~.~.[.[.|.{.'.F.Y.Z.B.s.i.$.%.5.G.Z.2.X.3.3.B.G.V.$.U ] +.&.&.0.a.f.w.J < % % = - 0 #.B.'.}.{.[./.Q.9.V ] 5.5.O.F F F 9 , d S 2 1 + + % ; + X     o < m J m D ] $.G.h.s.s.w.$.q.$.` w.Z.b.s.2.+.Z.Y.Z.b.e.y.4.I F ) ) 1.u.u.a.d.i.i.t.2. .$.q.$.$.$.U X.g.U.K.K.Z.d.d.#.| m q C r k h h h g z B N / [ n n _ 1.4.4.o.] I ' #.e.a.B.C.i.e.Z.Y.F.Z.;.^ [ [ 3.V.9.` ` $.3.w.$.X...$.#.e.].1XXXV.X.L D ` ..#.` ` ..#.5...$...D N G | | 2.7.#.#.#.%.3.9.B.9.x.x.x.A.Q./.(.Q.[.S.8.8.y.O.%.y.V.'.Y.H.B.~.^.[.^.}.{.'.F.Y.Z.B.s.i.",
"` U $.F.{.b.] L ` $.s.w.$...` X.3.3.3.5.w.w.@.S p < 0 t y P 4._.&X'.F.A./.B.2.B.C.4.| ' F B r 0 s m t Z E 2 : ; + + X o # 1 I o.] ` ] 3.a.w.$.U @.5.&.L D w.H.T.G.X.D ..{.'.H.F.y.4.4.4.8.9.8.8.1.8.4.4.A.F.A.7.9.a.B.2.| 2.7.9.5.9.5.5.5.#.#.5.5.5.%.O.#.5.%.| ^ _ ;.>.:.z.F._.|.OXD.8.9.x.A.(.{.&X:X%X}.Q.y.B.H.]._.] v V ] 9.s.2.m J 3.e.G.J.s.p.w.5.G.`.].`.V.5.P J D L D D ` 5.$.3.$.3.w.$.#.| ' / ' 8.#.' | $.] | 2.6.;.z.A.A.n.W.W.W.Q.=X(.Q.S.8.O.5.C.d.5.Z.H.}.&X&X/.|.{._.Y.F.Z.B.y.4.` ] 3.Z.`.b.X.L ` $.a.w.$...` X.$.3.3.&.5.w.$.S s : < p y _ 4._.&X'.F.B._.B...B.C.4.| ' / G r 0 s d t d E 2 ; ; ; o X o + 8 E o.] ` ] 3.e.r.$.U @.&.w.D P w.S. XH.X.D ] {._.F.F.y.O.' ) 4.y.u.y.A.C.5.e.a.i.w.@.T +.X.X...U J #.L.Y.'.Y.7.6.O._ r 7 q q h j k l x B M / ) ) F F ' ,.y.8.4.2.4.u.B.B.B.B.F.B.8.9.V._.F.] v V ] 7.B.%.m L 3.s.J.H.s.e.r.w.Z.Y.`._.B.$.L S D L L F | 3.3.3.@.5.5.3.| O.' _ ' 4.4.'  .2.] ..2.2.2.z.A.A.n.W.W.W.Q.=X(.Q.S.8.O.5.Z.a.9.Z.H.{.&X|._.|.'._.Y.F.Z.B.y.4.",
"` $.a.`.~.3.D m ` r.a.w.$.@.X.#.3...X.$.&.w.f.r.] f m L P $.V.Z.C.Y.T.H._.F.3.B.B.| } | y.C.4.V 0 d S m D < % < : ; ; + + 2 Y T L b D ` L ] $.P U %.+.P 3.H.`.T.V.@.@.V.U.F.Z.7.M.y.4.C.D.n.1.,.u.C.5.m.F.F.e.5.4.9.a.2._ -.7.B.B.V.a.V.5.] %.5.5.s.Y.].Y.A.9.4.2.2.7.3.>.3.b.F.;X|.B.8.x.W.Q.Q.(.(._.&X(.F.S.L._.{.B.2.L ..7.9.y.2.J L 3.w.e.f.Z.J.Z.s.G.`.`.R.F.F.i...P m p y S ..w.$.3.e.s.V.y.5.F F ( O.} V L ] _ m y v v } x.x.8.:.6.c.S.^.&X&X/.4.' 4.C.a.e.B._.{.[.}.&X:X4X&X}._.Z.5.#.] ` @.a.~.`.3.D m ` r.p.0.$.$.X.#.3...X.3.&.w.V.w.X.s S L P $.s.F.Z.Y._.Z._.F.3.B.B.| [ O.y.M.4.V 0 m S m D 1 = < : ; ; o % 2 I o.J m V _ _ X.$.P U $.@.D #.Y. XT.V.+.$.f.Y.Z.V.7.a.a.O.y.D.M.u.u.9.5.#.s.G.Z.G.f.g.i.@. .] L _ $.K.Z.Z.7.V } ] v q 7 C g W ^ M M B n M B / / ) ,.O.1.M.n.8.n.y.F._.B.9.A.B.9.4.B.F.H.B.6.P #.4.y.i.2.J L 3.w.e.s.G.G.G.s.G.`.T.Y.Z.a.5.` L V a a V #.w.3.5.9.s.V.y.5./ B ( O.' m L ] _ m h v v } x.x.8.:.6.c.S.^.&X&X/.4.' 5.C.a.9.s.{.}.[.}.&X4X4X-X|./.Z.5.#.] ",
"' #.O.4.2.O.D L @.$.@.P p t Z D P b S 3.b.r.r.$.+.`  . .@.Z.XX@X|.].'.I.C.s.a.V.e.] ..9.D.L.C.| m D a = = & $ - t t < ; 2 H Y I s , , r u ` i.t.#.$.#.X.X.V.V.r.w.G.J..XY.L.V.#.t.C.9.n.A.9.8.| O.y.d.B.B.9.5.i.i.9.4.,./ } 7.y.B.H.e.2.3.3.9.i.a.a.4.4.n.6.[ 6.b.b.6.2.a.9.7.a.9.9.Q.(.!.A.W.W.W.A.A.W.F.A.A.|.|._.B.e.a.a.a.9.a.#...#.#.@... .r.T.J.j.w.w.V._.Y.H.a.4.` b a v N ] 3.3.b.H.H._.Z.a.| } [ ( F G L L ] _ v v v ! ,.A.m.8.x.S.=X*X&X*XF.6.2.y.C.B.9.2._._.S.[.}./.{./._.}./.4._ G ' O.O.4.2.| L L @.@.$.P f t Z D P b S 3.b.r.r.$.+.]  .X.@.Z.+X#X|.].'.I.V.s.a.Z.e.] ] e.Z.L.C.| m D a = = & $ - 8 t 1 ; 2 H Y I s , 7 u u ` y.t.@.3.@.| @.b.G.r.w.Z.T..XS.H.V.#.a.L.B.C.C.n.8.( V ,.Z.a.p.s.a.V.G.a.#...m m 3.F.H.e.] N r M N r e u [ 2.8.<.( F / h z x B F O.8.z.y.n.C.m.n.n.F.A.9.6.2.7.2.6._.{.Z.B.9.e.a.i.9.e.2...>...@.X...r.T.H.b.w.e.V.H.H.V.y.2._ m v a N | 7.7.B.S.H.H.Z.9.| } [ ( F / L _ ] _ v v v ! ,.A.m.8.x.S.=X*X&X*XF.6.2.y.C.B.9.4._._.D.).}./.[.(./.}./.4.` G ",
"t.#.V G 9.y.$.+. .K Z A % % 2 s w 8 w D 3.q.$.$.$.$.5.q.a.@X$X.X`.G.Z.T.s.w.9.V.H.F.Y._.t.#.o.J V ] b * * = # # S S t Z E J I T m , 9 9 u ` 4.9.$.w.e.3.X.` ^ X.3.J. XV.i.V.V.| #.4.3.e.B.7.2.| O.5.B.a.9.y.y.i.4.O.,.[ _ 6.S.B.B.F.2.[ 2.9.i.V.f.9._ r v B { c.W.S.S.e.a.9.5.6.[ 2./.[.A.z.m.W.Q.Q.~.Q.}.Q.9.A.F.F.w.2.5.a.a.i.5.#.9.s.s.b.$.X.` w.e.b.X.^ v D 5.5.#.#.] _ ' ! N [ { 7.V.S.a.S.F./.A.z.-.( } | } V F v V } / B -.n.A.A.W.S.^.&X&XQ.B.9.4.C.'.'._._.|.>X>X5X;X/.m.8.D.}.L.7.4.5.t.$.V F 9.i.2.+. .K Z A % % 2 s w 8 w D q.3.$.$.$.$.w.&.a.+X#X.XT.F.K.I.a.i.9.V.H.F._._.y.%.#.J D ` N * * = # # D S p Z E J Y T d , 7 7 u ` %.5.$.5.i.$.X.D ^ X.$.J. XV.e.Z.V.] 2.B.a.B.n.4.O./ V 2.Z.a.&.p.Z.T._.Z.A.#.m m a._.b.] N q q q y k 9 u _ [ ,.8.1.,.) h n n / } ,.1.,.8.m.m.8.2.n.n.x.A.B.A.F.x.2.9.V.B.4.#.%.a.a.i.5.#.w.s.s.e.3.] R w.V.s.X.D v L 2.4.O.$.] J ] [ ! ] | 7.B.V.B.F.Q.Q.A.x.| ( } | ' V F n B [ / B -.n.A.A.W.S.^.&X&XQ.B.9.4.B._.'./._.|.>X;X:X>X/.A.8.D.}.L.7.4.4.",
"a.3.G | C.Y.y.g.f.q.T Y 2 2 Z J a s 8 t D #.r.r.$.w.r.w.i.Y.f.%.@.] @.%.%.&.$.i.I.E.I.i.o.I o.] ! j = . @ - = : ` ] L m J U #.| G r 7 9 n ` ] ' #.y.e.w.X.S S Z ` r.Y.R.i...$.9.$.$.e.V.F.C.9.4.9.B.C.9.y.d.d.5.| _ | [ :.A././.F.Z.6.3.7.a.V.F.d.5.` v y M { >.7.B.H.H.V.V.V.5.3.9.9.2.A.Q.[.[.[.[.Q.Q.~.[.A.A.Y.'.a.L U i.Z.Z.5.$.3.5.3.....X.D D ....` .._ N | B.L.5.$.O.2.] M l k { 7.x.7.S.S.2._ ! B [ ;.| 2.| V V _ ,.8.2.4.8.8.S.H.Q.~.[._.F.~.F.y.n.S.C._.{._.&X5X:X5X%XM.,.n.P.y.2.y.Z.a.4.G ] Z.L.i.i.g.q.T Y 2 1 Z J s y 8 t D ..w.w.$.w.w.w.i.Y.s.5.@.] $.@.4.%.@.i.I.T.G.i.o.I o.] _ j = . @ $ - , [ ] L d J ] +.] G 0 , 9 n _ ] ] 2.i.9.w.$.b b S D r.`.`.e.X.#.e.w.5.B.Z.L.C.8.2.4.C.Y.a.i.f.I.]._._.Q._ n L n.B.7.2.[ y r 3 7 7 e 9 9 G 4.M.y.y.' z / O.) F / o.O.1.u.n.n.9.n.2.| 9.9.A.B.F.B.b.F.H.9.P ] i.I.Z.5.$.3.w.3.#. .X.D D X...` .._ V | a.Z.9.2.#.2.| ! N v { 7.7.7.A.D.2./ / B ( | | 2.| V N [ O.8.2.4.8.8.S.H.Q.~.[._.F.~.F.y.A.F.C._.{._.%X5X5X:X;XM.,.n.D.y.2.y.Z.",
"y.4.#.4.L.Y.R.T.h.p.@.@.Z Z K J R S t : b 3.5.#.5.V.f.5.@.$.$.@.+.o.@.4.#.+.%.a.Z.d.t.U H H o.4.r @ X X X X . r ] ] ] L ` ] ..X.o.G 9 m L F F o.y.i...S y < S D b @.Y.I.#.P w.g.4.e.B._._.F.y.9.B.C.y.4.y.a.a.5.| ] ,.8.A././.Q.a.9.4.4.2.2.9.s.4.| m r v D ^ V ..F.B.9...9.F.a.9.y.7.B.~.{.{.%X%X[.S.F.F._._.H.C.V.y.I @.i.i.G.s.2...] D P  ...X.D S b ` |.@XH.L._.Y.B.5.4.4._ e h h V ^ ^ >.b.9./ N B | 8.9.2.9.7.] [ F _ S.'.M.4.C.F.b.B.[.'.A.F./.F./.'.8.O.x.A._.%X5X5X5XD.1.8.m.n.8.6.y.B.y.5.| 5.L.E.`.R.Z.g.q.T Z Z K J R S 8 < S 3.7.$.5.s.s.w.#.$.$.@.o.+.#.5.@.o.%.a.Z.d.t.U H H o.4.r @   X X X . r ] X.] L ` | ..X.O.F 9 G _ L F ] y.i.#.D t < S S Z X.T.T. .K i.Z.r.Z.H.oXoX_.y.9.B.Y.T.T..X.XK.D._.{.x.| 4.F./.7.:.2.| m r 0 h r r 4 9 G u.t.4.P.M.;.1.u.u.,.1.u.1.8.y.D.F.F.F.n.B.b.b.F.A.F.F.F.B.a.5.L +.i.p.Z.a.3...` L P  ...` D m b ] {.XXF.Z.Y.F.a.9.4.4.] v v k ! ^ [ | b.9./ N N | 9.8.2.y.7.| _ D _ S.'.M.4.C.F.b.B.[.'.A.F./.F./._.9.| x.A._.&X5X5X5XD.1.8.m.n.8.6.y.B.",
"B.G.a.Y.'.`.].E.U.Z.&.P  .@.@.L S K 1 & 0 D D S a.d.o.@.#.%.%.o.` o.o.%.&.o.%.a.i.a.d.&.T *.t.G = @ # @ . @ > u m L r h v V D [ 5.5.t.a.4.] L D J V d 0 , 1 m J L X.V.i.m +.I.&.@.Z.`._.s.6.4.8.9.a.y.2.| 2.2.2.4.y.y.m.8.m.(.(.C.5.4.| | 3.7.b.Z.y.] V J #.O.' y.Z.3.N s 2.d.Z.L.Z.a.V.F.~._.|.&X{.F.Z.K.Z.F.F.B.a.5.5.d.f.g.$.X.3.#.D m ` ....` D ` ..b.~.XX~._.F.F.d.a.K.C.O.N v B _ m _ #.2.| O.F B [ | 2.6.3.7.2.| [ { 9.4.' o.a.C.s.Z.Y.L.C.C.S.B.C.F./.,.-.6.W.{.&XqXqX4X(.A.m.D.F.n.B.e.V.Z.s.L.'.'.].E.I.Z.&.P T @.#.I S K 1 & r D D S d.a.O.@.%.%.%.o.] ] o.*.%.o.%.i.t.a.d.&.T %.t.I = @ # @ . # = u N L r h v N V [ 9.5.t.a.4.] L G J J n 8 , 1 d L L ] s.w.d +.U.&.@.Y.@X|.V.4.4.4.4.Z.L.{.Y.F.d.y.y.P._././.[.[.W.6.6.{ { _ v r r 8 7 u I O.O.u.Y./.n.6.n./.S.M.n.8.,.2.8.y.n.S.L.F.Z.F.F.F.B.B.a.a.9.$.%.a.Z.g.$.X.3.#.D b `  ...` ` ` ..B.~.{.~./.L.F.s.a.Z.C.2.V B V _ F [ #.2.| O.L M [ | 2.2.3.9.2.| _ ' 9.5.' o.a.C.s.Z.Y.L.C.C.C.a.Z.F./.,.-.6.W.{.|.5XrX4X(.A.A.D.Z.n.B.e.",
"B.Z.F.L.Z.Y.'.'.Y.F.s.3.+. .$.@.T U U a = $ , a +.u.%.%.#.o.%.o.] ] +.#.%.#.5.4.O.O.] %.t.K.%.> @ @ @ . . > 9 9 r : = * q h w b #.C.Y.oX_.i.o.N V | m d m m m m L ` #.$.T i.K.@.&.Z.Y.Z.B.4.4.9.2.4.4.O.| 6.2.] 7./._.9.-.z.(.{._.V.| G ^ 7.F.Q.Q.B.7.#.y.Z.Z.Y.Y.4.#.L G #.Z.Z.B.F.B.F.F.~.H._.XXXX].T.K.5.5.i.H.B.@.&.i.f.s.#._ ` #...P ] ] ] X.#.3.H.H.B.B.V._._.Z.Z.I.Y.L.a.O.F [ >.2.3.2..._ ] _ v v V #.3.] ] 9.3...[ 6.B.O.F O.d.a.a.Z.F.d.8.2.4.4.8.n.,.;.<.n.W._.&X5X4X{.F.C.C.a.9.s.e.B.G.Z.Y.F.Y.'.T.T.F.s.5.+. .@.@.T T U p = $ : a o.4.%.%.#.o.+.o.U o.#.#.#.%.4.4.#.| U &.g.E.%.& . @ @ . . = 9 i r : = * w h r v O.C.Y.].E.y.O.m m | m m m m m m P ` #.$.U i.I.@.&.Y.T.Z.Z.5.i.9.O.$.a.x.9.9.4.' u./.}.).%X(.(.m.<.>.{ ` ] | _ b a u n F 4.,.t././.8.x.[.}./.W.8.;.| ,.;.,.y.C.C.C.Z.L.L.Z.5.5.9.B.i.O.4.i.s.a.#._ ` ...._ ] ] ] ] @.5.S.V.b.e.B._./.Z.Z.Y.Z.C.y.O.[ } O.2.2.$.] _ ' _ n v V 2.3.{ { 9.3.O.[ 2.C.O.F O.d.a.a.Z.F.C.4.2.6.4.8.9.1.:.1.n.W.[.&X7X5X}.F.C.A.a.9.s.e.",
"P  .V.H.Z.F.F._.{.F.9.9.3.2.@.I S J U J & & a ..%.o.%.o.#.o.o.o.o.o.%.%.t.C.a.4.| | #.P t.E.I O . - # X # 9 i 9 0 $ - & C 8 C b u.Y.L.Z.Y.Y.Z.3.5.s.L m I ] L +.$.O.P X.w.I.h.i.p.5.9.Y.B.$.9.y.a.V.B.8.| ;.| ,.m./.Q./.D.D.P./.}.C.] m B 6.Q.S.x.7.2.B.a.V.Z.C.s.2.` I ] 4.a.a.5.4.;.6.9.S.H.H.T.T.T.T.a.U n S %.C.L.s.5.f.Z.i.#.] 9.V.4...[ J ^ 2.5.>.2.7.x.F.{.|._.`.T.Z.C.B.9.4.] | 9...] 9.2.] [ m y v ] ` r 8 m >.9.2.2.s.y.#.5.t.5.%.#.O.] ] O.] 2.y.n.8.,.:.,.| | A.{._.F.F.B...V L 2...` X.Z.F.F.F.L._.{.Q.9.9.2.3.@.P J J U G & & v ..%.#.%.%.+.o.o.%.o.O.#.%.t.C.B.4.| 2.#.P t.E.I O . - # X O 9 i 9 0 $ - & C w 7 b t.L.L.L.Y.Y.Z.6.5.s.U m U ] I o.$...P  .i.I.h.p.i.w.w.`.Z.5.B.V.V.V.a.6.7.9.O.[ u.P./.).(.(.(.z.-.;.;.;.| 2._ v u u _ O./ ! >.A.8.| n.(./.M.n.<.} 1.,.-.} 2.y.9.9.a.s.Z.a.| V J $.a.f.i.5.g.Z.i.#.] w.S.5.#._ L P 2.7.>.2.8.9.Z.'.'._.Y.Y.C.a.9.9.2.} O.7.| ] 9.$.' [ m r v ] ` y 8 m 2.9.6.2.a.y.#.5.t.5.%.#.O.] | O.] 4.y.n.8.:.;.,.;.;.A.}._.F.F.B...G L 2...",
"D ..H.H.L._.F.A.A.A.8.8.B.9.y.#.+.t.%.m 9 0 S  .o.I o.%.#.o.o.+.%.#.o.#.4.C.B.O._ } 7.3.t.Z.o.$ . o # # = > > , 0 8 & O : 8 k D C.E.Y.9.Z.'.{.{.`.V.4.] o.@.%.Z.G.9.J L *.h.U.h.i.$.a.T.B.O.#.5.B.Z.9.4.,.,.2.n.A.A./.(.).D.z.m./.i._ N N { >.-.{ >.x.a.a.i.%.%.#.] #.] I #.5.u.4._ V { 2.e.F.G.I.T.U.U.5.U d J #.i.Y.oXoX`.B.a.Z.Z.Z.V.V.9.O.] ..5.| [ ^ { >.A.B.B.B.B.L.C.9.B.n.4.2.9.B.4.3.9.| m r a a N m m y 7 v ` b.9.` _ #.d.L.i.&.] L m n n G ` #.8.C.n.,.<.x.,.! { B.A.e.9.#...J m m b S ..F.H.L.[.F.n.A.n.7.x.B.9.y.2.+.5.%.G 9 0 S  .o.I o.o.#.o.o.o.%.@.o.%.%.C.C.,./ | 7.2.t.d.o.$ . . # @ - > > 9 0 < & O : 8 y L C.Y.I.y.F.].].`._.V.2.] o.+.%.Z.H.9.L K *.f.U.h.w.@.B._.Z.5.5.5.s.Z.3.4.y.B.C.M.n.z.W././.W.x.! { z.A.7.] _ V B n n F ( B N _ -.,.;.8.A.n.1.;.;.,.1.} } ;.1.6.2.9.B.V.F.a.#.G m ] 5.Y.@X]._.B.i.Z.V.F.V.B.5.#.] | 7.| ` ^ | ;.A.A.y.a.B.Z.y.7.9.9.2.,.7.9.2.$.7.| m r a a m V m r 8 y [ b.e._ _ #.d.L.i.&.] L m d n V ' #.8.M.n.,.,.x.,.! { b.B.e.9.#...D m m b ",
"] 3.a.F.B.Q._.Q.A.n.D.W./.A.n.B.y.y.#.m t d  .5.*.o.o.%.%.o.o.#.%.5.#.O.%.4.2.[ B N _ ` U S 2 + O X O * 4 = > m S f 1 % p _ $.i.V.'.E.Y.{.&X<X1X<XF.C.5.#.@.5.Z.G.Z.e.$.q.h. X XI.Z.H.Z.Z.a.5.y.V.Y.V.5.#.' ' 6.n.x.A.D.A.n.1.O.O.O.V u m B ^ _ G | B.s.C.d.t.#.@.5.%.5.t.y.4.5.y.] B [ ] 7.Z.G.I.G.G.f.r.i.a.a.5.y.Z.oX9X3XY.F._.'.Z.V.C.C.a.5.t.a.9.} M h ^ 7.2.;.>.3.9.9.A.C.7.O.9.B.3.] ....] / v r u n n n s 9 e B | 2.2.C.L.E.`.@XY.2.P m r u s F O.4.4.8.n.n.8.1.;.;.7.9.#.] #.U K D S b ] $.B.F.B.Q._.Q.M.n.A.W./.A.B.n.y.9.@.d t d  .5.*.o.o.%.%.o.o.%.5.%.#.O.%.5.2._ n v _ ] ` m 2 + O X O * 5 = > m J f 1 % p ` $.i.Z.T.`.~.|.&X<X2X&XF.Z.5.#.%.0.Z.G.Z.p.+.q.Z. X XI.F.Y.F.Y.V.y.i.V.H.Z.a.y.y.8.n.8.[ <.c.8.B e h N Q ! | { ^ v V B n V M M B v B [ ` 4.B.A.x.,.2.8.9.9.,.,.2.6.8.9.y.a.s.y.y.y.t.4.4.Z.oX6X3X_.L._.`.L.B.Z.C.y.y.9.B.y.[ M z / 8.2.| 2.2.9.9.a.A.4.| 8.B.2.] ..| [ D v w u n n n a 0 7 B ;.2.,.B.L._.]..XY.2.P m r i s G %.O.4.u.m.z.8.1.;.;.7.9.#.] +.` K J b m ",
"3.e.Z.F.7.4.n.D.M.M.W./.D.m.8.9.C.a.@.J d P +.&.&.%.o.*.*.+.o.#.o.#.o.G G n n F V m D ` U t ; ; + . O : - # , m J d p f P @.t.Z.Y.`.|.}.%X{.|.&X}._.V.4.o.o.%.p.a.G.G.r.p.G.I.U.T.I.Z.F.C.Z.C.a.i.V.B.$.,.O.( [ c.n.z.m.z.8.4.' F [ F v V V ] 4.2.#.5.F.K.Z.&.+.5.w.w.i.Z.5.I ` a.C.9.#...2.B.H.h.p.s.e.a.Y.|.U.5.%.Y.<X0X5X@X_.Z.T.Z.a.B.F.Z.C.M.P.D.,.M v -.F.Q.B.9.` b v ] 2.4.2.9.B.2.X.#.` V L F G v s n m v z a M _ 2.A.D.D.F.E.H.Z.y.#.F a u a n n m 4.C.m.4.8.1.8.7.9.i.2.] ]  . . .X.U 3.e.Z.Z.4.2.n.D.M.M.W./.D.m.8.y.C.a.4.J d P +.&.%.*.o.*.*.+.o.o.+.#.o.F V n n F V V D X.R 2 ; ; + X O & # # , m J d p f L @.w.Z.Y.{.].}.{.{.}.&X{._.Z.3.o.o.&.i.a.G.G.e.p.h.J.U.R.U.Z.H.C.L.Z.a.w.V.b.#.u.y.-.| 8.<.[ 6.;.~ B v 8 C r v ^ B v B B n / / V M B _ m b 2.y.B.B.2.8.8.9.A.n.z.,.;.2.2.2.6.4.i.Z.T.Z.2.$.L.@X6X6X@X_.L.I.Z.y.B.Z.Z.B.C.F.C.,.B z } A.S.A.9.] V N ] 6.2.2.7.i.#.] ..` G _ L V n s n n v a v N _ 2.A.F.F.K._.Y.Z.y.#.F a u v n n F %.M.n.4.8.8.8.9.7.e.3.] ]  . .+.X.U ",
"f.Z.V.T.L.a.8.2.1.m.P.M.M.y.8.4.L._.y.J J U T @.*.o.U U o.o.#.+.] ] ] o.n i V ' G G L S T A 2 1 1 1 p p : : s U K S J Y *.i.i.Z.H.'.}.{.[.Q.[.[._.{.Z.a.+. .i.i.r.w.@.@.s.f.0.i.w.e.B.B.8.d.Z.%.#.e.e.9.4.9.O./ | 7.8.8.8.8.4.F B _ [ N n n } a.C.a.5.Z.{.V.O.5.w.3.i.V.G.V.5.5.a.C.B.a.9.#.3.V.V.s.s.V.Z.].1XXX5.2.F.@X6XqX2X_.C.f.5.] 8.K.C.Z.L./.y.u.[ x [ x.W.V.2.D b a v O.y.i.Y.`.5.] ] S P 2.` n i v ` O.] [ ! _ ;.A.'.'.L.L.F._.|.{.B.] V V V n n F _ ' O./ [ n.D./.F.9.#. .U  .@.p.w.w.Z.Z.V.T.F.B.8.6.8.M.P.M.n.u.8.4.Y._.y.J J U T @.*.+.U U o.o.+.#.] U I o.n i V ' J V K Z T Z 2 1 1 1 2 a , * d U Y m J Y *.0.i.Z.Y.'.{.[.[.Q.[.^.[.'.C.a.+.] &.s.r.w.$.@.s.f.0.w.w.a.B.B.4.C.L.%. .w.a.u.u.C.8.} 2.8.z.;.| { B 8 8 8 4 0 N v N ] } ! B V F F ] O.] L ` 5.4.#.O.2.| [ _ ,.n.9.,.} [ [ ] 4.B.F.T.F.2.#.C.oX6X6X4XL.C.d.t.] 4.F.Z.C.L.P.M.u.} x [ n.F.B.2.L m s n O.9.9.Z.`.5.] ` m _ #.] m 0 a ' #.] [ / _ ;.S.[.'.L.L.F._.].{.B.] V V V n n F F o.O.' [ n.D./.F.9.#. .U  .@.a.p.w.",
"f.Z.Z.Z._.F.A.n.M.M.M.n.D.m.n.9.B.|.Y.T U +.@.+.%.*.%.+.%.*.$.$.%.%.' o.L m _ o.U L Z A A 1 2 E Y Y Z p , b | i.+.+.U +.*.*.&.H._.{.'.W.A.(.(.!._.Q.F.Z.5.#.i.&.w.s.V.r.w.j.s.s.i.y.a.i.4.y.a.] D ` >.] ] 8.4.O.| ;.;.;.,.| _ F n v v / F V ` 5.Z.C.6.4.a.B.4.5.V.a.a.Y.Z.Z.a.y.V.t.5.a.5.| ..e.V.a.a.s.`.XX8X1XZ.B.Z.A.|.<X<X_.C.Z.d.4.4.S.L.P.'./.P.n.8.V V D ] ..D D S ] ` I 2.5.5.L.a. .| ..2.5.4.%.F F #.y.a.b.6.6.A.W./.[.'.'.F.'.XX<X|.Q.F.y.] F I O.F G ' o.,.F.[._.Z.B.i.&.w.@.] +.s.f.Z.f.Z.F._.L.B.y.m.M.M.n.D.M.n.8.B.|.Y.T U +.+.+.%.%.+.*.%.%.$.4.%.%.] O.F m ` o.I P S A f 1 2 A E E Z 2 , s  .y.+.+.U @.*.&.5.F.Y.{.[.W.W.(.[.Q.(./.L.Z.5.@.w.5.w.s.V.w.r.h.f.s.w.i.a.y.4.y.d.` m _ ..` [ y.S.y.9.2.#.;.[ B r 7 7 e 7 0 m s n [ | ] N a v J #.$.t.i.%.] +.o.` | ] ` L ] [ ' } / / _ ] | a.H.Y.{.B.B.B.S.'.;X<X_.C.f.d.4.4.F.F./././.C.n.8.G F / | 2.D D V ] I ` #.4.5.Z.e.|  ...$.5.4.O.I F 2.9.B.n.2.6.A.F./.'.'._.F.'.-X<X|.Q.F.y.| F F O.F F ] ' O.W.'._.F.s.i.&.5.@. .+.a.V.",
"5.3.e.Z.B.a.B.n.m./.W.m.v.<.<.8.8./.C.L L ` #.] +.a.t.#.9.2.] _ | 2.L s d d L U %.I p 2 2 f f E U T P d L L m F F I I J %.*.w.f.V.V.D.Q.D./.(.(.%X%X/.S.y.C.t.+.$.s.I.T.j.j.i.p.s.e.3.9.y.a.V.` a N L L _ ] ` O...>.3.6.| F d p u u u m F _ O.5.Z.B.` m F _ O.4.7.e.Z.~.Z.e.t.a.Z.L.y.y.s.V.a.V.F.V.s.w.0.S.XX{.F.H.{.{.;X6X6X@XL.d.C.C.D.C.D./.[.Q.W.C.4.O.] F ` O.` P 3.Z.F.Z.B.4.2.x.B.9.F.Z.a.i.4.4.4.4.y.C.L.D.x.x.D.C.Z.C.x.A.Q.}.-X&X&X_.F.A.n.2.2.2.v r G O.y.D.F.F.L.C.5.d.d.9.#.O.B.s.4.2.i.F.V.a.A.n.M.Q.!.m.z.<.<.1.9.L.B.L L ` #.] #.a.e.#.9.2.] _ | 2.F d d d L ] +.L p 2 p f 2 E Y T Y d L L m G F P I J %.*.w.V.Z.S.D.W.D.W.(.(.%X%X/.F.y.Z.t.+.$.V.U.U.f.f.r.r.s.e.3.9.i.a.V.L r a G m V ` ] a.B.2.7.2.[ r > 4 > e u n p p n m _ ] ` L _ ..$.$.i.d.@.] i.i.$.@.5.5.3.P N m V [ } / ' ' ] u._.H.B.F._.~.&X3X3X@XL.d.C.C.C.A.A.Q.[./.D.C.4.o.] _ [ ..{ ` $.Z.F.Z.C.4.,.x.B.7.F.V.a.9.5.4.%.4.y.C.Q.D.x.x.F.F.C.C.n.n.Q.&X&X&X<X/.F.A.n.,.#.2.m w V | y.A.F.F./.C.5.d.d.y.#.| V.a.",
"e.5.V.H.Z.B.7.S.W.(.(.(.m.-.-.,.4.1./ u a m F ' t.Z.4.2.;.] [ ^ / V r 9 t s L ] t.@.m f d E 2 f d f f t S D , - = > 0 H 0.i.w.a.a.F.D.M.D.N.W.!./.[.&XL.C.d.5.5.#.#.w.s.f.p.w.a.G.H.6.$.9.a.9.` v z m 2.5.$._ ` ] | 4.6.;.' G d d f n L O.$.a.H.Y.B.| F V B _ | ;.>.7.9.B.B.a.4.] 4.5.%.Z.].XX#X@XY.V.3.$.e.Z.V.V.F.{.4X6XtX3XK.a.d.Z.Y.C.,.z.m.W.W.A.B.a.%.$.#.| 4.B.a.Z.U.H.Z.s.6.] _ _ { x.B.B.9.$.4.5.u.a.Z.A.n.9.9.n.9.a.4.>.7.F.[.|.&X[.A.x.9.2._ F V V m B | B.x.A.n.F.'.L.C.C.y.Y.F.B.B.a.4.V.F.Z.B.9.A.W.Q.(.(.m.-.:.,.8.8._ u a n J ' t.Z.4.#.2.] [ ^ / F r 8 i v P ] t.$.d f d E f f f f f p m G 7 - = > 1 m &.i.5.p.y.C.F.M.D.W.W.!.(.[.}.L.C.a.5.4.#.#.r.p.f.f.w.a.Z.H.3.2.9.y.y.` v r v #.5.@.] | | O.a.2.V 9 7 9 u u v p G o.] @.#.$.$.] D X...` P L d I %.&.5.t.$.+.#.L P _ ] O.O.' / F ` O.7.9.b.B._.-X7X6X2XZ.i.C.K.L.S.,.z.A.W.W.A.B.y.4.%.#.] 6.V.e.Z.U.F.Z.s.2.] [ _ ] x.B.B.9.2.4.9.t.a.C.C.9.z.9.9.9.a.5.O.8.F.[.|.%X[.A.n.z.6._ V V V m m | B.n.A.n.K.'.L.C.C.i.Y.L.B.Z.",
"y.s.i.O.d.Y.B.B.A.(.(.F.M.z.<.8.M.1.G v r a F ` 9.B.9...| [ ! M z z 9 0 y v V ` 9.5.` 0 2 < 1 ; % $ % 0 S m v , = > i J $.q.V.U.F.F.F.D.W.A.D.W.m.n.F./.s.5.] ] U  .5.3.G.Z.s.Z.5.>.| ` ] 4.3._ _ L P #.y.5.5.$.V ' | #.#.] ] ] %.@.o.#.#.#.e.Z.Z.a.O.F n M / } ;.6.7.9.9.9.a.9.O.` ` O.B.`.|.#X@X].Y.s.w.e.V.F.V.Z.{.<X<X|.L.B.y.a.C.Y.2.M / 6.A.A.D.S.F.s.y.4.' 2.F.{.U.F.B.i.t.#.P v M _ [ 2.9.A.n.a.C.C.d.u.4.2.2.y.d.5.4.C.e.x.F.~.^.[.(.A.b.z.,.| [ F 2.9.2.5.B.A.n.2.y.Y.OXoX@X].Z.9.#.4.y.s.i.o.s.L.C.C.A.[.(.W.m.z.1.8.n.4.V z r u G ' 5.C.9.| { [ ! M z z e 0 i n G ` 9.5.I 0 < 2 , ; % + % t G V v , & > i J $.w.f.I.L.K.P.D.D.D.A.W.n.n.Q._.a.5. .] P  .5.3.G.V.V.G.7.3.| ` | 4.5._ ` _ ` %.a.5.9.2.V ' 4.| F u 0 G 4.4.H u L &.d.Z.5.@.&.] m S S S o.@.I U Z.I.h.f.w.+.@.P m ] #.5.4.} _ [ _ | 2.9.e.B.H.|.;X|.L.a.y.a.C.Y.4.B ~ 6.M.A.A.F.F.a.i.4.] >.F.`.U.Z.V.e.y.#.P N M _ [ 2.9.A.9.n.C.C.C.5.4.4.6.9.B.5.4.C.e.c.W.Q.[.[.~.A.A.9.>.] _ _ 2.9.2.5.A.D.9.6.9.Y.oXoX@X].Z.y.O.4.",
"4.Z.Z.#.2.s.B.a.n.L./.m.<.1.8.,.O./ n u 9 0 a m [ ] _ _ B M v h z M M n ^ V r v ..2.L J P f , : < < 8 s y _ ] r u G @.i.w.&.s.T.L.C.S.D.D.z.,.z.M.D.F.F.u.i.f.i.$.$.$.$.e.e.e.e.2.| m y v ] ] a m ` 4.o.o.5.y.9.2.#.O.O.O.#.t.i.i.a.a.t.$.` ` 5.5.5._ m n v v B { 7.b.6.>.b.F.Z.d.#.#.5.Z.T.`..X#X@X`.H.V.b.Z.F.F.e.V.{.|.'.F.Z.d.y.d.L.y.| ~ [ c.A.A.F.F.F.Z.2.[ 2.S._.B.5.e.B.V.y.| N N _ [ 7.A.x.6.| L.'.B.5.] _ 9.D.C.5.4.C.6.>.c.W.!.Q.D.A.b.,.} ;.| ' 8.B.9.5.9.9.8.y.B.F.E.T.Y.C.#.O.O.] 2.K.Z.#.$.B.a.y.n.Q.Q.M.1.6.8.,.;.F B u 9 0 v m [ ] [ L B M v h z x n B V N r M ..2.L J P s , : 0 < 8 N p _ ] u u G O.i.i.&.s.T.L.C.D.D.D.z.,.z.M.D.F.Z.y.i.s.a.$.$.$.$.e.e.e.e.2.| m a v ` ` a m ` 5.+.o.4.a.s.5.7.#.J m I %.o.o.o.o.' o.t.t.a.i.s.&.X.S ] X.$.f.g.+.G 5.K.U.h.p.&.a.p.@.$.4.y.C.n.O.} ' ' ,.9.B.9.a.Q.'._.Z.Z.a.y.s.L.y.| ! [ x.m.F.F.F.L.V.6.[ 2.F.~.B.9.9.s.V.y.] v N _ [ 7.B.b.7.| L.'.C.4.' _ 9.Z.Z.4.4.C.7.>.b.W.!.Q.A.A.x.>.-.;.| ' 8.B.9.5.9.9.7.y.C.F.E.E.L.C.O.O.| o.",
"d.Y.L.a.+.O.a.V.B.b.z.{ Q } ,.-.} / x z n F n n V F Q B k h h j z e g n ' ] N N v v v P P d s 0 8 8 s b V m r * v t.s.p.$.@.@.V.L.L./.C.n.8.8.9.D._.'.K.a.Z._.U.3.P D X...>.7.^ ^ m r y m D J s 0 s U m G y.a.C.a.] ` ] #.$.a.i.5.i.5.3.5.+.] ] I ` I B n c z u M [ 6.>.3.F.|.Y.y.a.C.I.Y.H.G._._.Y.Z.5.5.9.4.a.V.a.B.F.F.~.Y.Z.a.i.s.V.y._ F B N 6.A.A.B.Z.s.| [ >.b.V.w.5.w.V.F.a._ u a r V 6.6.>.| 7.A.S.5.O._ { 9.b.D.F.A.4.N z N ,.W.^.x.x.z._ B _ | ;.8.y.4.O.#.2.A.L.L.L.L.Z.Z.C.5.4.$.4.C.Y.Y.B.| ..s.C.B.b.x.{ N -.,.} ) / x u n F n n V ! ! N k h h h g e e n [ { N M N k v P L b s t 8 0 s b m N u & v i.a.p.q.@.$.s.L.L./.C.n.8.8.y.D._.'.Z.s.Z.T.Y.$.P L X...3.3.^ D N r 0 b D J s 0 s ` H G i.B.F.F.] _ L I T &.+.o.s.F.5.2.5.Z.I.T.Y.Z.5.q.b.Z.Z.G.f.$.+.5.U.T.f.i.f.I.g.5.5.#.| y.A.7.| [ _ } 2.9.6.9.B.S.F.F.Z.a.i.B.C.5._ / B ~ 6.A.B.B.Z.s.| [ >.b.V.9.5.w.V.F.i._ a a r V 6.7.2.| 6.S.S.4.O._ ' 9.n.A.F.V.9.N k N ,.W.Q.b.c.8./ B _ } ,.8.y.4.O.,.2.B./.L.F.L.V.Z.C.9.4.#.4.",
"a.K.L.a.#.] 5.9.7.7.9.| / / h g / [ / ( O.| V n F | } N h g M h 5 4 5 z M B M [ V 0 w , 8 0 d m s s m L P m m ] 9.i.r.w.$.@.$.V.K.C.D.D.C./.'./.F.C.C.a.4.i.s.+.S S D b S ^ ^ S a 9 r m ] 5.i.+.d J L H o.y.4.6.} N _ #.+.+.5.i.a.g.p.a.s.3.] $.#._ F B n c v c j ! { 6.x.~._.F.C.C.d.Z.Z.I.]._.Z.9.y.9.y.x.7.7.a.9.9.b.b.B.B.s.y.5.9.y.+.n v M [ 6.9.A.B.a.2.#.] ] >.e.S.e.5.7.i.6.S a 0 r _ 9.3.3.9.9.,.2.8.] ' | [ -.D.'.|.Z.' v v [ b.A.b.A.8.M 7 v _ 6.4.9.7.O.[ 2.A._._.Z.C.C.Z.5.4._ m ] a.K.K.i.@.] 6.e.3.6.9.;.Q ! j g / ) / [ O.O.B n _ { | M h g x h 4 4 5 z v M v [ V 8 0 < 8 t s m s s m _ L m m ] i.w.r.r.*.@.$.V.K.S.D.D.C./._./.D.S.C.d.4.i.s.#.S S D b N ^ ^ S a 8 a m ] 5.i.+.d J I m o.u.2.2.[ v _ #.' G ] @.i.].@X{.<X-X].`.Y.s.3.+.w.Z.J.Z.a.s.e.r.G.].R.T.R.U.U.p. .@.e.4.7.9.9.2.2.x.9.7.2.#.4.y.x.B.B.s.t.5.5.5.+.n a B [ ,.7.B.B.a.2.#.] ] ..b.V.e.5.7.a.3.V a 0 r [ 9.6.6.9.9.,.2.4.O.[ O.[ ;.B.'.{.F._ v z } A.A.A.b.8.M 7 z _ 2.4.9.5.O.' 2.A._._.Z.C.Z.Z.7.4.L G ' ",
"C.Z.f.i.] m m m [ 2.9.| B z q q c B ) O.' n 0 u n V M q e w l h 5 5 n z M v v ] 3.| ] n < 0 s S d J ] 3.4.| m J 5.V.&.s.r.X.@.B.C.D.D.D./.OX[.P./.D.4.` L  .O.I S S S m m ` ` y i a m  .%.p.U.g.&.%.U L 2.2.>.>.| | | L ] +.5.5.f.Z.U.Y.I.a.$.5.4.' F F B x c z x W -.>.b.F.A.a.L.K.L.Z.K.Y.T.V.y.n.C.A.A.B.M.A.C.B.7.6.9.3.#.#.` ` @.+.o.O.| _ { ] 9.e.5.+.` o.] L ` 9.e.3._ S ` ] N v v ' 9.B.B.i.9.4.4.#.4.o.] 9.x.b.A.F.F.s.I p s { S.^.A.6.N q 7 h V | ,.,.4.O.' x.F._.Y.B.4.9.y.a.O.G m O.C.Z.V.9.| m n m ] 6.9.] N v q q c Q [ | _ n 9 u n V M q q w M j 5 q z v N M v ] 3.] ] b < 1 b D S S  .3.5.] N L 7.V.3.f.q. .$.B.C.S.D.D./.}.}././.F.4.' F ] #.P S S D b m ` ` y r a m  .%.i.E.g.&.*.U J $.2.O.;.[ [ _ m G o.5.t.J.<X3X6X4X7XXX{.V.5.] D ..e.V.G.s.s.$...5.h.].$XT.f.U.I.&. .w.a.6.4.6.4.M./.F.9.9.9.9.4.9.7.#.#.] ` $.+.o.#.#.[ [ ] 9.e.7.#.U ] ] P ` 5.a.3.` m _ ] N v v ' 9.s.s.i.5.5.4.#.4.O.| 7.9.c.S.F.F.B.P p v ' S.~.S.2.! q 7 z ! O.| ,.2.,.' x.F._./.B.4.9.i.i.O.m m O.",
"B.C.d.y.J v m L ` #.] V v r r e q q z F _ m n v z r 7 r h w x j 4 4 e u 7 7 0 N V N P L 0 t y f S  .5.F.F.8.N v m  .$.G.s.P ] 4.n.Q.D.D.W./././.K.C.4.L m v n I X.s t b ` ` ` ` ` ` @.5.*.%.g.E.g.*.U J L 2.x.x.6.2.,.] ` %.a.s.s.s.H.Y.Z.Z.s.+.O.` n n G B z v x l N >.x.7.7.9.y.s.L.'.].'.F.C.F.F.C.S.D.D.D.S./.F.2.2.6.2.#.#.o.#.5.&.5.$.9.i.4.9.B.5.+.] K J J S ` e.w.` b v N _ v M ] Z.s.#.i.d.t.B.V.y.y.y.y.F.B.Q.S.A.B.2.o.] I 3.F.F.9._ M v r h v V _ F B n n ,./././.F.O.[ O.2.] n m O.d.C.f.y.G d d L ` #.] V v r r q q 4 x I ' H n n z r 7 q j r v g 4 q r r 8 8 0 m V m [ L 0 p p p S U 5.F.F.3.N v m  .$.j.s.` ] 3.n.F.D.D.W./././.L.B.4.L n d d I X.b t b ` ` ` ` ` U %.&.&.*.f.U.p.*.U J F 2.9.z.,.| } F G %.Z.T.`.{.-X~.x.9.7.9.w.s.` U X.X.#.w.$.$.@.P U i.h.i.i.f.G.T.w.] $.9.i.2.| 4.F._.A.A.F.F.8.6.6.3.#.#.] +.5.5.5.$.5.e.4.9.B.7.@.U P J J m ` e.w.` b v V _ v M ] V.B.O.y.d.t.d.C.y.i.u.e.F.A.Q.S.B.B.3.#.U I %.F.F.x.[ v k r z v V _ F B n v 2.F._._.F.O.[ ,.2.] n m #.",
"s.Z.L.@.f f J S U $.L p 0 0 r e 7 r ( O.] ` L n N y k M v l k M h e 7 0 u a u 0 8 , < u p H L L m S #.B.9.{ N 0 = : X.s.3.X.` { 7.A.x.A.W.W./.W.D.n.C.%.u > i H m p p G _ ] 5.y.9.5.%.@. .U @.p.&.+.` U #.| 2.b.;.V ] #.#.4.C.Z.s.V.s.s.a.V.f.a.%.] L F M n z h z M M ! ` ;.7.9.9.C.'.Y.Z.Z.V.B.B.A.F.D.A.A.A.A./.C.O.,.9.6.] $.w.5.5.+.4.4.5.9.B.B.F.Z.i.9.%.U J J o.%.o.G a v v m F _ 2.B.e.5.d.Z.Z.B.V.F.H.'.}.Q.x.z.~.~.b.9.5.i.d.d.Z.u.G v a r u z u V F N r r N | x.9.;.| ] | | V r v m ] B.Z.H.@.d p J S ] +.L s 0 r r e 4 h _ O.] ' F m m r k v M l v l h q 7 8 r a 0 u 8 > < 0 s m L L m S 2.B.4.` n w & : X.s.3.X.` ..7.A.c.W.W.Q.P.P.C.y.C.#.u > 0 G m p p G I I 5.y.9.5.%.@.T U @.p.5.+.U I $.| O.b.;.M ` | #.%.Z.E.Y._.'.x.| ` _ ..i.5.U  .+. .X.T T X.U Y J T a.i.p.f.s.H.H.s.r.e.5.| ` @.9.n.A.S./.B.;.2.9.6.| $.w.5.5.#.4.5.3.9.n.B.L.Z.i.9.%.U J I U %.o.G s v v m F _ 2.B.9.5.a.K.K.B.B.F.H.'.{.W.x.z.~.Q.A.9.4.i.i.C.Z.y.L a a r u a u V / n e u V | n.8.;.| { ;.{ V r v m ] ",
"].'.f.%.*.i.k.%.0.w.U p n s u 9 0 N 9.Z.4.' ` L N w w 8 w w q q w r e a m L U ] J 0 9 p L ` P m S L ..3.2.N 7 , * 8 ` ` D ....| [ [ <.l.M.M.<.<.8.n.B.O.9 , H F m d L ] +.%.i.y.i.4.$.w.&.%.5.&.+. .@.5.4.$.9.e.2.F N V F #.V.F.9.e.5.5.i.p.a.s.Z.V.5.| F c z e h h N M V [ >.b.F.L._.Z.f.C.s.9.2.6.x.m.A.W.W.W.S.8.,.2.7.#.#.5.5.5.$...4.9.2.| 9.A.B.s.V.s.w.%.@.o.+.%.5.+.J m d L ` ` ..2.F.|.Y.H.Y.B.A._.|.|.F.A.n.n.W.~.b.>.O.t.d.d.o.L n d 0 u m L F / n v r u v B / M h v ! ! B V D ] ..e.].`.f.@.%.i.i.%.0.t.U p a s i r 9 V 9.Z.4.' ] D N r w 7 w q w q r r r u m _ _ ] J i 9 a J P L S S L ..7.6.N 7 8 * 7 ` ` D { ..;.^ { :.l.c.m.<.;.8.C.M.O., , n F d m J ] O.$.y.i.i.4.$.w.&.%.w.%.@.] %.&.%.#.9.b.| V N N m O.C.Y.B.9.x.a.9...P #.+.X.] @.5.q.@.@.T  .T Y Y +.0.p.5.$.e.B.e.e.w.3.$.] P ] 4.B.F.F.A.8.,.2.7.| #.3.5.5.....4.9.2.O.7.A.a.s.B.s.w.%.@.o.+.%.5.+.G m d L ` ` ..6.Y.].Y.L.L.B.B.~.&X|.F.A.b.b.W.Q.b.>.O.t.d.d.o.L n v r a m / F F v v u r v B _ M r M ! ^ B V V ] ..a.",
"Y.Y.T.f.I.T.G.s.f.s.] p p n m u 7 v 2.V.y.| _ v t r w 8 q C C * = 7 z N O.7.4.4.5.] P ` O.P n b b S ] 6.^ * * y N ` S y ^ >.{ [ N M [ <.,.:.( F } u.4.u 4 ' 8.1.| } _ o.#.] ] L ] #.6.5.e.5.3.| +.O.#.&.5.$.4.9.#.` n n G 4.e.e.4.2.2.5.5.&.a.s.G.Z.9.V v n F ! B v v v N _ ` ;.a.B.C.s.s.s.s.4.#.2.7.8.8.c.c.b.A.2.' ' | | 5.i.w.3.` ..9.7.-.[ } 7.9.9.B.i.5.w.&.#.o.&.d.t.U J m I o.O.6.6.x.b.9.n.B.b.F.|.|.F.F.a.9.Z.Y.{.B.2.O.+.%.5.I L m L J ' 5.y.4._ r r N / [ _ B v h z M l N m 2.Z.S.V.H.T.T.j.U.T.I.g.f.g.o.p p m m r 9 v 3.B.9.| _ a 0 r 8 w q C C * = 7 u N O.4.4.5.5.O.L ] O._ m b b S ] 3.D * * r m ` D k _ >.{ ^ V M [ 6.<.;.( F | u.1.u 9 ) 8.2.O.' _ | #.| ] ` ] #.6.5.i.9.2.O.#.#.#.@.5.%.5.4.O.` s n F 9.a.Z.a.2.| 2.3.] L 2.%.+.5.w.s.e.$.X.$.r.p.T U *.w.s.a.#.#.` ] 3.V.f.w. .`  .%.9.B.B.9.;._ ' ] | 5.t.w.+.` ..7.7.-.[ | 6.9.y.V.i.5.i.5.@.o.&.d.t.U G m I o.O.6.2.x.b.9.b.B.y.F.|.|.~.D.a.9.Z.Y._.B.2.#.+.%.5.I L m J D ' 5.y.4._ u z N _ _ / B v h h v l N V 2.Z.V.V.",
"a.e.s.Y.I.U.G.G.I.Y.5.m a L O.m 7 w V 7.9.O.V v y r r k r w k k h v | y.y.7.#.2.$._ v n u 8 8 0 0 s L D m y v N ] 2.N y N { | [ Q M z x n ( O.F u B G e } D.n.:.} _ z r v m v r v V L | 5.2.] ] ] N a ] @.+.5.5.#.O.%.I | 4.2.2.4.$...%.5.@.w.Z.Z.Z.w.L n F ] [ N y v v y N B V | B.5.] O.#.$.....#.2.8.8.x.l.9.y.2._ _ #.y.3.5.V.5.] 6.A.A.} B _ | ;.8.9.3.4.9.4.7.i.t.Z.d.+.] J I o.O.2.[ { >.8.>.6.x.9.F.W.A.C.a.u.t.a.Z.F.F.B.i.V.H.5.+.o.%.] L ] a.B.4._ D F m v v q q z M M g v k _ e.Z.Z.b.w.s.H.I.E.h.K.I.Y.5.n a F ..m 8 9 V 6.7.2.D v a y r y r r k k h v | x.B.8.#.2.%.L s b a , 8 0 0 s L L N y s N ] 2.N y N { { { W M x h B ( ,.F g n G r ' P.m.,.} ( u r a m v 0 a V _ | 6.$.] ] ] V v ] %.+.&.u.#.$.5.| $.5.O.4.a.#.G V V v L i.s.a.3.s.G.s.$.$.$.q.*.*.*.0.p.s.w...` S D ..J.`.a.5.p.s.a.5.3.6.9.2.[ _ 6.9.2.4.s.5.| 6.A.A.[ N / ;.;.8.9.2.4.5.4.4.y.i.Z.d.+.] J I o.O.>.| { ;.6.:.8.9.x.F.F.B.C.B.i.5.d.Z.F.F.d.y.Z.K.&.#.+.%.] J ] a.B.4._ V F N v v q w h M M h v y _ 9.Z.Z.",
"w...X.5.Z.H.T.H.T.Z.+.v a F ' V l D { 7.;._ N [ L y a r r k y N N v { 7.| _ [ | ] m r , = & t 8 1 H I ' #.2.4.` ` { _ D ! { >.! N ^ w q B ' O.v > 0 n n ,.z./ Q / Q c , r n N b v v b D L [ 2.4.| n F O.O.o.#.5.5.O.%.#.9.a.9.7.4.#.] 5.5.2.5.a.V.Z.a.4.] O.O.] G m m P L V ] >.x._._.B.a.4.$.] ] 2.9.a.F.A.b.9.O.G a B ` 2.#.] a.e.e.6.z.b.6.[ <.6.' } L V m m m ] ] 2.e.9.#.#.4.%.4.#.' B ! 8.:.=.6.6.;.x.W.~./.C.C.y.2.5.D.C.9.B.Y.Z.V.$.] ] P n ] Z.F.i.2.#.#._ m v n B c z W v v N D ..e.V.w.X.] 5.G.Y.T.H._.Z.| m v V ] V v V | 7.>._ N _ D a a r y y k N N v [ 7.| _ _ | ] m y , = & 0 0 8 m P ` $.2.4.] _ ] _ / ! { 2.! W ^ e w B ' O.m > i n n ,.8.( / / Q c > r m N N v v v L L [ 2.2.| n F O.O.o.#.t.5.#.5.u.Z.Y.V.e.5._ b L L L ` 5.s.B.9.a.e.e.a.f.w.X.T T T  .&.5.J m L N b ` a.J.a.w.Z.s.s.B.5.2.2.] V V ] 6.] ] a.9.9.2.x.A.<.[ ,.8.} ] L m V m V ` ] 3.e.9.#.$.4.%.4.#.' V ^ 8.6.{ 2.6.;.x.W.~./.Z.C.y.%.5.D.B.y.B.L.Z.V.%.] ] P b ] Z.Z.a.#.2.#._ G v n B z j N v k N D ..e.V.",
"..+.5.r.s.s.V.e.B.5.V V | #.D v S ^ 7.^ M r a _ D 0 a b v k r e 7 4 v ! { [ ] ` G s u > & , 0 b I T +.%.+.5.5.2.3.| m ! | [ :.[ ~ ^ j w / } _ N n F F / [ M 4 h Q x e 7 0 v v v y k v v a m O.4.O.F / ' } ] O.4.4.I n ' 4.A.B.9.7.2.#.#.5.$.@.5.5.9.a.V.5.4.O.I ` +.5.s.a.[ _ ;.9.S._.].U.G.Z.e.#.4.a.y.2.] 2.a.5.` d F | O.#.] | | ] -.-.;.z.D.A.<.[ B m n a a v V N _ ] | L #.d.C.9.` V M ! [ >.A.b.7.6.2.7.b.D.K.C.C.a.9.y.B.4.6.4.Z.Y.4.+.#.2.] a.Y.a.a.9.2.2.#.' _ ;.O.F M ^ B M y v P ..$.$...w.w.e.a.B.i.V.5.V m ] 2.! v v _ 7.^ M g y _ V 0 a N k k w e q C v ^ [ | ] ] G v a * & > 0 d K U +.%.] 2.5.3.3.| m ! { [ ;.{ ! ^ k e F ' / N n G F / } M 3 g Q x e 7 0 v v v y k a v a m O.4.O.N / ' ' ' o.4.5.' n o.C.|._.B.3.P m m ..3.#.5.4.i.i.4.X.X.$.e.$.T T  .$.@.w.X.v V ] G _ ` | 5.e.a.f.r.5.5.5.u.9.O.F ' | ..#.` ] | | ;.-.;.x.D.m.1.[ n N N a y v V N _ | ] D #.C.C.7.] V x ! [ :.b.A.8.2.2.6.c.S.D.C.C.y.9.y.B.8.4.4.V.Y.4.o.#.$.] B.H.s.a.e.#.#.O.' _ ;.,.V N ! W M y m ` #.$.",
"..$.w.3.$.w.a.C.a.L a a L D N D { ^ [ ^ v h V ] F u v b y r e 3 * 7 v W _ [ _ _ V d 0 < & % % 2 T *.i.i.%.$.] $.T.|.9.A.x./ ! [ ^ V M l ~ _ Q V ' 5.9.y.2.M e M ) B 9 9 0 a r r y y r 0 a n L 2.8.' ) ;.} ,.4.o.I n a v _ } ] 7.9.9.4.#.4.2.O.#.$.9.V.C.d.Z.Z.a.i.i.p.5.4.| ] 8.B.b.B.e.s.Z.T.Y.s.B.d.t.L G ] #.%.%.G 4.a.4.@.' ] ..| x.A.A.D.'./.4.F / #.4.` v s v v N [ { [ ;.n.n.8.-./ [ -._ 9._.9.7.2.;.x.A.n.x.B.y.y.#.| 4.a.4.5.B.Y.s.V.B.2.] B.Y.s.B.5.m m I ` ' O.,.[ [ _ M r v D ] 5.q.+.$.w.w.3.r.a.V.i.L u s L G N L { ^ [ ! z v ! ] D a s v k r r C * 3 k V [ _ _ P G f 8 < > % % 2 T *.i.i.%.$.] #._.|.9.n.x.[ ~ [ ^ ! M x / ( ! m ] 4.9.y.1.M q M / B 4 9 8 a r 0 r y y 0 a m L 4.8.' } ;.;.,.1.o.I n u v [ 2.>.7.5.$.P J  .] P ` o.t.y.` m m  .0.w.*.p.r.r.w.5.D t a m m P ] +.3.a.V.e.%...] O.] o.O.' O.4.4.#.` ] >.| 9.D.D.D.[.'.4.F _ #.5._ v s v v M _ { { ;.y.n.8.-./ [ -._ x._.9.5.2.;.x.W.n.n.B.a.d.O.} 4.y.4.4.V.Y.s.V.a.O.| B.Y.B.s.7.m m ` I ) | ,.[ [ _ M k v G ] 5.&.",
"0.0.$.$.$.a.a.V.4.m v a v m L ] $.#.3.2.Q M F ' N s v a w w r q 3 k r r r a V P G m d 2 & < 1 p +.&.*.] #.] ` O.B./.9.9.c.[ N M ^ ^ N M x M V ! ' ,.4.O._ M B ;.8.1.F z a a 8 r y v 0 a n m G ,.4.( F O.) / O.4.O.' L m V [ _ 2.9.i.%.5.i.s.9.5.i.V.V.L.K.].+XR.T.I.a.t.y.L.F.A.F.S.B.e.a.5.a.s.d.L.K.i.&.&.5.] I %.%.@.2.4.2.O.] #.b.F./.Q.F./.L.u.] o.4.5._ m v r y r ^ x.x.7.9.n.x.6.2.x.A.2.9.B.u.5.2.] z.A.8.x.S.C.C.C.B.F.B.O.] a.B.5.a.V.4.$.4.a.i.| V s a u F m F V v k k h m ` ..5.r.a.0.5.$.$.$.e.a.C.4.m v a a N J ] 3.$.3.2.! M V ' m v v y r 7 r q C h h r r h V _ G m d i ; , 1 p *.&.*.] #.o.U ..C.Y.y.8.x.[ N l ^ ^ l M x B B ! } ,.4.,./ n F | n.1.F u r a 0 w y v r a v m G ,.4._ F :.[ F ] 4.o._ G u m ` [ 3.5.#.U U P U +.5.t.a.U d s S +.i.s.0.0.a.w.@. .` p , a V G ..] ..i.G.s.#.` P ] ' L ' o.4.4.2.2.| ] 2.B.S.P./.D.L.P.y.] ] 4.4.` m v r y r ! x.c.7.9.n.x.6.2.x.A.2.9.B.7.5.,.] 9.A.8.x.A.Z.C.C.C.F.B.O.] a.B.7.s.V.5.2.4.a.i.| V s u u G G F G v v k y N ` o.5.i.d.",
"f.w.w.w.5.5.$.y.s._ a y s | 5.$.4.w.9.#.N u v G v z v u r w u r r a 0 p m ` | 4.%.p 1 1 1 Z U @.I.f.%.` ` ] L ` #.2.8.z.;.! x v [ >.[ N v M n B F B z g z V _ ,.2.O._ v n 9 9 g u u u r u _ ;.,.C.n.Q B ! ! V ` I ] ] L L _ P %.y.a.t.i.s.B.a.e.9.a.a.s.K.f.d.K.I.V.t.y.C.C.F.F.F.S.e.e.e.w.e.w.e.Z.p.*.@.w.H.V...2.y.4.#.4.#._ ` 3.e.H.F.F.B.C.F.F.9.| #.] m k u u u r k ^ ;.;.>.6.x.A.B.F.B.4.a.4.[ #.9.$.| x.F.A.A.W.D./._.{._.9.#.w.Z.p.5.Z.V.5.e.7...| #.] m d n I ' m u w u m _ #.$.5.a.h.f.i.i.w.5.5.#.a.B.L v a a ..5.$.3.e.9.#.V r v G a v u u r 9 y r r a 0 u m L ..4.%.t 1 1 1 E U @.K.f.%.` ` ` L _ O.2.8.8.;.Q v k [ | ` N l M M N / B z e z / [ 2.4.O._ z z e 4 u z u n 9 u / ;.,.A.x.! B / / F ` I o.I G G P J #.w. .U U J G _ O.9.a.#.` ] &.%.w.0.$. .X.P ` ] ] J s p m D L P ` o.5.5.O.L P %.9.#.#.4.5.4.4.#._ ' 5.e.H.F.F.B.A.F.F.9.| #.] m a i u u r M ^ | >.>.6.x.B.B.F.B.9.B.4.[ #.9.2...9.A.A.W.D.D./.[.{._.e.2.i.V.a.w.Z.s.w.7.7.....O.` m d n I _ n u w a m ` #.$.5.s.h.",
"i.i.G.w.#.` ] B.Z.| r y J #.4.5.5.#.O.P m a m ] ' ` J 0 9 n _ m v m V L @.5.$.5. .p p E Y @.w.Z.I.d.#.L ] m G ] F | n.8.M g h r N | ] _ z 7 r V | O.G u v B / ,.,._ F ) F e e 9 e u e e z ;.P.%X>X/.6.Q [ _ m L o.%.o.o.o.` ` 2.t.Z.Y.F.s.a.e.9.i.Z.I.Z.Z.Z.a.5.s.V.a.9.u.n.B.B.B.V.e.w.9.e.V.V.e.q. .T $.$.V.b.7.9.5.a.t.5.O.` L ] 3.Z.B.9.9.Z.y.#.#.....L N b p r 0 z M l M ! ! D | 7.6.O._ _ ,.4.9.B.d.4.O.2.x.A.b.A.A.Q./.Q.[.F.B.U.I.a.s.Y.Z.5.9.w.3.| | ] L J #.'.B.[ m n n J 3.V.V.V.Z.f.i.i.G.5.+.] ] B.Z.| y t J #.4.t.5.@.O.I m a m ] ] _ F r 9 n _ m s m m L $.5.3.5. .p p S Y @.0.Z.Y.d.O.I ] G J ] / ] n.z.M e j r N ..] [ k 7 r N ' | F u n M / ,.,._ F ) G 9 e e e u 9 e z ;.P.}.>X[.<.Q _ / n G ] +.] ] ` m m ` @.5.i.&.] L _ ] ,.2.2.] o.#.+.] ] $...b ] 5.@.` S m J H S S J U U ] +.+.$.%.#.4.4.9.u.y.9.4.O.` L ` 3.Z.B.5.9.F.y.#.#.O.#.L b N a u 0 z M l M V Q D | 4.6.O.F F O.4.9.B.B.4.#.#.b.A.n.m.A./.Q.Q._.F.d.Y.I.a.s.U.Z.5.w.9.7.| O.] I L #._.C.[ m n v L %.C.V.Z.Z.s.",
"w.r.a.5.] P #.#.#.O._ J ] @.%.#.+.o.#.] | ] L _ ' ,.O.[ V _ _ P ] ] e.V.V.9.$.4.2.+.%.@.@.w.a.s.a.d.4.@.P P ' ` V V [ Q c e r V [ L 2.3.v , n ] t.u.I n a 9 u L _ _ O.| ( c g 9 4 z B n z [ ,.n.%XW.8.6.} _ F ` o.%.t.y.4.] | 4.7.Z._.Z.d.a.a.5.5.s.C.K.d.s.a.y.B.F._.F.K.D.C.9.e.b.7.5.4.Z.V.e.q.$.0.p.r.X.m V [ 6.9.x.4.u.d.y.6.$.$.w.p.3.$.5.$.#.a.Z.e.` S D m n N m N a v m N [ O.G L $.4.| L O.F.Y.Z.9.5.2.7.9.x.y.m.D.8.} | 5.i.Y.].U.I._.e.....7.6.4.4.] O.5.C.'.a.F v n n m ] a.f.i.$.$.&.a.r.w.] P ..$.#.O.` J ] %.@.#.X.] @.| | | _ L ] ,.| [ F _ [ L ` ] e.Z.V.9.#.2.2.+.&.@.@.w.a.s.a.a.4.@.U L P _ F V _ Q z e r ! [ _ ..7.n , n ] t.t.I n u 9 a F _ _ O.| ) g e 4 4 z B n n ) ,.n.&XQ.6.6.| / G ` I o.5.a.4._ _ ..O.3.s.C.5.2.6.2.} _ ' ' ] o.I G ..a.] m _ ] L m L P ` ] ] 5.4.` ` ` 4.i.i.%.] ` O.5.i.9.5.y.n.9.4.2.#.5.i.5.$.5.2.#.a.V.e.` V D m v N m v k v N m ` O.L P #.5.| _ O.F.Y.Z.w.3.2.7.x.n.y.m.C.8.} | 5.i.I.`.Y.H.`.a.#.#.9.3.3.7.] o.5.d.'.M.G n n v m o.a.f.e.@.$.",
"$.$.$.w.y...#._ | 4.#.#.O.%.%.$.%.#.o.4.B.B.2.[ O.8.u.9.2.V a n ` P 3.f.U.7.N N ] $.r.i.s.w.s.Y.s.5.5.U m P P F V V ' _ w > 7 v L { 9.7.] L 4.d.t.o.G m u , a m v r z n B 9 4 > = 9 n z c } [ | D.D.D.8._ F I O.%.t.y.a.4.2.2.z.x.B.B.L.Z.V.s.5.5.i.#.5.B.B.9.C.~.[.'.}.}.[./.A.9.e.w.5.9.s.e.5.3.@.@.h.f.` k k B 6.A.9.,.8.y.9.9.a.5.&.0.$.w.p.Y.T._.J.s.....e.#.' L ` L m [ ] ` ] ] L G ] s.C.7.9.F.F.Z.i.5.#.#.2.7.4.O.} V u v ] 5.`.@X`.Y.T.s.X.D #.s.a.2.#.a.i.K.L.2.u 9 a a m ` @.$.$.+.+.$.$.$.e.y.+.| [ | 4.O.O.O.$.%.#.3.#.O.#.B.C.#.[ ,.7.9.9.2.V a b ` ` 3.f.U.9.m m ] $.r.i.s.w.s.I.s.5.t.U S P P L V V | / e 4 7 v L { 9.9.' L %.d.t.O.G d i > u G n 0 u x H 5 4 > = 7 n z c [ [ ;.A.M.D.8._ F _ o.%.t.i.d.5.2.3.7.2.4.9.Z.5.[ { ! c n B F G ' ' L ` ..L D F J m m V J _ | 5.Y.C.L V G ] a.t.#.` ` ] 2.8.4.2.9.9.9.y.i.5.&.&.@.i.s.U.T.T.J.a...#.w.#.' L ` L m [ ] ] ] ] L V o.s.C.7.9.S.F.Z.a.5.2...2.9.4.O.} V r N ` 5.`.@X`.J.T.s.] V O.B.a.#.#.a.a.K.L.#.u 0 u s n I @.$.$.+.+.",
"3.e.5.5.5.2.5.9.2.9.9.2.%.5.5.%.$.O.] O.7.9.] _ | 2.2.6.] N m L #.#. .f.I.2.| a.Y.V.d.f.f.i.5.i.i.%.%.@.U T 5.5.' ] } F e 9 , 7 V ] | >.| | ..@.+.I G m p u p p s p a 9 4 4 4 5 e x F / } -.} ) } n.Q.2.F ' 2.#.O.4.4.4.#.6.6.8.n.B.y.9.4.t.t.5.5.e.#.$.e.a.7.x.W.S.S.[.&X&X^.S.9.9.5.4.5.y.B.9.9.p.s.f.G.$.N b ^ 6.7.8.9.n.n.A.F.Z.i.a.p.g.G.p.f.I.T.Z.s.r.Z.e.O.L D _ ` ` 7.V.5.+.%.%.#.P O.I.`.~.S.V.V.i.2.X.` ] 2.2.] ` F V ] #.#.t.L.f.y.s.t.#.o.5.B.i.2.5.4.] 9.C.O.n F ] I J +.d.&.%.+.` #.e.5.5.5.2.5.7.2.9.9.$.%.5.&.4.%.#.| | 4.9.| _ | 2.6.2.} m n L #.#.+.s.Y.$.] a.Y.d.d.f.f.5.&.s.i.%.&.@.U T 5.5.' ] ' F r 9 > 7 D | | #.| ] #.#.+.I G d p u p p s s p 7 4 4 > 4 5 n F / [ } } ) [ m./.2.V ] O.O.o.%.4.#.,.6.2.;.8.B.y.2.L M ! M z M / } ' ;.O.O.#.| _ V L [ L _ _ _ ` O.L.T.9.L _ _ | 3.#.] _ ] | O.,.4.4.8.9.B.Z.B.9.i.p.h.G.p.s.G.I.G.s.e.V.s.O.L D ` ` ` 7.Z.9.#.#.%.#.L #.Y.].~.H.V.Z.a.@...` ] 2.2.| L F F ' O.#.y.I.C.t.s.i.#.] 5.d.a.$.5.4.] 5.C.O.n F O.I L o.g.5.%. .] ",
"5.e.3.5.T./.V.B.B.S.a.3.#.u.s.2.] I _ L _ V k r M B ^ ] [ a v ` 2.a.V.a.5.5.T.@XoXZ.t.d.a.t.@.+.i.f.f.p.T J U +.o.P n v 9 7 7 8 r N ` ` P ` _ ] I m p n F G u > i d n F G e > 9 h B / ) [ Q c e g ( z.x.' ,.' F _ 2.4.O.2.,.,.6.2.6.5.O.O.2.9.y.a.V.V.e.e.#.{ 6.x.8.m.[.{.[.Q.S.B.5.5.2.#.2.4.7.5.s.Z.G.f...N N :.c.c.b./.D.x.F.'.F.Z.G.J.h.G.f.i.f.h.s.s.f.f.w.` L ] ` ..$.w.e.#.] +.5.@.#.5.Z.T.H.J.H.V.p.+.` ] ] G _ O.5.4.2.$.#.o.%.B.d.t.@.] ] $.5.a.L.L.C.] G $.a.4.#.u.a.t.o.t.d.f.d.t.%.e.a.3.4.T._.C.B.B.S.B.2.#.u.d.2.] _ P L _ V h r N V ! | [ v m ` $.a.V.i.5.5.'.@XoXZ.a.f.s.t.+.+.i.g.g.i.T S U +.O.P n n 9 7 8 9 r v [ ] _ ` ` ] ` v a v G m i > 0 d m F G 9 3 5 g B / ) } B c e g ( x.z.[ ;._ V F 4.4.| 2.| _ { ] | y.} V / B z x n x F ' F F / [ | N v m V _ | O.] ' 4.F._.S.| } 2.] ' V v n _ ,.4.4.y.D.S.n.F.L.C.V.G.h.h.G.s.s.f.G.e.s.s.f.w.` L ] ` ..>.w.e...] %.&.%.o.&.Z.H.H.H.H.B.p.+.` ` ] G L O.5.4.4.4.@.o.$.C.s.t.@.] ] @.5.a.L.L.B.] J #.B.4.O.5.a.%.o.t.d.f.f.5.$.",
"P _ 2.9.F.S.F.B.S.F./.n.' _ ' F _ | [ / v v r q h r v [ | V _ +.#.%.p.5.&.Z.@XoX'.Z.%.#.5.a.a.t.t.i.i.*.@.U K @.*.G m v v z k w w m [ P m m G ` ` P _ V z 7 - = , n G n n u 4 4 4 c B c e z z e z z 7.;.M ~ | ,.O.O.O.,.9.,.} ,.} ) } O.' O.4.9.5.e.e.B.V...m ..9.7.A.Q.(.!.W.S.A.B.5.P a u N ] 3.5.s.s.w.^ M ! ;.<.<.x.(.;X[.[._.Z.F.T..XT.J.V.r.V.Z.J.G.q.@.@. .J K ` ` >.6.#.| ] %.5.#.+.p.f.V.J.J.G.p.w.$.| P V u u ,.C.s.4.O.#.&.4.5.5.t.t.&.%.%.%.d.s.d.Z.s.' F #.4.o.] $.%.t.f.I.E.Y.y.O.L _ $.9.F.S.F.B.F.S.Q.a.[ L ' L _ } [ D M k r q r r v _ ] D P O.#.2.i.5.$.Z.@XoX'.Z.%.+.t.a.a.5.i.a.i.*.@.U E *.@.G m n z v h w r m I _ V m m ` ` P _ V v > - = , n G n z u > 4 > z x c e z z g g z 8.;.M ! } | } O.} | 8._ N / r 4 G / G / Q M B g 6 u B x M z h z r 7 w v V F ' _ _ 4.C.2.2.D.A.` ^ Q v v v / } ,.4.9.P./.L./.F.A.V.J. XT.G.f.a.G.G.J.G.q.@.$. .K J ` ` $.2.#.] ] %.5.@.$.a.s.V.J.J.G.a.0.+. .P V u a 2.B.a.5.#.+.%.4.5.5.9.t.&.%.%.4.C.d.C.Z.B.' G $.4.O.o.#.%.t.Z.E.E.Y.a.O.",
"_ ' 9.B.V.~.F.Q.Q.W.F.n.| V r z _ } _ _ V v g 7 w 7 a L _ _ #.$.#.@.$.s.I.XX|.{.C.u.u.t.y.Z.Y.a.5.i.*.Y T T U +.&.5.` _ v r w w 0 m _ ] _ L m v n ` _ V 9 = > r 9 r n v H F F u 9 G z e e z e z M M { -.Q B B / [ [ _ x.A.8.6.,.| | } ,.,.,.9.y.e.B.e.e.3.] m V | 6.x.!.[.%X^.A.B.V.4._ u a v L 3.5.a.r.P v k ! ;.<.m.m.m./.(./._.Y.V.Z.H.F.i.>.X.Z.R..XT. .K q.0. .X.` ` ` ] 3.2.O.4.5.i.w.&.f.J.J.f.w.%.&.*.5.` V F O.y.B.9.2.] I o.] ] ` #.i.d.i.+.4.a.C.y.` ` _ m ] $.$.3.+.I ] &.t.d.5.' I F ] 9.B.S.~.F.Q.W.Q.F.n.,.V r h _ | [ [ m v r 7 q 7 a L _ _ O.$.@.$.$.s.Y.|.@X].C.u.u.u.9.C.T.B.&.i.%.Y T T T +.%.5.] L v r w w 0 v ` ` ` J m v m _ ` v 7 = * r 9 0 n u H F F z 9 B n e g z e z v M _ -.W M B V ( _ / y.S.8.O.} n r u B B z B x 5 e r g c G M r z q q r r r r r r v F 8.n.,.B ! V N M N v v n / | O.4.9.n.F.W.D.F.C.V.V.Z.G.e...X.V.`..X XX.Z q.0. .X.` ` { ] 3.6.O.2.5.a.w.&.s.J.J.s.w.&.&.&.5.` V L ;.y.B.9.2.] I o.] ] I #.a.d.t.+.%.s.B.t.` ` P V ] $.#.$. .U U &.5.d.t.I _ ",
"G u.y.t.B.D.F.Q._.Q.F.z.B z r 5 h Q ! N n v r 9 w 8 e m | $.2.o.] %.0.a.F.'.'.A.8.9.1.1.,.,.8.2.%.5.%.U T T E T %.&.%._ r 3 7 e r L 2.;.[ ^ v w a a a > > 0 B u 9 > 9 i n I O.F F [ F e u v B F / [ ,.C.x.v r M B / _ n./.A.x.6.,.,.2.6.9.9.b.B.S.Z.Z.H.G.e.` _ | 9.n.9.[ { x.B.a.5.$.+.m v V ] e.G.f. .d 0 r h h ! -.6.c.N.Q.[.W.S.y.4.5.2./ v { e.B.J.s.@.K q.h.p.X.P P D ` 5.#._ ] a.Z.T.f.p.G.h.q. .T o.*.#.] V N ] A.A.B.9.] I ] ] G m | f.f.@.o.%.i.a.4.` m s n D U w.@.` X.` ] X.O.] ` m I t.u.t.B.F.F.Q._.Q.W.9.B z r 5 h B ! B N v r w 0 9 9 m | 2.#.o.] %.t.a.F.{.[.A.8.9.8.1.,.,.8.2.2.5.%.P  .T J Y %.5.$._ h * 7 w r L 2.>.( / v w a a u , = 9 G u 9 > 9 i H I O.F F [ F e u z n F / [ 1.A.z.v q M B / } D.}.M.8.O./ V F } n u v v z h v e v r q r h q q 7 e r e 9 z B } ;.,.,.F / _ v v v z u v _ } | ,.8.n.m.W.Q.D.n.9.4.4.2.F M { e.s.J.p.@.K q.h.p.X.U P D X.3.#._ ] a.Z.T.g.p.J.h.&.T T +.*.#.` V N { A.S.B.4.o.I ] ] G V o.f.f.+.o.&.y.a.4.` m v m S X.5.@.P ] ] ] ` ..] [ m ",
"%.y.Z.C.B.K.C.A.F.A.9.;.v r e 7 h B _ ! n z r 7 r u v _ O.a.L.a.%.5.t.5.F./.W.A.D.W.W.M.6.[ Q B ] 7.5.p.&.@.U Y +.%.] ] n e r r r m ' / Q k & * n a , > 0 G G u 9 * 4 n H ' ' G G _ F n v F O.] ' O.O.8.8.B h v B [ [ ,.1.1.8.8.2.;.6.8.6.7.A.B.V.H._.H.b.b.b.e.a.B.9.,.N M | 9.B.5.5.%.@.| $.5.B.V.r.D a a v h x ~ :.z.W.W.W.!.W.y.4.9.4.| B v v M L 3.s.s.X.S K K K K D S D L ] #.9.5.s.G.w.%.r.q.@.T T U o.@.O.^ M W 6.A.b.2.O.$.5.5.2.O.@.5.&.o.U &.y.t.O.G v y a m d P ` J P X...3.5.y.i.3.#.y.Z.C.B.K.S.n.F.D.9.;.v u e 7 h B _ _ v z r 7 r z v _ O.s.Y.a.%.5.5.5.F.Q.S.A.D.W.W.M.1.[ B B } 5.e.p.&.@.U U @.$.] ] n e r r r m [ [ B z * * a a > > 0 F B u 9 * 4 a G F I F G _ F n v F | | _ O.O.4.7.N r v F [ ;.4.1.,.-.} V B | O._ v n B v h B M h 7 r h v e q q 7 r z u v M F / ,.8.;./ V v n m a n / ] ' ;.7.9.D.A.A.Q.D.8.4.4.4.] B k v N P 6.s.p.X.S J K K S D S L L ] #.9.5.s.G.w.*.r.q.@.T T T o.%...^ M M <.A.b.3.o.$.5.5.#.+.$.5.5.+.U %.i.9.O.G a r a m d U ` L P X.X.3.w.e.y.5.",
"s.g.d.5.4.4.O.4.B.9.2.M r 7 e u a v | a.{ n v z / _ | 4.u.5.5.4.%.o.O.O.2.8.M.(.(./.Q./.P.x.} ! ] 9.w.+.T +.+.+.#.5.C.4.V u B / / ( F F z i = O > I ' _ ] ) n u 4 > e n F ] O.%.L a a u F | O.] ] O.#.O.| F B F _ ' -.-.[ [ ;.,.;.,.6.9.9.z.a.B.9...2.9.2.2.7.B.F.B.;.2.6.4.9.9.5.&.t.&.5.%.#.+.@.$.+.m a r M B ;.m.A.A.W.W.Q.!.n.O.O.,.9.,.B M M v v X.w.s.X.S P w.r.j.g.g.s. .#.2.5.4.5.i.t.&.w.0.k.q.@.o.#.2.>.N e j W [ } _ ] 5.r.a.C.f.s.s.&.o.U I O.$.O._ v r a 0 0 J ] ] D L ..3.5.w.a.s.s.Z.d.4.4.4.O.4.B.9.2.M e 7 q u z v | x.' n n z F / | 4.u.5.5.4.%.+.O.O.2.8.M.(.(./.W.P./.x.[ ! | 5.5.@.T T +.+.O.5.Z.6.V v V / / _ L V n i = O , F ' I o.[ B e 4 > e n G o.#.1.L u a u V ] O.] ` O.o.O.| V M V _ } 1.,.( / / / B r M V v r B ' N v v N r z z r e w z v v v g z z e F ;.8.u.O./ V V | #.o.O.,.,.,.<.<.8.n.A.A.D.u.O.O.O.9.,.B M v v v ] e.s.X.S P q.e.j.g.g.p.] #.3.5.5.5.i.5.&.0.0.w.q.*.+.o.%.>.N e g W ^ -.[ ] 4.w.a.V.V.s.a.&.o.I I #.%.O.[ n r u 0 0 L ] ] J L ..3.5.w.a.s.",
"e.5.#.o.#.4.,.4.5.6.7.| B V L F v V 6.n.| v 9 u _ V B n m I #.O.o.#.#.O.,.8.D.Q.Q./.P./.(.D.8.2.| #.@. .U U ` ] _ ' y.9.| F ] ,.` _ 2._ u 9 > & 0 I t.t.' F z u q 4 e n G _ #.u._ u u m O.4.#.| O.9.4.] ` L ] ] _ / ( Q x ! | ,.,.8.B.B.B.a.9.6._ M v B _ [ ^ 2.B.A.2.2.9.A.V.d.a.g.g.t.&.t.5.+.U U J m r v B _ 9.n.8.<.<.m.W.m.M.8.1.#.#.4.| v r k k b `  .@.K D s.XX#X+XT.Z.@.5.a.@.+.a.f.g.i.&.a.g.i.5.$.#.3...k w q q h ! _ D J L ] 5.a.s.p.&.%.] ] #.O.O.O.D v v F _ 4.y.5.e.e.$...$.3.s.f.a.4.@.o.O.4.%.4.4.6.8.| B F L F v V 6.B.| z 9 u _ F B B m I O.#.O.@.O.O.,.8.D./././././.(.D.z.2.| $.%.U U U U ] _ ` 9.9.] F ' O._ _ ,._ i 9 > & 0 I 4.t.' V v u 4 5 e n n _ O.t.` r u n O.4.#.] O.5.4.` L L ] | _ / [ B e r B / Q M r B v v ] 2._ ! _ L N M h r w u B B v M u r z B } 1.8.O.O.4.` L O.#.O.5.y.<.[ [ [ } :.x.A.M.m.8.1.O.#.4.} v g k y N ] +.@.K D s.#X#XOXR.Z.@.4.s.+.+.a.f.f.p.&.p.f.i.%.2.$.3...v e q w j ^ _ D J D | w.a.s.i.%.*.] o.#.#.] | L v v G I 4.9.5.e.e.3.@.$.3.s.f.",
"s.w.9.5.2.#.O.[ / 8.C.9.O.y.C.O.' #.u.5.,.B u e 4 5 z n n _ O.O.#.#.O.4.8.A.F.F.D.F.D.M.m.A.D.8._ P %.5.+.P L n a 9 9 B ,.O.[ | ;.} } v n u 9 0 u m O.] ` B u q 4 > e z / O.4.8.F B _ O.4.B.y.4.9.B.5.] +.] ` G V F / B z V O.;.[ [ | ] #.2.9.| v r v M N B N [ 7.7.;.3.9.y.B.y.%.%.i.K.d.d.y.4.$.5.%.P V ' _ N B Q z B / 1.x.M.M.n.,.O.' 2.4./ k N V L $.@.U P ` s.1X#X$X3XE.%.%.T.G.p.G.f. .L +.a.5.5.$.2.] [ _ k r 5 e z _ L a 8 0 D $.e.p.5.%.4.#.@.#.' _ F v v ` ,.4.B.B.4.e.e.] K P #.s.Z.s.w.e.5.2.#.O.( _ 8.C.9.O.y.C.#._ $.y.4.2.V u e 3 7 z n G ) O.O.#.#.O.4.u.n.F.D.S.F.S.A.M.D.D.8.L P %.5.o.I J m u 9 9 B O.4.[ | ,.[ } v v i < 9 i G O.O._ m r 9 > > u z [ O.8.8.V B L O.4.B.B.4.5.B.5.` ] ] I m m F _ V e e B B h k z v m L #.] v m V M N V M v r r M V c n u 9 u B O.8.5.O.#.| m _ 5.4.O.4.1.( x x j v F :.u.n.C.y.O.O.' %.7./ v M V D 3.$.P L ` s.1X#X$X$XE.%.%.U.G.a.Z.V...J ..a.9.3.%.2.| ' _ v r q q z _ _ s 8 8 D $.e.a.0.%.&.#.#.#.' F F v v ` 2.2.m.B.5.9.i.U L P $.s.G.",
"e.e.B.B.B.| _ ) O.F.L.B.K.OXE.9.] ` ] ' 4.4.[ z = > e B [ _ G ' 2.O.#.u.n.n.A.Q.S.B.C.F.[.{./.,.F L %.i.i.4.` n a n } ,.} | } _ / V V _ ' G p i 0 r m L 4.5.} v > 7 M | m.n.n.m.,.| } O.y.L./.S.F.B.6.| #.#.L V G [ ' _ V F } ' / N m v V ] 4.] r z v B / V M _ 2.b.B.B.8.a.C.a.5.#.i.K.a.5.4.$.5.i.%.o.#.6.[ v v z e e B ) 1.m.D.y.4.] o.o.' / [ >.7.9.w.i.i.+.] e.T.`.f.I.E.i...G..XZ.J.`.+.a _ ..2.| 9.B.2._ N a r h z M V V a y S U $.a.w.@.+.@.#.O.` n a z w v [ 6.M.D.y.4.5.@. . .@.@.5.i.e.w.B.B.B.| [ [ ;.F.L.B.L.OXE.5.' ` ' ' 2.4.[ z = 3 e F / / V ' #.#.#.u.m.n.S.L.C.B.C.F.(.}./.,.V L %.i.a.4.` n u m | ,.} } ' ( / V F _ ' G a a 0 i n L 4.5.] v 4 4 n -.n.M.M.n.,.} ' O.y._./.C.F.A.2.] #.] m a v ' } } n r v h w M n u n ` O.F 0 a m B v B v g e h [ / / G z g n / O.B.4.I G m ] w.3.] ' ;.;.[ ! B e g B } 1.n.M.n.4.] o.o.' D [ 2.7.w.w.r.p.+.` e.`.T.f.U.E.a...G..XZ.I.T.#.s _ ..#.] 7.C.6._ V u u e z M V V a y S ] &.a.i.@.+.$.@...' B v u r k [ 6.A.A.y.4.5.@.+.T  .$.&.w.",
"#.6.a.F.A./ B | z.Q.L.B.L.Y.F.d.%.] ` V F } ,.) 5 4 e z z V } ' O.2.,.8.y.8.b.Q.A.B.F._.&X[.b.;.' #.#.5.L.Z.4.] n B O.B h B Q z z M n _ _ L F m v J P O.y.S.9.[ x F } <.z.8.8.n./.n.( [ y.D.n.n.A.8.,.#.$.$.#.#.| 2.2.O.O.| ' ] | #.#._ ] ;.#.} V / ! ! [ [ _ ! | 9.C.A.9.4.n.C.C.4.4.K.F.C.a.9.y.5.] ` ] O.[ B M v z z Q -.<.m.W.P.y.4.@._ N V [ >.a.B.5.Z.I.a.w.w...2.F.-X3X|.V.V.a.I.G.Z.#.m v N _ B ;.A.F.7.] G a z h u v V b S ] $.$.w.@.] U  .#.O.F 0 e v k h k ! 6.6.| 5.f.i.*.0.g.g.i.%.#.2.a.D.m./ M -.8.Q./.B.Y.Y.Z.C.%.] ` F / } ,.[ 6 4 e u g F ' _ O.2.2.8.x.8.b.W.A.y.F.[.|.(.n.;.] #.#.5.L.C.u.] n F | B g M / z z n n / [ _ G m n G _ o.y.F.9.[ z B } ,.z.8.8.n./.n./ ( y.D.n.n.M.8.} O.#.O.] ] } 6.4.O.[ m v a v F F n G _ L G a n J V v M ! ! M z n n H n z i z _ ' ' F L _ ` w.s.%.L F [ | ( V B N m F [ ,.m./.P.y.4.O._ V V ^ 2.B.V.w.f.U.a.w.w...2.F.<X3X|.Z.V.a.I.G.Z.$.n N N ^ V ;.A.S.4.] F u u h r v m s m ] $.$.3.$.X.U X.#.#.G r e v v r h ~ 6.8.| 5.a.i.&.k.g.g.i.$.",
"2.] 2.8.[ M / :.1.x.A.A.B.Z.Y.E.Z.4.G n z B F n e g e z B [ ,.8.9.4.2.;.;.,.x.S.F.B.9.x.A.A.z.6.8.9.3.9.a.,.] | _ L u > 4 e g n F V F _ F m n m H U #.o.#.B.A.,.[ ) ! c x ( 8.y.9.#.| 6.2.8.,.;.8.4.O.4.4.2.8.4.#.9.n.9.4.4.4.4.5.i.a.i.4.3.2.' } 7.1.-.[ ] 2.6.9.9.6.y.m.n.C.B.A.L.F.F.L.L.a.9.9.4.4.#.L _ L v v z F ) [ ,.z.8.z.C.9.#.#.#.6.7.3.9.e.w.i.h.U.i.+.P #.Q.5XeX0X6X`.G.e.w.Z.a.5.] N V B v M [ 7.9.2.O.G v 9 u F ] ] ..V.e.5.w.&.@.U L G ` m u 7 9 r r k j M [ A.Z.Z.Z.f.f.a.f.G.V.2.] 7.8.} M / ,.1.x.A.B.B.C.Y.E.Z.%.G n z B F z q e g z G ) ,.8.8.4.,.,.;.>.x.F.F.B.9.x.A.A.9.6.7.e.4.9.y.#.] ' ' F z * 5 e e n V V / _ L n v m G U #.] 2.B.A.;.[ ) ! j c / 7.8.9.,.| 2.1.8.,.-.8.,.' 2.$.#.#.4.4.S.C.,.O.O.! G _ ` ` ` ] } ` _ V n V _ m _ 2.2.| B r / ,.' F z r u v n m P | 5.5.5.t.4.' [ V z z z V _ F [ 1.8.z.D.9.2.#.2.6.7.7.7.e.e.e.G.I.g.+.U #.Q.7XeXeX6X`.Z.i.w.G.a.5.` N V Q v M [ 8.9.4.O.G v w u J ] ] #.V.e.w.w.$.+.T L J _ G r 7 9 w r k h M [ A.Z.Z.G.f.f.a.f.Z.Z.",
"[ n x n x Q | ;.;.2.9.9.e.Y.XX|.I.@.L m v v r w h r u z F ( ;.1.2.4.4.O.2.2.5.C.C.y.8.n.F.F.z.| 7.9.#.| #.4.4.8.u.o.u > 0 v V ' _ ' ' m J a s L J Y Y T %.%.4.6.[ N e q q ! ` D D D ....| ;.,.7.8.4.| O.9.i.C.a.9.B.A.F.b.x.4.9.B.5.4.5.5.$.2.4.6.4.7.;.| 6.9.8.9.x.x.x.D.D.n.8.8.D.D.F.L.Y.a.2.e.B.V.9.4.] V m v B ;.8.,.) | z.8.8.n.B.9.7.9.7.3.$.+.X.5.Z.a.5.J p L | n.}.|.H.Z.f.0.$.@.@.5.5._ n m v r M [ 6.9.O.' a 0 v D #.9.w.7.3...2.V.V.i.5.U L d u 9 > < 9 u w q N 6.b.b.{.-XH.a.e.B.b.[ n B x x Q | | ;.6.9.9.9.H.XX].T.@.J m v v r e h u u x B _ ;.<.4.4.4.O.6.$.8.C.A.9.8.n.F.F.9.-.6.9...| #.6.4.u.u.] u > e n m _ _ | ] m G s f J J Y Y T $.3.7.:.[ x g q q N L S b S ..] | ,.:.,.4.,._ ' y.d.C.C.C._.D.B.6./ B _ _ G G | O.,.2.[ v r B n v N V V F / V O.9.n.8./ v u 0 v d o.O.5.d.K.d.4.%.O.n r r z [ | ( F ;.4.8.z.x.B.b.7.x.9.3.%.+.+.5.Z.a.4.H p L | x.}.|.H.F.V.5.@.+.@.5.5.` m V v r M [ 6.7.#.` a 0 u F 2.e.e.w.2...2.s.V.i.5.o.G m u 8 : 8 9 r w w N 6.b.b.^.1X~.e.e.B.b.",
"z g h z B / Q B [ >.| { 6.B.Z.J.Y.+.d v a y r 7 7 v z z ( ,.1.1.6.2.| 2.5.u.5.u.n.C.Z.n.7.7.2.[ [ >.] | 4.y.n.C.M.4.) n u v ` #.I F ' ] I I +.@.U E Y T +.+.2.2.-.V v q e b S L L P X.2.2.} [ 1.y.a.C.Z.C.C.L._.Y.Q.F.Q.S.x.9.n.B.a.4.#.#.4.y.4.2.4.8.,.,.8.n.x.n.M.c.x.n.x.8.6.6.n.F.S.y.V.Z.t.a.9.9.7.a.y.4.,.[ / -.6.8.;.;.2.8.8.7.x.8.6.7.7.3...U U +.+.2.i.5.P m n ;.A.Q.e.5.a.p.&.*.$.&.5.5.] m m n V [ 2.4.2.O.F n m m _ 2...X.` M D 3.B.s.i.%.L a p a i r a 9 u y v ! _ [ { >.>...[ _ B z g h h B / B B [ ;.| ] 3.V.Z.H.Z.#.s b y k r 7 5 u z u [ ,.<.6.8.,.O.#.4.y.5.9.a.C.S.n.7.8.2.{ [ 2.] ..5.9.B.m.C.4.) n u n ' %.I G ` ] I P +.%.T E Y T  ...2.2.} V h q q a m S D D ] >.| ( F } 4.a.C.Z.a.y.Z.}.oX;XQ.A.6.} } O.O._ O.4.4.4.O.F n v m _ m G _ V [ 4.' F ] ,.[ n u 9 9 7 v ' 2.2.#.%.5.4.4.t.4.} / _ ' [ ;.( / ,.2.6.7.9.9.9.9.9.4.@.U U +.#.$.i.5.U m B | A.F.e.5.r.p.0.$.$.*.w.4.] m n n V [ 2.8.2.O.F m m m _ ..>...` N D 3.B.B.i.%.J p a a r 0 u 0 u y v ^ ^ ^ ..| >.>.{ ^ N ",
"G z e 5 q z V m N V D [ 2.9.5.e.V.+.m f 0 7 7 > 8 n n G / [ } 6.6.| | 2.5.5.5.a.C.C.C.B.a.7.2.| _ ] 4.a.B.C.m.m.u.1.} ( } ] ] O.O.#.4.5.4.a.5.o.+.U T T  .+.] { ' F v v b b J P P ` 6.B.e.;.L ] #.d.Y.'.F./.}.&X|.{./.F.B.9.4.y.K.Y.C.@.o.y.V.4.` ] ;.6.1.y.D.F.K.D.8.8.z.8.<.l.l.z.M.A.9.A.Z.4.#.#.5.7.9.8.2.#.' F / 1.8.8.8.8.,.| ] Q ! | 9.B.w.3.0.k.*.+.3.H.Y.w.S [ 2.A.V.V.S.V.B.a.Z.Z.a.t.w.$.L V V V D [ 2.O.] $.| ] +.5.9.X.V y v $.G.Z.s.d.i.o.#.7.B.n.V i a y m P X.` m N b b m a u m G z r 4 e z B F N V D _ 6.9.4.s.V.#.S s 8 7 8 > 9 H n G ( [ } 6.6.O.| 4.5.5.4.B.C.C.C.a.B.7.2.| _ ] 3.B.B.C.m.n.n.1.} / } } ] #.O.#.4.4.4.a.5.O.+.U T T T $.] { ` V a v a d d J S P ..e.4.` n G ] t.E.'.D.C.[.;X5X5X}.W.n.[ [ 8.u.4.' o.2.%.4.] G V G ] #.4.O.o.4.4.O.] m N z r 4 9 9 < u ' O.] ] L o.t.y.y.n.y.1.;.F / ) [ [ ;.;.[ ] ~ ~ ;.x.B.e.5.&.p.q.+.3.H.U.w.J _ 2.A.F.Z.V.Z.B.a.Z.G.a.w.5.$.P V V V ! ] #.,.] #.O.] +.5.w...S y b 2.F.Z.a.d.d.+.#.4.b.b.F i p u b P ..` D N v m m a y m ",
"n G u z n m n n s v m y L #.6.e.e.a.5.` m a a 9 u L ' G z q j [ 2.2.2.2.5.4.4.y.a.B.H.B.B.6.7.9.#.$.9.4.C./.m.n.z.n.z.1.8.1.,.| _ O.t.4.y.B.B.y.&.o.T Y ] 3.5.` N p m m S L T @.w.5.3.4.4.4.#.] ] 9.Z.L././._._./.Q.F.F.F.B.B.C.S.B.y.4.4.5.y.4.#.] | _ [ 4.S.S.F.D.m.x.x.8.1.6.z.c.c.A.9.9.C.a.@.] 4.4.7.4.#.| | O.2.1.8.8.n.9.O._ _ ! Q ~ 2.9.9.9.w.i.*.X.U 3.e.3.X.>.9.F.Q.'.'.F.e.Z.@XoXZ.C.5.O.#.| ..2.| | 7.4.2.#.$.%.t.Z.Z.w.#.] ` e.U.Z.s.i.g.d.F.'.|.&XO.9 f s s m ] >.P D D D G s s v n G z u n B m n a b N y _ #.6.e.e.a.&.` m s t 9 a / ' G a q z [ 2.,.4.#.4.6.3.e.a.a._.C.B.6.3.9.#.#.9.3.Z.Q.A.n.n.v.n.1.6.2.O.| _ O.9.4.y.B.y.y.&.T T P U $.5.` n u m v d J U @.0.$...>.O.#.I m H %.Z.'.'.[./.P.W.W.A./.D.,.,.4.| ' B I 5.u.%.I L ` #.5.t.%.o.5.4.o.O.` a N ! M e i u 9 r L #.y.y.#.%.u.A.y.9.8.8.,.[ ( } } | | _ V V ! ~ ! 6.x.9.w.i.p.*.T T 3.a.5.] #.9.F.F.}.{.F.9.F.oX|.G.B.5.#.O.| O.#.| | 4.4.4.#.#.$.t.V.V.5.+.] P e.U.G.i.g.i.s.H.'.&X-XO.8 f s a S ] ..` S D D J v s m ",
"/ 8.y.[ F F n n v a u 0 a #.a.a.5.e.s.s.+.m a n ] ] O.I G z v [ >.6.7.9.9.7.9.w.a.V.~.S.3.| ..` | 9.4.2.y.D.m.z.<.1.-.1.8.,.] O.#.6.O.9.A.D.y.#.O.@.+.Z d K ` D s y y s H T U +.V.B.7.7.7.w.+.+.#.t.L.Y._._.L.L.Y.F.Z.Z.C.C.D.Z.y.,.4.B.a.2.} } ;.| ,.| ( | 8.m.C.P.F.A.W.A.8.z.c.b.A.W.x.9.9.a.9.#.O.#.>.6.7.2.4.y.n.4.2.2.2.7.#.J H n F B F { ..3.3.r.r.w.X.` #.#.#.V.L._.Q.Q.Q._./.W._.F.B.V.t.] _ ] ..2.#.2.4.2.| #.5.i.g.f.f.J.Y.f.U +.a.f.i.i.p.] L [ 7.S.B.J s S m G | #.| ..#.] L m m m / 8.y.[ F V V n v a u 0 a +.a.a.5.r.a.s.+.G a n ' ] o./ V z v [ ,.7.7.9.9.9.e.e.b.V.~.S.2.....` ..5.7.2.B.D.m.z.<.:.;.1.1.1.} | 2.2.O.9.M.D.B.#.+.@.o.H s L ] S a 0 y y b P I U V.b.>.>.2.#.P J U a.E.'.oX;X[.W.W.A.D.D.1.} } O.' N G | #.' o.t.t.5.a.K.y.5.#.] o.%.a.y.] ] 2.! z u 9 9 0 u o.y.y.d.y.n.x.8.n.8.1.} } ,.} / _ | ` n v n V Q ^ ] #.5.3.w.i.w.X.] #.$.$.V._._.Q.F./././.D._.F.B.C.9.] I ] ..#.#.2.4.2...#.5.i.g.f.V.G.J.V.U +.i.f.d.i.i.U L [ 7.S.B.J s m m D | 2.] #.#...L b m m ",
"O.y.y.A.| V n v a m m s p ` 5.w.$.r.a.g. .d p O.Z.t.4.#.I B ! } { | >.{ V V ^ [ 6.b.7.9.>.>.{ m ] 4.| 9.n.n.8.8.:.-.} ;.| ] | 7.5.5.u.n.L.y.n > a +.+.P S m b a a a y y u I +.4.5.2.6.B.e.3.+.5.a.Z.'.L.Q.Q.F./.}.'.'.L.a.9.y.C.y.O.| u.u.' [ | -.} ,.6.O.2.y.y.C.n.n.A.Q.D.x.8.c.b.W.D.A.8.] 4.B.4.] [ [ { 6.9.M.d.8.4.} } 6.9.4.L m n F [ [ [ | ..$.5.5.%.+.] 5.e.G.~.[.}.[./.Q.Q.}./.D.n.n.C.9.O.V L L ` ] ..#.] ..2.$.i.i.i.f.Z.i.&.U ] p.a.i.i.i.t.` ` >.2.7.L v m N m | 9.5.2...] P D V J O.y.y.A.O.B v a s n m s u ` 5.w.3.w.i.s. .n a #.K.t.t.%._ V / } } | >.{ ! V ^ ^ 3.b.3.7.2.>.` B ] 4.| 9.x.x.z.1.1.) -.O.| ' O.5.5.u.9.n.L.n.m > v *.+.L S N s y a a y t t J U #.3.{ ;.x.9.X.Z +.a.I.@XoX>X;X%X*X:X4X4X[.4.' #.A.y.} _ O.%.#.y.Y.f.4.a.%.%.y.t.O.O.4.a.K.y.4.2.B v n i i p G y.Z.y.d.u.4.2.n.n.,._ [ | | ) ' O.,.O.G n H _ ` [ { | 3.3.w.$.5.+.] 5.e.S.~.[.{.[.(././.[./.A.n.B.C.9.| V L _ ` ] ....| | 2.%.i.i.g.h.G.a.%.U o.i.a.p.i.i.t.` ' ;.2.7._ s m m N ] 9.5.2.| ] ` L V J ",
"4.O./ ,.O.} _ L ' o.o.o.` @.5.5.p.i.a.f.%.` G #.d.t.t.V.O.V L _ D ^ ^ l r r v N | 9.3.^ ^ S w r 2.a.a.B.A.n.u.:.;.;.-.O.#.| | $.4.5.5.4.8.G > > p L  .T P D b 8 : w S m p d ] %.` V | ..#...$.V.L.'.'.}._.~.F.Q.'.'._.F.B.9.n.y.2.;.4.4.O._ O.1.,.,.8.8.7.a.u.5.a.9.2.8.A.B.8.,.8.x.m.L.Q.A.8.B.F.9._ _ ! ^ 2.A.n.y.u.O.V _ 2.9.4.` J H L L ' | 2.3.5.....#.a.B.B.b.A.[._./.W.D.A.M.D.D.n.u.n.8.2._ N v v V P [ _ _ 2.i.y.t.i.f.I.f.%.@.*.%.t.a.d.V.C.Z.7.| { { _ m v v m L | O.] ] O.o.] ] ] 2.4.O./ ,.O.| _ I ' O.o.o.` @.5.w.i.i.g.Z.5.I G #.d.t.t.C.O.J F _ _ V ! N r k l N ..7.2.[ ^ V w r #.B.a.B.A.x.8.,.-.;.} O.#.O.] 2.2.5.t.2.5.F & > s J +.U P S b 8 * r S S t f U o.S k ^ ` ..` P i.R.oX<XwX:X[.Q.^.%X4X&X{.9.] 9.B.2.| ' G #.a.i.V.V.4.i.a.a.Z.u.%.%.O.O.4.t.9.2.! e 9 a H G U %.y.u.4.4.1.1.8.1.( / } O.4.O.' O.| O.' F H P _ ^ ..>.3.w.3.O.$.i.s.B.b.F.[._.Q.W.A.m.C.D.D.m.y.n.7.2._ N v v m _ ` L _ 3.9.a.5.a.f.f.d.$.@.#.%.t.a.s.Z.C.Z.5.| ] } _ m v v m L | O.] ] #.o.o.` ] 2.",
"8.} [ | ,.4.O.#.5.+.I n U $.$.$.e.w.s.G.s.$.] $.t.y.d.t.I a a v ^ D N b k w r m D V V v w y 7 : m ..2.2.8.u.4.4.8.1.] ' #.o.L  .%.5.@.` m p < i J U P D K D D b y a L T +.] @.%.L a V _ D X.w.G.E.'.}._.Q.Q.F.F.~.'.L.y.n.9.B.9.4.8.B.y.O./ B / -.x.Q.C.n.u.4.5.y.#.] 7.x.x.2.8.8.x.n.S.A.6.F._.C.3._ _ | [ >.n.B.C.a.5.| | O.O.#.o.I L o.` ` | 3.9.5.9.2.#.9.V.F.~.%X&X&X[.D.x.z.n.M.M.M.n.u.7._ B N v r v _ ] [ _ ;.B.'.E.E.'.a.%.i.a.d.i.V.Z.Z./.L.F._.Y.a.` y r r k _ | | V r s L o.5.i.9.a.u.} [ | ,.2.O.#.5.#.I d U 3.@.$.i.w.s.G.s.#.o.#.t.y.d.t.I n a V _ _ m v k w t S ^ D S b w y 7 : m O.#.4.7.9.8.8.8.1.} ' 2.] P  .%.5.@.I n f 1 0 H Y J J L S S a 8 y S ` T U o.] v : r v D ] $.s.'.<X4X}.[./.W.S.[.&X[.9.1.[ _ / [ | 4.| $.C.a.V.V.9.i.y.C.F.s.9.#.' O.#.4.2.] ! r r F t.d.%.O.5.y.4.1.1.,.,.8.,./ ( ,.4.O.( / / O.o.J I X.` D ..7.e.w.9.$.| 7.C.~.~.*X&X&X[.W.x.z.n.M.M.M.n.u.8._ N N v h v _ ;.[ _ ..B.`.E.E.T.d.4.i.a.s.i.Z.Z.S.L.L.F._.L.a.' r r r v _ | ] V a v P ] 5.9.y.i.",
"y.8.n.B.9.4.5.O.#.%.I G I | _ ] w.9.i.V.5.3.#.] #.5.a.i.] p i s m L _ m y r s m s m t y m m u > < J J G ' O.,.O.4.2.{ ....3.X.+.%.&.+.U d p d E T &.+.+.U S L ] ` b f J @.w.5.5.] d J ] ] #.2.a.F.F.Q.F.F.S.S.F.F.'.Z.9.9.2.2.8.y.y.y.u.| | ! Q [ l.m.n.C.M.y.a.d.4.O.9.9.8.x.m.m.n.n.n.u.n./.Z.5.#.F } 4.n.n.m.B.B.y.9.4.4.2.| ' ] O... .| | ` >.e.9.5.5.%.2.y.^.*X&X&X[.!.W.m.N.P.(.P./.D.x.,.! v v z r e N [ | ;.9.F.|.'.].].d.4.a.E.E.V._.{.}.F.n.y./.oX'.O.u g 0 g n F / V e 7 V 2.9.5.8.8.n.8.n.A.y.4.4.+.%.%.U G I ] _ ] 5.5.e.V.5.3...| +.5.s.i.o.a i n m _ ` m a 0 b D b S p p D m s , 9 J I F I O.2.,.7.2.{ | ..3. .X.&.&.+.U m p d E T &.+.+.U m L ] P a t Z T &.%.5.` 9 v I o.%.&.%.B.F.}._.Q._.Q.V.y.7.] ` _ D _ ] L #.i.O.P ] %.5.s.s.5.5.C.Z.a.5.#.O.4.i.+._ ' B e r G o.t.%.4.y.C.M.u.O.;.u.z.-.[ } 1.1.,.' F n B L G ` ] ` P L #.9.9.w.5.+.#.y.~.*X&X&X[.W.D.m.M.P.P.).P.N.M.;./ v v v w e B [ | O.u.L.].'.|.].a.5.a.E.E.C.Y.|.[.F.A.y./.@XY.2.u r e e B B / G 9 9 F #.5.5.4.8.",
"/.P.}._.a.5.%.%.t.t.t.y.5.#.m P e.Z.H.a.$.#.#.#.` #.5.t.o.d p p G J s s 0 8 0 s S U S s ] i.o.d f L d m G m F F [ ] | ..X.3.&.$.+.+.+.@. .Z d J *.g.h.+.P S  ...L m L S  .@.o.%.t.o.' #.5.$.#.C.Y.Q.Q.F.F.F.V.B.B.L.L.F.C.4.O.2.u.y.C.4.( [ [ [ [ :.1.n.C.C.y.a.C.a.y.n.D.D.n.M.D.n.y.8.8.D.C.d.i.] ` 4.n.S.D.C.m.B.A.y.2.6.9.9.2.] O.| #.O.O.] 2.3.5.5.@.` F | b.Q.^.Q.A.c.m.m.P.!.).(.(./.D.,./ v a r w e h Q -.8.x.9.y.B.'.|.Z.y.t.i.s.H.{.&X[.8.,.| u.L.[.L.' 0 u x [ 1.,._ [ | ;.7.B.B.8.A./.P.}.'.s.5.&.4.t.t.t.y.y.O.m L e.Z.G.a.#.#.#...] 2.5.y.o.G f f J P N b t 0 p s J P J d ] p.o.d f J d H G m G N _ ] >.X...$.&.$.@.+.+.@.U J d E @.f.h.+.K J  .+.D v S f T U I %.t.U J o.&.*.%.C.S.7.A.{.|.|.Z.5.] ] 9.V.e.2.L L J ] +.I I $.a.s.a.e.$.#.t.C.a.y.5.5.a.t.O.| } n e 0 F o.t.t.t.u.n.M.4.O.1.n.8.-.-.-.;.1.1.,.( F G n V P o.] _ _ #.6.5.5.+.J n [ b.^.^.Q.W.m.M.N.!.(.).).).!.M.1.F v v w r q h W -.8.n.8.y.B.'.].K.y.t.y.s.L.'.|.(.8.,.} u.P.'./.' r u v [ 1.:.) [ | ;.7.B.A.8.A.",
"z.W.>XL.4.y.C.a.C.d.C.d.y.4.O.2.V.B.a.3.' V V m L | | ` I I o.I p > & < p s t m  . .U p f I m p G U L F L m v u v _ 3.$...#.3.X.P d S X.P Z S T 0.p.i.P J U +.+.U +.@.+. . .#.4.u.4.%.4.s.s.s.Y.<X|.{.F.B.a.B.e.y.B.L.F.C.u.O.#.4.C.K.y.[ F -.:.z.z.m.m.u.5.M.C.y.C.D.K.L./.D.L.W.D.n.z.n.C.m.y.9.#.5.C.n.m.n.B.C.A.F./.B.y.n.n.8.2.8.9.9.9.O._ | >.| ..#.] G V { 2.x.n.x.8.z.m.!.).(.(.N.M.8.| n u 0 v N h g N 6.8.8.n.n.D.<X4XoXZ.4.4.9.F.&X}.8.B / [ 8.P.P.x.F u u ( z.z.( j ! -.[ -.;.z.7.6.x.W.:X/.4.n.C.d.C.C.C.d.y.4.| $.s.a.e.5.] G D m L .... .] U o.U d , , 0 s b p S  .+. .s s ` G a G o.I L F G n v v _ 3.2...$.$. .L m S X.K S Z T 0.g.w.U S U +.U P  .+.U Y K L @.t.4.t.&.t.i.Z.'.&X[.^.{.{.V.7.` _ Y.XXS.3.| b b v ` $.a.e.e.y.a.e.w.w.9.B.Z.y.4.4.%.4.] ` ] [ n v v ' t.t.y.a.y.1.u.1.-.1.z.-.[ :.:.-.,.O.O.O.,.' F G | 2.O.L n _ | | ` ] L n d { 6.x.A.z.8.z.M.(.(.(.=XM.M.u.' n a 0 v v h g W :.9.8.n.y.D.>X5X|.Z.4.4.9.Q.}.&X1.F F [ 4./.W.z./ r u ( z.z.) u / -.[ -.;.x.7.8.",
"[ 8.Q.,.| C.Z.y.a.y.y.D.C.5.#.O.#.$.5.+.] ` ..L m m a a H T o.U i % & > < t s @.s.*.U m p L P V m L I L _ m 9 4 r V P ] ] X.X.D S y y D ` S Z P t.w.L U @.s.&.+.+.5.5.+.+.3.w.5.#.O.5.5.V.Y.@X]._.V.9.9.6.2.4.b.9.O.9.n.C.y.4.4.4.d.y.D.,.| W.*X(.N.(.D.M.9.u.u.u.D.L.K.L.L././././.W.D.n.M.D.a.4.4.n.F.C.L.D.D.n.A.F./.L.L.L.D.n.x.9.A.9.8.,._ [ D _ V ' ] L J L ` >.m.A.z.z.x.N.W.).(.n.n.y.O.n t s n m l g W 9.m.,.4.n.D.C.9.C.F.8.O.9.D.Q.W.-._ | O.1./.(.n.| n z ,.8.( g 6 x B N v g _ ;.[ [ z.Q.,.| D.K.y.C.y.y.S.C.5.#.#.#.3.3...] ` | P D D v a J +.%.o.s > , < y p S %.s.5.U S p P _ L n I ` L [ n 9 7 r V P ` X.X.X.D m p p D ` J d P &.w.J P @.s.%. .] @.@.U P +.5.@.] o.5.%.t.].3X2XXX{.`.~.9.` ..Z._.Y.S.>.D V b k b X.V.V.i.9.y.i.9.5.7.5.a.a.5.4.%.O.O.' ` F n u u n T %.5.4.4.,.} O.) -.1.<.-.( -.} } ;.} | #.,.O.[ } O.O.' L a a v v w n J m m S ^ >.M.M.z.v.m.M.!.=X!.m.n.y.O.n u p n V z r N z.A.,.4.n.D.D.9.C.F.u.o.9.A.Q.W.;./ | O.8.P.(.n.} n n ,.8.( g 6 x Q Q z h [ ;.[ ",
"( B B _ 4.D.S.n.9.8.9.S.L.F.y.#...@.$.#.4.5.] m b N v y m I U E d i 0 i u s d U a.V.] m b N D _ n _ O._ n v V a 9 m U J U  .] J b r r ` ] _ b m S ] ..3.Z.T.f.%.] @.5.5.e.a.#.P ' 4.9.s.B.s.d.i.w.B.V.7.7.7.7.7.7.;.2.A.S.x.8.3.4.O.#.9.;.<.Q.!.).(.).W._.).M.,.[ M.Y.C.K.C.P.%X>X)././.W.(.[._.F.2.B.Q.L.F.L.L.A.B.F.L./.'.K.C.A.y.8.9.8.,.O.| _ V V V V D m m G [ 2.n.n.n.z.<.v.N.).(.D.D.n.2.m i p n r r r r ;.7._ ,.8.4.8.9.D.C.y.5.B.A.8.S./.M.4.%.8.A.D.m.8.' _ O.) u 4 e c e z e v V ] } ( F B [ 8.F.F.m.n.8.9.C./.F.y.#.O.@.%.O.5.$.| V m D N s J +.+.I m d v n m m S  .s.Z. .D m L _ _ B ` O._ n n V u 0 m U J T  .] D m r r ` { D S b m ]  .2.Z.T.f.@.U +.@.$.5.5.U b D #.5.2.%.4.a.L.G.S.e.` S m ] G.`.Z.V.2._ D v p s L $.e.9.4.5.e.9.4.2.2.7.8.#.| | | ] O.' n u z V ' #.%.4.2.,.} B x F F ) ) ) ) -.-.[ } [ ' O.O.' ' } | ' _ F n u 9 0 r z v a d b ` 3.x.m.z.<.v.v.m.)./.W.D.n.%.m i p d y r r z ;.7.[ ,.8.8.9.9.C.F.a.4.B.A.8.A./.C.8.1.8.A.W.m.1.' ' ;.' g 4 g z e h h v _ | ' ",
"G F / } ,.2.S.D.n.,.2.8.A.F.F.B.5.5.5.#.#.P m a v N y m ` @.+.T f > & 9 H +.U J +.@.P p y v N ] ' ' [ B r u a 0 < m I U $.&...] ` m y N | J t 0 s ] 9.e.C.V.5.@.` +.5.a.B.a.#.] 5.B.a.B.i.$.@.5.5.a.e.B.F.S.n.x.n.n.n.n.A.8.2.2.4.#.5.6.{ 8.[.!.!.P.).P.OX>XP.n.-.n.u.4.u.| ;.D.(.L./.D.[.}.[./.F.B.A._.'.'.;X|.B.9.y.A./.'.L.C.B.y.,.8.9.4.9.O.` _ F / ! [ o.@.#.#.4.9.z.m.z.<.) u.M././.a.y.i.%.J a r y r r M _ ! } 7.O.[ ' #.8.y.C.L.'.F.x.A.D.L.D.M.m.m.8.} } ,.4.4./ z e e e r h v B _ } L F F F } O.9.D.F.n.2.8.8.B.F.F.a.5.5.%.#.#.P m s N V N D o.&.&.@.G 0 9 a U %.+.U +.5.` m m N V | | } } V a u a i 8 m U U @.%.+.] ` v v B ..D t 0 s ] 5.a.C.f.5.+.K U %.5.t.5.P m ] e.9.3.4.] I +.#.3.X.S S  .a.F.`.{.S.3.` V b y y m ..3.3.#.X.#.2.#.#.2.2.] _ N _ ] ' _ / n F ' ] %.#.#.#.O.[ ! F n c c B Q x / | ,.' / F F ' ] _ F F F ] O.I n u r r h v F ] #.#.3.x.x.m.M.z.v.<.z.D./.Q.B.9.i.$.J u u r r r v _ ^ } 7.O._ ` O.7.y.B.H.T.F.A.A.W.L.C.M.n.m.8.-.| O.4.1.( z 9 u z r z v V [ ` L ",
"O.O.O.' F } y.n.9.1.,.,.| 8.A.B.u.5.y.d.+.m b m b k y a L I J I f i d J +.%.*.o.J d S s m m m _ ' ' ' G i > , 0 i H U ] +.$.+.#.4.] N N _ m 0 i V 4.F.B.a.3.] U P ] #.4.4.4.4.9.e.V.F.9.X.` $.5.@.#.5.H.'._.F.A.n.x.n.S.S.8.2.2.b.e.B.B.A.D.(.(.!.N.(.P.).>X).N.n.u.O./ ( B ! 8.M.C.P.D.Q.Q./.F.F.[.{.Q.V.B.Y.|.Z.4.5.F.'.L.C.M.C.y.t.8.y.n.C.4._ _ ' F F _ ' 4.9.4.1.1.z.M.m.m.<.n.M.8.2.O.2.i.t.] d 0 a u d ] 2.[ 9.y.2.V V ] a.9.#.5.i.7.n.A.D././.P.y.M.y.| } -.8.4.o.H e u z M r h v ' 4.#.O.O.O.' F O.n.A.8.1.;.,.| 8.B.A.5.4.y.s.+.m n m D N m m ] ]  .o.J n G U %.5.&.@.U L J S J V L [ O.O.} L a , 7 i i J U ] #.%.#.@.2.] n V _ n 0 0 V 4.F.B.i.2.` S S L ]  .o.+.+. .$.V.S.b.#.J +.0.@.$.T J U f.G.H.'.F.B.b.6.` L N s m ..w.3.$.4.2.5.4.2.2._ D V m L ] O.;.;.} O.4.o.O...| [ ! V M g g g n B F B F ) :.} / B / O.,.O.| _ } | $.%.G u s V F ! L ' 4.9.2.6.<.z.N.W.m.8.n.m.9.4.O.2.a.i.] s 0 a 0 v ] #.' 7.B.,.V m | y.9.2.5.a.7.x.A.A././.K.C.M.y.| -.| 4.4.' G e z z v z v v ] 2.2.",
"B.9.4.8.4.n.y.n.8.4.8.x.,.,.9.B.i.7.s.5.+.U m ] ` m v r i a T +.m d O.i.i.d.&.&.5.@.] ` G I _ F F F _ L I G d L J ] o.U P +.$.%.2.] L F v n n u m 9.B.b.b.4.#.L J L L ` o.#.e.e.B.S.S.9.|  . .w.+.3.5.a._.@X|.|.}.F././.L.9.;.9.V.B.V.S.S.Q.[.).).>X%XOXM.n./.).P.1.( z z B [ -.1.1.1.8.-.8.n.V.F.Q.|.].C.2.%.u.#.` O.C.Y.F.Z.C.d.y.4.8.B.C.y.O.o.' ' [ O.O.O.,.,.[ ( Q ) N.M.n.n.n.8.9.O.] %.5. .] ` G s s m | 4.| 2.8.| ` ] 2.4.| ' #.4.B.B.n.Q.A.n.8.C.n.| [ ,.B [ 1.1.;.Q / B V M z v m ] C.C.u.4.8.4.n.n.y.9.8.8.n.,.,.9.x.9.4.a.t.+.` J ] ] _ V v m J %.5.I L 5.d.d.f.t.5.i.&.#.] [ ] | L F F o.I ` G m G G o.+.U P o.$.%.2.] L m v v d r m 4.b.b.e.2.X.S d s s d J +.&.w.w.V.H.3.` J @.f.0.q.X.J w.T.`.{.H.S.S.Z.V.2._ ..#.X...X. .5.5.f.V.e.4.] D _ _ _ #.6.4.2.' [ | O./ ] #.2._ ^ ! M n z n u z n n n ( ,.} / B / } 8.u.4.| ..6.%.#.J a m O.,.8.4.2.1.,.[ ( B -.m.D.M.z.n.y.9.o.] 4.%.| ] P G d s m | 4.| 2.7.O._ ] $.4.O.] #.4.V.b.x./.M.m.8.y.y.} [ ;.! ( 4.1.O.F / Q ! B v n V | a.",
"O.O.1.8.u.a.9.,.| | 6.B.9.2...7.4.9.5.#.%.` J P P J s t 0 m 5.5.L U &.t.i.K.i.%.5.9.y.2.#.#.#.#.` I ' 4.t.a.5.' _ O.#.| | ] ] | ] ` _ v s n u r m } O.2.y.y.2.] P J U @.5.y.Y.Z.B.9.3.7.9.2.| +.$.&.r.G.R.`.XX{.H.Z.F.`.H.9.8.9.V.F.Y.F.9.B.F.(.}.>X}.}.M.c.=X>X(.n./ F / | 2.1.| _ F F B / z./.D./.|.<XY.F.7.| 5...] 5.L.V.d.a.B.y.6.3.5.a.V.4.' ' ] | 1.6.8.6.;.[ ( B / u.n.n.8.| O.4.4.%.t.#.o.] @.#.I H U %.i.%.2.2.2._ J | / n [ #.B.~._.V.C.S.8.1.8.m.6.;.2.| [ 8.u.| ) <.<.:.) F a c F #.O.| 1.8.y.C.n.4.} O.8.n.9.2.#.7.4.4.5.#.$.` J P U D m s a _ a.s.#.4.i.a.a.I.a.5.a.a.B.9.4.4.4.4.| ` ] 4.t.a.5.| ' O.#.O.O.] ] ] | ` L s p n u 9 B ' O.#.7.9.#.I H s d Y @.i. XJ.r...^ D +.@.@.@.T U +.i.I.G.Y.Y.V.9.9.s.s.4.3.3.3.$.3.X.X.U @.s.H.V.7...3.#.] #.4.y.y.,.] | O.' _ | 4.| ( Q ! N M v h 9 u n u F 1.n.;.M v G [ 8.M.x.z.7.2.+.$.` m _ O.1.n.n.x.8.1.;.( B _ 8.n.n.8.;.,.u.%.%.%.+.o.o.%.#.I d U &.t.%.4.$.,._ F | F n ' 2.B.H./.C.C.D.8.1.9.n.8.;.2.[ } 8.8.| ) 1.8.,.} F n n ' o.",
"O.| 2.2.2.2.O.} [ ] ,.9.9.| ] | O.#.#.2.#.P ]  .L J J s 0 m +.5.a.f.f.5.Z.]._.B.$.6.y.4.9.y.a.B.y.t.t.5.#.y.t._ F F _ O.4.O._ ` m p D ] P m a n V V _ 4.y.5.9.%.] ] U ] t.s.B.a.9.7.9.x.V.b.2.2.5.$.s.s.G.T.T.T.Z.V.a.F.Y.B.e.9.B.Z.V.Z.e.V.Q.^.(.%X).(.(.}.:X:X}./.4.4.4.t.y.8.} F B V / -.N./.P.'.'.C.'.oXF...] 6.X.5.I.f.@.%.a.9.>...| 5.B.e.$.#.2.O._ / ,.1.[ | O.] I 1.8.n.z.,.| 1.O.O.+.o.L L t.4.@.&.i.t.i.i.t.$.` ' ] 2.O.V L ;.2.7.7.2.8.y.4.1.,.O.O.;.[ B Q v ( 1.8.1.8.1.} F H G F ] O.O.6.4.8.9.4.} } O.2.n.9.| ] | | #.| O.] L ] ] L L ` m p D #.a.Z.K.Z.a.L.]._.F.9.9.B.B.y.B.C.Z.a.a.y.t.5.a.u.' F F _ | 7.O._ ` m a L ] I n u s m B / 2.9.4.5.#.J J d Y *.p.s.w.q.>.R S i.I.a.5.&.5.a.G.I.I.U.F.V.i.w.f.C.s.a.3.3.w.w.#.P K ` $.w.e.3.5.5.#.] | 5.B.a.7.x.9.,.' ' ,.2.-.[ ^ ! l h M z w u a H ' y.n.| B v M } <.8.6.6.2.2...+.+.$.5.6.2.[ _ 6.z.-.;.1.O.' 2.4.n.u.O.| 4.o.] o.o.L J t.&.%.&.i.t.i.a.i.#.` ` ' 4.,.V L ;.6.7.9.2.7.y.4.2.,.;.;.;.[ B V M ( 8.6.<.8.1.;./ H F F ] ",
"9.$.9.9.6.| _ _ | 2.8.9.2.] | 2.4.8.5.#.G m ` ] P ] #.G i f U a.E.'.Z.B.Z.L.Y.F.Z.B.B.6.4.y.a.9.t.y.d.5.] #.O.m n z v M ' 2.O.` v y m L | ] m n [ _ V V _ O.] I o.@.#.#.a.V.e.3.9.9.y.S.S.n.2.i.s.w.r.r.V.].T.F.V.B.5.b.V.A.S.F.Y.s.a.Z.F._.&XQ.m./.P.).=X%X%X%XOX).8.O.u.4.y.D.9.:.B B ~ :.l.m.D.u.,.F 4.C.y.6.| a.Z.a.V.a.#.+.$.3.3.] _ _ P 2.a.9.,.[ Q Q [ | } O.4.| F ' ;.,.,.| } | O.u.d.y.#.] #.$.t.i.%.%.%.i.d.y.2.9.F.B.y.2.4.2.} / V V F O.2.,._ V F [ V v k v n 8.n.,.,.8.1.] F o.1.t.9.$.B.A.n.4.| [ O.4.5.9.2.} ] 2.2.6.2.#.S m _ _ P  .5.U d L 5.Z.`._.Z.Z.Z.F.L.L.L./.F.9.x.B.C.B.a.a.C.t.O.%.#.m n v v M | 2.| ` s y b L ] ' n n _ L v n F ] P H J U K U k.p.r.3.e.r.R @.f.I.f.K.U.G.F.F.F.`.'.H.Z.V.w.e.V.V.F.H.G.3.$.$.] ] ` V N { w.b.B.7.] | y.C.C.D.n.9.4.O.| | [ [ / ~ N B M h v u 9 u G O.u.x.} ! B B ( ,.,.:.,.| X.....3.a.9.] B z B } ( B _ 1.| / ( | ,.;.) ( ' ' 4.y.a.O.] #.%.t.i.%.%.&.t.Z.a.$.9.F.C.y.2.2.6.` ! B N F O.2.,._ B F [ ! v v v n 8.n.,.,.8.4.O./ o.1.t.",
"C.B.9.2.,.| ] ;.O.4.y.9.2.[ _ ;.2.2.4.$._ _ ] ] ` ` #.L d I %.Z.oX].L.L./.S.n.S.~.Q.x.;.,.n.9.4.#.+.5.#.] L G z z n u z B ' ` V m d f m L m > , V F u r #.V.#.n I %.t.Z.Y.F.9.9.y.n.n.n.A.A.B.Z.U.Z.s.5.Z.].Y.f.Z.H.V.B.F.Q.^.|.|.L.I.K.a.9.[.{.W./.(.).[.{.%X&X:XOXy._ #.4.4.C./.M.,.-.:.l.c.W.n.} / _ #.B.C.B.B.F.|.Z.$.5.e.s.5. .4.9.| V _ $.9.#.| ] } | -.} ) } ,.,.) / } ;.| [ / } y.K.L.C.y.d.u.%.t.Z.t.+.U %.a.9.9.V._.y.9.C.n.;._ } 2.2.} G _ ' n n n N N V F m n ,.8.2.8.C.C.4.o.%.t.d.Z.a.9.x.9.8.4.4.2.8.y.9.2.[ / O.2.2.#.] _ L _ D L ] $.` I @.f.I.@X].L.Y.F.C.B.S._._.S.x.9.B.B.9.4.O.t.5.o.` L m n N v v V ' } V m m p m I n & > n V w 9 #.V.` i E +.%.s.I.G.r.e.e.q.D @.f.Y.L.L.F.F.Y.B.Y.|.|.H.Z.Y.Z.F.'.H.~.{.~.q.3.r.+.#.#.P b ` 2.e.Z.B.a.B.D.F.S.C.y.4.8.2.,.2.,.;._ Q Q / _ B N v u H / o.2.| B z n n / [ [ / _ ' | #.| #.4.| / v c [ :./ Q / } ;.( / | :.;.( G / y.P.K.C.y.d.5.%.i.f.i.+.I &.d.y.y.F._.y.9.C.y.;.[ | 7.2.' F _ ' m m n N m ^ D n n ,.8.1.4.C.C.4.O.%.t.d.",
"4.4.6.[ | { 2.2.| O.9.a.9.2._ ] ' _ ' | 2.2.#.2.| o.%.@.o.%.t.a.K.F.B.A.D.D.n.n.x.A.n.x.9.B.C.a.5.$.#.%.5.+._ F N v r M M v a v m m d d H 9 % & , 0 u F | O.O.] | i.V.B.e.7.2.9.B.n.n.n.D.S.L.L.7... .3.F.].].Y.L.Y.Y._.}.&X&X-X_.f.a.a.9.6.Q.%X}.%X%X;X}.}.(.}.5X4XD.5.4.%.%.4.y.C././.A.!.^.(.}.).}.S.4.y./.S.A.A.C.A.` ' 5.V.4.$.9.a.B.9.7.9.a.9.,.4.1.8.8.;.} O.| } | ,.1.:.| | _ x.'.D.C.C.Z.C.5.$.2.i.t.+.I @.Z.d.u.B.H.A.9.m.4.} } 6.m.B.O.F _ n a ] L a v D ] G L | u.5.#.9.F.t.t.1.O.o.4.B.9.>.>.7.b.9.2.2.9.a.a.2._ ' ` F _ [ | | ] ] L ] @.t.&.t.i.f.I.I.F.F._.F.A.A.D.W.A.A.F.W.F.C.e.5.5.5.5.O.] ` V B h N v v u m m d s d d 1 $ % , , r n ' ] ] L J 2.s.i.e.5.X.3.0.e.+.+.V.L.L._.Q.F.B.L._.'.]._.Y._.F.'.&X&X}.|.H.q.@.%.w.%.` ] ' | %.C.F._.F.S.B.a.a.9.4.O.| ;.,.1.} ( / F ! [ } / ! B n F O.,.;.} B v n _ O.,.[ B / _ | O.` [ O.| | ,.M / 6.6.| / / / / } O.;.[ [ ( u./.C.B.C.C.d.5.2.%.i.w.+.L @.f.C.y.B.Y.B.9.B.,.[ [ 8.A.A.O.F L m v ` L a v L ] G L o.t.8.2.9.C.5.5.5.%.O.",
"L ' { ] ^ [ 2.] | 3.4.y.L.B.#.| } ] | [ ..2.>.>.` ] +.5.%.&.i.y.a.Z.B.D.D.D.m.n.x.A.A.Q././.Z.B.5.| I I U o.o.O.[ v g r v r a V L P U U +.U d a p v F ` _ V F O.2.4.5.5.>...6.y.y.C.n.y.m.8.A.C.| L ] a.V.H._.L.Y.`.;X-X-X*X[.-X].Z.i.5.B.F._.%X%X>X;X>X>X(.(./.(._.C.9.5.%.o.O.4.d.P.P.m.(.}./.}.;X;X}.C.C.}.'./._.A.9.} o.2.4.5.e.H.{.'.B.7.9.a.S.y.8.2.8.2.-.' } [ | ,.1.;./ B B / / ;.8.A.C.B.9.y.B.Z.a.%.5.4.5.Z.a.#.| 6.9.y.2._ -.-.} ( _ ` ] 4.P D _ m u m L V G 4.y.C.F.C.C.C.u.%.%.4.O.] 2.{ { { ;.6.6.7.9.4.y.L.a.,.| ' ' | _ | ..{ ` F P $.i.5.i.f.i.a.Z.Z.F.F.F.B.F.A.F.A.[.{.{.F.C.a.4.+.] ] +.#.O.] M v g v v a V L L I ] o.U m p i u m F V v n ] #...2.3...] _ #...3.5.6.C.F.F.L.A.A.F./.Y.F.Y._._._.|.|.&X-X{.|.{.V.&.0.d.5._ 2.4.4.d.C.Z.L.F.n.6.4.9.y.n.1.| ,.1.8.) / ) / / } ;.] | V F L ' ] ;.;.} V n ' 2.| _ V _ / _ ' ] #.2.O.| [ ( 1.D.m.,.( G ) 1.4.;.F z M n B _ 2.x.n.y.4.4.C.F.s.5.%.%.t.Z.C.O.O.6.9.n.2.[ | | [ / _ ` | 4.P V I m y N L F G 4.y.C.K.C.C.C.y.%.5.5.] ",
"P _ ' ;.` ;.3.| 9.B.4.y.d.9.2.| [ 2.7.;.;.7.2.] | 5.i.&.5.%.%.5.a.L.F.C.m.m.n.8.,.1.n./._./.y.9.$.] U J L o.#.4.` v u r r v V ` ] @.%.%.*.#.] J P F m n G [ _ | | | 9.B.i.5.9.B.n.y.9.m.,.B B / D | a.i.i.C.L.Z.Z.F.Q._.&X&X-X4X@XF.i.#.#.8.A.=X[.[.}.W.Q.(.).(.F./.'.5.#.%.5.4.O.O.u.4.O.n./.Z.K.%X;X|.4X;X}.[.}.[.D.A.4.2.4.4.e.V.F.|.}.F.F.C.B.a.7.O.| } ' ] 2.4.,.,.| ) G F B M M v B ,.8.9.a.y.5.e.C.V.y.t.Z.K.C.L.9.| V | 9.;./ / / M u n L #.w.5.5.5._ L ..4.V.F.E.L.L.Y._._.'.E.C.t.%.o.U _ _ | { -.6.>.9.A.4.5.a.u.$.] _ ;.1.| ;.3.{ ^ _ %.d.i.f.a.i.t.i.F.Y.F.S.B.n.C.B.x.F._.{.}.S.y.4.2.O.I I o.%.4.] m v r r v V L ] +.@.@.*.+.U G L F m a B F F _ [ V #.5.3.$.4.i.e.2...e.s.9.8.8.6.y.C.L.L./._.L.F.F.F.[.}.-X:X2X{.G.e.i.i.5.} 8.1.O.y.K.K.Y.C.9.O.| O.8.M.u.,.-.,.1.,.;.} [ } / [ 1.2.[ F G F ' | ;.| | [ O.O._ V N V V F _ ,.4.6.| / n v / ] ;.8.1.[ [ } ) / F n u h r g [ 7.7.9.5.4.a.Z.Z.s.y.Z.L.Z._.a.#.V ] 8.| F / / x u n L O.t.5.w.%.` L #.4.B.L.Y.L.L./.Y././.K.a.t.#.O.",
"F V V | 7.b.>.[ 6.3.9.y.5.9.4.| ;.<.2.;.| | | | #.4.5.a.i.%.@.5.C._./.y.2.n.D.M.1.,.D.Q.F.F.4.#.O.] ` I U ' #.o.m n a r y v V ] 4.5.@.%.o.U _ ] ] ' [ _ | / G ' #.5.9.a.B.5.6.i.C.Z.n.1./ F / n L #.5.#.#.y.a.a.C.L.F.^.[.&X&X}.Y.Z.y.,.| >.6.W.W./././.D.D.W././._.Z.8.4.C.t.o.' n B n / 8.C.y.y.D.:X<X/.'.D.D.[.}.%XoXP.9.8.4.V.F.F.F.Q.L._.F.y.9.4.O.] ,.9.#.2.4.2.,.} G n F B n v B _ } ] 2.5.9.2.#.4.5.9.s.K.s.a.y.2.L V ] | _ B B B u e a m L ] w.a.i.i.B.B.A._.'.'._.L./._.'.].'.'.K.%.' _ D ^ { 6.9.] [ 2.7.9.y.9.5.4.| ,.,.-.| -.{ [ ` ] 4.4.g.f.i.t.f.V.T.`.B.8.B./._.A.9.Q.'._._.C.4.2.5.o.] o.] %.#.m v v y r v V ] 3.w.$.%.o.U ' ] ] ` [ F ' B v _ ] #.#.9.e.$.| 4.b.e.7.2.2.,.2.2.6.n.n.n.y.C.F.S.C.Q.F.Q.{.&X5XoX`.H.V.e.f.4._ } B n ' u.n./.S.7.%.' / | n.n.,.,.,.-.[ | 8.1.,.O.} 2.4.2.[ n F ;.| ;.,.8.%.#.O.[ N n m m V [ 2.2.` G F B B F _ _ } | } ) / F x G V v r r M / ! ] 2.5.#.$.a.9.9.d.I.Z.C.a.2.V N [ | F x B B h 9 y n L o.5.a.a.a.s.B.B./.'._.'.L./._.'.'.'.L.d.$.| ",
"! ! [ >.7.2.[ L ` ] ] #.#.e.B.B.x.z.7.9.6.;.#.O.' [ O.%.5.t.2.#.y.F.A.8.8.y./.D.S.D.L.P.P.C.y.] V ] O.] ' $.t.4.] L L F F N L ] #.] ..2.] B V ] ) } } o.' F G G _ #.%.4.5.$.#.5.e.5.] B B B B B ' 2.O.4.i.5.4.L.|.}.}.>X&XD.,.9.x.4.5.2.| 2.<.l.N.).OX_./././.:X4X}.F.Z.F.Z.2.B B / ~ Q [ 6.8.4.t.n.D.A.y.m.8.M.>X:X[././.C.,.| 9.B.B.F.Q._._._./.C.9.4.9.y.9.2.O.O.O._ / n u n n B L [ _ ] ;.| ,.$.#.| ] 9.C.a.t.y.y.2.] v N | 2.] ! B v z 0 u m ` $.w.&.t.y.5.5.A.W.{.{.%X[.(.}.}.}.:X}._.A.| _ [ _ ;.2.| D m ` ] ] #.2.e.e.B.A.z.8.9.7.| | } L m I +.i.s.#.O.e.V.S.B.9.e.].|.'.L._.L._.L.Z.2.] %.4.#.O.%.i.%.] ` L L F n F ` ..] | $.| m V ] [ ' / O.F z z H H ' ,.O.O.o.' ] ..| ] ] [ ] } ] 9.a.9.n.C.A.B.Y.|.{._.>XOX/.8.A.S.e.e.b.B.6.[ ! / / / [ 2.8.9.A.8.` B | <.z.z.8.;.;.| ,.n.C.9.O.O.O.1.#.) F G ( _ ( ,.} ` ' ' _ G n n n V / [ _ ! G ` _ P [ V L ] V N M k h v n m G B N N _ _ V P #.4.$.2.i.V.y.t.y.a.4._ v v | 2.] V N v u r u N P %.w.5.5.y.8.9.B.Q.[.[.}.[.[.[.[.}.&X/.F.n.| ",
"^ ! N ! | ] ` ] X.] S V L _ ..B.B.A.A.B.A.2.[ [ _ F G ] $.#.#.#.6.9.A.8.7.F.'.D.D.D.D./.S.B.8._ v G | #.9.a.9.t.5.%.#.] ] O.O.#.2.#.] ] V h z V H F / / F z x G I | ' ` L ] +.2...] _ { [ V z B [ O.o.+.#.] 2.F._./.Q./.}.n.,.6.2.7.6.7.A.m.c.^.=X).%XoX*X4X5X5X;XoX5X<X_.F.9.| :.<.[ -.z.n.u.5.u.8.y.n.C.S.z.8./.OX/././.m._ V 7.L.F._.|.|./.L.L.F.Z.B.B.a.y.4.| [ } _ _ [ F V F F _ ] | ] ` ..$.$.] ] ..a.a.O.4.a.9.' V v V | 7.4._ N v v v m L ] 3.$.#.%.5.%.8.D.Q.(.(.[.Q.%X>X%X[.{.F.D.;.! ! B Q ^ [ _ _ _ ` ] L D L _ >.A.B.A.A.A.A.,./ F N n n _ 2.#.] 2.5.b.S.e.B.}.oXF.F.C.B._.L.F.C.$.L ] 2.4.y.y.y.9.5.4.%.] ] ] ] O.#.| ] [ N q r B B B F F H e e u G I F F a F ` G m m _ | ] _ _ [ #.4.7.7.5.2.6.C.Q./.Q._.;XC.8.C.3.>.>.b.S.b.8.l.1.) ! ;.6.2.x._.A.O.4.n.8.m.n.,.,.x.,.4.y.y.4.%.u.4.o.( F } ' F _ } [ F n G G F F F v V _ ] / V F V G D _ #.] ` L m v k x M v N L L m _ [ N v D ` | #.| #.a.a.#.4.a.4._ n u v } 4.6._ v u v v m P ] 3.%.@.%.5.4.8.C././.^.(.(.{.&X[.[.[.F.D.,._ ",
"[ l h N [ [ 2.7.2..._ m D ] | 9.Q.F.B.F.F.9.| } N m L _ L | B.>.[ 2.x.x.A.~.Q.F./.S.9.n.2.,.] L V d n | 2.#.] #.4.i.y.%.$.#.O.2.4...] _ V N B V F / } } F n n F / ' ' I L U ] ] ` ` _ ] -.) c z n O.y.5.#._ O.n.A.Q.A.A.M.y.8.9.F.~.A.A.{.^.m.[.:X4X;X:X5X5X;X;X4X2X<X_.L.Y.C.D.F.Q.A.n.n.D.C.u.C.4.| 8.8.8.C.C.M.D.D.W.m.8.-.,.n./._.|.2X;X/./.L.Z.Z.F.L.Z.Z.V.5.,.,.| [ | } F B B v _ | ..#...3.w.+.#.#.2.#.` ] 2.] F V B N } 6.4.| F m V _ _ ` | $.$.5.y.D.K.n.n.W.D.W.W.A.A.Q.Q._.m.8.8._ B M r r M N ! ] 3.....` V L ] | 9.F.S.B././.x.| | n u B V m [ A.6.;.b.F.S._.|.H.B.L.y.8.y.5.4.2.| ] m v | 2.2.] #.5.y.t.2.#.o.] O.#.X.' _ B v v B z B O.( F 4 9 H F I L V n L _ v r s m ] #.| _ _ #.4.a.y.2.[ #.e.A.A.A.A.D.M.M.C.~.^.S.b.^.{.Q.F.Q.c.;.z.S.B.C.L.A.C.[.P.n.m.m.8.m.F.d.u.y.a.%.4.t.4.] / ,.O./ F ( [ ( F F I L F ' _ F F } | [ _ _ V F F `  . .] _ D N v N N v a s v u m m m V G ` #.#.#.#.O.] [ #.4.O.V v v M [ 2.4.| V m V L _ _ | @.4.t.y.Z.K.n.n.W.D.W.A.c.W.Q.D./.n.8.2._ V ",
"B M h v M D a._.Z.e.$.` D e.F.b.F._.F.F.n.A.8.2.O.O.] | } 2.b.6.2.x.A.S.W.A.S.A.F.Q.8.} } / _ [ v 9 n | 4.O.] 4.t.4.5.t.5.%.o.4.7.#.] _ N M V N n B F / ) G F _ ] ' o.] ` ] +.o.+.#.#.;.| ;.V z B 4.y.a.y.t.a.F./.{.Q.M.D.C.8.A.&X|.[.{.&X|.[.|.;X5XrX5X5X2X4X5X|.F.].'.C.Y.F.F.}.[._.F.n.n.y.%.F F ;.| / V ,.u.4.1.1.,.;.n./././._.;X2X6X4X_.F.8.4.B.Z.a.i.d.C.y.4.,.,.-.[ ( [ | | _ #.$.#.5.e.3.+.3.$.5.#.P G F G / N N M B [ | #.#.| L _ _ ] | | O.' ` o.5.Z.P.9.[ ~ :.6.:.;.<.;.[ } ,.,.| _ V m r h k V 9.F.V.5.$.` D e.H.e.~._._.Q.B.C.y.9.O.| ` ' D { B.4.B.~.'.|.'.A.A.B./.F.4.| | | | 2.N r F $.7.| ] 4.t.4.5.t.t.#.] #.6.#.` F v v n z e u G / F H H ) O.] ' _ / ' O.] ] +.#.#.3.4.] L ] 7.y.y.a.4.y.B.F.[.W.m.C.P.y.D.7X4X-X^.{.&X'.}.4X[.A.9.8.4.4.5.K.'./.C.m.n.y.n.9.A././.K.t.o.O.o.%.1.;.O.1.| ' [ _ } O.} O.4.#.] ' ] ] | O.O.| _ N G L ` U L V m m v ! N v a v V N m J ` ` O.#.` _ ] | #.' F G L / F n z r v L | | O.| _ _ [ ` | ..O.` I o.5.Z.L.9./ ( :.6.;.;.1.,.[ | ,.,.| / ",
"N N N h M | A._..X~.V.V.a.5.V.F._.]._.B.a.F.y.9.y.7.#.6.>.7.b.2.9.e.B.A.A.9.9.z.A.A.8.,.2.} } [ V L [ | 2.#.4.y.Z.5.5.5.a.a.%.O.O.#.2.] n z z n n B F / _ ] } | ' _ _ ` | ] #.5.5.9.y.8.2.1./ M B ] ] 4.i.B.s.y.F.[.A.M.D.D.n.C.oX4X&XXX&X|.|.oX;X}.'.|.'._.].].C.C.OX<XY.a.y.A./.K.C.t.O.#.4.O.%.8.x.,.} _ ' 9.K.D.B.8.n.D./.(./.D._.).oX}.'.M.B _ y.a.#.#.4.9.y.4.,.,.,.[ ( [ 7.6.| | ' | 5.a.i.+.3.5.5.#.] | _ n V ! B B B ;.4.2.#.` n n _ } 2.4.' ` o.P I 4.5.| ! v M M Q ! / _ ! F V ! } } _ V z e z ` 9.Z.Y.H.a.V.e.e.b.S._.].'.A.B.F.V.a.V.9.2.2.2.6.b.3.B.H._.{.{.9.,.9.C.F.y.9.y.6.6...` ' | 2.4.2.4.a.Z.5.4.%.t.t.o.] ] $.5._ u 9 9 r 9 9 g n F ) ) o.| F L _ F P #.5.t.i.a.a.5.2.| _ [ #.#.5.e.a.y.y.S.F.A.m.W.D.n.D.<X4X4X&X{._.}.;X|.F.B.2.G _ o.5.Z.y.y.D.B.x.n.e.4.B.Y.Z.C.%.] ] O.O.,.O.| 8.8.,.O.,.O.O.4.4.o.#.o.' _ | 2.,.2.6.' ' | ] ' I G n a r r B z r z v V ' O.#.o.| O.4.#.J ] 4.#.` F ' F n B n z h v ] 4.O.O.I v v / ] 2.6.] ] ] I L 4.9.| ! v M M V _ [ _ _ ! ! B [ [ ",
"Q ! V M h | S.Z.b.r.T.`.H.H.H.H.F.L.L.B.a.L.Z.a.C.y.5.9.9.7.9.>.6.3.7.A.b.;.W.Q.7.8.8.9.9.9.B.2.| 6.2.] ' O.O.4.4.5.a.K.a.5.%.t.5.t.V.4.F G F F n G F / | #.| F B V _ V P ] 4.s.y.2.4.8.[ / [ | L ' 5.5.5.a.s.B.B.x.z.m.W.P.u.8._.&X<X:XoXoXoXoXoXK.a.y.9.i.a.2.4.s.K.@X].5.#.4.8.y.C.4.F ' 4.u.n.S.D.D.D.y.O.4.K.L.y.a./.[./.Q./.M.D./.'.P.D.4.n n ] | ] #.5.B.n.8.8.6.} ) [ | 8.x.y.9.2.$.+.%.a.%.%.5.5.%.#.' n B _ B ! } ] ] 5.5.4.O.F M V ( ,.7.| ] O.5.a.5.O.F M h e 7 y v M B V V V [ [ [ _ N n z r [ b.B.9.e.J.`.H.H.T.H.H.Y.H.B.B._.Y.C.F.B.e.b.x.9.b.7.V.a.V.~.!.] F.|.9.A.a.F.F.L.Y.5.6.y.4.] ] $.#.#.4.5.s.L.t.$.%.&.%.s.Z.5.G u u 9 4 9 u G F / F F v u B a n _ #.5.t.4.9.9.| V [ #.] | 5.9.4.7.a.B.A.x.l.A.W.F.4.1._.4X-X&X{._._._.'.F.3.3.4.$.4.i.4.#.u.5.8.7.9.4.a.L.B.4.a.9.O.| O.O.,.1.1.4.O.} ,.4.,.1.4.o.O.] ' F G } O.,.6.9.,.| | ] G H m n a w h h e r h h v } 4.4.] #.o.#.4.o.O.#.O.o.I n r z n c x ! / _ 4.4.5.| F B Q / 2.7.] ] O.t.a.4.' ! v v e q v v N B _ / ! [ [ _ ",
"B v V M v 2.V.b.V.b.b.H.H.T.G.Z.U.'.`.F.9.Z.H.5.V.H.B.F.7.^ | e.5.] 2.3.;.e.9.` / ' ] 2.7.y.B.y.5.2.i.4.o.@.#.#.] 5.Z.E.Z.a.a.t.y.s.C.C.u.4.#.] _ F F F _ O.2.] V ! _ m m ] y.Z.a.O.,.[ c q B 8.4.B.K.5.a.G.U.Y.B.x.n.Q.(.u./ C.2X:X4X|.|.;X|.'.oXY.5.I L ] 5.4.%.t.Z.f.a.4.,.[ ;.B.A.4.8.8.8.A.S.D./._./.C.o._ $.9.O.F 9.(.[.(.P.P.(.(.'.n.,./ n n v I | #.i.L.C.m.u.,.) -.-.,.8.m.D.y.a.y.a.a.i.O.+.5.%.$.] G 0 v B B ! -.,.9.C.a.5.,.( B n B | n.9.| 4.5.d.Z.a.] z e r 0 r a V ] ' N _ ,.2.| _ n n z r } e.b.V.b.B.H.H.T.G.Z.Y.'.].F.e.J.Y.9.Z.`.V.~.9.D >.V.e...e.w...B.B.` L ] #.y.i.F.L.C.4.9.B.5.O.%.#.#.] 3.V.T.C.5.i.&.5.f.Y.K.4.O.F n u n a a H ' o.F v a a i d ] %.w.4.#.O.} B w B 2.2.5.V.5.e.B.Z.Z.a.x.x.Q.(.z./ y.4X-X4X&X(./.Q.F.{.'.5.5.e.5.a.#.m 2.Z.C.B.B.6.] 2.F.B.9.3.{ ..7.6.2.} 2.8.4.O.2.O.| O.u.t.1.' F I ' ' ' } } ,.8.,./ _ O.I v a v r r r h e g z B [ 2.9.4.t.4.' o.O.F _ #.o.` V u 7 9 r z v ( } 2.a.y.4.| / B M B ;.x.x.| 2.5.s.V.a.] z w r w r v L ] [ V [ 6.1.| ",
"} / B M k ;.9.3.e.s.w.V.V.e.V.B.9.I.|.H.H._.Y.e.6.a.H._.F.B.'.V.3.X...2.>.B...v n L ' ' | a.B.a.Z.C.a.d.5.&.5.6.$.i.d.Z.Z.s.C.a.a.s.y.9.5.5.4._ G ' ' O.$.#.6.#.] ] ] ] ` #.#.O.O.| B z h q z | e.H.3.2.`.].F.a.b.F.D.W.(.8.} 8.D.|.oX|.oX4X}.Z.C.Z.d.$.m D #.5.i.d.f.d.t.i.O.[ | 6.9.} 8.n.m.A.D.m.n.D./.D.4.` _ #.L N | D././.(.P.)._.}.L.B.O.( _ I ' ] L ,.y.y.M.,.} ;.v.z.z.8.y.D.S.S.s.V.Z.s.4.$.#.O.P m n r r z ! ;.n.n.C.B.y.5.O.| [ ( ( ;.x.n.y.t.u.B.V.a.] m r u u m N F _ _ N V ] n.B.| L n r z | 7.3.e.e.w.e.f.a.B.B.4.T.|.Y.H.`.Y.a.3.V._.XX~.S.|.H.5.$.#.9.3.H.2.a n L ] ] O.F.Z.Z.Y.Z.s.C.t.5.t.4.$.9.d.V.a.t.y.5.t.C.s.a.%.1.I a i n n n F F O.] L ] ] ] I I ] ] | | L V v q r _ 6.C.5.#.U.T.Z.a.9.F.A.W.(.8.( 8.S.}.|.&X<X:X|.A.B.F.V.$.D ..P m 2.L.S.L.Y.V.#.#.2.3.4.| D [ z.x.b.c.8.6.4.O.,.,.,.| O.1.t.o.O.o.4.1.] F / [ [ 1.1._ _ 5.4._ H u 9 u r r x ! ! ! | 8.9.9.t.#.o.' ] _ F G L m a u 0 7 e x [ 8.8.9.y.5.4.| } _ [ ( | n.y.y.t.u.a.C.y.| m u a a m V V _ L N L ] x.B.",
"B.>.{ ^ Q >.9.$.V.G.s.f.w.w.C.Y._.`._.]._.{.V.4.] 9._.`.H.H.{.F.7.>.5.e.e.$.^ N V 9.V.#.3.F.Z.9.y.a.Z.d.5.%.5.i.5.s.C.V.f.a.C.].D.C.C.y.5.4.| _ N F ' 2.4.4.4.2.2.#.#.3.#.| [ _ ^ N h v k g v M 2.e...3.`.|.Z.9.D././.W.W.D.D./ V A.}.oXoXoXY.5.%.s.H.9.` L ] %.5.i.5.i.a.4.9.,.( O.8.,.u.M.M.N.P.W.m.D.W.M.z.8._ v v m [ 4.A.F._.F._.|.'._.C.Z.C.o.2.4.' m _ >.x.8.6.;.8.n.z.8.8.m.A.A.F.A.e.B.s.9.] ] ..` J V m [ V [ A.F.D.F.B.] 9.V.9.,.[ / / ,.9.B.a.4.9.7.9.2.P G L F ' 7.O.] _ B v L 4.B.9...[ D ! >.7.3.a.G.s.f.w.w.f.Y.`.`._.].`.].F.5.| e.].]._.`.-X_.9.3.e.Z.s.3.^ N D b.S.3.w.{.Y.7.y.s.Z.s.&.%.5.w.5.a.a.s.s.y.C.Y.Z.C.C.Z.y.4.] F r a a V ` ` I U ] #.3.3.` D D L _ S N D n u v N 2.a...2.Y.].C.7.A./.P.W.P.D.A.B v x.|.;X;X;X}.4.4.i.i.$.` L D V 9.B.` #.5.5.$.9.6.9.6.! _ 6.x.A.b.z.b.9.| ;.{ _ _ #.t.4.O.' #.5.5.#._ G F F ( O.8.4.;.4.y.4._ n v n u u c B B / [ ,.4.4.9.5.#.#.| ] L ` P m v v a v z B 8.A.A.S.9.| 5.B.3.>.} V / ,.8.B.a.7.9.7.9.2._ J L L } 4.O.} / n a _ 4.B.",
"2.2.>.>.6.7.S.G.J.G.G.f.s.V.Z.F.Z.L.Y.|.`.V.2.P ` B.`._.].|.F.B.7.{ ` 5.e.w.^ l N 9.~.F.4.#.e.4.$.a.a.%.+.%.i.V.C.C.V.V.Y.Z.C.Z.C.S.y.4.6.O._ _ L _ [ ] 4.y.9.5.5.6.2.2.| ` | ..[ m V M h r q M [ _ _ 5.`.Y.S.S./.W.(./.D./.D.8.A._._.F.L.'.Y.a.i.a.V.V.6.2.2.5.t.i.g.a.w.s.a.,.2.m.u.4.z.n.n.N.P.M.D.(.M.8.A._.F.` a v ! ] 2.9.A.F.F._._.|.Z.L.'.5.` L m V N ! 6.x.8.z.8.z.8.z.C.n.x.A.S.S.e.B.B.4.] ..9.#.V n G ] _ } e.A.S.B.e.3.9.B.9.8.} F | 8.n.n.9.9.4.2.6.a.4.2.4.4.2.n.A.n.,.F m _ #.#.2.2.;.>.>.6.b.Z.J.G.G.f.V.s.Z.F.L.L.Y.|._.Z.#.` ] V.].{.].@XH.B.9.{ ] w.e.5.^ k l b.`.~.w.>.i.5.4.d.a.5.+.%.a.V.C.d.B.V.Z.C.s.F.L.L.C.C.Z.5.` ] V v a m ] O.#.#.+.#.#.] ` D _ ` D D ` D m u r n ` ` _ 3.H.H.B.A.F.W.(./.D./.W.2.A.{.'.D.C.}.|.B.B.t.2.w.] ` 3.2.3...#...w.a.5.y.F.A.] [ m.A.D.D.z.8.A.9.7.3.X.^ _ #.t.%.%.5.4.%.4.2.$.` L / _ | 4.,.} } O.| ' I I G u 9 e z B [ O.O.| 2.y.y.#.] ` ` ] ] | P v s n n B _ 7.C.S.B.7.#.4.B.9.7.} / | 9.n.n.9.4.4.O.4.y.4.%.5.4.2.B.C.y.O.V m ` 2.>.",
"[ { 3.z.e.b.H.H.J.J.U.J.T.T.H.s.5.2.4.a.`.Y.e.X.$.H.H.T.Z.e._ L D v S b X.{ P ..b.~.~.~.| b ..V.i.e.5.+.#.] | 3.5.5.5.Z.H.Z.Z.C.B.4.2.| | ] } _ V F L ' 2.5.4.%.#.4.9.9.#...6...` _ { _ v v q N ` m _ 7.7.2.b.x.z.n.P.P.1.M.D.D./._.Q.L.Y.L.H.Z.a.d.a.5.3.6.2.5.a.a.d.Z.V.Z.a.,.2.y.y.8.n.M.v.n.n.z./.(.n.n././.A.6.{ [ V 2.2.9.B.B._.Y.Y._.C.Z.Z.%.J n a / V V 6.Q.Q.D.1.1.8.n.M.x.M.A.F.W.b.B.C.i.O.| _ m m v m _ O.2.9.] [ 7.B.9.B.B.A.a.4.4.4.8.8.9.n.a.4.#.i.B.#.O.4.i.4.O.2.| _ V F _ ] [ ` | >.2.3.7.G.H.G.J.J.U.U.T.H.B.5.2.5.V.`.T.a.X.$.H.J.R.H.e._ L D v m s X.#.^ 3.S.H.{.{...b ..Z.a.i.5.+.#.+.| 5.5.4.9.V.Z.C.V.F.F.F.C.B.a.5.2.#.J n m L #.%.5.%.#.$.$.] P L ` ` ` ` ] ] L N z V [ m ` 7.6.>.x.x.z.n.D.P.<.M.D.C._.[.Q.L.'./.L.F.y.t.5.U U #.7.b.b.2.] w.s.i.4.e.A.] N 2.x.A.F.B.7.x.b.B.B.7.2.2.2.t.t.#.%.t.4.4.5.6.5.#.o.} _ | 4.4.} F V F _ | O.] n B F ,.8.1.| ( [ | 9.y.#.O.o.o.] o.` m s a a n / } 2.| O.8.9.3.9.B.x.9.7.2.4.8.4.y.9.y.4.#.y.a.O.O.4.a.7.O.,.;._ F F ] ] ` ",
"_ >.7.7.b.S.XXY.G.G.Z.V.Z.Y.Y.Z.t.$...w.T.T.f...@.e.G.T..Xs...X.D a y D $...e.XX-XXX1X<Xa.] X.w.a.5.3.#...] ` #.#.O.#.3.a.Y.B.y.A.8.| [ _ _ / / / F / ' ' ' I ' #.4.9.4.3.9.a.4.] [ ` ^ B ! B B B v N { Q { x.9.8.8.z.<.-.8.M.C.n.n.L.L.C.s.B.a.d.d.&.#...] O.2.$.2.i.i.d.B.s.C.n.4.,.8.n.n.8.8.<.8.M.M.M.L././.F.B.e.x.7.B._._.i.9.5.f.I.Z.K.T.5.` V V m V v V 8.|././.m.8.m.D.D.W.A.A.Q.Q._.Q.F.u.I m m v J V _ #.7.9.6.V n ` 2.3.B.S.B.n.C.n.4.[ _ 4.7.B.y.#.2.4.2.#.$.y.7.} } _ N m F ] ] ] ` ] >.>.3.B.`.H.Z.G.V.Z.Z.Y.Y.Z.5.$. .5.T.`.f.....s.H.`..XV.+...V a a ` 3.X.j.XX1XXX1X1Xb.] #.5.i.5.2.#...] ` 2.#.#.2.3.B.F.A.C.F.C.B.y.9.5.2.] ' ' P L U +.U ] ] $.$._ D ] X...] ..] ` _ ] V V V m B ] V { x.8.6.1.u.1.-.8.M.D.x.x.F./.C.B.Z.B.C.K.&.I ] a.B.2.;.| ] 2.5.y.7.3.;.! [ 7.7.4.9.A.b.9.9.B.V.b.e.7.O.#.%.5.t.a.a.a.i.i.i.y.4.| | | | ' [ V F [ } O.,.O.' L } 4.9.8.1.1.8.7.8.8.%.4.5.#.L L G V J m V P ] | O._ / ] >.2.e.V.b.B.A.a.4.' [ 4.7.B.y.O.2.4.4.O.#.9.9.} ' [ N V V ] ] ` ",
"{ 9.9.| 7.F.{.T.Z.T..XH.Y.Y.Z.#.X.#.e.G.T. XJ.r.q.3.G..X.X.X`.3.m D N X......X+XJ.XX-X8X1XH.s.w.5.V.Z.3.D V X.7.9.2.] | +.4.2.e.B.6.} [ [ / / ( _ / F / _ ' / ' 2.9.A.4.2.4.5.4.#.] [ [ [ _ / _ B N B V V [ { 6.8.:.<.M.n.,.8.8.4.8.4.4.4.C.i.2.&.o.#.C.9.2.8.3.] X.e.Z.V.s.a.a.a.6.2.8.n.8.8.8.8.z.8.m.D./.P.'.Q.~.F.6.7.D.'.B.| 5.d.t.&.t.i.Z.| ` ] ;.N r h N } C._.D.A.n.W./.[.).(././.}.}.}.L.C.2.' 2.] _ _ ] a.V.B.| ! V _ | ;.2.7.y./.|.}.y.[ G ,.B.a.6...#.5.] #.2.4.2.| [ _ _ [ _ ] ` [ ] 3.7.] 7.V.~.H.V.U.|.J.U._.Z.#.` $.e.G.T. XJ.r.$.q.G..XXX.X`.3.N D N X.#....XXXU.XX1XeX7XH.V.3.9.V.Z.3.^ V ..3.2.$.] ] 2.9.a.F.L.C.y.B.B.y.u.y.4.' ] ` ] U T o.+.#. .J L J ] #.#.#.] | | | [ ' ! V V ! F [ [ <.8.:.1.M.z.,.8.8.,.1.2.#.#.Z.B.,.#._ P 5.] _ { ! M M v m | #...| | 2.;.] 9.4.2.a.B.9.y.y.O.] 4.5.4.%.5.V.C.i.y.t.%.t.a.5.#._ ' } / B G V _ ;.| } ,.2.,.| | | 8.y.n.9.8.} ( 1.t.M.d.4.O._ | | ] ` ` #.2.| [ V _ _ ] ;.2.4.9./.|.}.m.' / #.C.y.$.| #.2.#.#.$.4.2.| ` _ _ [ _ ] ] ` ",
"^ ;.2.2.X.3.e.b.V.`.XX1X{.Z...v b w.G.J.T.T..X.XJ.s.r.]..X].1X].3.` ..9.Z.J.T..X1X#XXXXX1XZ.XXb...B.e.` ^ { 9.V.V.a.+...#...#.Z.F.A.,.[ ~ ~ [ [ Q B M / [ | ] ' ;.9.F.F.B.2.#.#...] [ 2.8.[ / | V B ! V [ { ( <.m.-.v.M.M.n.D.m.n.L.M.5.C.L.i.5.#.L o.5.4.#.2.2.| { 6.9.y.5.4.y.9.9.9.8.n.n.M.y.z.n.n.M.M./.L.'.F._.<X~.y.S.4.O.#.9.C.+.L 5.a.Z.a.2.6.8.{ l 7 h | B.A._.C.F./._./.M.N./.Q.&X&X:XOXP.D.y.9.a.B.e.2.A.B.2.[ | 2.| 7.F.B.` O.S.L.F.C.1.#.u.B.4.2.9.9.5.4.#.4.5.7.2.] B _ } 2.9.5.] | 2.2...] 3.e.V.V.`.XX1X'.Z.| d S w.G.J.T.T..X.XU.s.r.`..X.X1X.X5.` ..e.G.J. X.X#X#X|.XX1XZ.XXV...B.e.` S | 7.e.e.2.] ] #.7.x.L.'.L.B.m.B.n.L.L.4.G L I o.+.o.o.] @.#.$.#.] ] #.+...] | 2.[ _ | _ ! ^ V ( | / <.c.:.<.M.m.M.M.m.n./.n.4.C._.a.2._ p m ` _ v v k v k v r V V _ 2.2.2.] | #.4.4.t.y.y.5.4.4.y.i.B.V.F.G.Y.V.5.O.] o.O.%.5.| } } _ / B V V [ O.,.;.8.8.;.| ;.2.8.9.y.9.4.O.| y.M.K.C.u.4.2.4.5.y.7.3.9.2.] V [ ;.| 7.B.b.[ O.C.L.F.C.,.O.5.B.6.6.9.9.e.$.O.4.9.4.2.} B _ ] 2.9.4.| ",
"z.9.9.{ ] w.w.] ] B.H.2X|.F.4.P D $.Z. X XT.T..X#X.XG.w.s.U.#XXXZ.B.'.`.V.V.G..X1X.X1X#X`.~.eX~.e.`.B.....9.b.b.s.y.9.i.#.2.3.A.F.A.} ~ W W ( ~ Q [ [ / _ } -.[ ] 8.A.B.A.B.n.>.} ] _ 2.n.,.;.[ M v v _ _ [ } <.z.z.c.z.v.M././.D.D.n.C.F.Y.B.2.` G m D ] ;.| [ | -.O.e.5.] O.y.u.4.8.z.n.D.D.y.8.z.A.D.D.L./._.H.'.|.'.F.C.2.' O.C.d.$.X.5.w.V.H.b.b.7.^ j r M | 6.9.Y./.].}._./.M.D./.P.(./.(.}./._.~.B.B._.9.2.9.9.B.2.b.F.;.9.&X{.B.y.5.,.9.C.8.9.C.B.9.6.4.9.4.4.2.O.] ,.4.;._ [ [ 4.F.F.a.9.9.4.] ] 9.5...] B.~.2X|.F.4._ D $.G. X XJ. X X$X.XG.w.r.T.#X|.Z.V.{.`.V.V.H.XX3X.X1X#X`.H.eX_.w.`.V.>.>.9.9.9.9.5.6.#.| 4.a.C./.F.y.u.8.n.m.n.1._ F O.O.$.#.U U %.y.5.4.t.t.O.] ] F ] 7.,.| [ M z N _ _ ' } :.z.v.c.z.z.M./.Q.D.D.n.B.Y.|.F.| v r s r a k M M M x M h v M ! ;.} V | 9.y.5.a.y.4.$.4.a.C.C.C.Z.Z.H.V.i.f.i.#.` O.t.y.u.,.2.| / _ _ V v L 2.2.1.<.;.[ | O.2.4.,.4.5.n.u.4.u.8.n.n.8.u.9.7.9.A.7.2.7.2.6.| 7.x.| 6.|.[.B.9.5.,.9.C.8.9.A.B.9.2.8.9.2.4.#.O.' | 6.| _ [ _ 7.C.Z.n.",
"~.~.7._ ] >.` ` | 9.Q.'.'.L.C.a.5.w.r.G.G. X X X.X#XU.w.` w.].H.9.B.F.H.B.H.XX#X.XU.R.8XtXeXeX&X{.|.1X9.D D { w.i.2.] J 2.e.>.9.x.} <.Q W x x M Q } <.! F F ( O.;...[ ;.8.B.9.] L L ! ] 8.8.| V B v z V ' ;.9.z.m.z.v.1.v./.W.L.D.M.D.7.a._.B.9.] m m m [ ;.` _ 2.7.B.C.B.2.#.y.d.A.u.8.y.C.m.n.z.z.M.D.D.D.'.'.L.F.Z.B.y.9.' F ] C.a.] 3.9.] ..b.7.9.A.{ M | 6.6.x.x.B.Z.Y.|.].D.C.[.(./.D.D./._.Y.F.F.9.9.9._ a v _ 9.V.B.~./.A._.W.B.L.B.9.A.D.C.S.D.9.6.| | 2.2.O.| F V } ;.2.4.4.x.F.'.F.C.S.F.2.` ..2.` ` | 9.F.].}.F.C.a.7.3.r.Z.G. X X.X+X#XU.w.` w.|.Y.7.B.S.G.V.H.XX#X].U.R.8XeXuXeX-X{.|.1X7.D L #.9.i.4.] V 2.a.9.F.F.y.y.y.8.8.9.m.A.2.} O.2.%.%.] U ] ` O.O.O.] F V _ _ | 8.2.[ B M v v N / ,.8.z.n.n.v.:.8.Q.W.W.D.A.D.4.B.{.F.B._ r u r 8 g k j M M x N v v ! { 1.F [ 4.4.y.u.4.O.| 8.K.K.a.B.9.] $.5.$.4.Z.C.4.#.8.A.1.6.6.[ B B F N n n m ( [ [ ! [ ;.O.#.#.2.5.u.d.P.M.4.8.y.4.1.4.8.,.2.6.P N m ! 2.9.9.F.F.x.Q.D.C.L.C.5.A.D.C.D.D.9.2.| O.5.2.O.| V V _ | ,.8.7.9.F.|.F.C.",
"!.A.| [ 7.9.| 2.L.F.F./._./.D._.H.G.w.3.a.G.T.$X$XY.a.$.S #.|.a...2.2.9.H._.<X0X+XK.f.@X9XyXyXqX/.2.4.$._ m N #.a.#.m N V V N N B ! [ ;.~ x z x x ~ <.| / v M ( ;.,.[ [ ,.n.8.' V G F } | [ ( B j q h n V } y.8.m.8.m.8.8.[./.m.n.W.A.x.B.A.7.7.[ V N a N _ { ;.7.5.n.y.y.y.y.y.B.y.m.n.C.M.4.4.8.z.m.D.A.A.|.3X@XE.T.L.y.%._ v n 4.7...#.#.] 2.s.C.F._.B.B.A.n.Q.W.S.b.a.B.'.].L.C./._.}.5X;X_._._.L.B.B.'.~.3._ V [ B.~.Z.9.F._.A.A._.F.Y._._.F.D./.[.F.F._.F.4.4.] ! ` O.} ,.8.A.D.D.D.'.L.C.B.e.2.| 4.9.] 6.F.F.F.Q././.F.L.H.Z.w.5.a.I.T.@X$XY.s.#.S #.].a...2.2.e.L._.#X0XOXK.f.+X8XyXyX7XQ.2.9.$._ V G 2.a.2.L N _ ' O.7.y.y.B.y.8.8.6.x.m.n.x.8.2.O.| L I ] ` [ F _ ( V n B / O.1.} / M c w h v V } 8.y.n.8.m.8.z.'./.n.n.W.A.8.b.b.7.8.N r r 7 g w j W -.~ M W g z M -.6.[ ( | [ O.4.4.4.#.8.| O.4.d.%.+.@.5.%.3.Z.Y.B.u.4.| [ 2.-.B z F ' ` _ L L F F N V | O.#.#.#.4.9.B.9.8.x.D.D.m.1.1.8.2.2.n.B.2._ L _ 4.V.e.7.F.Q.A.S._.F.F._.'.F.A./.(.W.F._.F.4.6.} V _ } _ } 8.A.S.C.D._.F.C.",
"A.2.V _ | 9.7.9.H.&X[.Q.D.D.L.OXXX|.V.s.s.G.I.`.T.U.a.] v ` V.F.e.B.~.'.|.XX3X0X@XZ.Z.@XtXiXyX&X2./ F ` J J m ` a.B.>.v r h w g l l ! 6.<.( c h z x Q ( ( ~ z M [ | | } | ;.O.| | | ] ;.| ( ( F z h r v n V / ,.y.y.8.u.D.}.>X}.%X(.Q.F.S.>.[ { | [ N V V ! ;.6.4.7.9.2.9.a.a.n.y.D./.C.n.M.u.1.1.m.W.D.W.F._.oX2X@XE.Z.C._.L.4./ [ | ] | ] #.V.L.Z.L.F.C.Z.A.n.b.A.F.V.i.s.R.|.oXoX]._./.;X>X_.L.F.B.A.F.|.|.H.B.e.a.F.'.}.F.A.b.W.<X<X|._.'.;X;X[.(.}.{.[.{._.b.9.9.| } | ,.8.D.Q.D.A.D.P.C.m.B.6._ _ #.9.9.9.H.&X{.Q.D.D.L.|.@XXXs.s.s.Z.I.`.R.U.e. .v ` V.F.e.A.Q.'.|.@X2X0X@XI.Z.<XtXiXiX&X2.^ G ` L J V ] a.B.2.N V _ [ 2.9.C.n.n.n.8.z.;.[ ,.x.z.;.| ' _ L ` | / n M F F [ [ _ O.;.[ ( V z r r h B V / ,.n.u.4.u.D.}.}.&X}.(.Q.Q.F.>.^ ^ { [ B ! ! B ~ =.-.~ N g h / Q B / / B n M G ] 4.6.#.2./ z F u.K.a.i.&.5.p.Z.F.Z.B.A.9.,.;.[ / F ' O.%.4.%.` m G n B | 5.%.i.t.4.y.B.9.6.1.z.m.n.8.8.y.y.a.F.L.F.a.4.9.B._.F.A.n.x.W.<X@X|.'.'.;X;X[.[.{.{._.'./.9.9.4.| ' ' | 6.A./.S.D.D.P.C.B.",
"A.7.V B _ n.V.S._.|._.F.m.C.S._.`._.V.5.$.4.Z.Y.G.Z.3.` a m ] B.~.|.&X&X<X<X].@X@X@X3X0X6X9XyX<X;.B v r v J S L 2.7.>.W g M v g h k M -.8.:.M e h z B ~ ! Q Q _ } -.[ } / _ O.| | O.} / M z n z x v v h M B L ,.o.F ] y.Y.'.}.{.*X!.c.A.b.x.>.-.;.>.2.x.9.:.;.,.2.8.#.| 2.B.B.a.M./.P.M.n.u.8.1.8.D.!.Q./.Q.9.5.'.R.a.%.#.y.8.[ M v B | 5.5.Z.Y.E.h.t.t.V.L.a.y.7.8.9.B.F.F.L.Z.Y.oX_._.L._.}./.B.A.B.9.;.6.B.F.H.F.F.].|.<X|.A.[ >.A.C.].;X;X|.}./.S.P.Q.D.A.A.A.9.n.9.4.1.8.8.n.D.m.C.D.S.n.B.B.8._ V ] n.V.S._.|._.W.A.C.F._.].Y.V.w.$.5.Z.U.Z.F.3.` a m ` B.~.|.&X|.<X<X].@X@XoX3X0X6X6XuX<X;.B v u n J L _ 3.x.2._ ! [ | 1.8.n.n.m.C.n.z.<.[ -.z.8.-._ _ _ _ _ } / x z / ( [ | ( B n u c z x v z v z B F O.o.I ' y.E.'.}.}.*X!.c.A.B.b.6.^ { 6.9.x.z.[ -.<.z.} B ~ ( [ V c x / Q g z / O.9.8.| } / M z I t.s.i.@.5.5.w.C.F.Q.A.D.n.8.,.,.| O.%.O.%.t.%.O.o.] ' | 5.i.C.y.$.4.B.9.7.2.6.9.9.9.n.A.9.O.6.B.B.F.B.Z.'.].|.|.B.[ 2.n.C.].;XoX&X}./.A.F.Q.A.A.A.B.9.9.4.O.| ,.4.n.F.D.D.L.D.n.m.",
"F.9.B z _ A.A.F.{.|.}.A.C.D.C.F.Z.a.a.V.a.V.V.Z.Y._.a.#.] ] v _ S.Q._.|.;X@XoX]._.H.XXtX6X0XyX2X8._ n u m L V L [ ] >.2.[ [ ! h k e h ^ [ [ v c z z Q / [ } <.z.6.[ [ ! / ] ,.,.[ | ' B M h g c M Q _ -.,.4.O.] ' o.%.d.E.Y.F._.S.l.W N >.S.x.x.[.F.x.D.Q.9.2.| 2.O.O._ } B.7.A.L.L./.S.u.8.8.n.8.z.m.W./._.9.2.Z.Z.5.J m v v v z h M ] a.'.@X`.OXK.K.K.Z.Z.d.a.4.8.9.9.F.H.F.s.a.Y.E.L.F.F.F.F.x.6.F.{.S.B.B.V.{.F.B._.<X2XoX_.b.F.F.Q.'.<X6X4XoX[.}.}.Q.A.x.x.A.x.9.F.y.m.D.C.n.m.n.D.Q.D.C.F.F.8./ v [ A.A.F.|.|.}.B.A.C.C.F.F.B.e.V.a.B.C.Z.Y.Y.a.$.] ] v [ A.~.~.|.;X@X|.|.E.L.|.tX6XtXyX2X7.^ v v V L L L ` ;.6.6.;.,.,.-.<.1.8.n.n.n.n.1.( Q ( ! B / [ | } ! ! z x / ( [ ( [ ( n c g e z B B [ [ ,.4.,.] ' o.+.d.E.L.L./.S.l.W M >.Q.c.x.[.Q.x.m.z.:.-.x.Q.m.;.[ ,.,.( B c n z g z / _ [ V B [ 2.,.F m +.5.w.*.a.d.%.#.y.A.<.l.x.B.A.S.a.O.O.%.t.5.5.t.4.O.#.O.O.5.t.5.2.$.2.2.2.2.7.8.z.6.6.n.F.B.a.B.V.Y.F.B.F.oX;X|.Q.n.D.F./._.<X6X4X}.{.|.}.Q.A.x.8.B.9.7.n.8.y.C.m.n.m.n.D.L.D.D.K.",
"F.A.2.! Q | ;.7.F.F.V.Z.F.B.5.a.V.a.V.F.F._.'._._.T._.s.s.4._ 9.{.{.|.2XoXoX'.F.e.7.-XtXtX0X|._.F.| _ v a y 8 a L 6.A.,.N j B x j w M N v g h M c z z B ! ! ! [ -.! B [ | #.O.] ` ,.] B z z r z ! _ | 2.;.7.7.| o.%.o.+.#.%.9.{.b.^ M N V | 8.(.}.F.n.A.L.Q.n.2.] V m ] 9._.S.Q./.D.L.P.y.1.4.n.m.M.m.n./.'.C.4.%.$.#.G v r r v h h B | 4.4.y.C.a.O.t.I.K.a.9.y.B.a.8.2.x.B.F.B.B.V.3...2.2.2.x.6.! A.Q.W.F.F.Y.Z.2.#.B.]./.F.B.4.u.D.L.[.4X4X;X;X[./.}._.D.D.m.A.9.A.F.S.S.D.D.n.n.n.D.L./.L./.F.B.,.( / | >.7.Z.F.V.S.F.a.5.a.B.a.V.F.F._._.`._.T.T.B.B.4.` 9.{._.|.;X|.|.].H.9.4.-XtXuX0X|.T.F.| _ v v a r b _ 4.B.6.[ ( [ [ [ [ 8.x.8.8.n.6.B h c n x x / / B B M M Q _ _ ! / } } M e z q c ! [ ] 2.,.7.9.] ..%.+.#.#.$.9.'.b.=.M N B [ 6.[.&XQ.m.8.8.n.z.z.x.-.F } 4.4.,.[ n c x z e z v B _ [ 7.b.>.[ ` 5.i.C.I.].`.i.5.Y.4.| 6.;.9.B.Z.C.y.i.5.5.5.#.] ,.4.4.2.O.$.4.5.5.%.#.` G _ [ ] 6.;.( x.B.F.F.F.F.C.#.O.a._.L.Z.B.4.8.D.L.{.<X2X;X;X}./.}._.F.D.C.B.9.A.F.C.A.F.A.n.n.n.C.L././.L.",
"F.x.7.^ q q _ V.Z.H.H.H.F.4.| +.a.s.B.V.V.Y.H.Y.Y.F.{.e.B._.H.]._._.2X|.|.@XY.F.b.e.1XyXyX0XT.V.B._ ^ _ N b 0 y L 9.2.F h q g j j w j h h N v k h v Q B h h ! ,.| Q ! | ,.} _ / _ [ _ V B [ ! B ;.x.x.4.B.B.Z.H.'.K.$.$.5.d.s.B.>.;.[ m v ! x.x.8.9.y.C.F.{.F.y.,.F V | Z./.F._.L.B.D.K.n.y.8.8.D.Q.M.n._.'.Z.y.O.P G a z u v M N ! =.2.} [ ' ` J n #.F.a.9.s.9.a.9.9.,.,.8.7.4.V.B._ D L _ ;.A.x.| /.&X~.'.<X@X_.Z.C.L.C.' F / N / 8.,.8.S.'.;X:XOX[.}.[./././.D.n.m.A.S.L.S.A.n.n.D.D.L././.L.S.9.7._ h e [ V.Z.H.H.H.F.9.| #.a.a.B.V.Z.Y.~.Y.Y.Z._.a.V.Y.Z.`._._.2X|.|.@X~.S.B.e.1XyXyX0XY.V.B.^ _ [ m v r a _ u.8.] / / ) -.( [ ;.8.x.x.8.6.} / n B F / ( [ / Q ~ ! B M B v B / B B x / B B ;.x.x.8.B.V.C.L.`.Z.@.$.&.B.s.B.>.{ _ n v Q z.x.8.x.8.y.8.D.W.n.8.( F O.4.B.B.,.[ ( z e e r h _ ;.] >.;.^ _ ] 5.K.`._.B.a.F.OX9X{.n.8.| ] 6.y.a.t.a.5.5.V.s.5.$.4.9.4.2.] O.#.O.5.4.G m m V _ 7.1.} Q.|.F._.|.<X_.Z.C.L.B._ F / n / 8.2.6.F.}.;X;X|.[.}././.D.D.D.n.A.V.C.B.B.n.n.n.A.C./.'._.L.",
"F.9.| Q h e [ V.a.a.s.a.a.%.5.5.B.V.a.9.B.H.F.`._.Z.e.a.s.].].|.XX|.|.|.|._.S.H.{.S.V..X+X#X].].Z.` V ^ M l y v L 2._ u v c g M ! ^ l l ! ;.! g h ! } / [ { [ >.6.{ -.;.] F / V _ _ F F / } / Q / 6.9.F.H.5.4.H.G.V.Z.e.s.V.5.#.3.e.] v } 9.Q.,.( 2.B.D.B.B.B.y.9.2.,.4.F.B.A.F.F.B.s.a.K.L.C.n.n.n.,./ B.L.a.#.L P ` N v v B Q [ :.6.8.[ / [ _ ' [ ] 2.9.4.2.2.4.9.8.<.,.8.A.F.E.B.2.] ` { 9.{.[.W.4X&X~.|.6XtX0X0XY.C.4.G v F ' / V M } 8.A.L.}.oX}.}.}.;X}.D.S.M.n.9.D./.S.A.D.Q././././.'.D.S.7.] ! h g [ V.a.a.s.a.i.4.%.5.s.V.B.e.B.F.F.`._.V.e.a.a.].`.|.XX].|.].]._.V.~.{.H.Z..X.X#X].|.Z.` D ! M N v v F 4.| B / ( / -.,.:.-.,.n.F.n.2.O.;.' } 1.8.,.1.:.~ ! B M v B M B B M B V ( / B / 7.y.F.F.7.5.H.H.V.F.e.f.V.5.#.3.e.] v [ 9.Q.;.~ ,.n.C.m.n.n.8.8.,.4.u.y.y.5.;.[ _ M z ( / N _ _ V ^ V _ 2.5.F.OX@X_.#.F 5.3X9X;XA.9.6.-.,.4.s.d.y.9.e.9.a.B.9.9.u.4.%.o.O.4.5.i.5.O.` F _ ,.B.A.A.&X&XQ.|.2X0X0X9XY.B.6.G v G ' / V M [ 8.M./.}.}.}.}.).}.[.D.C.D.n.9.C.F.C.B.S.L./.L.D.L.L.D.",
"].F.2.M ! >.` ` 5.V.w...` ` 9.V.H.Y.V.B.x.x.F._.Z.F.Z.V._._.Z.H.1X@XY.s.H.e.S.~.XXH._ S Z..X`.H.9.#._ ! k g r v m | | F z j B ~ ~ { -.! M N v h M [ ! _ :.x.9.b.c.=.} ,._ V N V v _ } [ / B ! _ z _ B.9.5...L ..] 3.V.e.i.9.a.@...e.w.6.A.A.7.[ Q _ 9.S.A.y.7.9.B.B.u.i.s.B.F.~._.L.C.5.C.F.y.n.n.8.#.| 4.C.y.a.y.B.F.9.N z v B [ [ ,.6.[ ! [ | } _ N V ] | | 9.B.A.n.z.1.} } m.Z.$...] V V 9.W.W.(.[.|.|.{.].tX0X9X'.#.F / G _ ' F z M x _ n.}.}./.C./.).OX'.M.m.D.n.x.n.Q.F.A.D./././.D.K.C.B.L.C.2.B _ >.` ] 5.V.w...` ` 9.V.H.H.V.b.9.x.F._.Z.F.B.V.Y._.Z.F.1X|.U.B.F.a.V.~.{.H.D D j..X`.J.e.#.^ ^ k r r v n | O.( F Q ) ,.;.6.7.2.2.7.8.1.O.1.4.u.8.8.,.| [ x B _ N v v B v V / / B x B / z [ B.s.5.] J  .` 3.V.a.i.5.i.%...r.4.2.B.A.6.( M / 8.D.L.D.8.8.9.8.,.t.d.Z.a.2._ n v M 8.| ] 6.| Q b l m ` ..U.`.T.F.2.| 5.OX6X<X}.Q.x.F.~.B.B.y.4.5.4.5.9.7.4.y.C.n.4.4.#.#.4.y.#.] ] V N >.A.A.W.[.}.|.{.'.0X0X6X'.#.L _ F / ' / z v x [ n.}.oXL.M./.'.'./.m.n.A.n.B.B.Q.F.F.F.F./.C.C.C.C.a.",
"_.].9._ a.Y.V.9.a._.~.V.b.~._.Q.F.~.F.A.x.x.A.x.x.F./.F.d.9.i.V.U.T.T.R.T.`.`.XXH.3.S K Z.`.Z.r.e.r.3.{ b N l k N ^ { [ M h M W W ~ [ x r h r v N [ 6.| [ ,.x.A.7.[ _ { | V h v B | [ W B [ 9.F.7.V.F.w.w.#.3.Z.Z.Z.s.a.w.C.].Z.i.Z.F.D.m.v.) ( -.1.n.D.K.y.2.V.F.V.3.5.a.Z.H.Z.Z.C.B.s.i.2.4.7.4.2.9.e.5.$.5.V.F.C.Z.A.2.Q v ! | ;.>.9.9.3.] | 5.] L L | 4.B.A.B.S.A.x.n.[ V 6.B.,.N y v v B [ ;.A.[.-X<X{.F.].].OXY.G N [ | -.^ N v M ! >.A.[.|.{.F.C.B.y.S./.n.u.n.x.n.F./.F.L.{.Q.F.F.C.t.s.Y._.9.` s.Y.V.9.s._._.B.x.H._.F.F.~.F.A.x.b.A.x.x.F.L.F.a.t.9.s.H.T.J.T.Y.`.{.XXF.3.S L j.R.G.r.a.e...` N N M k M _ [ | ~ B ~ [ =.1.2.,.| O.#.2.6.2.8.y.y.1.;.-.[ B x V F N r h z V ! M M ! 9.Q.9.Z.H.9.5.#.3.Z.Z.Z.V.b.e.V.].Z.a.C.C.D.m.<.( ~ ( -.n.P.Y.y.4.F.W.,.} #.d.K.a.' G / O.9.S.y.9.9.2.^ v a n G ] y.B.B.F.K.I.L.@X@XB.D.}.}.{._.n.8.2.' O.4.y.y.y.9.9.s.s.y.y.2.] #.9..._ N N V / [ ;.A.(.&X<X{.V.`.].OXH.m N [ } -.! N v M ! >.A.{.|._.F.B.B.y.A.L.n.9.n.9.n.F._.L.F._.F.S.C.C.t.a.",
"a.2.$.a.Z.V.Y.Z.Y.|.{.Q.[.[.Q.Q._.S.b.b.;.;.c.c.x.Q.}._.'.C.t.] L $.5.f.T.XX-XXXH.] D  .w.s.w.3.Z.b.` k ^ ^ W l h v B -.7.-.W j j B ! N M v r z B ,.C.7.| ,.6.] [ ! V ^ ! B v B / [ [ _ V 7._.{.F.F.H.Z.V.S.T.Z.w.s.Z.e.a._.Z.@.%.4.O.8.c.c.z.l.z.n.8.n.C.y.5.B.V.e...&.i.a.V.L.Z.B.C.Z.i.#.G J _ } ] ..] ` ] 9.d.4.O.7.x.{ ;.A.A.| _ 6.9.9.#.#.O.J V P 9.{.{.'.~.F.F.F.C.| B V 2.9.2.| [ m v V 7.Q.Q.A.A.Z.Z.Z.I.@X0XF.>.{ } ;.[ _ N N x.F.b.F._.F.a.F.B.9.8.C.m.y.8.n.A.C./.F.n.9.S.S.L.L.C.V.i.#.$.9.Z.V.L.Z.Y.{.{.W.[.[.^.Q.Q.S.B.b.-.:.c.c.x.Q.'._.}.Z.5.o.L $.3.Z.T..X1XXXH.X.D  .w.e.w.w.V.V.` k D [ V l M N ! ;.8.:.[ ( [ -.,.,.,.| | 2.8.9.B.n.8.2.O.( V B B B V B z M M B ! B N 6._.{.H.H.Y.Z.Z.G.T.Z.w.a.Z.w.e.Y.Z.@.#.%.O.8.z.c.z.v.z.z.1.y.M.8.4.C.B.2.V %.d.a.t.O.' 5.C.C.y.y.5.4.2.V r a d J %.B.F.K.L.OXOXOX2XoXB.'.2XOX/./.9.[ _ ' ' 2.t.B.B.B.a.9.t.a.V.5.| | 2.4.2.| ] L G / 6.F.Q.A.A.Z.Z.K.I.$X0XZ...| | >.{ ^ B N x.F.B.F._.F.B.F.C.5.4.y.n.y.u.y.B.F./.F.B.b.F.F.K.Z.a.Z.",
"5. .4.i.Z.Z.V.F._.|.|.[.S.S.Q.S.Q._.A.x.6.c.A.n.A.Q.F./.oX_.'.a.]  .5.f.s.e.H.T._.3.L ` X.] $.s.H.b.>.^ V N h h w g h { A.m.l.~ g / 7.:.^ _ ! _ 8./.|.F.1.| ;.| ;.| B B B M B Q [ x.z.[ ;.n.Q._.|.|.|.`.3.3.H.e.3.e.w.i.H.].9.] | ` [ 8.W.D.D.D.x.6.9.O.4.5.%.2.e.Z.w.a.g.s.V.L.Z.a.C.F.9._ b m v m { ` [ J L | 4.2.2.9.7.[ [ [ V ! N V ' O.#.4.O.n u B | Q.|.{.].E.Z.f.5.I N v _ ;.| F.4.m v V 8.A.D.9.2.4.5.s.R.+X$XXX3.^ ^ { 2.| v D 7.H.H._.F.a.9.B.Y.C.9.n.C.D.y.8.n.u.C.a.y.x.A.F.Y.`.F.Z.5.| 5.i.C.V.V.Z._.|.|.{.S.S.W.Q.Q._.A.x.6.x.A.x.A.Q.F./.|.Y.T.a.] X.5.s.e.V.Z.H._.3.L ` X.] $.b.S.b.>.^ ! N j k h k z | A.x.6.} ! } 8.7.6.,.,.y.D.F.S.C.8.,.[ F / / V / ! B B M / 8.z.[ -.b._.|.<X|.;X].3.w.G.e.$.i.w.i.J.{.5.] o.` [ 8.W.W.D.D.x.1.8.} %.4.#.O.9.B.5.d.K.d.i.5.y.C.B.9.4.u.7.y.| m a s G &.f.Y.'.S.u.d.K.E.].6X6X3X'./.n.F.y.2.,.] ,.4.y.C.F.C.C.C.C.C.C.5.#.} ] ;.| x.2.V n F 6.A.F.9.4.5.&.a.R.+X$XXX3.^ ^ { >.| v D 9.F.H.H.F.a.5.V.L.B.4.9.C.C.n.8.n.n.C.C.n.A.S.S./.'.Z.V.",
"_ D | 5.a.Z.Y.Y.a._.}.A.;.9.Q.F.~.2X|.B.A.Q.[.D.A._.{._.}.Z.i.2.` | a.w.@.w.7.$...L D ] 3...5.b.b.~.!.>.l h j w w h r _ 7.8.x.-.B ] 6.n.-.^ ! >.Q._.A.A.n.8.6.8.x.7.! ! ! M N | x.A.8.6.A.S.A.W._.}.{.{.Z.b.H.V.w.0.L 3.J.F.3. .#.4.n.C.W.D././.n.,.,.,.O._ _ ] 5.J.Z.i.a.V.y.t.y.9.a.Z.4.G v N N v V [ V _ L X.#.#.] >.7.;.k j l h M h n F O.9.O.n z B ;._.-X|.Y.K.K.f.d.] J V { ;.7.F.9._ G ` } | 2.2.4.Z.i.@.I.f. .a.B.X.N ` 9.{ v b D e.F.a.a.V.i.H.oX'.B.y.C.D.m.n.m.n.n.B.L.{.'.}._.T.Y.i._ F ] 5.a.Z.Y._.a.Y.{.A.>.z.Q.S._.2X|.B.A.~.[.D.A.Q.}._.}.C.y.2.` ] e.e.@.q.5.2...L D  .3...5.b.S.^.~.>.l k h j g z M [ 4.8.8.:.[ 1.n.n.,.} | n._.[.n.m.m.1.| | ,.| / _ _ v v [ z.A.<.6.A.W.S.Q.{.&X'.|.S.b.S.V.p.5.L $.H.H.5.] O.9.n.M.D.D././.n.;.;.O.} F V V ` C.Z.t.d.Y.F.u.8.4.2.O.5.4.4.4.[ m I L O.d.d.L.'.S.y.%.C.L.].2X'._.E.y.y.y.y.n.7.6.2.8.y.n.D.D.F.C.C.C.V.y.4.O.6.2.2.e.6._ L ' } | 2.2.4.F.i.$.I.f.+.a.V...v { 9.] N v D e.F.B.a.V.e.H.oX'.B.u.C.M.M.n.n.n.y.9.F.~.'.{.L.F.F.y.",
"a m _ #.B.9.9.$.D B._.B.A.Q.{._.{.<X|.n.M.P./.D.W.}.qX}.B.2.| 2.N N { X.X.3...#.] _ _ | ....9.B.H.b.6.^ l l k h h z q v 9.A.A.-.^ 8.A.9.[ ^ [ ,.B.F.P.D./.D.x.9.6.A.;XD.,.,.1.x.A.z.A.A.W.W.A.A.A.[._./.{.B...a.5.+.+.a.Z.5.5.e.a.B.6.9.L./.F.F.9./ _ ,.! k N ` 5.i.V.a.i.a.5.2.y.Z.L.F.Z.2.L N v M M N [ >.6.9.e.3.2.>.F.Q.:.N l j B [ ,.7.8.4.[ u g M / x.F.B.y.d.i.g.i.o.L ^ { >.9.9.$.O.I m _ 2.7.[ F 2.w.a.j.p.w.r.f.w.L S ] ] L S ] V.V.` P a.B.Z.oXoX_.C.M.n.y.D./.'.B.B.F.F.F.F.~.a.] m a m _ #.a.e.e.$.D B._.A.B.W.}._.{.4X}.B.M.P./.D.Q.}.qX{.B.,.| 2.m m ` ] X.$.#.#.] _ L ....#.9.B.S.A.:.^ l l k k h M r v 8.A.x.2.} 4.n.y.| / [ 8.D./.D.n.y.8.,.O.| 8.Q.A.} } ,.n.A.z.A.A.W.Q.W.A.A.[.{._.XXb.>.e.t.+.+.a.Z.5.5.a.a.B.6.e.F.L.F.F.x./ / ;.! k r m L O.t.%.5.i.C.y.O.' ' } ' _ ' _ _ | #.#.t.d.y.B.D.9.9.4.F.`._.`.Y.Z.5.a.C.4.u.a.4.;.,.,.8.D./.L.M.C.C.y.a.9.4.2.6.2.6.3.O.] _ J L ,.7.} L 2.w.a.j.r.q.s.V.w.^ S ] ] L D ] V.s.` _ e.V.Z.@X|./.B.C.m.n.D.F.L.n.9.b.A.F.Q.F.e.` m ",
"v y y m ] i.Y.5.m L e.Q.~.~.Q.Q.}.|.'.'._./.D././.&X6X&XL.} _ _ m V V D _ D #.3.] _ 9.B.e.B.V.S.~.!.b.9.{ V M k v v N [ ;.} >.9.2.| | | [ 6.8.| A.[.L././.M.m.A.,.9.:X;X_.[.A.8.9.x.m.W.W.A.m.n.A.Q._.F.x.7.7.e.5.p.5.G.H.5.a.a.O.v Q ] y.A.n.F.n./ ;.-.-.N N [ 3.9.V.i.y.Z.B.5.y.C.T.Z.F.V.e.| v k k W 7.^.~.F.F.a.2.#._._.b.{ Q =.l.6./.}.S.n.8.O./ n v | S.V.Z.K.*.o.o.o.#.[ 2.B.F.Z.y.5.] m m ;.x.2.F ] $.w.h.U.U.p.e.e.5.+...$.0.%.s..XR.w.` $.5.5.'.2XY.n.M.M.y.m./.2X/.B.C./.~._.x.` y N v r y m ] a.Y.4.V G B.F._.Q.~.~.{.|.'._._./.D././.&X5X|.F.} ' _ m N V D _ L | 4.| [ 9.e.e.B.B.F.~.S.S.9.{ V l l v v N } 2.;.2.7.,.| ,.,.} ;.| O.n./.C.y.y.8.8.6.| 2.}.}.L./.m.8.z.x.A.W.W.W.m.A.D.Q.[.S.e.7.7.e.5.i.&.I.J.5.a.a.| v V ] n.A.B.D.y.! -.| -.N k v ` 4.t.5.y.a.9.9.} N _ [ B N V V 2.e.9.i.d.4.L O.n.7.7.2.V._.`.].Y.i.%.C.d.C.%.O.| 6.n.n.A././.K.C.C.n.4.t.4.4.7.7.9.a.B.5.5.` m m ;.x.6.V ] $.w.h.R.U.w.r.e.w...@.%.w.$.s..X].5.] $.3.4.].1XY.n.n.n.n.n./.|.F.n.B.F.W.S.7._ k v ",
"v v v m P 9.i.5.5.5.{.2XXX}.~.Q.'.|._.L.L.L./././.[.:X5XoX9.7._ N _ ..| 6.| 7.x.7.2.8.B.B.9.B.V.S.B.F.S.S.>.v k [ 6.7.2.[ [ 8.A.9.-.x.z.[ 7./.F.S.D.n./._.D.n.n.6.>.6.8./.D.A.Q.W.W.A.A.Q.Q.c.A.D.6.2.A.Y.F.n.F.L.I.f.V.a.#.5.a.#.[ ..! L 2.V.F.B.6.7.>.8.x.2.8.a.y.s.C.a.F.L.F.C.y.a.B.e.3.2.] [ { ^ M 6.Q.Q._.`.B.` ^ 2.9.z.1.m.*X*X=XqXrX%XL.P.P.u.;.| | 7.a.5.+.` ` U L L X.Z.{.Z.Y.d.5.] ` _ [ x.9.[ _ +.s.G.G.p.T @.h.J.I.T. Xf.I. X.XR.U.G.s.5.5.F.].C.8.9.n.n.8.F.}.F.9.B._.&XXX`.e.D N b v b N _ 5.i.3.5.5.{.<X-X{.Q.~.'.}.'.K.K./././././.;X5XoX9.9._ m ^ | | 2.] 6.b.8.,.7.B.B.9.a.S.S.A.F.F.B.>.v k [ O.7.2.{ | 8.n.2.} 8.8.;.6.A.m.C.D.y.D.S.y.8.8.,.;.6.8.L.D.n./.F.Q.W.A.Q.Q.A.m.A.6.6.B.~.S.b.H.Y.Z.V.Z.B...5.a.#.[ ;.V L #.B.F.A.2.7.>.9.b.O.| 9.4.5.C.s.y.9.9.| M z M v z n [ 2.,.2.4.4.L D 6.A.A.x.9.F.V.B._.V.#.$.t.Z.K.a.4.2.A.n.n.C.D.L.D.M.y.y.8.2.| } 6.F.~.Z.F.C.%.] [ _ { x.7.[ _ ] V.G.G.p.@.@.f.J.G.U.R.g.I.T..X.XU.G.V.5.5.F.].C.4.8.y.n.9.B._.C.9.a.Q._.~.F.2.m N ",
"{ 7.>.] 5.9.9.V.Z.{.].|.<X<X_._._.F.D.K.'.;X}.D./.(._._./.L.9.,._ ` ` m ^ [ | ;.-.6.2.7.e.9.F._.S.{.F.B.2.` _ V 7.B.F.x.| >.9.z.6.{ | 2.;.| 8.F.D.y.n.m.D.n.8.,.2.z.y.S.'.S.n.D.D.n.6.z.Q.{.Q.A.W.6.[ 9.F.B.9.s.Z.Z.s.9.5.4.e.2.$.9.] ` O.5.Z.Z.9.2.9.B.B.F.A.y.9.y.a.F.s.B.Y.C.5.9.B.i.5.2.2...>.c.6.6.W.|.Q.S.F.9.[ L ! [ 6.z.N.=XwXwXwXqX}.P.C.P.L.n.1.6.7.2.` D P $.5.5.9.5.5.V.T.Y.5.] ` / =.>.x.x.9.7.V.Z.f.J.h.q.@.p.s.I.h.U.U. X X.X.X.X].U.w.5.#.5.a.S.n.1.4.[ ,.7.B._.`._.<X<X<XH.B.>.{ 7.>.] 5.7.y.Z.Z.`.].|.<X<X'.H._.L.D.F.'.;X}.W./.[.)././.L.9.O.[ ` [ V ^ [ | ;.| 6.2.7.y.9.F.Y.F._.F.B.2.` _ V 6.A.B.9.-.2.7.2.;._ ] } } | 2.A.D.n.y.M.n.n.8.2.,.8.n.C./.C.n.F.D.m.6.z.(.&X(.A.W.l.[ e.F.B.e.B.Z.Z.s.9.3.5.9.2.2.9.] ` O.5.F.Z.y.$.9.A.A.L.B.y.4.2.5.K.i.6.A.2.h B B h r h F 4.2.O.| O._ F 6.Q._._._._.V.5.9.F.V.3.9.y.&.a.Z.9.#.A.Q.S.m.n.C.A.m.C.n.n.y.9.7.9.9.B.Y.I.5.| ` _ [ ;.b.c.9.9.B.G.f.U.G.*.@.p.p.I.h.U.U. X X+X X X XU.w.5.+.7.B.S.y.8.6.] ;.8.y.L.F.F.{.{._.B.9.| ",
"~.F.e.3.9.#.] e.Y._.oXoX_.|.|.H.B.B.Z.F._.|.&X}.Q./.[.L./.|.'.9._ | ` M N ^ [ { ( [ ,.[ 2.W.|.'.L./.A.] ' L | #.] 2.x.3.9.7.[ _ 4.2._ [ | 2.4.6.4.4.,.8.9.y.n.C.9.2.6.9.4.,.4.B.n.n.8.A.[.~.A.x.W.{.F.Z._.S.B.B.a.C.B.9.b.S.4.+...3.] +.a.i.i.V.t.5.4.%.4.a.d.y.y.6.9.B.B.B.F.Z.4.4.i.i.#.9.B.H.S.3.} -.m.Q.D.x.B.B.[ V / [ 6.%XW.!.=X=X5X5X}.M.y.u.L.P.m.9.x.9.` ` 3.w.Z.F.Z.V.V.G.Z.Z.X.m _ | A.|./.8._ ` d.V.Z.I.U.G.f.i.i.*.g.U.U.U. X X$X XU.R.I.Z.T.Y.C.y.,.O.[ ' } #.8.B.Y.B.].0X@XY._.{.~.F.e.5.e.#.X.e.Y._.@XoX_.|.|.~.B.B.Z.L./.|.&X[.Q./.[.F._.}._.9._ ..` M N ^ ^ -./ [ ;.} 1.F.}._.F._.A.] ' L ] 2.' 2.9.2.7.9.[ _ 2.,.' ( | ,.8.2.2.8.4.4.8.9.n.C.y.2.4.9.2.,.2.m.A.x.7.S.{.[.A.A.Q.|.F.F.'.C.B.B.s.C.a.9.b.F.3. .+.5.` #.i.t.a.Z.5.5.&.4.%.d.a.y.9.#.2.a.a.9.A.| Q | Q h r r B ,.6.O._ ( ! -.m./.'.C.a.C.B.u.C.F.S.7.2.2.] e.V.5.5.9.B.A.B.A.9.9.D.D.D.D.C.A.B.B.C.C.s.a.X.V _ | A.{./.4._ ` f.Z.h.G.U.I.g.w.i.*.s.I.U.U. X X+X XT.R.I.Z.T.Y.C.y.,.O.} } } ,.7.a.F.y.Y.@X'.S.S.F.",
"~.{.S.w.3.3.#.2.Y.3XtX3X].]._.B.#.4.V.B.y./.|.(./.[._.S.K.'.|.a.D _ ..^ V [ { ;.;.} B M >._._.S.D.F.9.' [ | a.| v V _ D | | V V 9.n.2._ | ,.6.4.4.,.O.,.n.y.9.D.B.B N ] ] ` O.A.F._.'.{.[.Q.~.[.Q.Q.A.a.Y.Z.B.B.B.F.F.B.B.S.Z.V.$.+.+.%.5.5.s.d.&.5.i.i.d.d.a.B.#.L 2.b.F.Z.n.a.y.4.4.9.9.a.a._.|.A.4.[ z.A.A.A.Q.b._ V / 2.n./.W.!.%X*X[./.L.C.n.1.8.D.A.6.| 6.V.Z.F.Z.G.s.a.I.T.J.G.V.i.4.9.B.C.|.2XB.m m O.t.f.g.i.p.h.i.U S U &.g.f.g. X XU.U.T.I.I.@X'.2.V z B n _ 2.} n V [ ] L.|.F.F.~.~._.{.V.9.3.>.#.2.Y.2XtX3X].]._.B.#.4.V.B.y._.&X/._.}._.D.F.'.|.a.D L ..^ V [ { >.;.[ F x ,._.{.A.A.F.8.' ] | y.| v V _ V ] O.J [ 7.9.| _ } ,.4.2.,.4.,.,.y.y.8.S.n.V V ] | _ O.C.F.[.{.}.[.Q._._.Q./.A.9._.Z.n.B.S.F.V.A.b.F.H.V.$.+.#.%.&.5.a.d.%.5.i.i.i.a.i.y.] v _ 6.B.y.,.,.z.9.^ k v h v _ ] [ [ ( ( [ ;.n.P.y.4.C.].@X2X}._.B.6.{ ^ 5.Y.a.5.4.9.L._.S.8.n._.[./.m.m.m.B.F.K.C.B.a.e.4.9.B.C.|.2XC.G n #.5.f.f.5.s.G.i.U S U 0.f.g.h.U. XU.U.T.G.T.@X'.2.V v B n _ 2.] V V _ ] C.].Z.B.F.S.",
"H._.H.Z.5.| .. .V.@X3X3X|.B.4.| ] V.Y.F.F.F.}._._.|.A.| n ' C.y.` ..B.9.| | | | ,.,._ B 6.Q.F.m.W./.D.x.7.2.9.2.v v _ M O.#.] | $.4.2.#.2.;.} 4.m.4.4.D./.Y.B.B.9.' 4.] ` m _ 2.e.F.F.S.S.'.:X|.~.~.7.| B.F.S./._.A.B.9.>.{ e.J.a.5.w.5.y.C.d.9.5.5.%.#.4.y.d.4._ Q { x.n.a.a.A.A.4.4.9.5.V.H.H.Z.a.2.} 8.n.n.A.9.! V [ 9.n.W.(.M.N.%X/.C.C.K.C.n.8.z.M.c.>.| b.H.F.5.w.V.J.E.R.Z.s.I.`..X{._.Z.C.C.K.%.G J I U  .I m P %.+.d m  .3.f.I.U.U.U.h.G.f.s.a.5.5.5.| L V z v 2.| v r v ] e.i.s.e.a.B.H._.H.F.5.| #.] V.@X3X3X|.B.4...] B.Y.F.F.L.}./.Q.|.A.| n ] Z.y.` #.B.9.| ;.| ;.O.,.( B 2.Q.D.A.Q./.D.x.7.2.9.>.v v _ M | 2.O.#.2.4.4.O.2.O.| 6.u.4.9.C._.L.y.C.9.' 4.] P V L 2.9.F.F.S.F.[.:X|.Q._.9.] a.S.F.~._.B.B.z.;.] a.I.a.w.w.5.a.V.d.t.5.t.%.#.t.t.a.4.B q v O.O._ L ,.8._ z M g N ] / N v [ x.c.6.1.n.L.t.d.'.@X4X@XoX}.Q.A.>.! _ #.$.5.t.a.a./.{.D.m.A.D.D.D.D.S.L.L.B.w.Z.F.{.Y.F.C.B.C.L.%.G G U ]  .P m I %.+.d m ..3.s.U.h.U.U.h.h.f.a.a.5.5.4.| L / v v 2.2.m 0 n ] 9.9.e.9.7.a.",
"|.`.F.J.e.J V $.Y.].#X3X].F.s.B.Z._.Z.B.a.F._.|.Q.F./.4.n V 2.a.V.H.B.` V ] O.;.[ } / ( x.Q.A.n.m.D.Q.F.x.7.2._ v v M N O.O.#.f.V.V.'.B.} ' ' } 9.D.C.9.n.L.Z.,.O.7.9.i.6.G n 2.x.B.Q.'.F.A._.|.Q.B.9.L.].'.'./.F.2.2.A.9...e.Z.g.a.&.$.I L P #.4.i.5.4.t.y.8.| / / | | 2.8.B.Z.i.5.9.a.+.#.5.9.$.3.2.] ,.1.[ _ [ ! | B.}././.[.M.W.}.L.t.4.M.D.n.z.8.A.A.;.;.S.B.9.a.$.%.V.I.U.f.w.U._.H.5.3.9.%.o.i.i.5.t.t.t.#.m 0 a L ] L | w.e.G.U.U.U.f.w.I.R.V.f.E.L.B.9.| V u n ] 2.L v V ' P | 5.B.F._.|.`.H.J.e.J V $.Y.].#X2X|.Z.B.a.V.`.Z.V.a.F._.|._.A._.4.n V 2.y.V.F.B.` V ` #.;.} } / _ x.Q.D.m.n.A.W.Q.x.7.2._ v v M m O.#.#.d.f.C._.a.| } ] } 9.C.A.9.n.L.C.O.| 5.5.y.4.F n #.9.B.F.'.S.A.{.}.F.A.9.F.|.'._._.F.2.2.B.9.O.9.f.s.i.&.$.` L P #.5.i.5.4.t.u.4./ v z M v n M | 9.| ! / | V V _ _ / [ 9.A.W.M.M.K.P.t.C.'.2X2X2X6X|.F.F.z._ L V _ a.I.C.B.F.{.[.m.n.M././.D.S.C.F.s.5.B.H.Z.9.4.5.#.+.i.t.t.t.5.5.#.d 0 p P ] L ] 9.w.G.U.U. Xg.k.I.].Z.d.E.L.C.9.| V u n ] ,.L v m ` P ..4.a.V._.",
"_.`.#.5.H.9.5.Z.I.B.Z._.V.9.B.s.B.d.B.i.4.a.9._.F.F._.9.` ` ] e.F.Z...k b ` ;.2./ B F } x.,.;.m.D./.(.Q.7.;.] D v h ! 7.F.F.Z.I.T.Z.F.B.^ B ^ M / 8.9.} 9.B.B.a.y.a.5.5.` n G O.e.C./.F.} ' C.F.Q.A.S.'.'././.F.Z.4.B.F.S.5.t.i.s.f.5.V v v L 4.5.B._.B.7.-.~ B B / [ } | 2.5.9.5.5.t.s.w.3.#.+.] 5.C.s.a.2.V v N N ~ A./.{./.S.n.8.C.B.O.O.4.a.a.x.A.A.b.b.A.~.H.Z.t.%.4.Z.U.K.d.d.Z.Y.F...L | #.] 5.5.V.T.s.e.] ] ] J m L J ` ....$.f.j.p.f.s.g.Z.Z.I.OXOX'.a.$._ m _ 2.7.[ v a J ` G $.T.|.Z.`.`.#.5.H.9.5.Z.Y.s.Z.`.V.e.B.B.a.s.B.i.4.a.9.Y.F.F._.9.] ` { w.H.Z...k N [ #.#.( B F -.z.6.;.n.W.Q.).Q.7.;.] L v h ^ 7.F.F.Z.Y.Y.Z.C.B.^ V _ N / 7.9.| 9.B.B.y.i.y.9.5.` m F O.e.B.Y.F.} ' A.F.Q.V.S.'.}./.Q.Q.F.7.C.F.A.9.u.p.s.s.5.D a v _ 4.9.B.Y.B.7.| B h h h M B v n _ 2.| | 8.4.4.8.7.>.;.F.~.x.A.W.x.B.K.d.d.|.2X|.Y.oXOX_.}.).x.-.N ] V.Z.a.}._.[.}.W.Q.M.m.P.M.C.n.a.y.y.a.Z.C.#._ #.#.O.5.5.Z.U.V.w.| ] | G V G L ] ..X.3.s.f.s.s.f.d.f.Z.I.].oXT.a.2._ V L #.7.{ N a L ] J #.L.].Z.",
"H.s.L ..V.V.B.f.%.2.a.e.$.9.a.3.] ` %.y.9.] ` B.Y.L.` v N { ] #.a.T.H.V.F.S.7.| n u M } 7.-.[ n./.}.[.}.|.Q.6.2.2.V [ 9.B.L.Z.i.s.F.C.B.[ k h v F | 2.8.2.a.y.7.5.4.O.O.` V _ 4.2.7.L._.y.9.B.A.~._.'._._./._.F.B.4.S.F.B.4.#.@.&.p.5.] D v m 6.A.H.|.Q.-.! N B B B [ | #.2.4.4.9.y.a.5.3.5.e.a.5.d.K.i.2.` m h h l h Q 7.F.}.Q.z.1.9.9.%.4.5.4.2.,.9.A.x.l.>.b.Y.`.C.@.$.I.E.Y.d.f.i.I.Y.V.] P e.e.` I y.Y.Z.B.F._.F.4._ _ ] #.+.X.R U E J *.w.#.@.+.5.@X@XL.5.| _ | 5.6.e.2.] O.y.d.%.#.4.Z.Z.H.B.J ..V.V.V.f.%.2.a.9.3.5.a.3.| I 5.y.9.] ] C.Y.Q.` v v ` | >.e.`.H.B.F.Z.7.} n h z } 7.| [ n./.}.[.|.|.L.2.2.2.V [ 9.a.Y.C.i.d.Z.B.n.[ k h v ! -.,.7.2.y.9.4.5.4.O.O._ V _ 4.6.6.F._.y.9.B.B._._.{._._./._.F.B.6.C.F.B.2.@.%.&.p.&.] F v m 2.B.Q.|.Q.=.Q M j h e c ! / / F ,.B.n.y.B.Z.S.F.S.z.A.F.x.| _ ! ] 5.d.Z.K._.Z.y.L.2X0X5X;XQ.8.} 7.A.9.a.a.B.S.M.m.n.z.M.n.8.8.8.9.9.y.5.d.K.C.' P y.i.] I e.H.F.B.F._.F.4.` _ ` #.$.X.R U E K *.0.@.%.+.5.XXoXL.5.] ` | 5.4.n.2.] #.y.d.%.+.$.V.V.",
"i.5.w.5.3.] $.+.P I ] S G | 5.| ` ] a.V.] m d O.V.a._ v _ #.] D e.{.{.~.{.Q.7.| / z B -.6.8.x./.}.oX'./.L.Y.C.y.2.L v | | 9.Z.d.V.F.9.7.B h e k [ ;.| :.| | ..#._ G _ 9.O.[ _ _ _ } 9./.}.}.[.;X-X_.|.&X&X[.Q.D.y.u.C.5.4.4.5.i.0.w.5..._ m ] a.V.F.{.Q.-.~ B h M F / 4.5.t.5.4.t.i.3.3.3.V.`.F.e.a.f.w. .D r r M N M / 8.A.L._.9.>.2.] ' O.4.O.' V | V.7.7.>.` #.y.#._ ] Z.Y.H.V.K.Z.Z.Z.Y.9.| e.x._ ^ 5.H.{.~.&X<X:X/.e.9.5.w.3.$.X.P K d S  .@.#.o.Z.Y.V.a.' F ` 5.Z.F._.S.e.a.s.d.f.a.+.V.Z.i.5.w.5.3.] #.+.P I ] S D | 3...` ] a.V.] m s O.Z.e.L b _ #.X.D e.XX{.F.{.~.7.| ! M B -.6.7.x.Q.}.OX'./.F.Y.Z.y.3.^ v | ..9.V.s.V.V.9.6.W k h k _ -.| ;.| | #.| _ V _ 5.O._ ` F _ } 9./.|.}.[.<X&X{.{.|.|.[.Q.A.y.9.B.5.5.4.%.i.w.w.5.| _ m ] a.B.L.{.^.{ W c q q e u | n.y.} O.F.L.C.a.C.F._.Q.A.6.B v y v L _ ] +.a.'.5X|.u.a.OX9X9XoX/.[.[.c.-.} ' 4.B.F.L.1.) ;.1.} [ ,.,.4.4.9.a.C.d.C.4.O.9.y._ ` 3.H.{._.|.4X4XL.y.5.5.5.$.@. .P J d m  .+.#.O.K.Y.Z.a.` G ' 4.Z.F.F.F.9.i.d.i.f.i.o.C.F.",
"#.Z.Z.e.w.L _ D m v a v b [ 3.2.#.] i.e.o.m m L 2.2.] L | P L P H.-XXX`.{.Q.b.9.8.8.8.8.6.x.7.| ' y.'._.V.5.#.P N r v M ` 2.i.B.e.e.>.B r k h h h w B _ [ N F | | 4.a.7.4.O._ n V B V | C._.L./.'.|.F.Q.Q.F.x.A.C.C.C.9.4.@.@.f.a.$.] _ F V 4.Y.F.b.;.:.^ x c z F / ' ' O.O.5.t.w.5.....5.Z.H.V.5.@.5.+.P ] ` L { 7.Q.x.7.B.L._._.e.4.[ ` _ I m v v ..F.S.b.7.2.' L G v [ 8.6.9.a.C.4.U ` +.4.a.9.] [ ` [ ] 7.7.7.S.uXyX<XF.Z.V.w.q. .T S p t m ` #.a.a.a.3.$.F L ] | 4.B.a.7.F.K.i.t.f.E.a.y.| $.V.s.e.w.L _ L m v a v b _ 7.2.| ] a.i.] m m L 2.2.] L .._ P ^ H.-XXX'.{.F.x.x.9.6.7.6.6.x.8.| ' M.'.Y.F.4.#._ v y v v [ 2.i.B.e.9.>.m r h h h h r m [ [ N _ | O.4.a.9.4.O./ V V B ! O.A._.F._._.&XF.Q./.F.x.A.B.Z.C.t.4.@.@.V.a.$.] _ F V 4._.F.x.;.:.^ j g e v B F ' 4.2.4.n.4.4.2.| i.F._.F.7.! z w a v D _ #.#.4.Y.3X@XC.d.E.OX5X2X&X[.[.c.( / [ m.C.y.8./ Q :.) / _ | ( [ ' | 4.$.o.| #.5.9.,.' } [ | 7.7.7.S.tXiX@XL.Z.Z.w.$.@.T S p p m P #.y.s.B.3.#.L _ | O.4.B.a.9.F.F.a.t.f.Y.a.t.] ",
"i.Y.U.Y.C.| #.6.] V N l j ^ 6.7.] | 2.2.] ` _ _ #.3.3.] [ ] @.5.f.R.@X|.Y.C.B.A.A.8.z.<.8./.x.N F 4.C.E.U.3.{ _ M k k k ! { 2.3.3..._ v q / ! l N k ^ $.| L V | ..9.y.9.4.} M B M h h g ;.V.4.6.B.Y.B.B.C.C.F._._./.a.5.O.o.%.d.5.] ` | 9.n./.4XD.,.( ( ~ h h B [ | ` O.|  .%.5.$.i.e.e.r.e.V.Z.f.s.w. .J $.9.5...Z._.Z.C.K.D.L.Y.V.9.#.` J _ .._ m ^ x.A.B.7.` ` ` F n W ^ 6.b.Q.9.F a n ] n.F.<XV.| [ D 2.| _ ` ] 4.F.`.Z.H.H.&. .P X.3.5.] X.w.Z.e.w.a.w.5.5.| ..| 3.i.e.e.e.e.@.a.R.T.s.$.] e.G.T.Y.V.| #.2.] V M k h ! 6.7.| | 2.2.| _ L ` 2.2.3.] ` ] @.w.f.`.XXXXH.V.B.A.x.x.z.6.z.Q.x.B / 2.Z.`.H.5.{ ^ M l k l ! | #.6.3...` k q ^ ! l M k ^ 2.X.V L ] | 9.a.9.4.] B B z z h r | V.7.4.B.L.C.C.C.B.F._.'.F.a.5.o.o.%.f.5.` ` | 8.n.L.5XD.,.( ( ~ g e v ^ [ P | #.] y.B.4.a.9.3.e.V.F.S.>.V v k h { 7.[ 5.2.#.a.].@X'.C._.;X2X;X{.D.(.W.) W [ ( _ V / B B | [ ! ! [ _ [ } | ] I F ] 7.V.|.Z.| ] _ 2.| _ ` ' 2.Y._.Z.H.H.5.X.P  .3.5.X.] e.Z.e.w.s.5.5.3.{ ....3.a.e.e.e.e.@.a.T.U.s.$.` ",
"w.V.].F.i.O.#.a.9.A.z.^ l N 6.b._ / 6.[ [ L #.a.2.2.| V J $.f.s.a.Z.T.T.Z.B.B.9._ ~ 2.A.!./.m.A.y.} $.Y.`.].{.b.^ e w k { B.B...] ..] N [ [ [ ^ V l D { #.| L _ D _ 9.a.2.B M B x ! | _ _ 2.w.a.B._.L.F.B.a.F.Q.F.B.5.y.5.+.#.5.e.V.F.B._./././.8.m.A.1.[ v r v F ' ] #.a.5.e.e.5.5.+.$.3.w.r.f.a.w.a.r.a.a.5.2.4.B.B.7.a.L.L.Z.C.Z.Y.4. .] $.5...N ^ { B.|.4._ 5.4.' / ^ -.c.^.*Xb.| N V ' A._.~.9.7.7.,.a.4.` #.O.] J ` e.T.G.w.$.P ..e.V.V.9.Z.G.r.5.w.$.2.a.4.| ;.] ` ] 2.5.Y.].G.I.J.Z.p.w.w.V.].H.e...2.a.x.A.c.^ l N 6.b._ / 4.[ ` L #.e.2.2.| N D 3.s.s.r.Z.R.T.Z.B.B.9.[ ! <.A./.Q.M.A.9.] #.H.`.`.{.B.! w q h { B.B.#.] ] | M [ [ [ ^ D N N ..2.| L [ D _ 9.B.2.B N B x ! -._ _ 2.9.a.a.'.L.Z.B.n.F.Q.F.A.t.y.5.O.@.5.a.Z.Z.B._./././.6.m.A.1.[ z q y V ` L O.5.5.C.C.9.a.7.>.7.V.Z.V.] N M V _ ;.2.{ #.#.9.4.t.Y.'.Y.oX2X5X@X|.[.%X(.z.) [ W B V V v B -.| B B ! ^ | 7.2.| ` _ ] B.F.F.9.7.7.2.B.4.] O.#.] J ` e._.G.w.$.P ] e.V.V.e.Z.J.r.3.5.$.3.a.3.;.| ] ` ` 3.5.T.].G.J.G.G.e.w.",
"T.#XXXf.5.4.y.V.S.F.x.{ [ { { ^ v _ 7.2.| _ ] 7.2.>.{ ` ] i.f.G.h.J.`.T.F.s.7.9.x.x.A.Q.Q.A.B.C.4._ O.Z.a._.2XA.! j e j ;.F.7.m L 3.| } 6.{ _ ^ N N l N _ O.] ' J L 2.6.' v [ ;.;.2.B.e.2...9.Y.F.Y._.Y.L.F._.F.9.7.#.] t.a.a.&.5.Z.F.Y.'./.Q.F.z.D.!.W.A.7._ N V | #.5.e.5.5.$.$.5. .L ] 3.3.5.w.5.5.s.T.].Z.5.9.B.#./ _ O.y.a.d.Y.F.$.P L | 3.3...>.` 9.F.b.4.4.] V } 9.S.S.^.{.~.9.#._ m [ ..9.e.B.V.F.Y.9.#.$.a.F.4.` e.e.5.i.Z.a.] ` ..Z.Z.H.V.a.$.$.2.L m D ^ V N _ _ ..w.s.w.5.s.&.Z.T.Z.T.1X.XV.5.4.y.C.S.Q.9.{ [ { ] ! v _ 7.2.| _ | 7.3.| { ` ] i.f.G.G.J.R.`.H.B.7.9.B.n.x.Q.Q.A.B.D.6._ #.Z.a.`.<XB.! k g k ;.F.4.m L 5...| 7.] ^ ^ N l b N L | ] ] L V #.7.' v ~ ;.;.2.x.a.4...9.Y.L.Y./.Y.L.F.Y.F.9.6.O.] t.s.a.&.5.V.F._.{./.Q.D.8.W.W.W.A.7.^ v v ^ ] 3.a.t.4.2.2.,.D D 3.B.e...N N [ >.6.2._ _ | 2.] L G O.C.L.OX4X2X2X&X|./.(.m.-.Q N B m B v M ( ! V / -.{ =.8.2.2.2.] _ | #.9.9.B.B.F._.9.#.$.9.H.2.` w.e.w.i.Z.a.] ` #.V.Z.H.V.w.3.$.2.L m D ^ m N _ _ ..w.s.9.5.s.3.Z.T.Z.",
"`.Z.e.i.4.#.5.] ] | | 7.B.x.;.! v / 2.;.{ N m V V N ^ 2.V.I.I.G.G.G.Y.Z.Z.Z.9.4.B.B.A.B.B.F.F.9.F N | 9.F.].B.6.{ M h N S.F._ V 4.5.#.m V _ [ _ V r w y N } 2.#.[ ] | 7._ M N -.8.;.4.9.5.e.Y.|.|.}.a.5.B.B.a.7.| V v 0 U C.d.5.e.V._._._.[.F.Q.D.S.D.A.x.;._ B / | O.5.a.w.4.2.#.| _ m D $.e.w.s.r.w.Y.|.T.B.2.V V / 2.#.B L ] y.F.Z.F.i.#.4.a.e.e.| V 9.9.4.| _ [ ' ;.c.A.S.}.|.~.Z.9._ v v V { 7.w.S.'.F.a.V.a.5.B.3.>.e.e.e._..XY.Y.e.] s.'.H.V.5.4.$.#.` F N M m ^ ` { 2.3.3.3.3...U $.s.V.`.G.e.w.5.#.5.] ` ..| 6.A.x.;.V v L 2.| } N n J ! N ^ 3.Z.I.G.I.G.Z.T.V.Z.Z.y.4.B.S.B.B.C.C.F.5.F N | w.F.{.A.6.{ M e N F.F./ V 5.9.| N m [ { [ N k w w m [ 2.2.] ] | 3._ B N -.8.2.6.9.5.e.H.XX|.}.B.4.s.V.B.7.| V v 0 I C.B.4.a.B._._._.'.Q.F.D.D.D.A.m.;.V v v V ] ..5.4.` V _ _ v v ] 7.x.B.#._ ] #.| ;.| ,.} [ _ V F F %.d.Y.`.oX2X<X/.D.W.M.6.~ x M B n v F ,.-.! ( { { ;.| ' $.9.+.L L `  .2.4.Z._.Z.a.V.a.9.B.5.>.e.e.e.T.XXI.Y.e.] B.`.U.V.5.5.%.#.' L N M N [ ` ` ..5.3.$.3. .U $.s.Z.",
"5.$.e.e.] b V m a N ] 7.6.9.-.N ! 2.6.| _ 7 e r w v D 9.`.]. XI.J.V.a.e.V.F.I.Z.| _ a.F.Y.B.6.[ M V 2.F.R.|.F.,.B e g B [ | ,.n.C.5...m y N V v k k v B 2.9.B.9._ D | ` / ! M | 9.] V ` #.i.Y.T.C.9._ V $.5.6.3...N r 0 m o.$.Z._.Z.B.9.B._.S.F.A.9.9.9.;.! ! [ ] ;.2.5.i.9.e.B.] L ` v v 3.V.V.Z.Z.Z.Z.F.a.7.x.| _ N | 2.m m V #.a.C.Y.Z.9.B.Z.B.4.L v L ] [ ` #.6.2.2.z.9.W.&XoXF.y.Z.5.V y N X...e.5.9.3.5.a.a.a.e.5...3.b.J.T.'.B.H.`.4.5.9.2.i.9.5.5.O.| ` v M N ` >.3.a.G.`.`.Z.5.] S X.$.w.#.e.e.] n m v a N ] 7.7.8.;.N / 2.2.;.[ 7 q w w v D 9._. XR.J.J.Z.s.e.B.I.Y.V.] _ a.F.Y.B.6.[ n V 2.Y._.|.L.2.Q g e B ( | O.B.B.5.O.N r N B v v k v B 2.9.B.7.` V | { _ ~ N | 7.] G ` $.y.U._.V.9._ V %.w.3.7...N r 0 m ] $.Z.`.Z.a.9.F.H.F.F.A.x.9.9.;.B v B V _ { ] #.2.' L _ / ! v v _ >.2.[ _ [ F F _ ;.7.| [ ! _ _ _ ] ' #.C.L.'.|.L.L.D.D.<.~ M z n v u / u.u.D.l.-.[ =.| ] | 5.5.` m ` ] ..5.3.7.4.9.a.e.V.e.w...3.b.H._.`.s.F.`.5.2.9.2.9.y.5.5.#.O._ v M N ` ..3.B.F.`.`.Z.w.] D X.@.",
"w.s.Z.V.] m _ #.L V _ ` 2.2.| N v | y.F.A._ u r m [ V | w.Z.].U.R.U.e.V.T.|.].Y.i.2.y.`.C._ a a v [ 9.F.Z.L.B.~ x z c h ! | 4.y.2.L D v v v k r w k N [ 2.x.O._ _ m L 2.6._ v ! / [ V J @.i.V.V.#.` m D %.5.$.| D v N _ #._ G O.9.s.9.6.B.F.B.B.4.8.8.4.2.| -.2.2.,.3.3.3.5.a.9.6.7.] V V 3.b.G.U.a.@.4.s.Y._.{._.Q.x.[ _ v _ | #.4.B.Z.C.C.H.H.B.` v a a N V L ] >.b.x.Q.^.[._./.Z.i.t.$._ b N D ^ D N D ] e.w.3.e.s.5.7.$.#.2.Z.H.#.3.Z.9.] F b b ] 5.5.4.' B v ! B { B.B.6.e.`.XX.XG...w.s.5.5.s.Z.V.` m ] 2.L V _ ] ,.6.| M v } a.F.B._ v r V _ V | 9.Z.].I.R.I.e.s.T.|.`.H.i.2.t.'.B.[ a v v [ 9.F.C./.B./ h M j h / | 4.y.2.L G v v v y r r h B [ ,.x.2._ _ m L 2.2._ x V / [ V G @.i.f.V.$._ m S %.5.2..._ v N _ #._ G #.9.V.9.6.A.F.B.B.4.7.4.6.2._ [ | [ ^ _ D L ` _ [ ;.} } B k M V _ ` ` G m _ ] | ,.6.z.6._ B u F L _ O.t.Z.L._./.P.W.1.[ ! M z z r z } 8.n.W.<.^ [ 2.6.#.$.] P J V L ` L D _ #.9.e.5.e.b.7.5.3.>.$.Z.Y.#.4.Z.y.` L v m ] 4.5.4.' n v ! Q { A.B.2.e._..X].G.+.3.s.w.",
"5.w.Z.Z.9.3.9.B.2.| >.[ { 6.9.-.! ;.A.A.A.2.v a >.V.F.6.e.I.R.I.G.$...r.s.V.Z.B.y.i.Z.a.] v m V J ` 6.9.8.[ z r e c c _ 6.D.9.V w a a a a b a r k M ] 6.[ } B r ` ..#.2.4._ n v u V J L +.G.T.f.a.e.$.#.5.5.#.` N N L O.9.#.#.6.5.C.9.2.9.B.4.' F ] #.9.n.9.9.9.9.7.8.9.5.a.V.B.a.B.w.` ] 9.B.V.Z.t.+.] 9.F.F.|.&X}.~.7.} 2.B.Z.8.F _ #.y.K.L.E.C.` G V G V P | L ` >.e.F.^.{._.F.L.f.#.b b S D ^ D m m D L ..a.a.w.e.5.w.V.T.e.4.9.| 9.B.9.2..._ u n V _ _ _ ] ! ! [ ! >.x.6.7.Y.@X@XT.f.Z.e.w.w.w.Z.Z.9.4.9.e.2...;.[ | 8.z.;./ ;.A.A.A.2.v a >.S.Z.6.i.I. XI.G.$. .a.a.Z.Z.V.y.9.Z.B.` s n m D ` 2.9.4.' z e e z c _ 4.S.9.V 0 r s s s v a k y M } 6.} [ n r ` ..#.2.6._ n v u V J L #.K.R.f.a.a.#.+.5.5.#.` N v D ..9.#.O.4.5.B.i.#.9.a.4.[ V _ #.9.9.2.2.6.>._ V P #.2.| ;.} -.8.:.,.[ _ ] ] m V n V | O.} ;.z.9.2./ n ` 4.#.G G O.y.L._./.M.;.[ [ Q V B v z B ) 9.W.6.~ [ | #.#.#.P L L D D D D L L ` 2.a.s.w.e.w.5.a.T.e.7.7.#.9.y.9.>.>._ u m V _ / _ } B ! { ! ;.9.3.4.Y.2X@XT.V.Z.a.5.",
"..` e._.B.;.{ | B./.F.7.:.^ Q 8.A.S.F.A.9.y.C.C.B.{.F.V.Y.R.I.I.j.]  .V.V.5.@.$.| F ` ] G m _ ..#.#.e.F.9.V 7 h h r e ! ,.2.L r 0 a b D b _ _ L D ! 6.8.-.V v r N _ ..3.9.O.' n z u n ` 5.f.G.s.s.f.a.i.%. .] ] _ J N D #.9.L.Z.a.2.` D m #.#.V V V ' 9.B.7.8.9.,.-.2.4.5.e.Z.C.V.Z._.B.| 3.V.B.B.%.J L 6.}.4X}.}.&X&XQ.9.A.F.9.4.F m O.a.Z.Z.Z.a.%.#.] ] #.B.s.#.{ ` [ 9.W.S.S.F.T.a.P s s b ^ ..` ` ..s.e...#.w.3.....7.b.`.S.V.7.] B.F.8.] F m N n u a v N [ [ 2.m.x.>.b.'.XX3X<X`.V.V.e.$.....] e._.B.,.] | B.F.F.7.;.! ! 6.A.D.A.A.9.e.A.C.B.'.F.Z.Y.R.I.I.h.`  .V.s.w.#.$.] L ` ] G V ` O.#.2.i.Z.y.N e h g h g B ,.6./ r 0 s v V m _ _ D D ! 1.8.| / v r v P | 5.9.O.' m z y n ` 5.f.I.s.f.V.V.i.%.] ] ] _ D m D O.5.Z.Z.a.2._ V m ....m m m _ 4.y.3.| 2.| B v v ] #.,.1.,.8.M.x.,.6.9.b.| _ N n / 4.8.,.{ 2.A.B.6.4.4.4.#.F _ o.y.a.a.n.;.~ Q M B [ } ( F [ ,.6.z.,._ | ,.| O.] L L L ` X.] { #.a.e.#.$.w.5.....5.V.{.S.V.8.] B.L.4.] ^ m N v a u n F _ | 6.b.x.>.b.{.&X3X#X{.V.f.e.%.#.",
"` ] F.|.b...4.Z.F.|._.A.W.7.{ 8.A.A.Q.F.B.'.L.L.].Y.Z.L.I.R.U.OX$XT.I.G.i.+.X.] S r y k N ] 5.3.5.a.s.V.2.v r l x h q h B N q m { ` ` ` 2.2.2.2.] / O.4.[ V V n L #.$.t.5.5.5.2.[ V m ` a.s.w.$.i.s.f.a.P p D 5.a.] b v b ` b.e.4.I m V m ] #.O._ J ` 5.y.n.S.B.2.,.B.C.a.Z.'.C.S.|.'.C.O.2.C.'.L.f.4.4.8._.<X&X<X5X:X:XF.n.A.B.B.| _ #.B.L.L.L.B.5.d.a.&.5.d.V.e.3.2.] 2.x.A.A.C.Z.+.I L m b ..>...e.e.H.Y.X.D _ 3.3.2.#.#.L _ 3.;.V 3.~.S.b.` _ ! v B V V M ! ^ -.6.z./.|.}.}.<X@XZ.C.a.Z.4.L ` ' L.].B.| 5.F.H.{._.S.!.7.-.7.A.A.F.F.A.'._.K.]._.F.H.U.T.U.+X$XT.I.G.p.+.] ] D r y y N ] 4.3.4.a.s.C.2.v r M z h q r B M 9 m { X.[ ` 2.#.4.$.] _ | 8.} B F M _ #.$.i.5.4.u.2.} V m ` s.V.w.0.p.s.f.i.L p D 3.B.` b k k ` 9.9.4.F n n m ` +.] L L ' 4.5.5.u.5.] | | ..| 7.9.8.8.8.z.<.1.9.A.A.6.| F F ' 8.A.n.c.A././.n.9.y.9.2.[ ` #.y.9.,.,._ B ! Q M ! ( B / O.y.n.z.8.,.,.,.#.] O.o.P _ #.$.>.5.5.H.H.X.L ` 3.5.3.$..._ _ 8.| D 6.H.F.b.` _ ! v N B V N ! ^ ;.6.9.^.&X{.|.<X@XZ.C.a.Z.4.J ",
"F ] 5.Z.B.5.9.B.a.F.{._._.Q.W.^.D.9.A.A.F.F.C.Z.Y._.Y.V.d.f.0.h.U.T.G.a.5.L m L N 8 M b b _ 4.2.] #.5.9...B M h h q g h _ ] m [ 3.$.3.3.3.2.a.y.O.4.D.B.8.} [ | 3.a.Z.f.t.5.4.4.8...] 9.V.i.&.w.5.@.&.w.P s L ....^ b k k _ ] 4.Z.u.O.#.$.4.9.t.%.4.d.u.O.2.n.F.B.n.Z.d.5.C.Y.L.].oXy.` _ 4.B.Y.Z.V.Z.K.B.n._.:X:X|.4XqX5X&X_.F.F.S.A.a.y.s.d.Z.K.d.a.t.&.5.] #.Z.e...2.| | 7.9.5.a.+.L G L ] ..0.e.e.e.Z.S.b.w.3.V.J.s.w.] V L O.S.B.>.>.x.|.S.>.[ V _ 7.^ v M W { >.>.n.|.'.F.|.@XE.'.'.K.4.L L ' t.C.B.4.4.V.e.F.{._.~.W.Q.~.A.x.n.A.F.Z.C.F._.Y.Y.F.s.V.0.g.U.T.G.a.5.J m L N 8 N N m _ 9.#...+.%.9.O.V M g j q g z _ | V ` 3.#.3.3.4.2.a.y.O.6.C.B.6.} [ | 2.s.Z.V.t.5.4.4.7.;.] a.F.i.0.i.w.&.5.i.L f L ..3.` b y r D _ $.C.4.` o.] 3.9.%.#.4.L.a.] I 2.a.e.4.6.] 2.9.8.8.z.<.<.1.8.x.A.S.9.8.7.,.} } 8.M.F._.[._._._.C.B.7.2.#.4.5.4.| O.,.( / B B B B M ( } 1.C.y.2.| ,.4.#.' o.| ' X.3.7.e.w.5.Z.Z.B.5.3.V.H.V.w.] L V ..B.A.>.>.e.|.S.>.{ V _ 7.^ k M W =.>.>.b.|._.F.|.@X'.'.'.K.4.L ",
"2.G ] s.V.V.5.5.] 9.F.F.-X_.b.Q.S.6.9.F.Z.F.`.T.F.F.5.#.J T f.h.G.f.p. .] J b L >.` V >.{ D ..$.o.+.3.3.] ! v M M z [ ;.2.7.7.9.e.>.| 2.....9.s.5.y.n.8.O.F v V ` 3.a.f.t.#.] _ [ V _ #.a.i.%.$.@.#.w.5.2...3.5.w...` m D V [ 9.4._ O.5.5.y.a.y.y.a.C.s.4.a.V.B.C.y.u.t.O.#.F.'.'.'.%.G m V 2.F.Z.K.K.L.S.S.%XqX4X4XqX:XqXrX;X|._.W.B.Z.Z.K.f.C.a.&.t.t.t.y.#.2.V.e.| L / M V V _ a.y.L y S D D >.e.e.5.Z.H.H.`.XX#X0X8XH.a.4._ #.oXuX6Xb.3.{.&Xn.] V V { ! k k ^ >.F.A.F./.F.F.|.3X@X@X3X9XZ.#.%.F ] a.V.V.4.5.| 9.F.F.-X_.b.Q.F.7.x.F.C.K.`.T.Z.F.5...G T f.I.I.Z.p.+.] J v P ..[ V >.` m ..$.o.@.4.2.] ! v M M v _ :.2.9.7.7.9.>.| >.#.O.y.a.4.y.a.4.O.F v F [ $.s.f.5.#.] ' _ / _ 2.V.s.w.%.@.%.p.5.#...3.w.e.X.L m m v V 2.O.m ` 4.5.5.y.u.t.Z.K.Z.4.4.5.2.u.4.O.8.y.9.8.8.n.<.1.1.6.x.A.D.F.F.F.n.1.,.9.n.m.Q.{.{.;X;XL.F.A.2.O.4.5.y.9.4.| / / / [ ! z v / F ' 9.4.2.2.2.%.4.4.4.] ] ' [ 3.Z.7.2.B.Z.F.Y.|.XX8X3XH.a.6._ ..;XuX6XB.7.[.&Xb.] B ^ ] ! h k V >.!.S.C./.F.F.OX2X@X@X3X9XZ.#.",
"` n 4.L.Z.U.K.5.D L 4.Z.|.{.Q.~./.S.B./.L.9.5.4.5.5.] O.%.k.p.i.I.I.$.L m b D 4.S.S.b.2.N m ] 2.5.K.B...| 9.x.[ h M [ } 2.2.7.5.9.9...| ;.3.2.9.y.#.' _ n r y V D ` $.%.%.4.4.O.M g v _ | #. ...#.#.] _ ..L 2.a.e.e...2.3.| 4.B.y.O.| y.F.y.5.a.a.4.4.5.n.S.S.A.B.y.t.%.` _ 9._.'.L.y.` a M ;.8.9.K.].'.K.D.|.5X5XwX>X&X&X:X;X4X{.{._._.E.Y.a.5.%.O.t.t.%.#.%.$.3.V.9.#.F z r v O.%.O.+.N b l D w.S.a.#.r.~.{..X1X1X#XXXY.V.5.L [ B.<X<X-X[.-X-XS.7.,.| ] 9.;.^ { S.~.A._.F.Y.].|.@X@X].3X3X%.m ` n 5.Y.Z.U.F.5.V P 2.F.|.{.Q.~./.A.B./.Y.u.5.3.4.e.] +.%.0.i.k.I.Z.$.L m m D 4.S.B.b.6.N D | 2.5.Z.s.O.| 9.9.[ h x [ | ,.>.7.7.9.w.#...| 6.#.y.i.2.' [ v u r m D ] @.%.&.5.4.O.M r z _ #.$.#.@.%.@.] P #._ 3.V.e.e...#.3.` 2.7.4._ _ 4.Z.5.$.C.C.y.i.F.Z.C.5.9.u.O.4.y.n.8.1.8.1.v.<.| B [ 9.x.9.y.A.9.9.8.n.S.A.W.Q./.F.[.}.}.F.A.A.B.d.C.4.| _ [ | [ / B B v F F F F O.4.#.| #.4.a.a.#.J L ] b.S.e.#.2.F.Z.`.@X1XXXXXY.V.4.P _ B.<X<X-X~.-X-XA.8.>.| | 9.| ^ { !.~.S._.F.F.|.oX@X@X].3X3X#.G ",
"' | C.Z.I.I.p.] b m 3.S._.[.A.A.F._.Y.x.] m D ` #.9.w.3.e.s.i.i.a.`.Z.] G L ,.a.B.S.~.9._ V [ V.Y.F.5.s.{._.|.~.8./ n [ 6.8.8.] | 9.3.9.9.9.2.y.a.%.O.L m v N _ 4.5.] 5.a.5.2._ h h ! _ ] 6.2...] ] m _ D V _ ..4.2.] 2.7.C._._.F.9.a.L.'.a.2.a.a.4.4.| -.b.Q.A.4.4.t.4.} F 2.S.L.K.C.O.v v } 9.9.a.C.9.9.F.{.&X*X:X4X4X*X4X5X>X[.:X9X].d.4.#.` +.5.V.y.` a m ] 3.e.>._ m e z [ 9.9.| L a k N ` V.F.i.4.2.3.{.0XXX`.H..XI.$.] v N 9.F./.S.9.S._.Y.9.| F m | >.] >.S.S.{ 4.2.2.V.].@XXX|.|.Z.%._ ` | B.Z.I.G.a...m m 5.C.{._.S.B.F._._.y.] m D _ { e.w.5.i.g.i.i.a.T.Z.] V F ..B.V.F.~.9.[ S [ V.Y.H.5.B.{.~.|.[.x./ B ( 8.8.8.] | 9.3.9.9.y.2.y.a.4.] L B v N ` 5.3. .5.s.9.2._ r h ! _ #.4.5.$.+.] m D V N L ..5.3.] 2.2.B.Y./.C.O.4.K.].B.4.V.B.9.y.2.2.y.A.y.O.L O.O.1.1.;.:.<.z.1.;.! [ 8.l.z.n.A.7.4.m.D.m.A.Q.[.[./.[.|.}./.[.:XY.y.O.' L ` 4.,.[ v z B B n n u u ` ' G _ #.4.4.%.V m L 2.V.V.B.e.2.2.Y.<X]._.J.].H.@.| s m y.Q./.Z.9.S._._.9.| V V | O.| >.S.S.{ 4.2.2.V.|.@XXXXX].Z.2.[ ",
"' 4.B.T.+XT.f.4.S v { 7._.{.B.9.F.~.F.| y r b D 9.G.F.e.s.i.@.&.s.T._.F.n.C.A.9.A.V.B.B...] #.V.`.a.2.F.|.F.F._./.8.} / / | | _ ] ,.7.A.S.9.4.s.V.a.@.n N m V L e.3.J 4.f.9.| / v B N ' | ] J ^ ` O.[ v N N N m ] @.| _ 7.Y._.K.9.9.y.4.O.#.4.5.4.#.| | ] >.x.V.C.a.%.4.4.4.n.x.8.d.y.' n z ^ z.n.6.2.] [ 4.x.9.F.%X*X4XrXrXrX}.[.}.&X'.%.J J ] 2.4.5.5.L v 0 v ] >.] L v 9 v | F.a.` V m b V >.B.F.B.e.| ] V.XX3XZ.X.e.Z.5.$.' 2.n.F.F.2.m 2.S./.F.,._ _ { 2.b.S.~.-X{.5.` ` ..5.5.5.3.4.L.3XB.` 4.V.T.+XT.f.5.m a | 7.~.}.B.x.S.L.F.| y r v L w.H.S.e.s.t.%.%.s.T._.F.n.S.B.9.B.S.B.b.#.] ..V.{.a.#.F.|.F.F.~.Q.6.[ / / | | _ ] >.7.A.D.8.4.s.C.i.$.m n V V L e.3.S 4.B.7.;.! z N B } #...V m ` ..[ k y k v b | 4.#.L #.K.L.K.y.9.y.8.#.| 9.C.9.2.| _ ` O.2.9.,.| } ,.1.,.1.1.1.n.8.1.z.8.;.2.8.8.7.2.| 8.9.8.m.W.Q.{.>X4X;X[./.[.}._.5.L P O.O.,.,.' B z v z e 0 0 m I F G ' o.] ' ' L ] #.4.b.H.Z.V.2.] B.].<XF...a.Z.5.#.' 2.y.F.F.2.V 2.S._.A.#.[ _ ] 2.a.S.H.-X{.4.] ` ..5.5.3.3.3.H.1XV.",
"2.b.V.T..XI.J.e.D ^ e.S.!.{.Q.z.A.[.F.| N v v ` 3...3.e.a.5.i.s.Z.U.Y.[./.D.n.B.A.B.F.Z.F.5...2.6.2.Y.|.B.B._._.Q.W.m.,.( } | ,.2.2.8.y.y.} | %.5.+.G n y _ 2.3.5.$.X.P 6.B.2.B z B _ [ 9.2.V D ^ ` { [ [ ` V v _ ] | ] ' O.B.y.6.B.n.4.| _ ' ,.O.' #.7.2.7.9.n.D.y.I ' 9.S.n.} 1.a.%.G v M =.A.Q.y.9.2.L V V Q -.!.&X4X5X:X:X[././.}.T.%.L 2.V.a.O._ L a v y N ` [ _ _ / V [ >.7.9.] ` { { >.3.B.V.4.#.4.6._ 9.XX$.N 5.i.B.a.9.F.Z.L.'.C.9.F._._./.9.| 4.5.5.Z.{.{.XXY.V.5.X.] 3.#.` P L Z.6XF.#.b.B.T.R.I.J.e.D D 9.F.S.^.!.x.A._.Q.| N k k ` 3...$.e.a.5.s.a.K.Y./.'./.S.y.n.A.B.F.V.F.4.| >.2.2.Y.XXB.V._.^.Q.Q.n.1.( ' | ,.6.2.7.n.9.| ] %.&.@.m m y _ 2.4.9.#.X._ 4.A.2.N c B } | e.6.N v N { -.^ _ _ m b ] ] $.| ] 2.a.9.8.F.n.9.| V _ 2.| _ _ [ } 2.O._ 4.C.4.1.1.:.:.1.,.1.8.n.9.8.6.z.x.8.8.4._ _ [ [ ;.D.(.%X<X>X>X[.Q.Q./.L.5.` 2.B.u.| _ F v z z r u r a F L _ 2.O.L ' O.O.4.#.#.2.4.9.4.5.e.7.| a.].3.m 5.e.C.a.5.F.D.L.'.C.y.L._._.Y.9.| $.9.9.Z.{.`.XXY.V.5.] ] 4.#.P ` L Z.8XS.",
"9.C.i.5.Z.].].s...a.!.{.`.^.S.b.F.{.}.F.B.7.^ { 9.3.3.e.i.F.L.T.C.F._.C.m.A.A.A.F.F._.F.Z.5.4.V.s.B.].T.a.9.F././.n.n.m.y.8.2.,.2.9.n.x.1.} #.%.5.#.J n a ` 5.B.e.4.6.3...7.6.[ / F ' _ 6.#.B V N [ 6.9.8._ V ^ J [ 2.2.F _ 4.2.$.| 6.4.' / _ 2.7.,.2.a.B.B.A.n.a.O.G I 8.F.8.O.y.L.5.P V ;.A.~.Q.C.C.a.#.V { ;.^ [ m.%X(.A.Q./.8.A.4X_.i.y.`.].s.4.] V v r v N V ` 2.| m ! ] | [ _ [ _ ] 3.A.B.V.Z.#.n _ ] ^ { ] y ` e.B.a.a.i.F.Y.L.].|._.Z.C.C.'.T.4.4.i.5.5.a.H.S.G.e.] ` | X... .2...9.U.a.9.Z.a.5.K..X`.s...b.Q.}.{.~.S.A.Q.'.|.F.V.7.` { 9.3.2.B.i.F.T.I.V.F._.S.A.M.A.A.F.H._.F.Z.5.5.V.s.V.{.Y.e.9.~._./.n.n.M.y.8.2.,.2.9.x.9.1.] ,.4.5.#.J N p ] 4.a.i.5.2.2.#.6.2.[ / ! | ] B.3.N M M { b.S.B.[ _ [ m n ] %.L L 5.,.#.O.4.2.[ B B } ;.] O.[ | 7.,._ O.1.} ) 1.:.} :.<.1.8.u.8.8.8.8.8.x.y.u.2.[ | 2.[ ;.A.(.Q.A.Q.Q.8.n.|.L.5.4.L.L.a.4.O./ n z r r r n _ I G ` #.4.O.| O.] O.4.4.9.9.7.#.] ;.2.] ....m ` e.s.a.a.a.Z.Y./.].]./.C.C.C.'.Y.4.3.9.5.5.e.H.Z.H.e.] `  .X...] $...9.J.b.",
"] a.i.y.Y.'.V.%.` { 3.V.~._.~.e.a.J.H.F.F._.9.2.b.H._.F.Z.Z.'.L.C.a.A.y.B.A.D.}.'./.|.L.B.G.H.].s.p.G.Y.V.B.S.H.m.m.n.n.W.n.;.<.8.1.2.-.9.[ B _ 2.5.] ` L ' 2.a.9.7.a.B.n.6.[ _ [ [ ] V ..2._ B B ! | 9.6.[ ^ =.;.,.9.,._ ' 9.8.| [ 8.2.V V [ 6.9.B.A.F.A.F./.S.y.O.m ' y.n.4.2.L.].'.a.2.y.9.B.B.5.5.a.i.#.| $./ z ;.W.b.:.F.F.O.V ] i._.`._.i.#.#.] m l l b D { >.7.#.b s L L L J N _ D 3.H.S.Z.a.D r M -.6...m P 4.Z.e.7.s.V.V.Y.d.C.OX|.'._.y.B.XX|.V.e.a.G.G.e.` X.2.` b D P P ..7.e.G.G.%.] a.y.y.L.`.V.%.] { 3.V.H._.H.e.e.H.H.F._._.9.2.A.F._.F.V.F._.Y.C.a.A.y.n.B.D.}.'./.|.L.B.F.G.].s.i.Z.Y.V.a.F.Q.A.C.n.n.Q.n.;.8.8.1.,.;.8.{ B _ 2.5.] ` L ' 2.a.9.9.a.B.n.7._ / [ [ 2._ 2.9.} v B ! -.A.W.7.;.| ^ [ 3.| ` O.y.5./ / ,.;./ v j v [ O.2.O.| 2.,.B B B F } 1.,.:.;.,.z.n.D.8.8.1.2.8.8.4.y.y.4.O.4.} B ,.W.c.6.W.F.| ^ [ 5.Z.U.F.5.%.2.O._ ! B M v N | 5.#._ ] | #.6.| _ _ ` | 4.B.C.y.O./ / ,.8.6.G | 5.B.9.5.a.V.f.Y.d.C.OXOX'._.B.B.XX{.V.e.s.Z.H.e.` X...` b D P L ..e.e.Z.G.0.",
"*.%.u.] 4.C.$.D D S D X.Z.XXG.V.e.r.5.9._.-X'.Q._.Q.S.|._.F.C.C.C.A.y.y.y.L.L._.}.L.'.Y.e.a.a.p.w.a.].G.e.5.b.F.D.L.M.n.m.n.| _ | 1.[ B N v N | 2.#.#.5.o.F 6.V.F.F.B.B.F.2.n k v ^ [ _ | 7.2.,.;.2.:.,.6.;.[ { 7.9.8.] [ } 4.,.[ | | ! v V | 9.A.F.F.x.F.}._.F.C.O.` 8.D._.C.C.Y._.T.Z.4.C.F.e.5.5.5.i.5.#...| G v { z.c.c.~.b.| | a._.XXY.s.o.U ] ` F N ! ^ ..7.{ { V v D ] O.] _ G ] >.3.Z._.V..._ M _ A.W.9.9.a.Y.F.B.4.#.&.g.V.5.5.K.oX'./.A.9.{.0X`.e.w.e.V.$.P D ` P s y ` #.5.e.Z.G.s.&.@.%.t.| 4.C.2.J D S D X.Z.-XH.V.e.r.5.e._.|.'.Q._.F.F.|.Y.F.C.C.Z.A.y.y.n./.P.'.}.L.'.Y.i.s.p.a.i.f.].G.e.5.y.F.S.D.M.n.m.x.| ( | ,.[ B N v N | 2.#.#.5.O.G 6.V.F.Z.B.B.F.2.M h M ! _ ^ ..9.9.6.8.6.:.8.m.8.;.{ ] 2.6.#.O.] 4._ z B _ B M x M M _ P _ ] | n.1.x e e n 1.z.,.,.1.-.,.8.8.8.x.8.,.4.8.u.y.y.#.2.,._ V ] z.c.x.~.e.] | a.Y.].F.a.] ] #.O._ _ [ ! B _ | 2.] ` ` | 4.4.2.} 2.8.O.8.n.2._ [ [ } n.F.b.9.B.F.Z.B.3.#.%.f.s.5.4.L.oX_._.B.9.{.8X`.e.e.e.V.$.P D ] P s y P 3.3.e.Z.G.p.&.",
"o.O.' V V | | _ ` _ D ] b.F.e.Z.s.3.a.Y.].|.|.-X|._.{.'._.'.F.B.F.S.F.F.C.L.L._.].|.|.Z.a.p.s.%.@.g.d.&.+.e.F.B.8.n.n.8.8.8.| / [ ,._ N N _ | 4.9.3.3...n v | 2.B.F.B.B.A.[ v h v ! ^ | 6.' _ ;.| ,.7.2.^ ! [ ^ [ | [ _ L | >.] 2.B.B.| V [ B._./.F.B.n.F.(.Q.A.F.C.C.Q.F.Y.oX@XR.5.%.f.Z.a.9.3.5.C.Z.i.&.%.$._ m V ] [ ^ [ 9.b.B.V.T.OXU._.|.i.L P L B M M ! 6.2.^ k v _ #.7.9.4.O.O.V.V.3.3.7.#...V B W -.:.{ A.L.L.F.V.Z.a.5.d.d.d.y.C.'._.'.@X].F.H.e.` ` L P L | X.D S P L D ` X.e.G.V.e.e.O.O.] V V | | _ ` _ D { b.F.e.V.s.5.a.Y.{.|.|.-X|._.{.{.'._.F.B.S.Z.F.F.F.K.L._.|.OX|.C.9.i.s.@.@.f.g.&. .e.H.B.4.m.z.8.9.9.| _ [ ,./ N N _ ..4.9.3.2...n v | 2.B.F.e.A.B.{ v g h B / | 9.#.] ;.;.;.9.x.[ ^ ;.{ ! _ D ] _ ' ] F F 7.Q.;.N M [ 2.O.F F O.7.6.^ g e e z } 4.,.8.u.| | 6.6.8.9.8.8.8.C.D.y.y.5.2.] V _ ] [ ^ [ 9.x.B.V._.].L.Y.].t.I ] O.[ =.{ { { ] _ V V ' O.4.B.8.2.8.x.B.7.9.7.[ F F [ ^ >.8.;.A.F.F.S.a.V.a.t.a.f.d.y.C.Y.'.'.oX|.F.Y.e.] P K ` K ..] L S P F S ` ..e.G.G.s.w.",
"V V F / M M | 2.V b v ` e...#.e.s.$.#.Z._.F.S.F._.|.XX<X].]._.Y.Z.B.Y.Y.Y./.'.oX'._.C.d.%.a.i.] ] @.i.w.@.i.V.5.4.8.4.| O.O.O.2.| O.] | #.4.9.i.9.2.;.^ r z v B ] 2.9.2.] v v h e v V _ _ F / } / F / } [ _ { -._ F F _ | 2...2.9.n.B.#._ ] 2.B.B.4.2.8.F.Q./.{.|./._.|._.C.L.+X'.i.5.9.Z.F.V.9.Y.T.p.%.5.a.y.L v } 2.[ M { B.9.C.Y.f.Z.V.a.5.#.V a v B l N ^ ^ | >.{ { ..4.9.9.#.` | 4.9.e.5.2.2.] L [ ^ { :.[ ,.9.7.y.Y.<XT.y.i.d.d.#.,.F.|.|.;X|.|.Z.i.$.X.D d D #.#.w.5.3.] b b ^ ..w.w.X.D m V F / v M | 2.m b v ` w.>.#.e.B.$.+.Z._.F.S.F.'.|.XX@X].].'.Y.Z.A.L.Y.L.Y.'.oX'.Y.C.s.5.s.p.] U +.a.i.$.e.s.9.4.8.8.| | ;.| 2.| O.| o.#.4.5.y.9.2.>.^ r z v B | 2.x.2.] M k g q h ! } } [ } ' ^ ! [ 2.2.6.x.9._ M V N F o._ F | ,.7.;.B j ! 7.8._ G u.6.{ ! M v e e F 1.y.m.D.8.,.,.1.n.A.9.6.n.K.y.5.5.a.t._ B ] 2.} N { B.9.Z.Y.s.Z.V.i.4.2.L n / [ ^ =.;.{ | [ _ _ ,.,.6.9.9.8.9.9.n.B.y.7.4.O.| | [ ;.x.-.,.n.9.y.F.|.T.a.a.g.a.4.1.F.|.|.@X|.|.Z.i.2.] L b D #.#.5.5.4.o.N b D ..w.5.` L ",
"X.l h k h M 9.Q.{ y h ^ 6.4.6.4.#.` ..V._.b.| [ e.{.].{.Y.C.B.Z.V.B.H.V.C.Y.Y.].L.Z.Z.2.+.` J #.K.i.i.i.5.@.4.5.8.4.2.| >.2.3.9.#.| #.o.#.%.a.C.9.| ! h h h k V [ | O.2.| _ Q z r x B z e v _ O.] F F G _ ^ ^ [ ^ [ ] #.#...3.S.a.3.a.5.$.4.2.4.,.| 4.y.x.F.F.Q.[.(._.}.&XB.Y.@XOXg.i.B.H.|.{.F.Y.L.u.5.s.s.d.4.#.y.4.F m 3.Z.9.9.V.a.a.d.4.m v u 9 r w x W W { ] | 2.B.B.9.#.] m V #.a.H.H.~.H.e.,.| 2.>.6.:.! ,.m.z.n.L.oXoXY.K.C.%.| ,.y.Q.|.|.'.'.T.'.E.i.L b D X.3.Y.K.$.U D b l X.#.@.X.w.X.l h k h M 9.~.{ y h ^ 6.4.6.4.#.` ..V.Y.b.] ` e.{.XX{.H.Z.V.Z.B.B.F.V.s.Y.Y.].Y.Z.Z.%.O.U J +.I.i.i.i.&.%.#.5.8.4.2.] ,.2.3.9.#.#.#.] #.%.a.C.9.| ! h k w h V [ | | 2.| _ ~ c e z ! B u B O.9.8.[ V ! | ;.;.{ N r y a n F #.4.} _ ] } ^ [ ;.z.A.9.9.9.B ! ~ l h e F | 2.4.n.A.n.9.7.9.A.D.A.4.8.C.B.y.B.V.C.4.2.y.7.V m 6.Z.9.9.V.a.a.d.#.G n v v B W ~ { =.;.,.;.,.n.y.4.,.,.O.O.7.B.B.S.F.F.9.1.2.,.:.6.;.{ ,.x.z.9.L.OXoXY.Z.B.%.| O.n.L.'.|.'.'._.`.`.i.L a D X.3._.G.@.` S l S { 3.@.X.9.",
"7.7.{ k r B 2.~.b.S N N V ] | ] ] L #.Z.6.D ^ D 2.F.Y._.Y.s.5.V.F.Z.F.Z.a.Z.Y.].T.L.a.f.@.J @.i.g.f.g.p.+.%.4.2.2.2.} [ >.9.2.` S _ ] | L I O.] ;.2.^ M l k B { 7.2.2.B.n.8.1./ B B V F v v F O.O.F n v N [ | ;.{ ` ..r.a.5.5.5.2.2.i.5.5.#.5.5.$.2.4.2.S.[.Q.[.%X{.&X&X&XB.T.OXf.#.o.a.F.-X-X'.Y.C.i.y.F.C.d.C.F._.S.#.#.2.3.B.9.i.s.i.#.] m a u r w h W W ! | ;.;.9.9.4.O.G v r v 2._.{.-X_.{.'.n.S.9.e.7.B N z.[.}./.y.Z.E.L._.T.2.} } } 9.F.}.|.y.9.L.`.s.v 0 b ..Z.T.L.t.5.X.D b ..b.Z. X~.5.7.| k g V 2.~.b.S N V V ] | ] ] D 2.Z.3.! ^ ^ 2.Z.H._.Y.a.e.B.Z.Z.H.Z.d.V.Y.].T.F.a.V.#.J #.p.f.f.g.i.+.%.4.4.2.1.] [ 2.7.2.` m _ ] O.L I O.] >.2.^ M l j V { 5.2.#.A.x.x.6._ x c B Q z v _ 2.6.^ V V v D | V h v N N L ] #.O.G m N / ^ ;.8.9.,.2.C.} } 7.^ -.[ / O.9.2.O.n.Z.B.a.9.9.n.D.S.A.S.C.C.A.F.F.V.C.Z._.Z.O.#.3.4.B.9.w.s.i.#.| m v a v M ! =.=.-.>.2.1.9.9.8.O.[ _ _ | 4.C.F._.F._./.y.S.B.e.9.! Q c.(.[./.y.Z.Y.L.`.T.3.[ } } 8.L.|.}.9.5.Y._.a.a 8 b ..G.Y.Y.i.5...D s X.V.V.`.H.",
"w.F.b.^ N >.b.G.S.{ ^ [ V _ ^ { 4.] | Y.`.V.] N ..b.w.a.s.5.$.w.a.s.V.L.a.%.p.a.Y.@XI.u.#.d.I.f.a.i.t.&.o.o.G n ] 2.[ ! ] ;.^ b a V L G n L L n [ | ! N l N ;.A.Z.[ 5.y.6.,.6.-.( / ( / B V V L ' _ v 7 r m | 2.e.e.5.w.s.Z.r.X...a.I.Z.5.] %.i.5.%.] #.y.F.A.c.W.%X[.%X&X'.F.I.5.' ` _ [ b.|.|._.Y.5.8.S.L.C.a.C.L.L.a.#.] 2.2.4.s.i.] J G ^ 6.| z z Q ^ ;.:.;.O.8.9.B.8.| / F M v N >.~.3XXX_.<X@X|.Y.V.Z.3.-.6.W.:X2XY.'.Z.y.|.<X7.V v ;.F.W.Y.F.a.B.E.`.C.] L | a.Y.T.].Z.f.e.` m ` q.r.0...7.H.b.^ N >.b.S.S.{ ^ ` V ! _ { 4.` | Y.{.B.] N ..b.w.s.V.$.$.w.a.s.Z.Y.s.%.i.s.Y.@XY.5.$.f.I.f.d.0.t.&.+.] G n ' 2.[ ! ] ;.^ b a m L G n J L m ^ ;.! N M M ;.S.Z.' 5.y.6.6.1.-./ ~ / M c n n V ` { ^ m N | 7.3.| ..9.{ ] 4.9.#.L m V v ! { { [ V _ O.O.9.8.8.b.[ | 8.9.9.5.L._.B.4.2.2.| 8.F./.K.D.9.y.S.L.Z.a.d.L.L.y.#.] #.#.4.s.5.] L G _ 2.] B B [ -.6.8.>.2.4.9.n.8.O._ / / _ ' 7.F.'.F.V._.'._.F.s.B.3.;.6.W.;X2XL.'.Z.y.|.2X9.Q v ;.F.F._.F.a.s.'.E.Z.] L ] B.H.T.`.K.d.r.^ S ^ $.e.w...",
"e.V.7.V N 6.V.b.b.e.2.>.| 2.| ] G | 4.9.4.2.9.V.`.Z.3.w.a.3.+.] m ` i.f.i.&.w.U s.`.I.T.y.5.5.f.I.&.&.@.@.` 0 9 N ;.b.9.7.{ V D D V m V V V V ] { N N w j k N ;.4.#.] ,.| ;.,.:.:.n.x.1.O./ V / ` ' m 8 * y { 3.e.5.5.$.$.5.e.w.a.`.`.g.] U @.w.t.$.] #.B.B.6.{ c.!.Q.Q./._.9.y.| G L N y N 7.F.F.|./.S.F.F.L.C.y.5.t.9.] _ $.5.V.Z.5.V v B ;.b.,.F ,.n.W.7.>.2.2.#.9.6.| _ / [ _ V V ] V._.B.9._.{.C.f.s.s.i.2.;.D./.OXOX@XL.F.|.Y.7._ v ,.Q._.A.n.y.Y.]._.9.#.| #.9.9.s.V.5.t.s.] S D X.$.H.H.w.V.7.V N 3.V.b.b.9.3.>.| 6.{ | G | 5.5.3.2.e.B._.Z.3.5.a.3. .] m ] w.V.t.5.5.U s.].I.Y.y.%.5.V.f.i.&.@.@.I 0 9 B O.n.9.8.{ V D V D m V V V V } { V N w j k N ;.4.O.| ,.| -.,.:.,.z.z.1.1.B u v m ^ ] _ V ` 2.4.b.V.9...9.i.B.a.a.V.| / | [ [ -.[ O.2.B.F.|.4X{.S.b.a.C.C.5.5.B.9.9.8.;.| | 8.y.9.m.y.n.C.D.K.C.u.9.t.9.] P 4.7.V.G.5.L u F O.n.;._ >.A.Q.x.2.6.4.,.9.4.O.( B F ` | ' 4.F.F.2.6.F.L.y.s.a.s.e.2.,.A./.'.OX@XF.F.|.F.9.! M ;._./.B.n.y.Y.OX_.e.#.....9.e.V.V.5.i.e...D D X.@.G.J.",
"P X.` b v _ 3.$.7.S.~.b.9.7.2.x.{ _ 3.a.9.7.V.].XXV.3.w.&.p.5.@.P $.V.w...&.w.w.R.`.]..XV.%.f.].f.*.U @.t.L 9 r c -.W.}.z.{ ^ v m V N ^ N _ 2.>.] V M v a r v v / ] ' ' 2.<.<.6.n.W.n.8.n.,.V _ O.O._ u > z [ ..3.+.] 0.r.V.H.Y.`.`.I.&.U K U @.$.+.&.a.5.{ ] 6.A.=X^.A._._.,.B B n n F ' _ ,.n.8.Q.}.[.D.)._.D.K.M.u.%.] O.4.a.y.V.y.| ] _ 7.S.6.5.a.S.B.4.#.t.4.| 5.9.' ! V [ [ [ 3...3.V.7.] #.[ ] i.i.p.i.] } [ ;.2.Y.T.Z.B.V.b.^ N M :.6.>.2.] _ _ ..] _ L ^ { $.>...#.3.s.a.3.P S R X.@.@.P #.` l a ` 2.$.7.S.~.b.7.7.6.9.] [ 4.a.9.4.V.].@XV.3.5.%.p.5.$.P $.V.5.+.&.w.r.T.R.].+XB.5.s.].f.*.U +.t.L 9 u z -.Q.{.x.{ ! M m m V ^ B [ 2.2.{ ! M v a r v v _ ] ] } ,.,.<.<.c.!.x.m.L.,.n n _ { 7.i.2.2.5.6.b.b.3.;.9.5.Z.Z.V.] G O.D.9.7.x.6.] 9.Z.B.Q._.{.|.F.F.Y.Y.Z.4.9.B.9.| | 4.} _ } } u.A.C.m.F./.C.C.y.4.4.] #.4.i.e.Z.9.| { ^ 7.A.6.4.a.F.A.7.,.5.#.| 5.4.| V V [ | ;.>...5.V.9...4.| O.i.i.p.5.] } [ ;.2.Y.E.Z.B.V.b.^ N N ;.7.:.>.| [ ` | ] ` D D ..>.$.| +.2.s.V.3.P S D R @.@.",
"R S b S D ] ..3...e.J.~.b.6.>.6._ V | 5.5...3.V.T.f.+.+. .+.&.a.@.` #.+.$.p.s.s.f.s.s.L.Z.4.5.4.o.J I a.C.#.P O.2.L.}.[.7.Q N M B ! M h N -.6.x.A.| N V v w v m V ] 4.9.8.8.6.l.z.z.z.9.6.,.| | 5.5.] n u / [ ] 2...+.5.s.G.Z.J.J.V.s.5. .K P T $.0.5.r...` [ >.A.^.[.W.D.8./ z n v u } 9.2.O.1.1.x.(.(.W.%XOXL.K.t.%.4.y.Z.a.t.+.| 2.| ,.7.6.7.y.C.C.C.C.L.C.y.2._ 4.B.#.B B | _ V V _ 3.b.` b n 0 m f.G.G.U.|._.S.3._ O.w.L.Y._.J.7.V V { ^ l M V m v a a a v D { X.^ ` X.V.Y.s.w.r.R K Z Z T P S b S D  ...3...r.Y.~.b.2.2.6./ V ] 3.5.| 3.V.T.s.$. .+.+.%.s.+.] +.+.$.r.s.f.f.s.s.Y.Z.4.5.5.o.J U a.d.#._ | 1.Q.%X[.6.V M M Q ! M j N [ 2.x.a.| N m v w v m N ] 2.9.8.z.8.l.z.z.z.z.8.,._ V ` 2.4.B.a.a.i.a.B.V.$.#.5.s.C.s.t.#.4.i.F.4.| x.8.] s.F.2.3._.{.'.F.B.9.B.Z.C.y.9.2./ ' 4.O./ _ } ,.x.M.M././.C.M.t.%.4.y.C.y.i.#.] 3.] 2.z.6.8.a.B.C.B.e.Z.B.4.| L ,.y.#.B G | ] ` D _ 3.e...[ F v G V.G.G.T.|._.A.7.`  .5.Y.Y.'.H.5.N ! ^ ^ l N ^ N v v p a v ^ ....^ P #.V.U.s.r.w.R K S Z X.",
"@.P b b J ] ] X.S D >.~._.b.>.^ h v ..2...P ` #.e.V.5.$.+.p.f.5.X.L S P w.U.].T.f.w.%.s.Z.y.4.$.] d U %.5.i.Y.}./.>X}.n.[ M M M ^ ;.-.-.) ^ [ 2.#._ V b a v r a n m 2.n.A.A.2.-.-.-.2.,.2.7.y.s.C.4.' F _ ;.;.[ | ..+.5.a.a.a.Z.B.a.a.i.$.@.+.q.p.r.w.@...` N [ z.W.!.A.8.[ B h z M B 2.B.8.[ N ~ :.m.(.Q./.[.L.y.4.' _ #.L.d.L L ` V v N { -.>.9.F.T.F.Z._.Y.d.i.3.5.3.] F { } V v a _ 0.e.` y _ b.|.@X`.Z.U._.Y._.H.F.5.w.Z.H.H.V.X.m N ! ! k r V _ v r y m m N ^ D { 3.X.w.s.5.$.5.$.@.K Y q.@.P S s D ] ] X.S ^ >.H._.b.>.^ k v 2.2.O.P ` 2.s.V.%.$.@.i.f.5.X.L D P w.U.`.R.f.w.3.a.Z.y.4.$.` S U $.5.t.Y.'.F.:X}.x.[ M N M ^ | -.-.~ [ [ 6...` D v a v r a n m 2.B.D.A.6.-.-.:.6.6.8.m.A.a.9.2.#.5.i.4.4.#.4.B.5.5.C.4.#.t.5.] ] #.y.| V 2.B.#.| 4.5.B.].XX`.Z.5.3.] 2.i.6.2.[ V _ } [ / / [ ,.n.W.D.W./.D.y.#.' I 2.Y.a.P L ` V M V ^ | ;.9.F.Y.B.s.L.Z.y.5.| O.o.L m ` } _ V V ` 9.e...V { V.|.@XT.Z.Y.H.T.~.F.G.w.w.f.H.H.s...b V V ! k r V _ v r y m N b ^ N ` $.#.w.a.3.$.w.$.@.Y T q.",
"@.@. .b s m D m y b N $.H.A.A.V.` k m #.| L L ] 3.9.]  .@.$.w.f.Z.5.] ` 4.Z.J.J.f.J.L.L._.C.8.d.@.J +.5.Z.Z._.B.n.;X[.9.} / ! ! ;.z.A.x.6.:./ / m V m a m | L N N a _ n.S.x.:.[ :.;.;.,.4.t.5.y.4.L L _ } y.;.v N | #.5.w.w.+.#.d.Z.p.0.q.$.*.w.r.f.f.&.5.3.D { b.[.%X_.4.n r h e x _ C.F.y.1.| ( [ z.Q./.Q./.C.4.o.G G ' 4.#.L L P D v M ! >.z.B.Y.|.@XoXY.d.y.s.a.| #.] n ` ] N r v m #.r.S.3.w.1X6X#XU.Z.e...b.H._.J.a.@.&.s.$.S b y a l D D [ 6.3._ N m ` _ S X.7.b.Z.e.w.5.w.s.p.r.q.q.k.q.@.$. .s v b D S s b S >.H.S.A.A.` v m ..| P L ] 2.5.]  .%.$.w.V.Z.4.] ] 5.V.J.J.f.J.F.Y._.C.4.B.#.S +.5.f.L.'.B.n.|.{.z.[ ^ ! ! ;.c.b.c.<.6./ ! V V V a m | L N V u _ y.A.x.;.[ <.<.6.8.y.C.Y./.F.7.4.V.V.s.5.L ..Z.4.2.t.5.Y.T.s.2.O.5.K.L.F.n.7.| #.#.w.a.a._.V.a.a.B.4.9.4.] _ _ V | | _ | ;.} ,.x.Q./.W./.C.u.] G m ' 6.#.J L _ D N l ^ ,.7.B.F.].@X'.Y.C.t.5.4._ ` F n ' | V v m P 3.a.Z.3.e.-X6X@XJ.V.V...e.H.`.H.e.$.3.f.$.S b a k v D D [ 2.3.L N m ` ` S { 2.V.V.e.w.5.w.s.p.r.q.q.q.q.",
" .+...` m v m v s b y D >.6.A.B._ k v P L ] 2.a.a.9.%.5.s.5.5.Y.`.5.` ` 3.V.J.G.w.e.5.B.9.O.} 4.] ] a.U.H.Z.].Y.C._.n._ n / [ -.c.W.(.z.z.c.,._ V V V L 4.y.6.m r n F 9.9.<.;.6.:.] } | 4.y.t.%.] d F O.2.b.>.N _ #.4.9.9.#.m v 5.Z.w.+.@.&.w.q.p.p.G.s.s.w.3.9.!.^.A.2.[ v u m h _ 7.e.F.2.V ;.<.:.z.[.|.'.F.B.5.+.m ` 5.$.5.5.5.$.| ` [ 8.z.A.F.9.B.'.'.L.C.d.y.2.V | L N ^ >.] v ^ e.b.r.H.J.H.`.XXXXV.G.C.V.G.`.Z.e.3.X.U s.s.] J m v b D 2.B.V.9.| D m L L D q.S.H.V.G.s.P U  .$.q.q.g.h.p.X. . .` m s m a k s y ^ >.6.A.B.^ l v L F ` 4.i.i.9.$.9.a.5.5.U.T.5.{ X.3.Z.J.G.w.w.4.A.8.O.} 4... .s.J.U.Z.].L.Z._.B._ B / [ } c.W.!.c.z.c.,._ V V V L 4.y.6.m r v F u.y.1.:.6.;.;.-.2.9.F.'.K.B.9.;.e.B.#.O.2.B.F.a.u.#.L.3XY.H._.a.Z.F.H.-X}.9.| _ P 2.3.#.V.w.5.a.a.3.2.[ D _ [ [ ] { V _ | ,.7.b.Q.}._.F.B.4.o.m ` 4.$.3.5.5.+...[ [ 8.9.A.D.y.B._.'.K.C.y.5.O.B _ m N _ >.| N ] 9.s.a.G.J.H.`.XXXXV.Z.Z.V.F.`.G.e.3.X.U s.s.] J b s N _ ..B.V.9.] D m D D D $.S.G.s.G.e.` ] +.X.r.q.p.U.k.",
" . .$.2.] b s y k D ^ >.{ { 6.3.{ D a r m 2.9.4.#.a.].Y.#._ ` 5.e.5.D [ 5.`.`.G.s.e.5.[ V x B n P $.p.f.w.5.Z.T.T.Z.4._ n _ ] -.c.A.W.Q.W.Q.A.7.] V L 9.B.B.3._ _ ] _ n.A.6.z.A.x.8.2.#.5.t.t.5.2.L L 4.7.A.A.c.7.] J 3.i.5.#.#.i.a.w.%.w.w.i.s.j.h.h.f.V.e.B.F._.}.D.4.4.9.2.2.V ] e.9.B.6.! { | ;.9.x.F.F.L.Z.4.] I ` #.#.i.5.a.f.+.V D ;.9.A.x.[ _ [ O.y.K.L.L.5.#.| _ _ ;.8.x.B.G.Y.G.Z.r.G.Z.V.XX8X@XH.Z.Y.Z.r.X.X.$.3.` $.e.5.| K S D ..e.F.Z.5.] J N b S ^ ..r.r.e.V.5.P S S X.s.j.g.q.T T X.5.2.] v v y k S D >.{ { 2.3.] D s r V 2.9.7.#.a.].Y.@.I ] 2.b.w.V _ 5._.`.G.s.a.5._ V n B n L +.a.f.5.5.K.T._.Z.%./ B _ ] -.x.A.W.(.A.Q.D.7.} V L 7.B.B.3._ _ ] ` m.A.6.z.A.z.8.2.#.4.6.C.S.B.b.7.#.#.] ] 4.a.Z.4.' F ' F.<X_.F.|.oX@XF._.~.x.6.| #.3.#.+.e.H.s.a.V.#.V V { | | [ V [ ] _ | ;.6.x.x.A.F.Z.B.%.] P U #.#.w.w.s.s.#.S F ;.z.A.x.[ _ [ | y.C.K.C.4.| ] ` [ >.9.n.B.S.H.V.f.f.G.G.Z.XX8X@XH.F.U.Z.r.X.` #.5.` $.i.5. .L m D ..e.F.V.9.] _ b b S ^ ..b.r.e.V.r.P S S @.r.h.p.q.T ",
"T P ` 2.O.v u N ^ >.>.e.b.7.2.,.2.| _ _ 6.| _ ] 2.s.C.#.V a G _ ] ^ N v 3.Z.H.V.V.w.#.2.| [ [ V _ #.$.X.@.w.s.f.'.F.#.] ] 4.D.A.A.m.A.Q.!.Q.1.,.| N v P 9.'.B.| 4.4.4.D.A.A.b.W.Q.F.B.B.a.5.a.a.4.] _ ] 4.b.x.b.S.B.4...4.e.5.5.i.w.&.&.w.%.w.p.f.h.G.f.s.3.a.B.F.}.[.F.4.5.y.y.| #.2.9.B.A.B.{ M B [ >.2.5.i.5.%.a.Y.G.f.w.5.$.$.5.o.d v / n.m.,./ B B M ,.C.L.E.C.C.$.D m N ` 7.H.H.H.G.J.G.$.3.e.b.XX8X].Z.s.s.r. .` ..w.S.F.F.i.#.] D U e.a.V.H.V.D s y t b ^ r.G.H.V.s.r.r.T D w.r.j.p.@.R T P ] 2.,.v r v ^ >.>.e.e.7.2.2.2.] ] _ 2.| _ ] 2.B.C.#.V s V P ] ^ b v 2.Z.Z.V.V.w.$.2.| ) [ V L ..$. .+.r.s.C.'.Z.%.| ] 4.Z.m.A.m.A.Q./.Q.1.| | B v _ 9.'.B.| 4.4.4.D.W.n.n.Q.^.Q.A.b.V.5.a.S.B.6.,.| | ] | | O.2.5.F v v O.F.Q.|.|.].|._.}.-X{.b.5.e.#...i.H.`.a.#.5.7.2.| | | | ! ^ ,.A.9.>._ _ | ,.#.2.5.5.#.i.T.Z.f.i.5.$.$.w.] d n F x.n.,./ B B x ,.C.K.L.a.s.2.L V L { x.H.H.G.V.J.f.3.3.r.S.XX8X].F.a.s.r. .` ..e.Z.H.I.9.#.] J ` w.B.V.H.V.D a p y b ^ r.J.S.V.s.r.r.T D w.r.j.p.@.Y ",
"S b a _ [ v v ` w.7.^ { b.H.S.B.y.] 4.y.x._ v | 3.y.4.#.L s b a b N ^ ` 2.3.e.Z.V.3...2.,._ V N n _ ]  .U &.f.Z.I.d.%.2.O.O.y.4.:.8.c.x./.8.z M } B N [ 9.Y.'.B.y.B.y.y.A.A.z.9.A.B.V.F.B.a.B.7.4.7.3.6.| >.7.b.z.6...4.#.#.$.2.5.a.&.5.i.i.s.f.p.p.h.f.$.] B.F.Q./.'.m._ _ 5.9.#.#...9.F.F.6.V l V ! [ _ P ] 5.V.G.Y.J.G.Z.e.5.I.`.t.I F 4.n.l.,.! x j z | B.B.a.8.O.#.P a r V ` x.H.H..XXXXXG.G.J.H.V.H.].T.i.K P ] ] { 3.H.J.T.V.a.$.$.$.e.w.V.{.F.m y a y 0 S 3.b.H.Z.G.V.f.s.r.3.r.w.w.q.P S s y D [ v s ] e.7.^ { b.~.S.B.7.| 4.y.y._ v | 4.a.3.#.L v n a b N ^ ` 3.w.e.Z.V.3.| 2.,._ V V N `  . .U &.g.Z.E.a.%.#.O.O.y.4.:.z.z.n.Q.z.z B ] V m _ 9.Y.'.B.y.a.y.n.m.A.x.x.A.V.S._.H.L.Y.B.a.2.[ 6._ v v L V V F V V L | B.|.|.<X@XoX|.&X<X&XS.e.4.2.+.| $.5.3.` 4.a.B.B.| [ [ _ ! 9.B.B.;._ _ ! [ [ _ ] 5.a.Z.L.Y.Z.Z.a.5.H.R.t.I F 2.m.8.:.~ z c n O.m.C.s.8.O.#.` N l ^ { 9.F.H.R.#XXXZ.G.~.Z.s.G.].E.i.K P ] ] ....H.H.Y.Z.a.5.$.$.w.e.V.].F.m y a y t D $.b.J.G.Z.Z.Z.s.r.$.w.r.r.q.R ",
"] m b n n v J 3.y.| _ 4.L.F.B.y.5.9.2.,.y.O.] 4.O.| a.a.D v v s m S { 3.7.O.] ;.` >.9...| _ a _ ! m L ] $.w.V.J.Z.5.P m a n m v V 4.,.-.8.} N N _ N N ] ] 2.F.Y.K.F.9.4.n.B.n.A.6.4.9.9.7.5.9.S.F.A.9.4.| ,.8.c.>.M h ! } 2.9.s.f.a.5.i.5.w.s.s.f.I.g.a.4.9.W.(.W.P./.C.] | 4.9.#.3.+.3.B.B.7.1.>.{ 6.7.2.| ] 3.V.Z.B.s.I.T.C.B.Y.Y.a.o.O.m.W.z.n.1.( [ 9.9.4.` V ;.| ! [ / h h ] F.].'.].@X@X1X1X@X3X+XK.Z.K.f.#.] #.....] 3.V.F.a.a.d.s.i.#.2.Y.'.B.{ v v r 0 m 3.b.V.G.G.e.r.a.e.e.V.4.#.$.3.` b p N a v L 5.a.O.[ 7.L.F.C.a.8.9.O.4.n.| | 3.#...a.a.V a b v N S ` 3.4...] | ` >.7.....[ v D V m _ ] $.y.V.U.Z.w.L b a n m v N 8.,.| 8.| M N _ N N ` ] 2.G.Y.L.Z.y.4.n.n.A.A.9.7.B.F.Z.L.C.B.B.O.F | [ M h v y w s s b b ..B._.<XoXOX/.P.Q.W.Q.S.9.w.#.@.$.%.e.e.O.G L | y.| O.9.a.#.#.u.C.n.7.{ ;.6.7.| O.7.C.C.s.a.K.T.V.C.Y.I.a.| | m.D.z.n.1._ [ 9.9.5.] V ;.| ^ { [ v z ] ~.'._.'.].#X#X1X@X1XoXI.Z.K.C.#.] #.....] 3.V.F.a.y.s.s.i...3.~.'.B.{ v y 0 0 S 3.b.G.J.G.e.w.e.e.a.V.5.#.#.3.",
"] D S P ] P _ 6.a.s.V.a.O.#.a.5.O.O.O._ 2.2.2.a.O.P e.{.9.v N m b X.X.` _ V S N N >.3.2.5.] v F [ [ ;.4.y.w.9.V.e.3.#.` a n a a v _ | 4.8.,.! v v k r a m 5.Z.].'.a.5.7.O.n.y.| ' _ ] ] | | ,.2.9.B.n.| _ _ ~ [ ^ M g N [ | 5.i.f.V.i.B.B.9.5.a.p.5.i.C.9.2.x.Q.Q.D._.M.y.a.5.3.5.w.2.9.s.B.y.F.A.b.A.-X4X_.V.x.a.a.9.B.9.a.d.V.C.C.#.n / ,.[ / -.} ( 6.B.5.#._ _ { ;.[ N z h v ! 8.F.F.Y._.3X0X0X0X3X@XT.Z.I.'.V.5.#.2.| _ _ 2.y.a.4.i.9.3.` / 6.9.2.2.] k 0 r N 2.V.s.V.V.V.Z.w.` L | #.5.3.#.` S S L  .L L 4.C.V.Z.B.2.O.B.4.O.O.O./ 4.#.2.B...L a.{.9.a b b S ` X.` ` m ! N N >.2.3.3.] v ! [ [ | 4.i.5.e.V.e.3.$.` a s v u n _ ] 2.8.,.! v v v r v m 3.F.].`.a.9.8.2.B.y.| | | #.5.a.y.t.#.| 5.4.z.7.| m N b t y b S b ` b._.4X'.L.L.L._.&X}.~.9.e.f.5.#.w.a.2._ n n O.9.#.e.L.S.5.4.8.D.F.A.c.c.[.[.F.A.9.9.y.9.B.9.a.d.V.Z.B.%.n _ ,.} / -.=./ 6.B.4.O._ _ { ;.[ N v v M / 8.F.F.L._.2X6X0X0X1X#XU.Z.I.E.V.5.#.2.| _ _ 2.y.a.5.a.9.3.` ^ 2.9.2.2.| v 0 y N >.V.r.V.V.V.G.w.` L | 2.3.3.#.",
"D D D ` 4.$.#.5.C.a.O.[ V 2.F.6.2.5.4.' _ [ ` .._ N L Z.F.4...#...@.5...V a N _ X.7.5.3.#.| m B ] 9.n.B.B.B.#...3.3.` s 0 r r z u r V | | ! v q 7 8 k a ] s.H.Y.L.9.C.4.O.,.L u v v n [ #.' _ _ | 9.2.F N v M [ | B V [ 7.9.t.&.w.a.a.V.Z.B.y.i.5.%.%.$._ v B x./.(.D.n.y.2.V _ ..>.#.2.u.a.O.F ! { l.S.|.'.F.B.n.9.9.V.B.4.4.y.4.I P m n z e h h M _ B.V.B.e.V.S.| -.7._ r r V [ ' O.4.a.Z.`.].#X1X`.V.V.K.a.t.5.5.5.| [ v b ^ 2.i.a.y.#.D ` 3.3._ _ | ..m 0 s ` w.w.w.Z.s.r.3._ P ] N [ 4.] N S b J ] 5.2.| 5.Z.B.#._ N #.H.6.#.4.4.' F } { X.^ b L F.H.4...#...#.9...S k b ^ ] w.9.3.#.| m m } 9.n.B.B.B.$...3.3.` v 0 r r z u r ! | | V v q 7 7 y a ] s.H._.F.w.C.4.O.2.L a v v N #.B.i.#.G G 9.y.| ..` N b D ` D m S ` 9.Z.F.Y.'.L.OXoX;X5X&X{.F.s.g.5.@.%.$.P 0 v O.D.D.y.9.A.m.u.O.4.9.8.6.6.9.x.F.Q.F.9.5.9.y.F.n.4.%.a.4.I L n M v e r z M _ A.V.B.y.B.B.;.| 9._ h r ! ' ' #.6.a.B.{.].#X#XT.V.Z.Z.a.t.5.5.4.| _ v M ^ #.a.a.i.#.V ^ 5.3._ _ ] ..b 0 b ^ e.w.w.f.f.e.3.` _ ` N ] 2.] m ",
"s b _ | ' ] L | a.4.#._ | | O.#.2.' G B B >.| y v ] e.Z.F._.s.$.w.$.3. .J L L ..>...w.>.#.2.o.F [ x.F.F.a.5.#...e.G.B.] m v F ' V B | ' N r r r y r v X.Z.T.T.H.5.#.#.` | F v u w a n F #.,.2.O.| ] V J N v g N Q M ! 9./._.C.5.5.5.i.C.V.5.O.#.&.%.9.] v e M :.M./.L.C.1.( B ] [ ^ 2.B.a.B.4.O.{ ^ V { e.F.F.V.a.B.Q.F.F.Z.y.#.` F G V F r 7 e N _ B.F.B.e.F.7...x.9.x.2.! ! O.y.9.2.4.2.3.e.s.T.G.@.m J +.P d I 5.%.[ L N ! ^ ` 6.i.2.` { 7.7.[ b D ] ] ` m D #.3...e.G.Z.e.X.m | #.N a b b t t y ` $.....V ] a.9.| ! ] ] | 2.4.] V n B 4...y b ] e.Z.Y.`.s.%.w.@.5.X.D D D ......e.>.#.$.| F [ y.S.F.a.9.O...e.H.V.] m v F ' V B ] } B r r r y r v X.H.T.T.Y.9.#.#.` | F v r w u v ] 9.y.O.V V _ J O.4.+.S b ` X.X.X.` X.H.Z.a.7.Z.oX;X4X2X<X<X|.a.a.w.%.5.i.e.$.n V ' / [ 2.] | S.K.,.8.8.8.2.[ -.2.x.B.Z.B.9.B.F.S.F.Z.u.#.I L F G N r 7 h B [ x.F.B.i.F.7.>.x.8.n.2.Q ^ | y.9.#.5.$.5.e.s.Y.G.+.J L o.P d I 5.3.` _ B D ^ ] 4.9.3.] ] 7.7.[ N _ ] ] ` m S $.5...e.G.V.s.] b ....V u m b y ",
"m m D _ F _ V ] 2.2.4.3.2.] 2.4.| L m v v B v l _ 3.Z.9.i.s.5.J ] w.$.` D ..+.3.5.3.e.9.5.` _ [ 2.x.Q.B.O.#.O.` w.`..Xb.| ` V B _ O.6.#._ F _ L _ _ D G.XX.XT.a.` L m L G n v w q B _ [ ;.7.B.a.4...] ` V V v w h N V x.|._.2.O.3.9.9.9.4.4.#.` #.s.a.9.^ x W Q [ | } ;.F n M } m r ^ 2.y.B.4.1.8.[ n | B._.|._.b.9.A.B.B.F.9.#.o.o.H G S k r r B | b.S.b.r...b N 2.A.S.L.B.C.S.F.L.7.#.` ..5.a.G.f.$.` S L L f s L ' | | D v b N ` 3.7.e.9.>.^ D ^ _ _ ` L L ] $.w.e.s.V.Z.Y.w.X.9.e.2.v 7 0 r t y S ^ _ _ V ' 2.2.4.2.2.] 2.4.O.` n v v b v k ^ 3.G.b.e.V.3.S U w.$.P D ....3.5.$.e.9.4.] L ' ,.9.Q.C...2.+.` w.`.].V...` V m _ | 4.#._ L ' _ L _ P Z.@XXX`.a.` L m L V m v w 8 v F #.5.i.a.B.5. ... .$.w.+. .5.s.f.Z.w.X.F.`.`.T.'.<X5X&X|.<X<XF.$.5.I.Z.i.t.$.#.| ,.;.( c B [ ;.7.B.y.n.u.8.x.2.} 6.y.F.L.F.y.9.A.A.C.F.9.#.o.] G F V v w r V { b.V.V.e.X.N v 2.A.S.F.n.S.C.F.F.4.$.] | 5.e.J.f.$.U J J L s d L ` O.| V v b N ` 5.7.9.9.>.^ D ^ _ ` _ L L ] @.e.e.s.s.G.Y.5.X.9.9.#.v 0 0 r ",
"! L D B V M v N ! 2.9.6.O.L | ,.m n m a v w k D ..>...#._ _ 4.5. . . .L ` 3.5.a.V.V.5.2.%.#.#.y.n.9.9.$.#.@.$.#.....5.$.O.o.s n ' ' 4.9.2.] ' F D _ ` 3.e.a.w.] ` ] ` m n N B v V | ,.2.2.| #.6.4.#.] L ] | _ B [ | ! _ 7.2._ o.$.| _ O.F / | ` ` #.O.| | _ M x M B n z c z c / ^ M _ 7.a.u.O.4.Z.B.9.d.Z._.|._.S.9.9.B.B.9.] ` ] o.#.o.` m M v V [ 6.e.9.$.S y N 2.3.7.4.} 1.9.F.L.2._ _ ` $.5.a.f.w.$.a.w.+.d f G ] #.] m M b b m ` >.S.S.7.^ { 2.e.4.#.` J X.$.&.f.w.` $.Z.2.` 9.V.B.2.m 0 r k y y b V V m m L 4.B.3.#.F ] 2.G N G v N w w N ..>.....L _ 5.5.X. . .L ` $.r.e.V.V.5.#.2.#.2.9.B.x.9.2.$.+.3.$.X.3.w.$.#.O.n B ' } 4.9.#.} ' F ^ ` ` 3.i.s.w.] P ` P V n N v v V ;.4.7.y.9.C.T.s.$.$.$.+.$.p.a.r.w.s.Y.Z.V.T.].`.].'.{.@X-X_.B.B.B.2.V.I.t.5.V.s.7.4.,.[ 8.8.4.z.>.,.x.m.9.8.n.A.M.,.2.B.F._.F.B.9.9.Z.S.9.] ' o.+.@.| ` m N v V { 7.7.9...m a v 7.7.9.4.| ,.y.F./.2._ _ ] $.5.a.f.w.$.a.w.+.d a G ` #.] m N b v b ` >.S.S.7.^ [ 2.e.7.#.` J  .$.3.Z.5.` 3.V.3.` 9.V.V.#.N w r ",
"_ [ [ N r r r h L 4.5.#._ _ 4.6.] ` F v v v m { >.] V L 5.H.Y.F.a.#.{ ` ..e.a.B.e.V.i.#.5.i.a.a.y.y.2.O.] U $.` s U 3.U L ' L ' | ] 4.C.9.` D L [ L _ P L ` _ L ] [ D m L / [ ;.2.,.6.2.8.7.6.9.F.C.O.] _ ` ,.2.2.2.6.V v v F | / _ | 2.| V L | V a N _ ! ! ! / V B n n n e r ! -.| 2.9.4.C.K.K._.T.|.'.'._.].'.{.F.9.y.y.y.o.m s U 5.+.X.^ V L >.2.2.3...{ S l B | B.B.4.F _ 8.A.B.' v y b D #.r.p.w.h.G.s.i.+.S J 5.5.L N N N v M ^ { >.b.A.6.7.A.F.B.5...S L X.] 5.w.L ] $._ m L ] 4.| V m N k s S k a r w v [ B.9.] V V 5.9.4.O._ N b l l ^ ..{ N ^ 5.Y._.Y.C.$.] ` ..w.b.S.V.V.t.$.5.B.B.s.9.i.2.O.] o.$.] s ` w.] P ] L ' O.' 9.F.y.` V _ ] _ ` ` L P L _ ` _ N m L L ^ [ | -.,.| O.#.t.F.Y.s.i.$. . .$.p.3.+.a.V.Z.`.`.Z.s.H.H.'.<X|.B.V.XXF.3.e.t.U o.a.s.y.5.n./.,X&XD.A.7.B.A.8.8.A././.[._.A.B.F.F.F.Q.V.9.9.a.i.o.m d U %.#.X.^ V L ..2.2.3.] X.b N V | n.C.4.F _ 4.C.B.] v a a L $.a.r.w.h.G.s.i.#.J S 5.5.L N N N v N ^ { 2.b.S.6.7.B.V.B.4.#.G P X.` 3.w.L ` 2.P N _ | 4.| J m N ",
"V V / m r q v _ | 5.6.} O.4.9.#.4.4.4.O._ m V ] ..{ N N 3.`.Y.9.#.6.X.D ` $.5.B.e.3.a.5.5.4.4.a.5.4.` L L J ] +.X.3.$.L o.9.O.F _ 4.4.6.#.` _ _ _ ` ` ` V J G F ] ` V _ ] _ 2.7.-.<.z.6.9.x.B.Z.F.C.#.L L m G } 6.a.y.6./ F } ' / | 2.A.n.C.C.o.v v m B Q { 8.7.9.4.| B z r r M _ | 6.2.y./.L.].OXY.L.L.'.].|.].].F.2.5.d.K.i.5.U P ..3...D _ ] ] >.3.] ..3.$.N _ 4.7.| _ n L 7.9.B.y.V y s D ..$. .0.s.h.f.f.p.p.w.a.3.m b N v V D ^ { >.7.W.S.b.b.B.B.a.5.] D b L ] ] P ] ` v v v D N m N V _ y y y k w w a _ ] 4.2.N ' 4.s.4.y.a.a.9.^ b k [ >.` N N 4.XX].a.5.4.#.D ` 5.e.G.i.5.s.5.t.5.5.B.9.5.` G G S  .$.@.w.5.` O.t.#.F ` n.y.5.$.] ` _ { X.] ` V m N J ` _ V _ ] [ ;.6.[ [ 2.;.[ ` _ #.V.Z.F.f.w.$.X.] ` ..K.].`.].F.3.3.e.B.F.].'._.@XXXB.9.s.L.i.t.Z.F.F.S.M.}.%X_.y.A.A.F.6.1.D./.}.&X|.}./.F.~.Z.Z._.F.3.4.C.K.t.t.' I @.5...L _ ] ] >.7.| ..w.#.V L 4.7.| F V / 8.9.n.x.V r s D  .@.T w.s.h.f.s.p.p.w.i.5.m b N v N D _ { >.7.A.A.A.b.S.B.a.5.| m b P ]  .P ] ` b s v V N V v V D ",
"_ m ' F u 9 F [ ] O.#.' 5.n.8.2._ ` | 4.O.O.O.[ | >._ V ` a.Z.7.] O.O.| ' ' n G 2.i.a.a.i. . .$.5.P P L m s L ] ] X...] ` 2.' V ,./.;X'.C.9.2.O.| | ] 2.a.5.` | 4.2.O.2.O.| ,.,._ =.6.x.A.A.n.y.y.,./ n n G V F } y.F.Z.9.t.C.8.,.4.D./.m.B.u.` m n _ ! Q [ x.F.'.Y.B.#.V v v V _ ' _ 6.V.Z.`.Y.Y._.V.Z.L.|.|.Y.B.a.d.a.K.g.d.h.w. .3.+.` 3.#._ m _ ] ] ..$.9.2.| 7.2.B r u n ,.7.7.4.` V N D @.w.5.J.f.$.r.h.T.U.f.f.G.2.] ..' O.| I [ } | x.Q.Q.S.C.C.C.B.4._ a N ` 2.] L F m m m m a u w m N y k y y w w D ] { ] [ b 5.V.a.B.$.#.y.V.#.] ] ! _ ;.! v [ V._.9.] ..2.;.] ] F L 5.B.a.a.t.] +.5.5.D S S s a D X...3.$...' #._ F 4.&XrX2XF.B.9.2.2...` 2.s.4.L | 4.2.O.2.O.,.2.-.z B [ ,.| _ V m ..B.e.5.....` L V J 4.F._.y.] #.4.a.9.5.Z.Y._.R.i.#.#.$.9.B.Z._.|.2X%X&X%XD.m.9.C.S.n.,.8.m./.(.}.}.}./.F.F.V.a.B.a.d.Z.I.d.d.h.w.+.5.$.] $.#.L m [ ] ' O.2.5.2.| 4.6.m e u M 2.7.2.7.{ S b S $.e.5.G.V.q.r.G.U.U.g.f.G.5.] | ' | | _ _ ' } y.Q./.S.S.C.C.C.4.L v m ` 2.` _ J N m m N a r r v m ",
"L [ F G u 9 v m L O.4.O.O.4.2.| _ G ` O.` 4.C.8.| _ _ _ O.y.Z.L.C.B.8.O.| _ a n ` | ` _ ] #.5.w.a.r. .L m m S S ` $.e.5.] V _ 7.9.9.S._.Z.C._.'.C.B.4.5.i.4.O.a.a.7.2.6.2.,.2.,._ -.z.x.m.A.m.n.y.M.4._ F ' O.O.2.C.D.F.C.u.P.D.8.z.}.'.K.y.O.G v F O._ B _ 9.F._.|.Y.V.i.4.O.2.7.2.O.y.Y.Y.`.].Z.a.Z._.F._.H.V.s.Z.f.k.%.&.&.t.f.e.$.X.P _ G n G O.] ] ] | 3.2.O.2._ n F 2.,.| ^ N B | ` ^ { 3.a.G.G.r.q.p.h.U.h.p.p..XT.V.9.3.O.' ' F _ | >.x./.}.}._.D.C.s.| v k m ] ] #.#.G D _ | _ V m n a w s 8 y y r ^ 2.X...2.3.#.3.5.a.5.| 3.B.2.7.Q.9.| ! N N | B.L.'._.Q.x.2.2._ u a _ O.` J ` #.5.$.a.r.R m a y D K X.e.G.B.#.G F n.D.S.|.2X|.Y.XX2XY.a.5.3.B.4.O.B.B.8.2.4.1.2.7.;.M x ( -.[ [ _ / 2.B.V.7.b.e.{ m v D } 9.Z.5.' #.#.2.$.6.B.Z.H.G.9.#.#.#.O.#.9.V.F.}.}.[.).D.n.8.y./.'.F.y.A./././._.W.F./.F.x.a.Z.Y.Y.d.i.&.t.i.s.a.$.] ` _ G n D ..' o.] O.5.2.#.,._ n L 2.2.} ^ M N ..{ ^ { 3.s.G.G.r.q.r.J.U.h.p.s.].T.B.i.6.2.] } F [ O.;.n./.}.}./.S.C.B.| v a V ] ' #.O.G V [ | [ V m N a ",
"#.' ' _ F n ] 4.4.5.%.#.O.} ' F _ _ ` o.o.5.K.C.O.] | ] 2.4.#.y.a.O._ V V n v F F n a a D ] a.e.p.w.$.+.` ` P U ` +.5.5...] _ F _ L _ #.4.F._._._.L.B.] ] #.] B.L.O._ ' } [ / [ -.<.z.n.n.y.y.n.M.L.B.u.4.4.4.8.9.B.t.a.B.4.D.).P.Q.[.).y.4.4.G d | y.9.9.9.b.H.Z.V.3.4.d.L.Z.Z.Y.Z.y.4.Z.Y.9.B.C.Z.9.2.| ] 3.F._.Z.a.i.T %.&.*.r.H.Z.r.$.V a 0 F #.#._ ] O.4.2.| | ' ' 8.B.9.! h r V | { V b S ` w.w.X.q.r.h.h.g.p.p.a.5.e.9.#.2.4.4._ / 6.b.A.D./.}.}.D.C.C.,._ M v v V $.2.` #.4.6.y.i.4.4.2.X.S b w 8 N 3.V.V.5...w.e.4.3.$.#.| #.d.B.B._.{.,.[ _ m #.9.7.S.D.6.] _ V v u n n n 8 9 m ] w.w.w.q.@.#.P L ]  .X.s.J.s.4.| ` _ ' [ | 9.B.{.<X<X<X{.Z.{ ` #.` Z._.| _ _ _ / M B ~ B [ -.[ ,.1.O.2.B.F.x.B.b.2.V z V F ] A.a.6.4.| ` L | a.Z.e.5.5.a.9.y.5.2.9.A.A.F.Q.W.D.S.F./.F.|.'./.'.L.D.M.S.C.z.9.9.7.a._.|.T.Z.f.&.&.&.&.s.V.s.9.#.V a 0 m %.O.` ] #.5.2.| O.' } 8.B.9.V h h V { { D N m P 5.w.@.q.r.j.g.j.p.p.a.w.e.5.#.#.2.4._ _ 2.n.C.D./.}.}.D.C.A.,.! N M v G 2.#.` $.4.4.i.a.4.5.$.",
"4.O.O.O.o.#.a.C.C.y.#.#.#._ B m n ` 4.d.Z.L.Y.F.4.2.O.| ] L V ` ' _ | 4./ n B [ O._ V ^ | ] #.5.5.$.$.@.+.+.+.@. .+.$.4.| 6.8.L v V _ _ ] 4.C.C.9.O.| #.} | ` | ] v n m V V B / [ 2.A.B.M.8.4.M.C.L.oX}.L.n.y.L.n.4.u.a.u.y.C.P.>X4X%X'.C.y.t.] ] B.F.A.A.e.3.4.a.3.#.3.5.5.C.Z.a.Y.Y.d.i.9. .] 4.B.] _ v a m 2.F.I.f.p.*.*.*.&.w.3.3.V.B.] s 0 I 4.o.| 2.4.9.B.4.2.4.7._.|.F.[ k w h k V N k ` 3.e.3.w.@.R q.h.I.h.G.f.w.5.] v V ] ` V a 2.|.<X{._.(._.L.F.F.A.B.A.7.{ _ 5.9.#.9.3.$.5.6.a.C.a.>.D y y m 3.G.`.Y.w.] w.s.3.| ] L ] 5.L.].].|.}.9.9.7.[ L L V ] _ _ 6.9._ B n _ O.L v m ] ` #.w.q.@.$.$.@.+.*.w.w.p.f.f.5.a.a.m u V 2.2.2.B._.H.B.3...X.L L L | ` u u z v z r c z B ,.6.} ,.,.[ [ 9.~.S.b.7.6.[ _ n n / 6.2.} | ] _ v m $.a.5.] P +.$.#.B.L./.A.8.n.m.A.M.m.F.C.a.L.OX_.D.z.n.n.z.n.,.,.6.9.9.V.H.T.G.f.i.k.&.t.5.3.2.B.s.] n 0 _ 4.O.] 2.4.9.a.4.2.4.4._.}.L._ k w h k N N y ` 3.e.3.w.$.T q.h.h.h.I.s.5.5.] b m | ` V v 2.}.<X[._._./.L.L.D.C.B.A.4.' ` 4.9.$.5.4.3.3.2.a.C.y.",
"u.9.8.2.%.O.4.t.5.t.4.O.) n n ' #.u.C.d.B.Z.C.4.4.4.5.t.t.#.+.#.#.y.L.d.O.F B G | ,.O.4.5.| P  .&.&.%.&.@.%.&.&.5.%.@.4.4.O.O.O.O.] ` | a.2.2.,.| 2.6.4.] | | ] _ m v n F _ / ! ( | 8.8.4.y.C.C.S.D.OX4X}.K.C.L.F.F.F.C.d.L./.D.%X>X/.L._.Y.K.f.i.Z.L.9.' O.#.` ....X.{ 2.] #.8.4.y.K.V.i.+.#.5.a.Z.7._ a v _ 3.V.G.w.s.I.g.0.&.$.@.#.V.K.C.5.I O.%.#.4.5.5.3.X.] #.C.S.<X3X_.] u 0 7 w y k k _ 3.F.Y.U.s.X.w.I.s.w.i.h.G.j.^ s u a a a k ` S.Q.Q._._._.D.F./.}.|.*X_.F.5.C.s.3.4.5.3...G _ 4.a.s.e.5.$.Z.Z.p.H.J.w.w.a. .L L e.Z.C.V.Z.V.Y.H.2.9.B.F.Z.a.$.| $.2.A.|.F.#.| L _ 6.y.7.b.V.{ b D  .@.R @.%.q.p.h.h.g.w.f.I.f.5.4.5.2.3.b.].e.4.9.e.e.$.>.L _ ` P V v r u n n r r e h V { _ O.8.2.7.n.A.9.,._ ] ' O._ V F ] ] [ [ _ | #.] 9.e.#...O.] ] #.B.Q.Q.n.8.z.n.z.,.,.9.x.9.a.L.'.M.6.n.A.n.n.6.O.7.9.9.a.Z.Z.s.V.I.s.w.r.w...$.V.Z.C.4.I #.4.#.5.5.3.2...] 4.B.D.2X5X_.] a w 7 w y k k [ 3.Z._.U.r. .r.I.p.w.p.G.G.e.` y y y y b u [ B.Q.Q._._._.F.F.F.{.|.*X_.V.9.C.s.4.2.5.2.O.G L 4.s.",
"9.9.8.2.O.O.O.%.t.4.O.I H H F ] 4.y.C.B.B.B.a.4.%.y.y.5.%.5.4.i.C.C.L.C.O.L G F F #.2.y.y.#.] 5.i.t.*.+.] ] @.5.5.%.O.] o.` _ ' O.O.| 9.B.8.] _ _ | 2.] _ ] O.#.7.[ v V L _ ] | | 2.6.8.O.,.u.n.x.2.1.Q./.D.C././.A.d.C.K.C.P.M.).>X/./.P.Z.d.d.a.d.a.a.4.] +.L P ] ] ..2.] V m F O.u.d.a.%.5.4.9.B.B.i.` L ..B.F.b.w.V.R.U.g.g.r.G.T.{.Y.'.].t.%.u.Z.Y.5.#.] _ O.y.y.y.L./.A.,.N a 7 r k v N m _ 9.B.B.s.$.0.f.r.r.$.@.r.r.^ S a 0 y a k ^ H._._.'.'.F.C.C.B._.[.|.{.H.C.Y.F.2.] #.4.5.a.%.] a.Y.Y.V.B.a. .P f.].G.a.w. .P L  .5.V.Z.e.5.B.B._ ,.F.F.Y.y.5. .#.a.F.|.F.5.#._ G O.C.B.W.b.{ S X.$.w.@.0.*.+.@.f.I.j.p.f.f.a.a.d.B.7.3.~.|.4.| X...w.$.D m J ] O.9.V 9 a n z n B B N V { F n [ ,.9.n.A.A.9.' / _ ] #.` F [ 2.2.#.| #.2.| 6.....4.2.] ] 7.y.B.A.n.1.6.6.6.[ [ 2.B.C.B.F._.[.W.D.W.D.n.m.D.C.B.S.'.~.a.e.G.`.U.V.e.r.G.H.~.Z.Y.'.i.%.u.Z.Y.4.#.| _ ] u.a.y.F.F.A.#.N r 0 r k v m m _ 9.B.V.s.@.5.f.w.w.$.@.r.w.` S y t a l a _ F.'.Y.{.'.F.B.A.F._.{.|.|./.C.Y.F.2.] #.5.t.B.2.] y.",
",.[ / _ ,.y.y.t.%.O.O.o.] ] o.o.O.5.y.9.i.y.5.4.#.y.5.o.O.t.s.F.Z.y.d.y.5.#.] P I 4.5.a.a.y.t.a.5.%.+.o.o.#.t.y.#.' ' F _ ' ' } O.2.| #...| [ _ | ,.} v n V ' 2.5.2._ ] O.#.O.,.9.9.9.n.2.2.8.n.m.z.2.n././.n.Z./.F.B.K.L.y.1.[ 8.M.m.8.4.d.t.&.i.d.#.5.Y.G.a.%...5.e.3.[ _ / v u G 5.t.#.5.5.] #.5.B.V.X.2.e.>.7.e.3.w.r.f.h.f.J.R.].|.F.Z.Y.t.5.y.a.4.2.>.] P _ o.O.2.2.| _ ' V v v a b v N _ >.2.] ] ` m L *.s.f.r.r.@...^ D k y v L D >._.-X|._.F.F.B.V.C.F.'.&XoX].L.Y._.a.] #.3.4.%.4.a.i.2.w.a.s.a.r.w.w.w.p.s.R.s.X.L a a P ] e.G.Z.6.m V B.Z.%.] s.i.&.$.O.Z.i.5.t.5.5.9._._.Q.S.b.b.V.w.$.@.+.&.&.q.J.J.p.$.*.&.V.Y.B.9.B.V.e.3.$.#.e.H.H.w.s s s ` 5.e.2.L _ o.| _ } 3...] 2.' N F } O.,.9.D.C.,.] 2.u.Z.y.#.2.y.9.2.[ V D [ | [ D _ _ _ O.8.u.y.n.<.,.,.,.:.{ :.8.B.B.i.9././.[.(.!./.M.S.Q.A.S.F.B.e.B.a.B.Z.G.G.G.H.Y.`.H.B.Z.Y.y.5.y.a.7.3.2..._ ` o.O.2.6.] [ [ F v v a v v N _ ;.2.] ] ` m K &.s.f.s.e.$.X.` D b y y ^ D .._.-X|._.F.F.B.B.V.F.'.|.|.|.L.Y._.a.] #.4.5.4.%.a.a.",
"Q N M ~ ;.4.4.%.%.%.t.u.u.%.O.o.O.#.5.9.4.9.i.%.%.5.#.U O.4.a.C.C.y.n.V.5.%.I ` 4.4.#.4.4.t.5.&.5.&.+.t.&.%.4.a.t.F n F ' ' _ ] ,.2.,.] _ ! B ! [ } / B v n V ] O.| ] O.| | 2.8.9.7.8.9.n.A.m.n.8.x.x.m.m.P.D.C.C.'.L.L.Z.C.%.( ,.z.y._ ' a.i.g.g.K.Z.a.Y.T.d.f.j.Z.Z.B.7._ M v v _ u.4.| 5.2.] 5.y.C.V.e.Z.b.>.>.e.w.3.5.s.p.a.Z.U.T.T.5.5.Z.y.#.#.L V | ] V F m n m J O._ v m V b v D N m ] e.B.] | #.] L $.w.$.w.f.Z.X.{ $...D S S D ..G.`.XX<X{.F.F.a.B._.F.F.'._./.L.K.B.V.B.Z.$._ _ L B._.i.%.i.f.f.&.+.J f T a.R.s...D D P v t D 9.H.B.` ..a.3. .U P @.5.5.s.Y.Z.s.5.] 2.F.F.F.Q.A.S.9... .#. .5.s.s.s.s.$.P m X.$.B.Z.F.a.a.e...{ ^ N ` 5.Z.w.L d m m I #.P V _ L [ O.7.S.4.2.2.4.,.O.| / / [ ,.8.9.4.d.Y.F.y.O.$.a.B.7.' / ] [ _ m N V L [ | 2.8.n.8.,.| -.;.:.6.9.9.B.n.s.9.D.|.:X}.Q.Q.m.Q.Q.A.S.A.9.7.V.a.i.e.Z.V.V.G.U.H.H.u.y.K.d.4.$.` L ....L L V m m G O.` m m F N v L m m ] B.B.] | #.] L $.5.$.w.f.Z.X.] #...S S S D ..H.{.XX<X|.F.Z.a.Z._.S.Q._._.Y.Y.Z.B.Z.B.Z.#.L L _ y.T."
};
